/* XPM */
static char *small_Brick[] = {
/* columns rows colors chars-per-pixel */
"64 64 217 2 ",
"   c #2E251B",
".  c #342B1D",
"X  c #392A1E",
"o  c #312619",
"O  c #2F2920",
"+  c #362D23",
"@  c #3A2E23",
"#  c #3C3225",
"$  c #3E352A",
"%  c #3B342A",
"&  c #423325",
"*  c #42362A",
"=  c #443A2D",
"-  c #4B3B2B",
";  c #4A3927",
":  c #533E2A",
">  c #443D32",
",  c #4A3E31",
"<  c #4F402F",
"1  c #54412F",
"2  c #5C442E",
"3  c #4D4234",
"4  c #4C453A",
"5  c #4F483B",
"6  c #534434",
"7  c #5A4634",
"8  c #554936",
"9  c #5C4936",
"0  c #534739",
"q  c #554A3C",
"w  c #5B4C3B",
"e  c #5D513E",
"r  c #61462E",
"t  c #6B4A2F",
"y  c #634B35",
"u  c #6B4E35",
"i  c #634E3A",
"p  c #694F39",
"a  c #724F34",
"s  c #6F5037",
"d  c #65523E",
"f  c #6C533C",
"g  c #69563B",
"h  c #745236",
"j  c #7C5534",
"k  c #72553C",
"l  c #79573C",
"z  c #76593E",
"x  c #7B5A3D",
"c  c #544D42",
"v  c #5A4F41",
"b  c #5C5244",
"n  c #5A5449",
"m  c #5B554B",
"M  c #5E5A50",
"N  c #645443",
"B  c #6B5542",
"V  c #655845",
"C  c #6C5A45",
"Z  c #635749",
"A  c #6B5748",
"S  c #645A4B",
"D  c #6C5D4B",
"F  c #715742",
"G  c #745B44",
"H  c #7B5D44",
"J  c #735D4A",
"K  c #7A5F49",
"L  c #645D51",
"P  c #6A5F51",
"I  c #6D604D",
"U  c #766145",
"Y  c #7D6146",
"T  c #74624D",
"R  c #7C634B",
"E  c #7C694D",
"W  c #77684F",
"Q  c #6C6354",
"!  c #66625A",
"~  c #6C655A",
"^  c #6F695E",
"/  c #746553",
"(  c #7B6552",
")  c #766855",
"_  c #7C6A54",
"`  c #736759",
"'  c #746B5C",
"]  c #7B6D5B",
"[  c #786759",
"{  c #7D715D",
"}  c #6D6A62",
"|  c #696761",
" . c #746E62",
".. c #796F61",
"X. c #777065",
"o. c #7C7364",
"O. c #767168",
"+. c #7C756A",
"@. c #7E786D",
"#. c #7F7A70",
"$. c #835A38",
"%. c #87603F",
"&. c #825F42",
"*. c #836245",
"=. c #8A6444",
"-. c #83654B",
";. c #89674A",
":. c #846A4D",
">. c #8B6A4C",
",. c #8E6847",
"<. c #916846",
"1. c #936D4C",
"2. c #906745",
"3. c #8C714D",
"4. c #93764E",
"5. c #826750",
"6. c #836B53",
"7. c #8A6C53",
"8. c #826D5A",
"9. c #8A6F5A",
"0. c #936E51",
"q. c #857155",
"w. c #8B7255",
"e. c #8F7856",
"r. c #84725C",
"t. c #8B745C",
"y. c #8D795D",
"u. c #87785F",
"i. c #927354",
"p. c #957A54",
"a. c #9B7D55",
"s. c #92755A",
"d. c #9A7659",
"f. c #947C5D",
"g. c #9A7D5B",
"h. c #997555",
"j. c #A27C5D",
"k. c #837463",
"l. c #8B7562",
"z. c #857864",
"x. c #8C7B63",
"c. c #837768",
"v. c #837A6C",
"b. c #8B7D6B",
"n. c #917662",
"m. c #937C63",
"M. c #9B7D63",
"N. c #937D6A",
"B. c #9A7E6A",
"V. c #847D72",
"C. c #897F71",
"Z. c #907F72",
"A. c #A17D61",
"S. c #9C815C",
"D. c #9E8156",
"F. c #A2855C",
"G. c #A6895F",
"H. c #A88A5E",
"J. c #8D816C",
"K. c #8E8066",
"L. c #958164",
"P. c #9B8464",
"I. c #93836C",
"U. c #9B846B",
"Y. c #9C896D",
"T. c #868075",
"R. c #8B8374",
"E. c #8C8679",
"W. c #8E887C",
"Q. c #928573",
"!. c #9B8573",
"~. c #958974",
"^. c #9B8B73",
"/. c #938B7C",
"(. c #9B8E7C",
"). c #978678",
"_. c #9E917A",
"`. c #9F9075",
"'. c #A28563",
"]. c #A48964",
"[. c #AA8D64",
"{. c #A1826A",
"}. c #A48C6B",
"|. c #AA8E69",
" X c #A98465",
".X c #AE9066",
"XX c #AC926D",
"oX c #B3956A",
"OX c #B6976A",
"+X c #A18572",
"@X c #A28C73",
"#X c #A68E7A",
"$X c #A39275",
"%X c #AB9374",
"&X c #A4947B",
"*X c #AB9A7D",
"=X c #AB9879",
"-X c #B19771",
";X c #B49974",
":X c #B69C77",
">X c #BCA27F",
",X c #8F8A80",
"<X c #948D82",
"1X c #988F81",
"2X c #969086",
"3X c #9A9284",
"4X c #9A958A",
"5X c #9C968B",
"6X c #9F9A93",
"7X c #A19583",
"8X c #A79782",
"9X c #B19F82",
"0X c #A29D93",
"qX c #AFA085",
"wX c #B3A183",
"eX c #ABA497",
"rX c #C2A783",
/* pixels */
"6._ ] n.B.Z.C.c.O.1X~.c.&X~.1X@X{ { K.~.I.J.P.{ I.~.K.{ J.L.Y.*XD 7.9.l.N.8.l.B.B.+XZ.Z.[ c.k.l.T k.) o.J.Q.K.2XW.R.R.2X_.(.Q.!.",
"F G G ( 8.m | P L ` [ } v. .o.T I q.) K.K.q.K.y._ S.K.u.S.t.y.x.6 9.9.7.9.8.A B.B.B.+XB.n.l.l.9.c 8.c.C.Q.r.X.,X5X2X3XJ.R.b.8X#X",
"+ * & * 0   % & + = % # $ = S w w S.e.S.S.u.K.u.y.P.P.P.P.P.P.v.  B ( N.n.N.N N k.9.+XB.N.B.B.!.4  .c.v.' +.m v I ~ ' z.../ l.N.",
"* : 7 , 0 & X & = -   + @ = ( _ e K.S.S.S.S.S.S.P.P.P.XXP.}.].u.@ C ( ..l.B.c.O.c.Z.C.Q n.Z.Z.!.> T.0X5X2X2XT.T.@.^ ' ^ W.<X<X<X",
"y F B p F F B F F K N A K G 5.U.K.D.S.S.P.}.}.P.XXXX}..X].XXY.u.6 5._ ` k.l.c.C.l.c.Z.J ( ( l.8.+ L 2X4X2X2X0XeX3X/.k.c W.1X/.3X",
": B B : 7 & * : B Z [ J A B r.8XY.S.].P.[.XX;X-XoX;X-X-X;XXXK.J.0 r.x.[ ` b...A P m / ....[ l.A + + . & = V Q ' o.' z.S b b Z S ",
"K H K H 7.A ~ [ ` ` ` / J ( 9.$Xu.S.].S.e.S.%X:XoXXX:X;X$X$X$XK.w }.}.M.6.k.l.l.8.l.Z.l.l.l.N.N.4 ] { _ :.I @.V.W.<X/.3X/.o.V.2X",
"- 7 B N F N P P A N 7 N B i T 8.) L.S.L.^.L.W t.L._ W E ] { T { = R M.r.N.Z.n.+XB.B.N.[ 5.N.l.J 4 R.Y.L.K.z.J.W.E.E.W.0X1Xb.Q V.",
", i J ( K / Q P J K N L / A 8.#XK.S.t._ y.q.u.q.L.q.I ) ) W T _ Z T 9._ Q 8.8.8.l.l.l.[ Z.7X1X9.+ V./.E.1X1X2X1X .V././.1X5X/.v.",
"B B A F F F J &.;.7.A n A A / 8.q.}.}.S.].].].}.P.P.f.f.].P.P.K.N 9.k.N.s.7.n.N.B.A.M.S c.Z.B.9.  ~ /./.5X2X5X<Xk.v.T.<X6X0X6X5X",
"& v A B - & A 5.F J Z * - * P t.W S.S.].}.XX}.|.].P.f.S.XX|.}._ * ( c.l.n.t.M.n.n.n.(.' , c v w + # 4 5 M { R.~.qX{ D c n c Q Q ",
"F &.&.5.7.y &.;.&.7.5.K G 8.U.$XW S.S.S..XS.S..XXXP.Y.P.P.P.'.8., 9.B.n.N.k.l.U.n.l.N.N.5.8.8.8.> L #.@.v.v.] Q b.J.o.X.@.E.E.4X",
"F F F F H 7 G &.k u p H G D !.&XW }.;XS.P.].].}.}.L.^.&XI.x.y.( - K 9.A.!.C.9.n.#X@X!.n.l.Z.l.N.Q L R.v.V.R...o.v.~.E.X.v.1XE.<X",
"9 : 9 7 B v N F A 7 # A [ L Q $X{ ' +.{ J.~.z.z.~.K.r.x.x.r.y.9.= J ( l.M.!.N.l.N.!.^.k.l.N.b.l.Q r.I.U.K.U.I.I.b.] ] c.b.R.o.Q ",
"8.5.K A A D T J -.;.N ^ ^  .c.u.Q +.^ X.v.I.K.{ t.K.L.L.x.f.t.l., s.N.B.n.n.B.B.A.B.M._ n.N.B.N.3 w.%X}.>XrX;X%X$X] v.,X4X2XW.c.",
"q , 7 : 6 0 A 8.[ B 0 0 c b N C % 5 { ' q { Q.Q.I w 5 V _ / ) Z @ 7 q A N , 0 6 A N A N k.7Xl.A # & e N g E E :.q.D b q q m Q v ",
"Q Q } P ( R ) z.w.K J B [ 5.9.M.V G 5.8.K K G 8.9.J , i 5.A 8.9.5 M M ' ' M M ' n n Q { I Q K.{ 5 N 6.t.[ ( 8.8.[ k.8.[ P L ..l.",
"+.P P ..] l.W B K H K &.J -.0.M.i -.;.5.7.5.&.K -.d.l.A >.j.n.l.c O.{ +.{ +.+.+.K.V.@.o.T.T.#. .= 7.M.B.B.B.B.n.Z c.Z.Z.E.4X<X!.",
", v , c ) _ T * - f g 9 i C T t.G K K / 8.5.5.8.( B 9.( J 5.s.[ 4 +.{ E.+.X.+.+.T.T.T.J.T.R.R.+.4 9.m.6.A / l.9.....k.` Q } / P ",
"y F G A :.7.i.G g Y r.Y -.6.t.^.8._ R K 9.9.7.7.6.-.6.9.n.0.h.8.> { z. .K.{ J.T.E.W.T.W././.2Xo.> Q.Z.R.Z.` 5.+XB.B.+X+Xn.N.9.l.",
"y g G d d z z R q.6.P.t.L.I z.8XA A 5.5.9.l.;.5.9.9.7.9.d.j.>.x.e z.K.o.J.K.T.z.V.,X,XW.E.2X4XW.>  .c.l.Z.l.N l.l.B.l.K n.N.!.8.",
": 7 z B 1 3 b ! o.X.@.c.@.' v.&X( F &.5.B.N...+.o.o.]  .] k.k.R.L K.K.z.v.W.R.T.#.W.T.W./.R.R.T.4 P [ / ..Z.o.8.( / [ ` 8.N.c.N.",
"H G H *.6.S +.O.! ^ } }  .} V.] i ,.1.&.5.8.~ } } O.X.+. .} +.] e K.K.K.V.E.E.~.T.<X/.5X_./.W.V.c r.b.c.V.Z.Z.N.B.B.8.A A.B.B.B.",
"f f f.6.B q Q ~ ` m ! { J.' I D v s.K y p 8.P P Q Q S  .O.' ` l.{ { K.J.W.T.+.W.E././.qX5X4X/.R., A 8.Z.Z.c.l.Z.N.N.N.Z 8.8.R J ",
"-.H t.w.:.Y R K *.R r.R m.M.s.9.v l.R G K ( 7.-.;.5./ ` ( T 5.6.{ K./.J.+.#.E.T.@.R././._.4X4XR., P +.l.l.N.t.m.s.M.{.N.m.M.m.9.",
"s Y y.6.s u d B s Y ( p ( w.0.R : -.K -.K &.-.0.d.i.8.J G -.>.6.e K.J.+.{ X.T.2X/.K.~.I./.3X(.~.q s.k.5.9.!.l.M.s.A.{.A.d.s.M.0.",
"8 C u.y.G w d r.T ( r.b N N f A , R 9.6.9.t._ _ ( c.b.k.` ] b.^.) K.K.K.K.E.W./.3X/.R./._.~.&XI.0 B.N.8.8.N.l.l.8.6.T C ( K 5.9.",
",.*.*.*.Y ,.;.-.A ~ ^ O...( _ A k 1.,.=.=.s.'  .| O.@.v.+.O.o._.J.J.J.E.#.+.T.T.T.T.E.E./.Y.Y.K., A. X'.|.S.i.f.M.B.9.B M.j.M.d.",
"*.l u r s U ( s c n c L Z Z N 9 ; -.i.7.9.m.z.L L n n Q ` m Q &X_.#.@.T.V.+.+.T.@.@.T.J.U.~.Q.c.* 7.M.{.-X=X:X%X%X#XN.A 7.s.B.M.",
"R Y f < < D K F A J w b D Z f N q 6.8.7.7.5.6.R T J N G 7.-.>.N.I.@.O.O.@.#.+./.Q.u.+.@.R.R.E.b.> 8.n.f.B.!.l.b.Z.Z.N.n.8.l.b.l.",
"G =.e.t.f A N i N J ( W ] T R T y 7.,.,.-.6.-.9.0.1.9.H &.=.7.K m +.X.#.X.X.O.T.z.{ { o.} v.R.k.# 9.M.s.l.9./ B.l.l.9.9.l.c.c.l.",
"T I u.*X_ D u.r._ T t.J.=X!.G G & & : v I.[ 9 w B m.x.u.i N J T < 8 q { K.{ Q q r.r.r.R.{ J.] 0 + & 0 3 - i , , , ; , : c 7 v , ",
"`.Q.z.+.Q.Q o.J.~.&X^.^._.~.7X^.N K ' Q.t.9.J ( _ B.8.K 5.9.t.m.e ] { +.b.b.m.t...8.] k.k.8.k.l., } } ' ~ +.T.O.X.~ I m ' o.z.I.",
"] { ' Q { S ^ } ^ X.{ ' +. .o.q.7 J J R G G H F G -.D A H 5.&.H 4  .X. .O.z.5.6.w.x.8.T ( _ ] ( % O.@.c.@.^ X.+.@.O.T.I +.$X;X-X",
"3 5 b e _ 3 = = # 5 = > 3 5 / T * , N N B i _ ( 5.J ( J 9.( K -.. 5 b Q ' c.) / b.^.U.z.( _ b.( O c L P { ' v q b z.~.K._ W u.L.",
"i z U R U U u s s y 6 q b V _ 8.i -.5.&.&.( 5.;.;.K K K &.0.j.s.5 I { o.P ~ .. .[ o.v.U.d.s.9.5.$ o.+. .T.z.~ ' ' +.@.+.v.@.v.J.",
"z *.Y Y z x x ;.Y Y R I / D r.I.A H K &.( J F G ( K 5.9.7.>.-.w._ Z / {  .[ Q o.O. .k.^.U.M.M.l.$ ~ +.T.T.J.o.@.@.T.+.' E.~.#.v.",
"d z E w._ g I _ { ) k./ Q D Q.wXT R K _ t.] _ J T ` T ] b.9.R U.}.T T 9.l.(.c.~ ' O.o.o.o.o.+.b.0 3 5 C C { y.K.y.y.K.{ z.~.u.`.",
"k l z x p.{ ' Q ) Q ~ Q Q ) k.$X5.&.H G *.G A J K J x.J G G H 5.U.1.;.=.=.^.k.' ^  .^  . .O...k.D q.e.q.3.E e.].S.S..X:.E F.].:X",
"z z Y z -._ ~ Q U V w f R N ( U.9 i 6.9.t.I.t.x.8.G b.8.5.6.w.) I.%XP.M.w.z.J.@.v.v.b.k.R.R.C.t.8 :.L.S.u.q.E q.e.L.Y.Y.y.$XP.e.",
"G R -.T R ( T -.:.:.D Q v./ r.}.V A J K T l.6.>.a.h.-.>.=.-.9.P.k.o.' { ` ' { { { ] z.) _ 8.k.b.q w.m.p.M.s.p.y.q._ u.q.e.P.XXXX",
"f f k k k l G ,.1.<.R S ' D ) y.i F g k F G p K <.1.1.1.;.,.=.I.r.` o.{ ' z.) k.X.r.L.{ ] _ l.] 0 -.9.w.g.g.p.e.P.P.S.G.e.e.].[.",
"8 D J R 9 ; f f G U I = q w I L.T J ( R R R y R -.:._ 6.G w.T m.Y.y.I.Y.y.x.t.L.x.u.^.J.T r.D r.q _ z.x.I.y.K._.I.z.I.L.S.W g g ",
"I D C -.i.C Y :.3.3.>.Y U 6.P.$XR 2.=.2.=.=.=.,.%.=.6.7.,.&.-.I.I S.p.D.S.x.f.[.].S.S.S.p.f.y.p.4 n R.o.o.o.o.R.K.' ] z.K.[.S.].",
"d z z s w.U :.,.Y Y =.-.W I ~.*XT 1.Y H *.i.g.i.*.6.U.s.m.H U u.I :.3.S.L.J.t.L.XX%X}.P.P.].s.7._ Q o.c.K.{ I O.v.I.k.z.K.P.L.P.",
"s G T s R T :.:.:.:.W r.] I I $XR H H G T r.R E K J R T 6.5.:.:.V :.9.i.7.y.s.5.q.L.Y.b.x.L.q.9.D m.L.L.Y.|.L.S.L.x.z.l.t.{ r.K.",
":.*.H l i f z G =.=._ ` ) ` r.K.z ,.=.&.R f.H x H G G k l x Y z ; ,.t.t.;.>.>.i.1.0.s.9.=.>.i.w.3 e.XX[.oXOXOXXX.XE P ) [ ( Y R ",
"e d W 6._ 6.q.y.W g W I x.{ T W = D }.U.s.@X$XU.x.x._ 8.L.J g 8 # ; 8 V w : 8 D f.x._ A r.Y.P.q.$ < d d g U U U :._ 0 b Z i i d ",
"x.z.Y.'.Y.`.*X$XU.7X*XI.*X$X&XU.Q { J.`.~.K.`.`.&XP.L.K._.Y.}.I., G H R -.A K >.7.9.6.l.] U.^.Y.e W I ) { { { J.v.T.@.@.v.v.u.e.",
"Y x H =.t.D ' R Y R / ` L.6.w.( e 3.W K.e.3.p.y.y.D.e.t.S.S.G.Y.- ;.=.=.*.9.l <.=.,.,.&.&.&.*.=.I E W ] +.I Q { o.) { W W r.7.%.",
"1 1 i B R D v G s z V Z A p ] Z 8 D.3.4.e.3.S.S.S.].S.S.S.D.D.K.@ f Y t.t.N.N p 6.9.P.{.f.d.s.U.b { ] +.o.{ b q m I I { ] _ :.-.",
": y s z K N f F R H Y k i y w.t.I D.3.3.4.p.p.S.S.H.S.[.S.G.S.u.# k R 8.6.h.6./ _ q.8._ 0.s.h.M.8 ^ J.+.' +.^  .{ ~ Q I o.o.c.o.",
"s x l l l u x l x j h H %.l =.$XS.D.S.3.D.S.G.S..X.XH.[.G.G.S.{ 6 *.G G R -.( _ T 6.r.D z =.,.;.# n +.+.{ } @._.R.X.{ 5 Q { { ' ",
"f z s G G 9 6 p T 6.1 R R K f.wX}.D.D.D.D.G..X.X.XoX.X.XOX[.S.I.9 6.r._ _ z._ B G A T 8.r.R w.J # # < 8 8 I W ] { ' L.I V C I ) ",
"l l h H K R J G z R C H H z 0.=XK.D.F.D.3.e..XOX[..XOXoXXX}.P.K.g H.a.w.Y u.>.=.H K :.;.*.K &.>.< { e.3.3.T ) ~ ' c.J.K.K.t.Q ] ",
"2 r g g t y k G s z i u h l -.9.T D.S.Y.}.e.E S.S.e.e.e.{ q._ K.< :.a.i.w.N.f.j.d.i.s.K H -.0.Y 4 J.].P.K.q.{  .' ' ^ J.+.u.V Q ",
"1 p R G i 6 G 8.6.R J 6 i y r.U.E S.q.q.S.K.q.e.S.q.T W E W E { V f R R C T 9.t.9.6.m.8.x.^.#Xs.+ o.K.z.K.v.J.Q.] { +.u.{ K.o.' ",
"h u k l z d k l s s s s k s -.x.q.H.[.D.F.D.S.G.S.F.4.p.S.a.D.S.g Y R -.H l K =.=.,.-.D ..m.w.&.o I o.{ z.' ' { z.q.I ^  .' ' ^ ",
": y k Y y.8 7 G d 9 : : 2 g _ r.U D.D.D.F.H.H.[.F.F.p.p.G.F.F.L.3 Y _ -.0.7.7.7.6.7.!.) 6 w p y . < e e I ] { J.*Xq.I b n b Q Q ",
"p *.-.;.6.H l ;.*.*.f s G t.Y.`.U D.D.D.F.D.D.D.].S.D.p.a.F.D.6.* H 7.;.i.t.>.,.=.H >.>.H k F K 3 n Q ~ Q { _ I K.K.W ' Q I ) +.",
"$.j $.j t a j j t l J a h H }.&XW D..XD.D.G.S.S.].S.Y.$XS.e.w._ & x ,.2.=.y.Y ;.1.;.=.=.Y ;.*.:.I n { ' ' { ) ) ` S.K.Q ) ) Q ' ",
"2 r f s 1 ; y G s f _ 7 k w { *X] W J.q.K.L.y.y.Y.t._ t.L.K.S._ & B f 7.9.U.m.-.f.U.Y._ -.w.:.:.I E y.y.q.P.K.r.{ W ) ) { K.] I ",
"D N C U T 8 B z k s f g f B 6.y.) ! m ! v.u.:.E q.:.E 3.w.:.3._ & %.6.-.x H R x x =.>.:.H *.Y Y < 3.H.D.H..XG.F.D.W ~ ~ ' ~ ' ) ",
"-.V f C W 7 s y y r h d B T w.W 3 b T I I u.K.{ I I I W :.:.W C X G T _ R f G G =.6.Y 1 ] Y.U u o y q.U :.a.p.4.p.E V V b S I V "
};
