/* XPM */
static char *chillCarrot_512[] = {
/* columns rows colors chars-per-pixel */
"512 512 256 2 ",
"   c #050301",
".  c #0A0603",
"X  c #0D0905",
"o  c #0E0C0B",
"O  c #130C05",
"+  c #110E0C",
"@  c #190A03",
"#  c #1B130A",
"$  c #18110A",
"%  c #141313",
"&  c #1C1918",
"*  c #100F10",
"=  c #23160A",
"-  c #28180B",
";  c #361907",
":  c #241C13",
">  c #2B1E14",
",  c #231E1B",
"<  c #291207",
"1  c #38230D",
"2  c #2C2119",
"3  c #34251B",
"4  c #3A291E",
"5  c #382516",
"6  c #32310C",
"7  c #292626",
"8  c #3C2C22",
"9  c #332C29",
"0  c #3C312A",
"q  c #3A3433",
"w  c #332F30",
"e  c #211F1F",
"r  c #481B04",
"t  c #561603",
"y  c #781602",
"u  c #681202",
"i  c #4A220A",
"p  c #572509",
"a  c #472B16",
"s  c #4B331C",
"d  c #54341C",
"f  c #5A361C",
"g  c #532E14",
"h  c #662B0C",
"j  c #673819",
"k  c #763919",
"l  c #702C0D",
"z  c #412E23",
"x  c #443126",
"c  c #453429",
"v  c #4A362A",
"b  c #4C3728",
"n  c #5C3B23",
"m  c #533B2D",
"M  c #5C3D2D",
"N  c #543823",
"B  c #463C36",
"V  c #583E30",
"C  c #623E23",
"Z  c #643F2A",
"A  c #713F24",
"S  c #484715",
"D  c #525319",
"F  c #5B432B",
"G  c #4C423C",
"H  c #5D4233",
"J  c #574539",
"K  c #585326",
"L  c #644126",
"P  c #64432B",
"I  c #6A452B",
"U  c #6D492D",
"Y  c #6C4324",
"T  c #734A2C",
"R  c #7B4D2C",
"E  c #754526",
"W  c #634432",
"Q  c #6A4533",
"!  c #6C4A34",
"~  c #664B38",
"^  c #734C33",
"/  c #7B4B34",
"(  c #764A35",
")  c #6A543A",
"_  c #765135",
"`  c #7C5234",
"'  c #7B553A",
"]  c #79553C",
"[  c #77532D",
"{  c #6E6B2D",
"}  c #6A551E",
"|  c #574B43",
" . c #5C5048",
".. c #67564A",
"X. c #765B48",
"o. c #6C5C51",
"O. c #675951",
"+. c #715F52",
"@. c #634E41",
"#. c #7B634C",
"$. c #746255",
"%. c #7D6A5B",
"&. c #7A6657",
"*. c #7A6E47",
"=. c #3F400D",
"-. c #891C03",
";. c #922B09",
":. c #AB3406",
">. c #893F23",
",. c #864A2A",
"<. c #864E33",
"1. c #835534",
"2. c #83543A",
"3. c #845A3C",
"4. c #8B5D3B",
"5. c #8A5635",
"6. c #945C3B",
"7. c #985837",
"8. c #8D4F2C",
"9. c #A55C38",
"0. c #AD562A",
"q. c #8E603E",
"w. c #93623E",
"e. c #9B623E",
"r. c #887A36",
"t. c #A8623D",
"y. c #B5663D",
"u. c #B86F38",
"i. c #B0440F",
"p. c #CB530F",
"a. c #EB7210",
"s. c #D8743A",
"d. c #E47C3C",
"f. c #EA7B27",
"g. c #D86215",
"h. c #855E41",
"j. c #925E40",
"k. c #8C6243",
"l. c #88654A",
"z. c #936543",
"x. c #9B6A45",
"c. c #9B6D4A",
"v. c #976846",
"b. c #9E714E",
"n. c #836D5D",
"m. c #886B54",
"M. c #936E52",
"N. c #8B735A",
"B. c #997458",
"V. c #87764B",
"C. c #A76A44",
"Z. c #B86C45",
"A. c #A4724C",
"S. c #AB754B",
"D. c #B7764A",
"F. c #A37552",
"G. c #AB7B54",
"H. c #AA7D5A",
"J. c #A57A59",
"K. c #B37D53",
"L. c #8A7362",
"P. c #977A66",
"I. c #856F60",
"U. c #A47E62",
"Y. c #C16E42",
"T. c #C87647",
"R. c #D77843",
"E. c #C77F50",
"W. c #E07E40",
"Q. c #9A9934",
"!. c #FC972A",
"~. c #EB853B",
"^. c #F38934",
"/. c #F69739",
"(. c #F68C2E",
"). c #FDA72C",
"_. c #FCA736",
"`. c #FDB636",
"'. c #FDB02F",
"]. c #F18220",
"[. c #AD815D",
"{. c #B8845A",
"}. c #AC9549",
"|. c #9D826A",
" X c #918464",
".X c #A8856A",
"XX c #B78A66",
"oX c #BC916E",
"OX c #AE8A70",
"+X c #B38E71",
"@X c #BB9373",
"#X c #A8916C",
"$X c #9F9351",
"%X c #C9824E",
"&X c #D8864A",
"*X c #C88956",
"=X c #D58C54",
"-X c #D99358",
";X c #D69155",
":X c #E48943",
">X c #E89649",
",X c #E49A56",
"<X c #F29B44",
"1X c #F7A748",
"2X c #FDB848",
"3X c #EBA45A",
"4X c #F3AB58",
"5X c #FBB758",
"6X c #EFA04E",
"7X c #C89569",
"8X c #D39D6C",
"9X c #D89A65",
"0X c #C79A74",
"qX c #C79467",
"wX c #E49C64",
"eX c #DCA36D",
"rX c #D7A06C",
"tX c #CEA17B",
"yX c #D7A577",
"uX c #E8A668",
"iX c #F2AD62",
"pX c #F8B664",
"aX c #E3AB73",
"sX c #E9AC74",
"dX c #EBB278",
"fX c #F3B978",
"gX c #F1AD73",
"hX c #C3BD4A",
"jX c #FDC44B",
"kX c #FDC857",
"lX c #F9CF5E",
"zX c #FDC768",
"xX c #FBC679",
"cX c #FED579",
"vX c #FDD267",
"bX c #CAC44F",
"nX c #D6A982",
"mX c #DCB187",
"MX c #E8B888",
"NX c #EABE92",
"BX c #F1BD85",
"VX c #C19F82",
"CX c #FBC987",
"ZX c #FED789",
"AX c #EDC194",
"SX c #F3C797",
"DX c #FED996",
"FX c #EEC18F",
"GX c #FEE19B",
"HX c #FEE5A8",
"JX c #FEEBB7",
"KX c #F3CFA5",
"LX c #FEF1CF",
"PX c #FCFAF3",
"IX c #BE9D80",
"UX c #7C8027",
/* pixels */
"O...O...O.O.O...O.O...o.o.o.O.o.O.o.o.o.o.o.$.o.o.$.o.o.$.$.O.$.$.O.$.o.$.$.O.$.$.$.$.$.O.$.$.$.$.$.$.$.$.$.$.$.O.%.%.%.%.O.O.%.%.%.%.%.%.%.%.%.%.%.%.I.I.I.I.I.L.L.L.L.L.L.P.P.P.P.P.P.P.P.P.|.|.|.|.|.|.|.OX|.OX.X.X.X.X.XOXOXOXOXP.OXOXOXP.OXOXOXOXOXOXOX+X+X+X+X+X+X+X+X+XoX+X@XoX@X0X@X@X@X@X@X@X@X@X@X@X0X@X0X@XVX0X@X0X0XVX0XVX0X0X0XVX0X0X0X0X0XVX0XVX0X7XVX0X0XnX0XnX0XVXVXnX0XnXVX0XVX8XnX0X0XnX8XnX0X0XnX0X8XnX0X0XnXE.nXVXnXVXnXVXVXnXVXVXnXnXnXVXnXnXnXVXnXnXnXVXnXnXVX8XnXVXnXnXnXnXnXnXVXnXnXnXVXnXtXnXnXnXnXnXnXnXnXtXnXnXnXnXnXnXnXnXnXtXnXtXnXnXnXnXVXnXnXnXnXnXnXtXnXtXnXnXVXnXnXVXnXnXnXVXnXnXVXnXtXtXnXnXtXtXtXtXtXtXtXtX0XtXVXtX0XVXVX0X@X0XVX0XE.VXVXIX0X0X@X@X@XIXU.VXVXIX@XU.VXU.E.IX+XU.VX0X+X+X+X+X+X+X+X+X+X@XU.IX+X+X+X+X+X+X+XOX+XOXOXOXOXOXOXOXOXOXOXOXOXOXOXOXOXOXOXOXOXOXOXOXOXOX.XOXOX.XOX.XOXP.OXP.|.P..XP..XP.OXP.P.|.P.|.|.|.P.|.P.P.P.P.P.P.P.P.P.P.P.P.P.P.P.P.P.P.P.P.|.P.P.|.L.P.|.P.L.P.P.L.P.P.L.P.L.L.L.L.L.L.L.I.L.I.I.I.I.I.I.I.I.%.%.%.%.%.I.%.I.%.%.%.%.%.%.%.%.%.%.%.%.%.%.%.%.%.$.%.$.+.%.+.$.$.$.+.+.+.+.+.$.",
"O.O.o...o...O.O.o.O.o.o.o.o.o.o.o.o.o.o.o.o.o.o.o.$.$.o.o.$.$.$.$.$.$.$.$.$.$.$.$.$.$.$.%.$.$.%.$.$.$.%.$.%.%.$.%.%.O.%.%.%.%.%.%.%.%.%.%.%.%.%.%.%.%.%.%.I.I.I.I.I.I.L.L.L.L.L.L.L.P.P.P.P.P.P.|.P.|.|.|.|.|.|.|..X|.OX.XOX.XOX.XOXOXOXOXOXOXOXOXOXOXOXOXOX+X+X+X+X+X@X+X@X@X+X@XoX@X@X@X@X@XVX@X0X@X0XVX0X0X0X0X0XVX0XtX0XVX0X0X0XtX0X0XVX0XtX0XVXVX0X0X0X0XtXVX0XVX0X0XVXVX8X0X8X0XVX8X0XnX0XnXE.nX0X0XVX8XVXnX0XVXtXnXVXVXnXnXnXVXnXnXnXwXnXVXnXVXnXnX0XnXnXnXtXtXnXnXVXnXnXnXnXnXnXnXnXnXnXnXVXnXnXnXnXnXnXnXnXnXtXnXnXnXnXnXnXnXnXnXnXnXtXnXnXnXnXnXnXVXnXVXnXnXnXnXnXnXtXtXnXnXnXnXnXnXtXnXnXnXtXnXtXtXnXtXnXtXnXtXtXtXtXtXtXtXtXtXtXtXtXtX0X0XVX0X0XVXtX0XVX0XVXVXVX0X0X0X0XU.IXIXVXIXE.IX@XIXIXVXIXIXIXVXU.@X@XIX@X+X@X@X+XIX+XVXU.+X+X+X+X+X@X+X+X+X+XOXOXOX+XOXOXOXOXOXOXOXOXOXOXOXOXOXOXOXOXOXOXOXOXOX.X|.OXOXP.OXP.OXP.P.OXOXP.OXP.|.P.OXP.|.|.|.|.|.P.P.|.P.|.|.P.|.|.|.|.|.P.|.|.|.|.P.P.OXP.|.|.|.|.|.|.|.P.P.P.P.L.P.L.P.L.L.L.P.L.L.L.L.I.I.I.I.I.I.I.%.I.I.I.I.I.I.I.%.I.%.%.%.%.%.%.%.I.%.%.%.%.%.%.$.$.$.&.$.$.$.$.+.+.+.+.+.+.o.o.o.o.o.o.",
"O.O.O.o.o.O.O.o.o.o.o.o.o.o.o.+.O.$.+.o.$.$.o.$.o.$.$.$.$.$.$.$.$.$.$.$.$.$.$.$.$.%.%.%.$.$.%.$.%.$.$.$.$.%.$.$.O.%.O.%.%.%.%.%.O.%.O.%.%.%.%.%.%.%.%.%.%.%.%.%.I.%.I.I.I.I.I.L.L.L.I.L.P.P.P.P.P.P.P.P.P.P.|.|..X|.|.OX|.OXOXOXOXOXOXOXOXOXOXOXOXOXOXOX+X+X+X+X+X+X+X@X+XoX+XoX@X@X@X@X0X@X@X@XVXVX0XVXVX0X0X0X0X0X0X0XVX0XVX0X0X0XtX0XtX0XtX0XVX0XtX0XVX0XVX0XVXnX0XnX0XnX0XVXnX0X8XVXnXVXnXE.VXnXnXnXVXnXnXVXtXtXtXnX0XnXnX8XnXnXnXnXnXVXnXwXnXE.nXnXnXnXVXnXnXnXnXnXnXnXnXnXnXnXnXnXnXnXsXnXnXnXnXnXnXnXnXnXnXtXnXnXtXtXnXtXnXnXtXnXnXnXnXnXtXVXnXVXnXnXnXnXnXnXnXnX0XnXnXnXtXnXVXnXnXnXnXnXtXnXnXnXnXnXnXVXVXnXnXnXnXtXtXVXtXnXtXnXtXtXtXtXtXtX0XtX0XVX0X0X0X0XVX0X0X0XIXVX0X0XnXVX0XE.VXE.U.0XIXE.VXE.U.VXIX0XE.0XU.0X0XIXIXVX+X@XVX@X@X+X+X@X+XU.+X+XOXOX+X+XOXOX+X+X+X+XOX+XOXOXOX+X+X+XOXOXOXOXOXOXOXOXOXOXOXOXOXP.OXOXOXP.OXOXP.OX.X.XOX|.OXP.OX|.OXP.P.|.|.|.OX|.|.P.|.|.OX|.OX|.|.OXOXP.OXOXOXOX|.|.|.|.|.|.P.P.P.P.P.L.L.L.L.L.I.I.L.L.L.I.L.I.I.I.I.I.%.I.I.I.%.%.%.I.%.%.%.%.%.%.%.%.%.%.%.%.%.%.$.%.$.$.$.$.$.$.$.$.O.O.+.o.o.o.o.O.O.o...o.O.O.",
"O...O.O...o.O.O.O...O.o.o.O.o.o.o.O.O.*.o.o.$.o.o.$.$.o.$.$.o.$.$.$.$.$.$.$.$.%.$.$.$.$.$.%.$.$.$.%.$.$.$.$.%.$.%.%.%.I.O.%.%.O.%.%.%.%.%.%.%.%.%.%.%.%.%.%.%.I.%.%.%.I.I.I.I.I.I.L.I.L.L.L.L.L.L.P.P.L.P.P.P.P.|.P.P.|.|.|.|..XP..X|.OXOXOXOXOXOXOXOXOXOXOX+X+X+X@X+X+X+XoXoXoXoX@X@X0X@X@XVXVX0X0X0X0X0X0X0XVXVX0XVXVX0X0X0XtXtX0XVXtX0XtXtXtX0XtXtXVXtX0XtXtX8X0XVX0XnX0XVX8X0XtXtXnXVXnXVXnXnXVXVX0XnXnXE.nXtXtXtXVXnX0XVXnXVXnXVXnXnXVXnXnXnXnXnXnXnX0XnXnXnXnXnXnXyXnXnXnXnXnXnXnXnXnXnXnX8XnXnXnXVXnXnXnXyXnXnXnXnXnXnXnXtXnXVXnXVXnXtXtXnXnXnXnXVXtXtXtX8XnXVX0XnX0XVXnXVXtXnXnXtXnXtXnXVXnXnXtXVXtXnXnXnXnXtXVXVXnXnXnXtXVXnXtXtXnXtXnXtXtXtXtXtXtXtXtXtXtX0X0XnX0X0X0XVXVX0XVXnXVXVXVXnXVX0XIXVX0XnXVXVXVXVX0XVXVXIXE.0XU.IXIXU.IX@XIXIX@X@XIX@X@X@XIX@X@X@XOX@X+X+X+X+X+X+XOX+X+XOX+XOX+X+X+XOXOXOXOXOXOXOXOXOXOXOXOXOXOXOXOXOXOXOXOXOXOXOXOXOXOXOXOXOXOXOXOXOXOXIXOXOXOXIXOXOXOXOXOXOXOXOXP.P.|.|.|.|.|.P.P.P.L.P.L.L.P.L.L.L.I.I.I.L.I.L.L.I.I.I.I.%.I.I.I.I.%.I.%.%.%.I.%.%.%.%.%.%.$.$.$.$.%.O.O.o.$.$.$.o.O.o.O.O.o.O.o.O.o.O.O.O.O.o.O.O.O.O.O.",
"o...O.....O.O.o.o...O.o.o.o.o.o.o.+.+.o.+.+.o.$.o.o.$.+.$.$.$.$.$.$.$.$.$.$.$.$.$.$.%.$.$.%.$.%.%.%.%.%.%.$.%.O.I.%.O.O.O.%.%.%.%.%.O.%.%.%.%.%.%.%.%.%.%.%.I.%.%.%.%.%.%.I.I.I.I.I.I.I.I.L.L.L.L.P.L.P.P.P.P.P.P.P.P.P.P.|.|.|.|.OXOX|.OX|.OXOX.XOXOXOXOXOXOXOXOX+X+X+X+X@X@X+X@X@X@X@X@X@X0X0X0X0X@X0X0X0XVX0X0X0X0X0XtX0X0X0XVX0XtX0XtXtXtXVXtXtXtXtXtX0XtXtX0XVX0XVXtXtX8XVX0XnXnXVX0XnXnX0XnXVXnXVXVX8XnXVXnX0XnXnX0XnX0XnXnXnXnXnXVXnXnXnXnXnXnXnXnXnXnXnXnXnXnXnXnXnXnXsXnXnXnXmXnXnXnXnXnXnXnXnXnXnX8XnXnXnXnXnXnXnXnXnXnXnXnXtXnXtXtXnXnXnXtXnXnXtXnXVXnXVXnXVXVXnXnXnXnXnXtXtXnXVXnXVXnXtXVXnXnXnXtXnXnXtXnXnXtXnXnXnXnXtXVXnXnXtXnXVXnXnXnXtXtXtXtXtX0XnXnXVX0XnXnX8X8XnXVXnX0XnXnX0XnX0XVXnXVX0X0XVXVXVXVX0X0XVXVXE.IX0X0X0XIX0XE.VXVXE.0X0XIX0X0X@X@XVX@X@X0X@X@X@XVX@X@X@X+X+X+X+XIX+X+X+XOX+XOXOX+XOXOXOXOXOXOXOXOXOXOXOXOX+X+XOX+X+XOX@XOXOXOX+XOXOXIXOX|.IX|.IXIXOXOXOXOXP.OX|.OX|.|.P.P.OXL.P.P.P.L.P.L.L.I.I.L.L.I.I.I.I.I.I.I.I.I.I.I.I.I.I.I.%.%.I.%.%.I.%.%.%.%.$.$.%.%.$.$.$.$.$.O.%.O.$.$.O.o.O.$.O.O.O.O.O.O.O.o.O.O...O...O...O...O...",
"o.o.O.o...O.O.O.o.o.o.o.o.o.o.o.o.+.o.o.+.o.$.o.$.$.$.$.$.+.$.$.$.$.$.$.$.$.%.$.$.%.$.$.%.$.$.%.$.%.O.%.%.$.%.%.O.I.I.%.%.I.O.%.%.%.%.%.%.%.O.%.%.%.%.%.%.%.%.%.%.%.I.%.I.%.%.I.I.I.I.I.I.I.I.L.L.L.L.L.L.L.P.L.L.P.P.P.P.P.P.P.P.P.|.|.|.|.|.OXP.OXP.OXOXOXOXOXOXOXOX+X+X@X+X+X@X@X@X@X@X0X@X@X@X0X@X0X@X0X@X0X0X0X0XVX0X@X0X0X0X0X0XVX0XVX0XtXtX0XtXtXtXtX0XtX0XnXnX8X0XVXnX8XE.nX8XtXnX0X0XnXE.nX0XnXnXVX8XnXVXnXVX8XnXnXnXnXVXnXnXnXnXnXnXnXnXwXnXnXnXnXnXnXnXnXnXnXnXmXnXmXnXnXmXnXMXnXnXnXmXnXnXnXnXnXnXnXnXnXnXnXnXnXnXnXnXnXnXnXnXnXnXtXtXtXnXtXtXnXnXnXnXnXnXnXnXnX0XnXtXnXnXnXnXnXtXtXtXnXnXtXnXtXnXVXVXnXnXtXnXnXtXtXnXnXnXtXtXnXnXVXnXVXtXtXnXtXtXnXnXnXnX0XnXnXVXVXVXnXnX8XnX0X0XnXnXnX0X8XnXVX8XnXnXE.0XVXnXVXVXnXVX0X0X0X0XVXnX0XVXnXVX0XVXVXVXVX0XVX0XVXVX@X@XVX@X@X@X@X@XVXVX+XOX+X+X+XOX+X+X+XOXOX+XOXOXOXOXOXOXOX+X@X+X+X@X@X@X+XVX+XIXOX@X+XOXIXOXOXOXIX|.IXOX|.OXOXOXP.|.|.L.P.P.P.L.L.L.L.I.I.L.I.L.I.I.I.I.I.I.I.I.I.I.I.I.I.%.%.I.I.I.I.%.%.%.%.%.%.%.%.%.$.%.$.%.O.$.$.O.$.O.%.O.O.$.O.O.$.o.o.O.O.$.O.o.O.O.O.O.o...o.O.O.O.O.O.O.O. .",
"O.O.O.O.O...O.o.o.....o.o.o.o...o.o.+.+.+.o.$.$.$.$.o.$.$.$.$.$.$.$.$.$.%.$.$.%.$.%.$.%.$.$.$.$.%.O.%.O.%.$.%.O.%.O.%.I.%.%.O.%.O.%.%.%.%.%.%.%.%.%.%.%.%.%.I.%.%.I.%.I.%.I.%.I.I.I.I.I.I.I.L.I.L.I.L.L.L.L.L.L.P.L.L.P.P.P.P.P.P.P.P.P.P.P.P.|.P.OXP.OXP.OX.X.XOXOXOXOXOXOXOXOX+X@XoX@X@X@X@X@X@X0X0X@X@X0X0X0X0X@X0X@X@X0X0X0X@X0X@X0X0X0X0X0X0X0XVXtXtXtXtXtXnX0XnX0X8XnXtXtXnXVXnXtX0X0XnX0XnXnXVXnXnXE.nXVX8XnXnXnXnXnXnXnXnXnXwXnXnXnXnXnXnXnXnXnXnXMXnXnXsXnXMXnXnXmXnXmXmXmXnXmXnXnXmXmXnXmXnXMXnXnXnXnXnXnXnXnXnXmXmXnXnXnXnXnXnXnXnXnXnXnXnXnXnXnXnXnXnXVXnXnXnXnXnXnXnXnXVXnXnXtXnXnXnXnXVXnXnXtXnXtXtXnXnXnXtXnXtXnXnXnXnXnXnXnXnXnXtXnXnXnXnXnXnXtX0XVXtXVXVXnXnXnXnXVXnXVXVXnX0XnX0XVX0XVXVX0XnXVX0XnXnX0XnXnXnXVXnX0XnXnXnXVXnXnXnXnXnXVXnX0XtX0X0X0XVX0X0XVX0X@X@X@X@X@X+X@X@X@X+X+XIXOX+X+X+X+XOX@XOXOXOX@XOX@XOX+X@X@XVXVX+X@X+X@X+X+XOXOXOXOXIX|.OXOX|.|.|.|.P.|.|.P.P.P.L.L.L.L.L.L.I.I.L.L.I.I.I.I.I.I.I.%.I.I.I.I.I.I.I.I.%.%.%.I.I.%.O.I.%.%.%.%.%.%.%.O.$.%.$.$.O.$.$.$.$.O.$.O.O.$.O.O.o.o.$.O.o.O.o.O.O.O.o.O.O.O.O.O...O.O.....O.O.O.",
"O.....O.O.o.o.O.O.o.o.o.o.o.o.o.o.o.o.+.o.+.$.$.o.o.+.$.o.$.$.$.$.$.$.$.$.$.$.$.$.$.%.$.%.%.$.%.%.%.%.%.O.%.%.%.%.I.O.O.%.%.%.%.I.%.%.%.%.%.%.%.%.%.%.%.%.I.%.%.%.I.%.%.%.I.I.I.I.I.I.I.I.I.I.I.L.I.L.L.L.L.L.P.L.P.P.P.P.P.P.P.P.P.P.P.P.P.P.P.P.P.P..XP.P..XP.P..XP.OXOXOXOXOXOX+X+X@X@X@X@X@X@X@X@X@X@X0X@X@X0X@X@X0X0X@X@X@X0X0X0X0X@X0XVX0X0X0X0XtX0X0XtXtX0XnX0X0XnXVXtXtXVXnXnXVXnXnXVXnXnXnXnXnXnXnXnXnXnXVXnXnX0XnXyXnXnXnXnXnXnXnXnXnXmXnXnXnXnXnXnXnXMXnXnXnXmXmXmXmXmXmXMXnXmXMXmXmXnXMXmXmXmXMXnXMXmXmXMXmXnXmXnXnXnXmXmXmXnXmXnXmXnXnXnXnXnXnXnXnX8XnXnXnXnXnXnXnXnXnXnXnXnXnXnXnXtXnXnXnXnXnXnXnXnXtXnXVXnXnXnXtXVXnXtXnXnXVXnXtXnXVXnXVXnXVXtXnXnXnXnXnXnXnXnXnXnXnXnXnXnXnXnXVXnXnXnXnXnXnXnXnXnXnXnXnXVXnXnXnXnXnXVXnXnXnXnX0XnXVX0XnX0X0XnX0XVX0X0X0X@X@X@X@X@XVX@X@X@X+X+X+X+X+X+XOX+X+X+X+XOX@X+X@X@X@X@X@XIX+X@X@X+X+X@X+X+X+XOXOXOXOXOXOX|.|.|.|.L.|.|.|.L.L.L.L.I.I.L.L.I.I.I.I.I.I.I.I.I.I.I.I.I.I.%.I.I.I.I.I.I.%.O.I.%.%.I.I.O.%.%.%.%.%.O.%.%.O.$.%.$.$.O.%.$.$.O.$.$.$.$.O.$.$.O.$.O.$.O.o.O.$.o.o.O.o.o.O.O.O.o...O.O.O...O.O...O.",
"O...O.O.O.o.o.O.o.o.o.o...o.o.o.O.$.o.$.o.o.$.$.$.$.+.$.+.$.$.$.$.$.$.$.$.$.$.%.$.$.$.$.$.%.%.$.%.%.$.%.%.O.%.%.O.%.%.O.O.I.%.%.%.%.%.%.%.%.%.I.%.I.%.%.I.%.I.%.n.I.n.n.I.n.I.I.I.I.I.I.I.I.I.I.I.L.L.L.I.L.L.L.L.L.P.P.P.P.L.P.P.P.P.P.P.P.P.P.P.P.P.P.|.|.|.|.|.|..X.X|..XOXOXOXOXOXOX+XOXOXOX@X@X@X@X@X@X@X@X@X@X0XVX0X0X@X0X0X@X0X0X0X0X0X0X0XVX@XtXVXtXtXVX0XVXtXtXtXtXnXVXtXtXVXnXtXnXtXVXnXnXnXnXnXnXnXnXnXnXnXnXyXnXnXnXnXnXnXnXnXmXnXnXnXmXnXnXMXmXmXnXmXmXnXmXmXnXmXmXmXmXnXmXmXmXmXmXmXmXmXmXmXmXmXmXmXmXmXmXmXmXmXmXmXmXnXMXmXmXmXmXmXmXmXmXmXnXnXMXmXmXnXnXmXnXnXmXnXsXnXnXnXnXnXnXnXnXnXnXnXmXgXnXnXnXnXtXnXnXnXnXtXnXtXnXtXnXnXtXnXnXnXnXnXnXnXnXnXnXnXnXsXnXnXnXnXyXnXnXnXnXnXnXnXnXnXnXnXnXnXnXnXnXwXnXnXnXnXnXnXnXnXnXnXnXVXnX0XnXVXVX0XVX0XVXVX@X0X0XVX@X@X@X@X@X@X@X@X@X+X@X+X+X+X+X@X+X@X@X@X@X@X@X@XIX+XIXIXIXOXIXIXOXOXOXOXOX|.|.P.P.P.P.|.L.|.L.L.L.L.L.L.L.L.I.L.I.I.I.I.I.I.I.I.I.%.I.I.%.I.%.%.I.%.%.%.%.%.%.%.%.%.%.O.I.%.%.O.O.I.%.%.%.O.O.%.%.%.$.$.$.$.$.$.$.O.%.O.O.$.$.o.$.O.o.o.o.o.$.o.O.o.o.o.O...o.o.O.O.O...O.O.O.....O...",
"..o.O.O...o.O.o.o.o.o.O.o.o.o.o.o.o.o.o.$.o.o.o.o.+.$.o.$.$.$.+.$.$.$.$.$.%.$.$.%.$.$.%.$.$.$.$.O.%.O.%.%.%.%.%.%.%.%.I.%.%.%.%.%.%.%.%.I.%.%.%.I.%.I.%.I.%.%.I.n.n.n.n.I.I.I.I.I.I.I.I.I.I.I.L.I.I.I.L.L.L.L.P.P.L.L.P.P.P.P.P.|.|.|.|.P.P.OXP.P.OXP.P.|.P.P.|..XP.|.P.P.|.|.|.|..X|.OXOXOXOXOXOXOXOX@X+XVX@X@X@X0X@X@X@X0X0X0X@X0X0X0X0X@X0X0X0X0XVX0X0X0X0X0XVX0XtX0XtX0X8XVX8XtXtX8XtXtXtXnXnXVXVXnXnXnXnXnX8XnXnXnXnXnXnXMXnXnXMXmXnXnXMXnXmXmXmXnXnXnXnXMXmXmXmXmXMXmXnXmXmXmXmXmXmXmXMXmXmXmXMXMXMXmXmXmXMXmXmXMXmXmXMXmXmXMXmXnXmXmXmXmXmXmXmXmXmXmXmXmXmXmXmXmXmXmXnXmXmXmXmXnXmXnXmXnXmXnXmXnXnXnXnXnXnXnXnXnXnXnXnXnXnXnXnXnXnXnXnXnXnXnXnXnXnXnXnXnXnXnXnXMXnXnXnXmXmXnXMXnXMXnXmXmXnXnXMXnXmXmXnXmXnXMXnXnXnXnXnXnXnXVXnXnX0X0XnX8X0X0XVXVX0X0X0X0X0X@X@X@X@X@XVX@X@X@X@X@X@X@X@X@XVX+X@X@X@X@X@X@X@XVX@X@X@XVX@X@XOXOXOXOX|.OX|.|.P.P.P.P.P.P.P.P.L.|.I.L.|.L.L.L.L.L.I.L.L.L.I.I.I.I.I.I.I.I.I.%.%.I.I.%.%.I.%.%.%.I.%.%.%.%.%.%.O.I.I.O.I.%.I.O.%.O.%.%.%.O.O.%.$.$.$.$.$.O.%.O.%.O.$.O.$.O.$.o.o.o.o.O.O.$.o.O.o.o.o.O.o.o...O.O.O.O...O.O.O.o.",
"O.O.o.....o.O.o.o.o.o.o.o.o.o.o.o.o.$.O.o.$.o.$.$.$.$.$.o.$.$.+.$.$.$.$.$.$.$.$.$.$.$.$.$.%.$.%.%.$.%.%.%.O.O.%.%.%.%.%.%.%.%.%.%.%.%.%.%.I.%.%.%.%.I.I.%.%.I.I.I.n.I.I.n.I.I.I.I.I.I.I.I.L.I.I.L.I.I.L.I.L.L.L.P.L.P.L.P.P.P.P.P.|.OXP.OXOXP.OXOXOXP.OXOXP.OXP.P.|.P.P.OXP.|.OX|.|.|..XOX.XOX.X.XOXOXOXOX+X+X@X@XoX@X0X0X@X0X@X0X0X0XVX@X0X0X0X0X0X0X0X0XtXtXtXnX0XnX8XtXnX0X0XnXnXnXVXnXtXyXnXnXnXnXwXnXnXnXnXnXnXnXnXnXmXnXmXnXMXnXnXMXnXnXMXmXmXmXMXMXmXmXmXmXmXmXmXmXmXMXMXMXmXmXmXMXnXmXmXMXmXmXMXMXmXmXMXnXMXmXMXmXMXmXMXMXmXmXMXmXMXMXmXmXmXmXmXmXmXmXMXmXmXmXmXmXnXmXmXmXmXmXmXmXmXmXmXmXmXmXnXnXnXnXmXnXnXnXnXnXnXnXnXnXmXnXmXnXmXnXmXnXnXmXnXmXmXmXmXmXmXmXmXmXmXmXmXmXmXmXmXnXmXnXmXmXmXnXnXnXnXnXnXnXnXnXnXnXnXnXnXtXtX0X0XnX0XVXVXIXIX0XE.VXE.0X0XVX@X0X@X0X@X0X@XVX@X@X@X@XVXVX@X@X@XVX@X@X@XVX@XVX@XVX@XVXOXOXOXOX|.|.|.P.P.|.P.P.P.P.P.L.P.L.P.L.L.|.L.I.L.L.L.L.I.I.L.I.I.I.I.I.I.I.I.I.I.I.I.%.I.I.O.%.%.%.%.I.O.%.%.%.%.%.%.I.I.%.%.I.O.%.O.%.%.%.$.%.%.O.O.%.O.$.$.$.$.$.$.$.$.$.$.O.$.$.O.o.o.o.o.o.o.o.o.+.o.o.o.o.o.o...O.O.O.o.o.O.O...",
"O...O.o.o.o...O.O...O.o...o.o.o.o.o.o.o.O.$.+.o.o.+.$.o.+.+.$.$.$.$.$.$.$.$.$.$.$.$.$.%.$.$.%.$.$.%.$.%.%.%.%.%.%.I.O.%.%.%.%.%.%.%.%.%.%.%.%.I.I.%.I.%.I.I.%.I.I.I.I.I.I.I.I.I.I.I.L.I.I.I.L.I.L.L.I.L.P.L.L.L.L.L.L.P.P.P.P.P.P.P.P.P.P.OXOXOXOXOXOXOXOXOXOXOXOX.X.X.XP.OX|.|..X|.|.|.OX|.|.OX.XOXOXOXOXOXOXOXOX+X+X@X@X@X@X@X0X0X0X0X0XVX0XVX0XVXtXtXtXtX0XtX0X0XnXtXnXyXnXnXnXnXnXyXtXnXnXnXnXnXnXnXgXnXnXnXmXnXmXmXmXnXMXnXMXnXMXnXmXnXmXmXmXmXmXmXnXmXmXMXmXmXmXmXmXmXmXmXMXmXmXMXMXmXMXMXMXmXMXmXmXMXmXmXMXmXmXMXmXMXMXmXMXmXmXMXmXMXmXMXNXmXNXmXMXMXMXmXmXMXMXmXMXMXMXmXMXmXmXmXMXmXmXmXmXmXmXmXmXmXmXmXmXmXmXmXnXmXMXmXmXmXmXmXmXmXmXmXmXmXmXmXmXmXmXmXnXMXMXmXmXmXMXmXmXmXmXmXmXmXnXnXnXnXMXnXnXnXnXnXnXnXnXnXVXnXVXE.8X0XnX0XVX0XVXVX0X0X0XIXVX0XIX0X0X0X0X0XVX0XVX0X0XVXVX0X0X@X@X@X0XVX@XVXVX0X0X0X0X0X@X@XOXOXOXOXOXP.|.|.|.P.P.P.P.P.P.P.P.P.P.L.L.L.L.L.L.L.L.L.L.L.L.L.I.L.I.I.I.I.I.I.I.I.I.I.I.I.I.I.I.%.I.%.I.I.%.%.%.%.I.O.I.O.%.%.%.%.%.I.%.%.O.%.O.%.%.%.%.$.$.$.$.$.$.O.O.$.O.$.$.$.O.$.$.o.$.o.o.O.$.o.o.o.o.o.o.O.o.O.O.o.o.O...O.o.o.",
"O.O.O.O.o.o...o.O.o.o.o.o.o.o.O.o.o.$.o.o.$.o.o.o.o.$.o.$.$.o.$.$.$.$.$.$.$.$.$.$.$.$.%.$.$.%.$.%.$.%.%.O.%.%.%.O.I.%.%.%.%.I.%.%.%.%.%.%.I.I.I.%.I.%.I.I.%.I.I.I.I.I.I.I.I.I.L.L.L.I.I.I.I.I.L.L.L.L.P.L.L.L.L.L.P.P.B.P.P.P.L.P.P.OXP.OXOXOXOX+X+X+X+XOXOXOX+XOXOXOX.X.XP.OXP..X|..X|..X.X.X.X.X.XOXOX.XOXOXOXOX+X+X+X@XoX@X0X@X0X0X0XVX0X0X0XtXtXtXtXtXtXtXtXyXnXnXnXnXnXnXnXnXnXnXnXaXnXnXnXnXnXnXnXnXnXnXnXmXnXmXmXmXnXnXmXnXmXmXmXnXMXmXnXmXnXmXmXMXnXMXmXmXmXMXMXMXmXmXMXmXmXmXmXmXmXMXmXmXMXMXmXMXMXmXMXMXMXmXNXmXNXNXmXMXNXmXmXmXmXNXmXMXMXmXmXMXMXMXmXMXMXMXmXmXNXMXMXMXmXMXmXmXMXMXMXmXmXmXmXMXmXmXmXMXmXnXmXMXmXnXmXmXmXmXMXMXmXmXmXMXmXMXmXMXMXmXMXMXmXmXMXMXmXmXmXmXnXnXnXnXnXnXnXnXnXnXnXnXVXnXnXnXVXnXE.nXVX0XnXVX0XnXE.VX0X0XE.0X0X0X0XVXVXtX0XtX0XtXtXtX0XtXtX0XtX@XtXVX0X0X0XtX0X0XVX@X@X@XVX@X+XOXOXOX.XOX|.P.|.P.P.P.P.P.|.P.P.P.P.P.P.L.P.L.L.L.L.L.L.L.L.L.I.L.I.I.L.I.I.I.I.I.I.I.I.I.I.I.%.I.I.%.%.I.%.I.%.O.I.I.%.%.%.I.I.I.O.%.O.I.%.%.$.%.%.%.$.$.%.%.%.$.$.O.%.O.%.$.$.$.$.O.$.$.O.o.o.o.$.O.o.O.o.O.o.o.O.o.o.o.o.o.O.o.O.O.O.O.o.",
"..O.O.o...O.o.O.o.o.o...o...O.O.o.o.O.$.$.o.o.o.o.$.o.$.o.$.$.$.$.$.$.$.$.$.$.$.$.%.$.$.%.$.$.%.%.%.%.%.%.%.O.%.%.%.%.%.%.%.%.%.%.I.%.I.%.I.%.%.%.I.%.%.I.I.I.I.I.I.I.I.I.I.I.I.L.I.L.I.L.L.L.L.L.L.L.L.L.L.L.L.P.L.L.P.P.L.P.P.P.P.P.P.P.OXP.OXOXOX+X+XOXVX+XVX@X@X+XOXOXOXOXOX.X|..XOXOXP..X.X.XOXOXOXOXOXOXOXOX+X+X+X+X@XoX@X@X@X0X0X0X0X0XtXtXtXtXtXtXtXnXnXtXnXnXtXnXnXyXnXnXnXyXnXmXnXmXnXnXnXnXnXnXMXMXnXnXMXmXmXMXnXMXmXMXnXnXMXmXmXmXMXMXMXMXMXMXMXMXMXMXMXMXmXMXMXMXmXMXMXMXMXMXMXMXmXMXMXMXMXmXMXMXMXMXmXMXMXMXMXMXMXMXMXMXNXNXmXMXNXNXMXNXNXMXMXMXNXNXmXNXMXNXMXMXMXMXMXMXMXMXMXMXmXMXNXMXmXMXMXNXmXMXNXNXMXMXMXNXMXMXMXMXMXmXMXNXMXMXMXMXMXMXmXmXmXmXMXmXnXnXmXnXnXnXnXnXnXnXnXnXnXnXnXnXnXnXnXnX8XtXnXnXVXVXnXnX0XnXnXVXnXnX8XnXnXVXnXnXVXVX8XtXnXtXtXtXtXtXtXtXtXtXtX0XVX0XVXVX0XVX@X@X@X@X@X+XOXOXOXOX.XOXP.|.|.P.P.|.P.|.P.P.L.P.P.L.L.L.L.P.L.L.|.L.L.L.L.L.L.L.L.L.L.L.I.L.I.I.I.I.L.I.I.I.I.I.I.%.I.I.%.%.%.%.%.I.I.I.O.%.%.%.O.%.I.%.%.I.O.$.%.%.O.O.%.$.O.$.O.$.$.%.O.%.O.$.$.$.O.$.$.O.$.o.$.O.$.$.o.$.o.o.+.o.o.o.o.o.o.o.o.O.o.o.o.O.o.",
"o.o.O...o.O.o.o.O.o.o.o.o.o.o.*.+.o.o.o.o.+.o.o.$.$.o.$.$.o.o.$.O.$.$.$.$.$.$.$.$.$.$.$.$.%.$.%.O.%.$.O.%.O.%.%.%.%.%.%.%.%.%.%.%.%.%.%.%.%.I.%.I.I.I.%.I.%.I.I.I.I.I.I.L.I.I.I.I.I.I.L.I.L.L.L.L.L.L.L.L.L.P.P.P.P.P.L.L.P.P.P.P.|.|.P.OXP.P.OX.X.XOXOX+X+X+X@X@X0X@X@X@X+XOXOXOXOXOXOXOXOXOXOXOXOX.XOXOXOXOXOX+X+X+X+X+X+XoX@X@X0X@X0X0X0X0XtX0XtXtXwXtXtXtXnXnXtXnXtXyXnXnXnXyXnXnXnXmXnXmXnXnXnXmXMXMXnXnXMXmXnXMXnXMXnXmXmXmXMXMXmXnXMXmXMXmXMXMXMXMXMXMXMXMXMXNXMXmXMXMXMXMXNXMXMXMXNXNXBXMXMXMXMXMXMXMXMXNXMXNXMXNXMXNXMXNXNXNXMXNXNXNXNXNXMXNXNXNXNXNXNXMXNXNXNXNXMXNXMXMXNXNXNXNXMXMXNXNXMXNXMXNXNXNXNXNXNXNXNXNXNXNXNXNXNXNXMXMXNXMXNXMXMXMXMXmXmXmXmXmXnXnXMXnXnXnXnXnXnXnXnXnXnXVXnXnXnXnX0XtXnX0XnXnXtXnXnXnXnXnXnXnXVXnXnXnXVXnXnXnX8XnXnXnX8XnX0XtXtXtXtXtX0XtX0XVX0X0XVXVXVXIXVX@X@X+XOX+XOXOXOX.XP.OX.XP.|.P.P.P.|.P.P.P.L.P.P.L.P.L.P.P.P.L.L.L.L.L.L.L.L.L.L.L.L.I.L.L.I.I.L.I.I.I.I.I.I.I.I.%.I.%.%.%.%.%.%.%.%.%.%.%.%.%.%.%.%.O.I.%.%.%.%.%.$.O.%.%.%.$.%.%.O.$.$.%.%.%.O.$.$.O.$.$.O.$.$.$.O.$.o.$.o.o.o.o.+.o.o.o.o.O.o.o.o.O.o.o.O.o.o.",
"o.o.O.o.o.o.O.o.o.o.o.o.o.o.o.o.o.+.+.+.+.o.$.$.o.$.O.$.$.$.$.$.$.$.$.$.$.$.$.$.%.$.$.%.$.%.$.$.%.%.%.%.%.%.%.%.%.%.%.%.%.%.%.%.%.I.%.I.I.%.I.I.I.I.I.I.I.I.I.I.I.I.I.I.I.L.I.L.L.L.I.I.M.L.L.L.L.L.L.L.P.L.P.L.L.L.L.P.P.L.P.P.P.P.P.P.P.P.P.P.P.P.P.OXOXOX+X+X@X@X@X@X@X@X@X@X@X@XOXOXOXOXOXOXOXOXOXOXOXOXOXOX+X+X+XoXoXoX@X@X@X@X@X0X0XVX0X0X0X0XtXtXtXtXtXtXnXyXtXtXnXnXyXnXnXnXnXmXnXsXmXmXmXmXMXnXgXnXMXnXnXMXmXMXnXMXMXmXmXnXMXMXMXMXMXMXMXMXMXMXMXMXMXMXNXMXMXMXNXNXMXNXNXNXMXMXNXNXNXNXMXMXMXNXNXNXNXMXNXNXNXNXNXNXNXNXNXNXNXNXNXNXNXNXNXNXNXNXNXNXNXNXNXNXNXNXNXNXNXNXNXNXMXNXNXNXNXNXNXNXNXNXNXNXNXNXNXNXNXNXNXNXNXNXNXMXNXNXNXmXNXMXMXMXmXmXmXmXmXmXMXnXnXnXnXnXnXnXsXnXnXnXnXnXnXnXyXnXnXtXnXnXnXnXnXnXnX8XnXnXnXnXnXnXnXnXnX8XVXnXnXnX8XVXnXVXnX0X0XVX0X0XVX@X@X@X@X@X@X@X+XOXOXOX+XOXOXOXOXP..XP.P..XP.P.P.P.P.P.P.P.P.P.P.P.P.P.L.P.P.P.L.L.P.L.L.L.L.|.L.L.L.L.L.L.L.L.L.L.I.I.I.I.I.I.I.I.I.I.I.I.I.%.I.I.%.I.%.I.%.%.%.%.%.%.%.%.%.%.%.I.O.%.%.%.%.%.$.%.%.%.$.$.%.$.O.%.O.%.$.$.$.$.O.%.O.$.$.$.o.$.o.$.$.o.+.+.o.o.o.o.o.o.o.o.o.O.o.o.o...",
"O...o.o.o.o.o.o.o.o.o.o.+.o.+.X.o.o.$.+.+.+.+.+.+.+.+.+.$.$.$.+.$.$.$.$.$.$.$.$.$.$.$.$.$.%.$.%.%.$.$.%.&.%.n.&.%.%.%.%.%.%.%.%.I.%.%.I.%.I.I.I.I.I.n.I.I.I.I.I.I.I.L.I.I.I.L.L.L.L.L.L.L.M.L.L.L.L.L.L.L.P.L.P.L.P.P.L.P.P.P.P.P.P.P.|.P.P.P.P.P.P.OXP.OXOXOXOXOXOX+X@X@X@X@X0X0X0X0X@X@X@XE.@XE.IXIXU.IXU.IXU.+X@XoX+XoX+XXX0X@X@X@X0X@X0X0X0X0X0X0X0X0XVX0XtXnX0XyXyXnXtXnXnXnXnXnXnXmXsXnXmXmXnXmXnXmXnXmXMXmXmXmXmXmXMXMXmXMXnXMXMXMXMXMXmXMXMXMXMXMXMXMXNXMXNXNXNXBXNXNXNXMXNXNXNXNXNXNXNXNXNXNXNXNXNXNXNXNXNXNXNXNXAXNXNXNXNXNXNXNXNXNXAXNXSXNXSXNXNXSXNXNXNXNXNXNXNXSXSXNXNXSXNXNXNXNXSXNXAXNXAXNXNXNXNXNXNXNXNXNXNXNXBXMXNXNXMXMXmXMXmXMXmXmXMXmXmXnXnXmXnXmXnXmXnXnXmXnXnXnXnXnXnXnXnXnXnXnXnXnXnXnXnXnXnXnXnXnXnXnXnXnXnXnXnXVXnX0XnXVXtXVX0X0XVX@X0X@X@X+X+X@X+X+X+XOXOXOXOXOXOXOXP.|.OXOXP.|.|.|.|.OX|.P.|.P.|.|.P.P.P.P.|.L.|.L.P.L.|.|.L.P.P.L.L.L.L.L.L.L.L.L.L.L.L.L.L.I.L.L.L.I.I.I.I.I.L.L.%.I.I.%.%.I.%.%.%.%.I.%.%.%.%.%.%.%.%.%.O.I.I.%.%.O.I.%.%.O.%.O.%.%.O.%.%.%.O.O.%.$.$.O.$.O.$.$.$.$.$.$.O.$.O.O.$.o.o.+.$.$.O.o.o.o.O.o.o.o.o.O.o.",
"o.o.o.o.o.o.X.o.o.+.+.o.o.o.+.+.+.o.o.+.+.+.+.+.$.+.$.$.$.$.$.$.$.+.$.$.$.&.$.%.%.%.$.%.&.&.%.$.%.%.%.%.%.&.&.%.%.%.%.%.%.%.%.n.I.%.%.I.I.I.I.I.I.I.I.I.I.I.I.I.I.L.L.I.I.L.L.L.L.L.L.L.L.L.L.L.L.P.L.P.P.L.P.L.P.P.L.P.P.P.P.P.P.P.P.P.P.OXP.OXP.|.P.P.P.P.P.P.|.OXOX+X+X@X@X0X0X@X0X0X0X@XVX@XVXU.0X0X0X+X@X0XoXoX+XoXoXoXoX+X@X0X@X0X0X@XoX0X0X0X0X0X0X0XtXtXtXyXtXtXnXtXyXnXnXnXnXnXnXnXsXmXMXmXmXsXmXgXmXmXMXMXmXgXmXmXmXmXMXMXMXMXMXMXMXMXMXMXMXMXNXMXMXMXNXNXMXNXNXNXNXNXNXNXNXNXNXNXNXNXNXNXNXNXNXSXNXNXNXNXNXNXNXNXSXNXNXNXKXNXNXNXAXAXNXSXNXNXSXNXNXNXNXSXNXNXSXNXNXNXSXNXNXNXSXNXAXSXAXAXAXNXNXNXNXNXNXNXNXNXNXNXNXNXMXMXNXmXMXMXmXMXMXmXmXMXmXmXmXMXmXnXMXnXmXMXmXnXMXnXmXMXmXnXMXsXnXnXnXnXMXnXnXnXnXnXnXnX0XnXnXVXtXVXVXVX8XVXVXE.@XVX0X@X@X+X+XOX+X+XOXOXOXOXOXOXOXOXOXP.P.OXOX|.P.P.P.OX|.|.|.P.L.P.|.P.P.P.P.P.P.P.P.P.P.L.P.P.L.|.L.|.P.L.L.|.P.L.L.|.L.L.L.L.|.L.L.L.L.L.I.L.L.I.L.L.I.L.%.L.I.I.I.I.I.I.I.I.%.%.I.%.%.I.%.%.%.%.%.%.%.%.%.I.%.%.I.O.I.%.O.%.%.%.%.O.%.%.%.O.$.%.$.$.$.$.$.O.O.$.$.$.$.$.$.$.+.+.o.o.$.o.o.o.$.o.O.$.o.o.o.o.",
"X.o.o.o.o.o.X.o.X.+.+.o.X.o.+.+.o.+.#.o.+.+.+.$.$.$.$.+.$.$.$.$.$.&.$.+.$.$.$.$.$.%.%.%.$.%.%.%.%.$.%.&.%.%.&.%.%.%.%.%.%.n.%.%.%.I.%.I.I.I.%.I.I.I.I.I.L.I.I.L.I.I.I.I.L.L.L.L.L.L.L.L.L.L.P.L.P.P.L.L.L.P.P.P.L.P.L.P.P.P.P.P.P.P.P.P.P.P.P.P.P.P.OXP.|.P.OXP.|.OX.XOXOXOX+X+X@XVX@X@X@XVX@X0XIXIX0XU.U.0X0XU.@XoX+XoX@X0X+X0X@X@X@X@XoX0X0X0X0X0X0X0X0X0X0XtXtXyXnXnXnXyXnXnXmXaXnXsXnXmXaXnXnXmXMXMXMXmXnXMXMXmXmXMXMXMXMXMXMXMXMXMXMXMXMXMXMXMXMXNXMXNXNXMXMXNXNXNXNXNXNXNXNXNXNXNXNXNXNXNXSXNXNXSXNXNXNXNXNXNXNXAXNXAXNXNXNXNXNXNXNXNXNXKXNXNXNXNXNXNXSXSXSXNXNXSXNXNXSXNXNXSXSXNXNXAXNXNXAXAXSXSXSXNXNXNXNXNXMXNXNXMXNXNXMXNXMXMXMXmXMXmXmXmXmXnXMXmXMXmXMXMXMXmXMXMXmXMXnXMXnXmXnXmXnXnXnXnXVXnXwXnXnXVXnX0XVXnX0XVXVXIXE.VXIXVX@XIX@X+XOXOXOXOXOXOXOX.XOX.XOXOXOX|..X|.P.OXOXP.OXP.P.|.|.|.|.|.|.OX|.|.|.P.|.P.P.|.|.P.P.P.P.P.P.|.L.|.|.L.|.L.L.|.P.L.P.L.P.L.L.|.L.L.L.L.L.L.L.L.L.L.L.L.L.I.L.I.%.L.I.%.%.L.%.I.I.%.I.I.%.%.%.I.I.%.%.I.%.%.%.%.%.O.%.%.O.%.O.%.I.%.%.O.%.%.O.O.%.%.$.$.$.$.$.$.$.$.$.$.O.$.$.O.O.$.$.o.$.o.o.$.$.O.O.o.$.o.$.o.o.o.",
"o.o.o.X.o.$.+.+.+.+.+.+.X.+.+.+.$.o.$.o.+.$.$.$.$.$.$.$.$.$.$.$.&.$.&.%.%.&.%.$.$.$.%.$.&.&.%.$.%.%.&.%.%.&.&.n.n.%.%.%.%.I.n.n.I.%.I.I.I.I.I.I.I.I.m.I.I.L.I.L.L.L.L.L.L.L.L.L.M.L.L.P.L.P.L.P.L.P.t.P.L.P.L.P.P.P.P.P.P.P.P.P.P.P.P.|.P.OXP.P.OXP.P.OX|.OXP.OX|..X.X|.U.OXOXOXOX+XE.@X@X@X0X0X0X7X0X0X0X0X0X+X@X0XoX0X@XoXqX@X@X0X0X0X0X0X@X0X8XVX0X0X0XnXtXtXnXtXnXyXnXnXnXnXnXnXnXnXmXmXnXmXmXgXnXmXmXMXMXmXmXMXmXMXMXMXMXMXMXMXMXMXMXNXNXNXMXNXNXNXNXNXNXNXNXNXNXNXNXNXNXMXNXNXNXNXNXNXNXNXNXNXNXSXNXNXSXNXNXSXAXNXNXAXNXNXNXNXNXNXNXNXNXNXNXNXSXNXNXNXNXNXNXSXSXNXNXSXSXNXNXSXNXNXSXAXSXNXNXAXNXNXNXNXNXNXNXNXNXMXNXMXMXNXMXMXMXMXMXMXMXMXMXMXMXMXmXmXmXMXmXmXmXMXnXmXnXmXnXnXnXnXnXnXnXnXnXwXnX0XnXVX0XVXVXE.VXE.VXH.+XIXIXU.U.E.OXOX+XU.OX|.OXOX.XOX.X.XOX.X.XP.P.OXP..XOXP.|.|.P.OXOXP.OX|.|.|.P.P.P.P.|.|.L.OXP.|.P.L.|.P.P.|.P.P.|.L.L.|.L.|.|.L.|.P.L.|.L.L.L.L.L.L.L.L.L.L.L.L.L.L.L.L.L.I.L.I.L.%.L.I.I.I.I.I.I.%.I.%.%.I.%.%.%.%.%.%.%.%.%.%.%.%.%.%.I.%.I.I.O.%.%.%.O.%.%.%.O.%.%.$.$.%.$.$.$.$.$.$.$.$.$.$.$.$.$.$.o.$.$.o.o.$.o.+.o.O.O.o.o.o.",
"..X.o.o.+.+.X.+.+.$.$.$.$.+.+.+.#.o.+.$.$.$.$.$.$.$.$.&.&.$.$.&.&.+.&.$.&.+.&.&.%.%.&.&.%.%.&.&.$.&.%.%.&.&.n.&.%.%.%.n.n.I.n.n.I.I.I.I.%.I.I.I.I.I.L.I.I.I.N.L.L.B.L.L.B.L.L.L.L.L.L.P.L.P.L.P.P.P.P.L.P.P.L.P.P.P.P.P.P.P.U.P.P.OXOXP.P.|.OXP.OXP.OXP.OXOXOXP.|.OXOX.XOXOXIXU.OXOX+X+X+X@X@X@X0X7XVXE.0X0XqX0X0X0X0XoX7X0X@XoX@X0X0X@X0X0X0X0X0XVX8XtX8XyXtXyXnXyXyXnXnXnXyXmXmXmXmXmXmXnXmXnXMXmXmXMXmXMXMXMXMXMXMXMXMXBXNXMXMXMXMXNXMXNXNXNXNXNXNXNXNXNXNXNXSXNXNXNXNXNXNXNXNXNXNXNXNXBXNXNXNXNXSXNXSXNXNXNXNXSXNXNXNXNXNXNXAXAXAXAXNXAXNXAXNXSXNXNXNXNXNXNXNXNXSXNXNXSXSXAXNXSXSXNXNXNXNXSXAXAXAXNXNXNXNXNXBXNXMXMXMXMXMXMXMXNXMXMXMXMXmXMXMXMXMXMXMXmXmXmXMXmXnXmXnXnXnXnXnXsXnX8XnXVXVXVXnXVXVX0XIXE.VXIXIXU.VXU.+X+XOX+XOXOXOX|.OXOXOXOXOX.XOXOX.X.XOX|.P.OXOXP.OXP.OXP.P.OXP.OXP.P.OXP.P.|.OXP.P.|.|.OX|.P.P.P.|.P.|.OX|.P.|.P.P.P.L.|.P.P.|.L.L.|.L.L.L.P.P.L.L.L.L.L.L.L.L.L.L.L.L.L.L.L.L.L.L.L.L.L.I.%.L.L.L.I.I.I.I.%.%.%.I.%.I.%.%.%.%.%.I.%.%.%.I.O.%.%.%.O.I.%.%.O.%.O.%.O.%.O.$.$.$.%.$.$.%.$.$.$.$.$.$.$.O.$.$.$.o.$.$.O.o.o.$.o.o.O.o.$.o.o.",
"$.o.X.+.+.o.o.$.+.+.+.+.$.$.$.$.$.$.$.$.$.$.$.&.$.&.&.#.&.&.&.&.&.&.%.$.%.&.&.&.$.%.&.%.&.%.%.%.%.%.%.I.n.n.n.n.I.I.n.n.n.I.n.I.I.I.I.I.I.I.I.I.I.L.L.L.L.L.L.L.L.L.L.L.L.L.L.P.P.B.P.L.P.L.P.P.L.P.P.P.P.P.P.P.P.P.P.P.P.P.P..XP.P.P.P.P.OXP.P.OXOXP.OXOXP.OXOXOXOX|.OXOX+XU.U.OXOX+X+X+X+X@XVXU.IXIXVX@X0X0X0X0X0X0X0X0X0X0X0X0X@X0X0X0X0X0X0X8XtXnX0XnXtXyXnXyXyXnXyXgXnXnXsXnXnXsXnXgXmXMXMXMXmXmXMXMXMXMXMXBXMXMXMXMXNXNXNXNXNXNXNXNXNXNXNXNXAXAXAXNXAXNXAXNXNXNXNXNXNXNXNXNXNXNXSXNXSXSXNXSXSXNXNXNXNXSXNXSXNXSXNXSXNXSXSXAXAXAXAXAXAXAXAXSXNXNXSXSXNXSXSXSXSXNXSXNXNXNXNXNXNXNXNXBXNXNXBXNXNXNXNXBXNXNXMXNXMXMXNXMXMXMXMXMXmXMXMXMXMXMXMXmXmXmXmXnXMXMXnXnXnXnXnXnXnXnX8XnX0X0XVX0X0XVXE.E.VX0X0X@X@X@X+XU.IX@XIXOXOXOXOXOXOXOXOXU.OXOXOXOXP.P.OXOX.X.XOXOXP.OX.X.X.XOXOXP.OXOXP.OXOXP.P.|.P.|.|.P.OX|.|.|.OX|.|.|.P.|.P.|.|.|.L.P.|.|.|.P.P.P.|.|.L.P.|.P.L.L.P.P.P.L.P.L.|.L.L.L.L.L.L.L.L.L.L.L.L.%.L.L.I.L.%.I.%.%.I.I.I.I.I.%.I.I.%.%.%.I.%.%.%.%.%.%.%.%.%.%.%.O.%.%.%.%.%.%.%.%.%.$.%.$.$.$.$.$.$.$.$.$.$.$.$.%.O.o.$.$.o.$.$.$.o.o.o.$.$.o.o.o.o.",
"+.+.$.o.+.+.+.+.$.+.+.$.$.$.$.$.#.$.&.&.#.&.&.&.&.m.&.&.&.&.&.&.&.&.%.+.m.+.&.%.%.%.%.%.m.n.n.%.n.%.%.n.&.n.n.n.I.n.n.n.I.I.I.I.I.I.I.I.I.I.I.I.L.N.B.L.L.B.L.L.L.L.L.P.B.L.B.L.L.L.P.B.L.P.P.P.P.L.P.P.P.P.P.P.P.P.P.P.P..XP.P.OXP.OXOXOXP.OXOXOXP.OXOXOXOXOXOX+XOX+X@XOXOXU.IX+X@X@X+XU.@XU.E.IXU.E.IX@X0X@X0X0X0X0X0X0X0X0X0X0X0X0X0X0X0XtXtXtXtXyXyXtXyXnXtXnXyXnXnXyXyXmXsXnXsXmXmXmXMXMXmXMXMXMXMXMXMXMXMXMXNXMXMXNXNXBXNXMXNXNXNXNXNXAXAXAXAXAXNXAXAXNXAXNXNXNXNXNXNXNXNXNXNXNXNXNXNXSXNXNXNXSXNXNXSXNXSXNXSXSXSXSXSXSXSXAXAXAXAXAXAXAXAXSXNXSXNXNXSXNXNXNXSXNXNXNXNXNXAXBXNXNXNXNXNXNXNXMXNXNXNXMXNXNXMXMXNXBXMXMXMXMXMXMXMXMXmXmXMXmXMXmXMXmXmXnXnXnXnXnX8XnX8XnX0XnXVX0XVX0X0X0X0XE.IX0X0XU.IX@X@X+X+X+X+XU.@XOXOXOXOXOXOXOXOXOX|..XOXOXOX|..X.XOX.X|.OX.XP.OXP.OX|.OXP.OXOXP.P.OXP.OX|.P.|.|.|.|.P.OX|.|.|.OXP.|.P.|.|.|.L.|.|.P.P.L.P.P.|.L.L.|.L.|.L.P.P.L.P.L.P.L.L.L.L.|.L.L.L.L.L.L.L.L.L.L.L.L.L.L.L.%.I.I.L.%.I.I.%.I.%.I.%.I.%.I.%.%.%.%.%.%.I.%.%.%.I.O.I.%.%.O.O.%.%.O.O.%.$.%.$.%.%.$.%.$.$.$.$.$.$.$.$.%.$.$.$.$.$.$.$.$.$.o.$.O.o.$.$.O.",
"o.o.X.+.$.o.#.$.$.$.$.$.#.$.$.&.$.&.&.&.&.&.&.&.#.&.&.&.m.%.%.%.&.&.m.m.&.n.%.%.%.%.%.n.n.&.&.m.n.m.n.n.n.n.n.m.n.n.n.I.m.I.I.m.I.I.I.I.I.I.I. XL.L.I.L.L.L.B.L.L.L.L.L.P.L.P.P.P.P.L.L.P.P.P.P.P.P.P.P.P.P.U.P.U.P.U.P.P.U..X.XOX|.OXP.OXOXOXOXOXOXOXOXOXOXOXOXE.IXU.U.IXU.0XU.+XU.E.IX0X@X0X@XIXIXE.IXqX+X0XqX0X0X0X0X0X0X8X0XtX0XwXtXtXtXtXwX8XtXyXtXnXyXnXaXnXnXnXsXmXmXmXnXmXMXgXmXMXMXMXMXMXmXMXBXNXBXNXBXNXBXNXNXBXNXNXNXNXNXNXNXNXNXNXAXAXAXNXAXAXNXAXAXBXSXNXSXNXSXSXNXNXSXSXSXSXSXSXSXSXSXSXSXSXSXSXNXKXSXSXSXSXSXSXSXAXKXKXAXAXKXAXKXSXSXSXSXBXSXSXBXNXNXNXNXNXAXAXSXNXSXNXNXNXNXNXNXNXNXNXBXBXNXMXNXMXMXNXNXMXMXMXMXmXMXmXMXmXmXmXmXnXnXnXgXnXtXnXtXnX0XnXVXnX0X8XVX0X0X7XVX7XIXVXIXU.0XVXU.IX+X+X+X+X+X+X@X+XOXOXOXOXOXOXOXOXOXOX.XOXOXOXOXOX|..X|..X.XOX.XOX.XOXP.OXOXP.OXP.OXOXP.OXOXP.OX|.L.OX|.|.|.P.P.|.P.OX|.P.|.|.|.P.|.|.|.|.|.|.L.|.P.|.L.|.L.P.P.L.P.P.L.L.|.L.L.L.L.|.L.L.L.L.L.%.L.L.L.%.L.L.L.L.I.I.I.I.%.I.I.I.I.%.I.I.%.I.I.%.%.I.%.%.%.%.%.%.%.%.%.%.%.%.%.%.%.%.%.$.$.%.$.$.$.$.$.$.%.$.$.$.$.$.O.$.$.$.$.o.$.$.o.$.$.o.$.o.o.o.o.",
"+.X.+.+.+.X.&.$.X.$.$.$.#.$.#.&.&.&.&.m.m.$.m.$.m.&.$.&.m.#.&.m.n.m.+.m.+.n.m.&.n.n.m.m.n.I.m.I.m.n.m.I.m.I.I.m.m.I.m.m.I.I.I.L.%.%.P.%.N.I.L.L.L.L.L.L.L.L.P.L.P.B.L.P.P.L.B.P.L.L.B.P.P.P.P.P.P.P.P.U.P.P.P..X.XP..XU..X.XU..XOXOXOXOXOXOX+XOXOX+XE.+X+X+XoX+XIXU.IXU.0XU.U.IXU.0XU.0X0XU.0XU.E.VXE.IXIXE.VXVX0X0X0X0X8X0X8XtXtXwXtXtXtXyXrXyXyXyXnXyXnXyXnXyXsXyXsXnXmXmXsXmXmXMXMXmXMXMXMXMXMXMXMXNXBXMXNXBXNXNXNXNXBXNXNXSXBXSXNXSXNXNXNXNXAXAXAXAXAXAXAXAXNXSXSXSXSXSXSXSXSXNXSXSXSXSXKXSXKXSXKXSXSXSXKXNXKXSXSXSXSXSXKXSXSXKXSXSXSXSXSXSXSXKXNXNXSXSXSXSXNXNXSXNXSXBXSXNXNXBXNXSXNXNXNXNXNXBXNXBXNXMXBXNXNXNXBXNXMXMXMXMXMXMXMXmXmXMXMXnXnXnXnXnXtXnXtXtXVX8XnX0XnX0XVX7X0X0XVXE.IXVXVXVXVX0XU.IXU.VXU.VX+X+X+X+X+XOXOXOXOXOXOXOXOX.XOX.XOX|.OXOX.XOX|.OXOX.XOXP.P.OXOXP.OXP.OXOXOXP.OXOXOXP.P.OXP.|.OXP.|.|.|.|.|.OX|.P.|.|.P.|.|.P.|.P.L.|.|.L.|.P.P.P.L.|.L.|.L.L.P.L.P.L.P.L.L.P.P.L.L.L.L.L.L.L.L.L.I.L.L.I.L.I.I.I.I.I.I.I.I.I.I.I.I.I.I.I.%.%.%.%.%.I.%.%.%.%.%.%.O.%.%.O.%.%.%.%.%.%.%.$.$.$.%.O.$.$.%.%.$.$.%.$.$.$.$.$.$.$.o.$.$.o.$.o.$.$.o.$.",
"+.o.+.+.+.+.+.+.#.$.$.$.&.&.$.l.&.&.&.&.$.m.+.m.m.&.m.&.&.m.%.&.+.n.n.n.n.m.m.n.m.m.I.I.m.m.I.m.n.n.I.N.I.m.I.L.N.I.I.I.L.m.I.m.L.%.L.P.N.L.L.B.L.N.B.L.L.L.L.P.L.P.P.L.P.P.P.P.P.P.P.P.P.P.P.U.P.P.P.P.P.U.P.U.P.U.U..X.XU..X.XOXOXZ.OXXX+XOXE.+X+X+XoX@X@XoXoXE.0X0X0X0XVX0X@XVX7XVX0X0X0X0X0X0XIX0X0X0X0X0X0X0X0X8XtXtXtXtXtX0XtXwXtXyXyXnXyXnXyXyXnXaXyXyXmXmXmXmXmXsXmXMXmXMXgXmXMXMXMXMXMXMXBXMXMXNXMXNXNXBXNXBXNXNXNXNXNXNXNXNXNXNXNXNXNXAXAXSXAXAXAXSXSXSXSXSXSXSXSXSXSXKXKXKXSXKXKXSXSXSXKXSXSXKXSXSXKXSXSXSXKXSXSXSXSXSXSXAXSXSXSXSXSXSXNXSXSXNXSXNXSXSXNXSXSXNXSXNXSXSXSXNXNXNXNXBXNXNXNXNXBXNXNXMXNXMXMXMXMXMXMXMXMXMXnXMXMXMXnXwXnXnXmXnXyXyXtXtXtXnX8XVX0X0XIXVXVXIX0XVXIXE.VXE.U.VXU.IX+XVXU.IXU.+XOXOX+XOXOXOXOXOXOXOXOXOXOXOXOXOXOX.XOXOX.XOXOX.X.XOXOXOXOX.XOXOX.XOXP.OXP.OXP.P.OXOXP.OX|.OX|.|.P.OXP.|.L.|.|.|.|.P.|.P.|.P.|.P.|.|.L.P.P.P.P.P.P.P.L.P.|.L.P.P.P.L.L.L.L.L.L.L.L.P.L.L.L.L.L.L.L.L.L.L.L.I.I.I.I.I.I.I.I.I.I.I.I.I.%.I.I.I.%.%.%.%.%.%.%.%.%.I.%.%.I.O.%.%.O.%.$.$.%.%.$.%.%.$.%.$.$.$.%.$.$.$.$.$.$.$.$.$.$.$.$.$.$.$.o.O.$.",
"+.+.+.+.+.$.X.&.#.$.$.#.$.#.&.&.&.l.$.&.l.&.&.&.&.&.m.m.m.&.m.m.n.m.n.n.n.m.n.m.m.m.m.I.m.I.L.I.N.I.I.N.m.L.N.L.N.L.N.N.B.B.I.L.L.L.L.P.N.L.P.L.P.L.P.L.L.P.P.L.P.L.B.P.P.P.P.P.P.P.P.P.P.P.P.U.U.U.P.U.U.U..X.X.X.X.XOXOX.XOXOXOXOXXXXXOXXXXXOX+X+XoX+XoXoXoXoXU.VX0X0X0X0X0XIX0X7XU.0X0X0X7X0X0X0X0X0X0X8X0X0X8X0X8XtX8X8X0XtX8XtXnXtXtXyXyXsXyXyXyXnXnXmXmXnXnXsXmXMXMXmXMXMXMXMXMXMXMXMXMXBXMXMXMXBXNXBXMXBXNXSXNXBXBXNXNXSXSXNXNXSXSXNXNXSXAXAXAXAXSXSXSXKXSXKXKXSXKXKXSXKXKXKXKXKXKXKXKXSXSXSXKXSXSXKXSXSXKXNXSXSXKXSXSXSXSXSXSXAXSXNXSXNXSXSXBXSXSXSXNXSXSXNXNXSXSXNXNXNXSXNXSXBXNXNXNXNXBXNXBXNXBXMXBXNXMXsXMXmXMXMXMXMXMXnXMXmXnXnXMXnXgXnXtXnXtXtXtXtX0XVXVXVX0XVX0XVX0X0XVXVXVXIX@X@X0X+X+X+X+XIXU.VXOXOXOX+X+XOXOXOXOXOXOXOXOXOXOXOXOXOXOX.XOX.XOXOXOXOXOXP.P.OXOXP.OXP.OX.XOX.X.X.XOXOXP.OXP.OXP.OXOX|.|.P.OX|.OX|.|.P.P.P.|.|.P.|.|.|.L.|.L.P.P.P.P.P.|.L.L.|.P.L.P.L.L.P.P.L.L.L.P.P.L.L.L.L.L.L.L.L.L.L.I.I.L.L.I.I.I.I.I.I.I.I.I.%.I.I.I.I.I.I.%.%.%.%.%.%.%.%.%.%.%.%.%.%.O.%.%.%.$.$.%.O.$.%.%.$.%.$.%.%.O.$.$.$.$.$.$.$.$.$.$.$.$.+.+.$.$.o.",
"+.+.+.+.X.X.$.$.+.#.$.$.#.$.$.&.&.$.m.&.&.&.&.m.m.&.m.%.&.m.%.m.m.m.m.m.m.m.m.m.m.I.L.m.L.m.m.M.N.M.L.N.L.L.m.B.L.B.L.N.L.L.L.B.P.L.P.P.P.B.P.P.P.P.P.P.B.P.P.P.P.P.P.P.P.P.P.P.U.P.P.P.U.P.U.U.U.U..X.X.X.X.X.X.X.XOXOXOX.XOXE.OXOXOX+XXXXX+XXX@X@XoXoXoXoXoX@X0X0XU.IXE.IX0XE.0X7X0X0X7X0X0X0X7X0X7X0X0X0X0X8XtXtX0X0XyXyXyXyXnXnXwXnXyXyXnXnXsXnXsXMXaXsXmXsXMXmXMXsXmXMXmXMXMXMXMXMXMXMXBXNXMXBXNXNXBXNXNXNXNXNXBXNXSXNXNXNXNXNXNXNXNXSXAXSXAXKXSXKXKXKXSXSXSXKXSXKXSXKXKXSXKXSXKXSXSXSXKXSXKXSXSXKXSXSXSXKXSXSXSXSXSXNXSXNXAXAXAXAXSXNXNXSXBXNXNXNXNXSXNXSXNXNXSXBXNXNXNXNXNXNXNXNXBXNXBXBXNXMXMXNXNXMXMXMXMXMXMXMXMXMXnXmXgXMXnXgXMXnXnXnXtXnXtXyXtXtXwXtXnX0XVXE.E.VX0XE.IXE.E.0XVXU.@X@XE.IX@X@X+XE.VXU.+X+X+X+XOX+X+XOXOXOXOXOXOXOXOXOXOXOXOXOXOXOX|.OX.XOXOXOXOXOXOXOXOXOX.XOXOXP.OXOXP.OXOXP.OXP.OXP.|.P.OXP.P.|.P.P.P.OXOX|.|.P.P.|.|.P.|.|.|.|.|.P.P.|.L.|.|.L.L.|.P.P.P.L.P.P.P.L.L.L.L.L.L.L.L. XL.L.L.L.L.L.L.L.I.I.I.I.L.I.I.I.I.I.I.I.I.I.I.I.I.I.I.%.%.%.I.%.%.%.%.%.%.%.I.%.$.%.%.%.%.%.$.%.$.%.$.%.O.%.%.$.%.$.$.$.$.$.$.$.$.$.+.+.$.+.o.$.",
"X.X.+.+.$.&.+.+.#.+.$.&.#.&.&.&.l.$.&.m.m.&.m.&.+.m.n.m.m.m.m.m.m.m.I.M.N.m.m.I.L.I.m.L.m.L.m.L.B.L.L.B.B.L.B.B.P.B.P.P.P.B.P.B.P.P.P.B.P.U.P.U.J.U.U.P.P.J.U.P.P.B.P.P.U.P.U.U.U.U.U.U.U.U.U.U..XU..XU..X.X.XOXOXOXOXE.OXXXXXXXOX+X+XXXoXoXoXoXoXoXoXoXoXoXoX0XE.VXIXE.0XVX7X7X7XE.VXVX0X0X0X8X0XtXtX8X8XnX0X8XyXyXyXyXyXyXyXyXnXnXgXnXnXsXwXnXnXnXsXnXmXsXmXmXmXsXMXmXMXMXMXMXMXMXMXMXNXMXBXNXBXNXNXBXNXNXNXNXBXNXSXSXNXBXSXNXSXSXNXSXSXSXSXSXSXSXSXKXSXSXSXKXSXKXSXSXSXKXKXSXSXSXSXKXKXSXSXSXSXSXKXSXSXSXSXSXSXSXSXSXSXNXNXSXAXAXBXNXNXNXNXBXNXNXNXSXBXNXNXNXNXBXNXNXBXNXBXNXBXBXMXNXMXMXMXMXMXMXMXMXMXMXMXmXMXmXMXmXmXmXmXsXnXnXmXnXnXnXnXnXnXtXtXwXtXtX0X0X0X0X0X0XVXE.VXU.@XVXIXE.E.VX@X@X@X+X@XIX@X@X+X@XU.VXE.+XU.VXU.IXOXOX+X+XOXOXOXOXOXOXOXOXOX.XOX|.OXOXOXOXP.OXOXOXOXOXOXP.OXOXOXP.P.OXOXP.OXOXP.OXOXP.OXOXOXL.|.|.|.|.|.OX|.|.|.|.P.|.P.|.|.P.|.P.L.|.P.L.P.P.P.P.L.P.L.P.L.P.L.L.L.L.L.L.L.L.L.L.L.P.L.L.L.L.L.L.I.I.L.L.L.I.I.I.I.I.I.I.I.I.I.I.%.I.I.%.I.%.%.%.%.%.I.%.%.%.%.%.%.O.%.%.%.%.%.%.$.$.%.$.$.%.$.%.$.$.%.$.&.$.$.$.$.$.$.$.$.$.$.$.",
"$.+.+.+.$.X.X.$.+.+.#.$.&.X.#.&.$.m.&.&.+.m.&.l.n.m.m.m.n.n.m.n.m.m.M.I.m.m.L.m.B.m.L.M.M.L.B.L.L.B.L.L.P.B.P.L.B.P.B.P.B.P.J.P.P.P.U.B.U.U.U.J.U.U.U.U.U.U.U.U.U.U.U.U.U.U.U.U.U.U.U.U.U.OXU.+XU.OX.XOX.XOXOXOXE.XXXXOXXXXXoXXXE.OX+XoXoXoXoXoXoXoX@XoX@XoXoXoX0XVX0X0X0XE.VX0X0X0X8X0X8X0X8XtX8X8X8XtXnXwXtXnXyXyXyXyXyXyXnXmXwXnXnXwXnXnXMXnXgXmXMXmXmXMXMXsXMXMXMXMXMXMXMXMXMXMXBXMXMXNXNXBXNXBXNXNXNXNXNXSXSXNXNXSXSXSXSXSXSXSXSXSXSXNXSXSXKXSXSXKXSXKXKXSXSXSXSXKXSXSXSXSXSXSXSXSXSXSXKXSXKXSXSXSXSXSXSXSXSXBXNXSXBXSXNXSXAXAXNXNXNXBXNXBXNXBXNXNXNXBXBXNXBXNXBXNXNXBXMXMXNXBXBXNXBXMXMXMXMXBXnXMXMXMXMXMXmXMXmXMXMXsXmXmXmXsXgXnXnXwXnXwXwXnXtXtXtXtX0X0X0X0X0X0XIXIX0XIXIXU.IXIXVXU.@X@X@XIX+XE.@X@X@X+XIXU.IX+XVXU.IXU.OXOXOX+XOXOXOXOX.XOXOXOXOXOXOXOXOXOX.XOXOXOXOXP.P.OXOXOXOX.X.XOXOXOXOXOXP.OXOXP.P.OXP.OXP.OXOXP.|.|.P.P.|.|.|.|.|.|.|.P.|.P.P.P.|.P.P.|.P.P.P.P.P.P.|.L.P.L.P.P.P.P.P.P.L.|.L.L.L.L.L.L.L.L.L.L.L.L.L.I.L.I.I.L.I.I.I.I.I.I.I.I.I.I.I.I.I.I.%.I.%.%.%.%.%.%.%.%.%.%.%.%.%.O.O.%.%.%.$.%.%.$.%.$.%.$.$.$.$.$.$.%.&.$.$.$.$.$.$.$.",
"$.+.+.$.+.#.&.#.$.&.m.X.m.&.l.&.m.$.l.m.&.m.m.m.m.m.m.m.m.m.N.N.L.m.M.L.B.L.I.B.L.B.B.B.B.B.L.B.B.P.P.B.P.B.B.B.P.B.B.U.B.U.B.U.J.U.P.U.U.P.J.U.U.U.U.U.U.U..XU.U.U.+XU.OXU.U.U.U.U.U.+X+XU.+XU.XXOXOXXXOXXXE.OXoXXXOXXXoXXXoXoX@X@XoXoXoXoXoX@XoX0X0X@XoXoX0XE.0XE.7X0X0X0X7X0X0X0X0X8X8X8X8X8XyXyXeXyXyXyXyXyXyXnXyXmXmXaXmXaXmXnXgXMXMXMXnXgXmXmXmXMXMXMXmXMXMXMXMXMXMXMXMXMXMXMXMXBXNXNXBXNXSXNXBXSXSXNXSXNXSXSXSXNXSXSXSXSXSXSXSXSXSXKXSXSXAXSXSXSXKXSXAXKXKXSXSXSXSXSXKXSXSXSXSXSXSXSXSXSXSXNXSXSXNXSXNXSXNXSXBXSXSXNXNXBXNXNXBXNXNXBXNXSXNXSXBXBXNXNXBXBXNXNXBXBXBXBXMXNXMXMXMXMXNXBXNXMXMXMXMXMXMXMXMXnXMXsXmXMXsXmXmXgXnXnXnXnXnXnXnXnXnXtXtXtXtX0X0XtX0X0X0X0X0X7XE.VXVXE.U.IX@X@XVXE.@XU.U.VXIX+X@XU.@X@X+X@XE.IXU.VXOX+X+XOXOXOXOXOXOXOXOXOXOXOXOXOX|.OXOX.XOXOX.XOXOXOXOXP.OXOXOXOXOXP.OXP.OXOXOXP.OXP.OXP.OXP.OXP.|.P.|.|.|.|.|.|.|.|.P.|.P.|.|.|.L.|.P.P.P.P.P.P.P.P.L.P.P.P.P.L.P.L.L.L.P.L.L.L.L.L.P.L.L.L.L.L.L.L.L.L.L.L.L.I.I.I.I.I.I.I.I.I.I.I.I.I.I.I.%.%.I.I.%.%.%.%.%.%.%.%.$.%.$.%.%.%.$.$.$.%.$.%.$.$.%.$.$.%.$.$.$.$.$.$.$.$.&.$.$.$.",
"+.l.l.+.$.&.&.l.h.&.&.&.#.m.m.&.#.l.&.m.m.m.m.m.n.m.N.m.n.M.N.m.M.N.L.M.B.B.B.B.B.B.B.P.P.B.U.U.B.J.B.U.B.U.P.U.J.P.U.B.P.U.U.U.U.U.U.U..X.X.X.XU.U.+XXX.XXXOXXX+XU.XXXX+X+XoX+X+X+X0XH.@X+XqXU.OXE.OXOXE.OXXXOXXXXXoXXXoXoXoX@XoX@XE.oXoXoX0X0X0XE.E.0X0X0X0XtX0X8X0X0X0X8XnX8X8X8X8XnXtX8XnXyXyXyXnXyXsXyXnXsXaXmXaXaXmXaXaXsXMXMXMXnXMXnXMXMXMXMXMXgXMXMXMXMXMXMXMXMXMXBXMXBXBXBXNXNXBXNXNXNXBXSXSXNXNXSXBXSXNXSXBXSXNXSXNXSXSXNXSXSXSXSXSXSXSXSXSXSXSXSXSXSXSXSXSXSXKXSXSXSXKXSXSXKXSXSXSXSXSXSXBXSXSXNXSXNXSXNXSXNXSXBXNXSXNXNXNXNXNXNXNXNXNXBXNXNXBXNXNXNXNXBXNXNXNXNXNXBXNXBXNXBXMXMXMXNXMXBXMXMXMXMXMXMXMXmXsXnXsXaXnXyXsXsXyXyXnX8XtXwXnXtXtXtXtXtXwX0X7XVX0X0X0X0X0XIXVX7XIX7X@X@XIX@X@XVX@X@X+XIXE.IX+X+X@X+X+X+XIXU.+X+XOX+X+XOX+XOXOXOXOXOX.XOXOXOXOXOXOXOXOXOXOXOXOXOXOXOXP.OXP.OXOXOXOXOXP.P.OXOXOXP.OXOX|.OXP.OXOXOX|.|.|.|.|.|.|.|.|.|.|.|.P.P.|.|.P.P.P.P.P.|.L.P.P.P.P.L.P.P.L.P.|.L.P.L.L.|.L.P.L.L.L.P.L.L.L.L.L.L.L.I.L.L.I.I.I.I.I.I.I.I.I.I.I.%.I.I.%.I.%.%.%.%.%.%.%.%.%.%.%.%.%.%.%.%.%.%.%.$.%.$.%.%.$.$.%.$.%.$.&.&.&.$.$.&.$.$.$.$.",
"X.&.l.+.&.l.&.+.l.&.m.$.m.&.m.m.m.m.m.m.n.m.m.n.m.m.N.m.B.m.N.B.M.M.B.B.B.B.B.B.P.U.B.U.B.P.U.J.J.U.P.P.J.U.B.|.[.B.[. XH.U.U.H.H.[..XH..X[..XXXXX.XXXOXXXXXXXXXXXXXXXXXXXXXXXXXoXoXoXoXoXXXXXXX+X+X+XoX+XXXoXXXXXoXoXXXoXoXoXqXoXoXoX0XoX0X0X7X@X0X0X7X0X0X8X0XtX0X8XtX8X8XtXrXrXyXyXrXyXyXyXyXaXyXyXdXyXyXyXdXaXdXnXaXMXyXaXmXmXsXMXMXMXmXMXMXMXMXMXMXMXNXNXNXNXNXNXNXBXBXNXBXNXSXNXSXNXBXNXSXSXNXNXSXNXSXSXNXSXSXSXNXSXBXSXSXSXSXSXSXSXSXSXSXSXSXSXSXSXDXSXSXSXSXSXSXSXSXSXSXSXSXSXSXSXSXSXSXSXSXSXSXSXSXSXSXAXSXAXAXSXFXFXCXBXSXNXBXSXNXNXSXSXBXBXNXBXBXBXBXNXNXBXBXNXBXBXMXBXBXMXMXMXMXBXMXMXMXBXMXMXMXmXnXnXnXnXmXsXnXyXyXyXyXyXtXnX8XnXnX0X8X8XnX0XnX0XnX0X0X0X0X0X0X0X0X0X0X0XqXVX7X0X0X0XU.IXIXU.IX+X+X+X@X+X@X+XU.U.IXOXIXU.IXOX+X+X+XOX+X+XU.OXOXOXOXOXOXOXOX.XOXOXOXOX.XOX.XOX.XOXOXOXP.OXOXP.OXOXP.OXOXOXP.OXOXP.OXU.OXP.|.|.|.|.|.|.|.|.|.|.|.|.|.|.P.|.P.P.P.P.P.P.P.P.P.P.L.P.P.P.P.L.L.P.P.L.P.L.L.L.L.L.L.L.L.L.L.L.L.I.B.L.L.L.L.L.L.N.I.I.N.I.I.m.I.n.I.I.n.n.&.n.n.%.n.m.%.%.%.%.%.%.%.%.%.&.%.%.&.&.&.&.&.&.&.&.&.+.&.&.+.&.&.+.+.n.+.m.+.",
"m.+.+.l.#.&.l.&.&.l.$.l.#.l.l.&.m.m.m.m.m.m.m.n.m.N.m.N.m.m.M.L.L.B.B.B.B.P.U.B.P.B.J.P.U.U.U.B.U.U.H.U.|.J.[.[.|.[.H.[..XH.[..X.X[..X.X.XXX[.XXXXXXXXXXXXXXXXoXoXXXoXoXoXoXoXqXXXXXoXqXoXqXoXoX@XE.E.oXoXoXE.oXoXqXoXoXoXqXoX7X7X7X7X7X7X7X7X0X7X0X0X8X0X7X0XrX8XrXyX8XtXyXyXyXyXyXyXyXyXyXaXyXaXaXyXyXdXmXyXdXmXyXmXsXMXdXmXdXdXMXdXdXMXMXgXMXMXMXBXMXMXBXBXBXBXBXNXBXNXSXNXNXBXNXBXBXSXSXFXFXNXSXSXBXSXBXSXNXBXSXSXSXSXSXSXSXSXSXSXSXSXSXSXSXSXDXSXSXSXSXSXSXSXSXSXSXSXSXSXSXSXSXSXSXSXSXSXSXSXSXSXSXSXSXSXSXSXSXSXSXSXSXSXSXSXSXSXSXSXSXBXNXBXSXNXNXNXNXNXBXBXBXBXMXBXBXMXMXMXMXMXMXMXMXMXmXMXnXnXnXwXnXnXwX8XnXwXnXnXwXnXyXyXyXyXyXnX8XwXnX8XnXnXVXyX8X8X8XnX8X8X0X0X0X0X0X0X0X0X0XU.0X0XU.0XVXE.0XIXE.VXU.IXE.+X+XU.IX+X@X+XE.IXU.+X+XOX@X+X+X+XIX+XOXOX+XOXOXOXOXOXOXOX.XOXOXOXOXOXOX.X.XOXOXOXOXOXOXOXOXOXP.P.OXOXP.P.OXOXP.OXP.OX|.|.|.|.|.|.|.|.|.P.|.P.|.|.P.|.P.P.|.P.P.P.P.P.P.P.P.P.L.P.P.P.L.P.P.P.N.L.P.P.P.L.P.L.L.P.L.L.L.L.L.L.N.I.I.L.I.I.I.m.I.L.I.I.I.n.n.m.n.n.n.n.%.%.&.%.%.%.%.%.%.%.%.%.%.&.m.m.%.&.n.m.&.&.m.m.m.m.%.&.n.n.m.m.m.m.m.",
"l.+.m.+.+.m.l.&.m.&.m.&.$.l.n.m.n.m.m.m.n.m.m.m.m.m.M.m.m.N.B.B.B.B.L.B.B.B.P.B.B.B.P.U.U.J.J.U.J.U.U.U.[.J..X[.[.H..X[.XX[..XXXXXXXXXXX{.XXXXXXXXOXoXXXoXXXoXXXoX{.XXXXoXoXoXXXoXoXoXXXoXXXoXoX@XoXoXoXoX7X0XoXoXoX7XoXqXqX0XoX7X7X0X0X0X0X0XtX8X8X0X8X8XrXyXrXyXyXyXyXrXyXyXyXyXyXyXaXaXyXaXaXdXdXmXaXmXyXmXdXaXMXdXdXaXaXMXmXMXmXMXMXgXMXBXMXMXMXMXMXBXNXBXNXBXNXNXBXNXBXBXSXSXBXSXNXFXSXSXFXBXSXSXNXSXSXSXSXSXSXSXSXSXSXSXSXSXSXSXSXKXKXSXKXSXSXKXSXSXSXSXSXSXNXSXSXSXSXSXSXSXSXKXSXSXKXSXKXSXSXSXDXSXSXDXSXSXSXSXDXSXSXSXSXSXSXSXSXSXBXNXBXNXSXNXBXBXNXMXBXBXMXBXMXMXMXMXMXMXdXmXdXsXnXsXyXwXyXnXnXwXnXrXnXnX8XnXVX0XtX8XnXeXyXyXyXnXnXnX8XnX8XnXwXyX8XnX0X8XtX8X0X0X0X0X0X0X0X0XU.IX0X0XU.E.IXU.VXU.0X0XE.U.IX+X+XVX+X+X+X+X+XU.IX+X+X+XU.+X+X+XU.+XOX+XOXOXOXOXOXOXOXOXOXOXOXOXOXOX.XOXOXOXOXP.OXP.OXOXP.OXOXOXOXOXOXOXP.P.OXOXP.P.OXP.|.|.|.|.OX|.|.|.|.|.|.P.|.|.P.P.P.P.P.P.P.P.P.P.P.P.P.P.P.L.P.L.L.B.P.P.L.P.L.L.P.P.L.B.L.L.L.L.I.L.N.L.L.L.L.L.N.I.I.m.I.m.I.m.N.N.n.n.n.n.m.n.n.%.%.%.%.&.n.I.I.m.m.m.n.m.m.m.m.N.m.m.m.m.m.m.m.m.m.m.m.m.M.N.m.",
"+.&.X.l.l.&.&.#.#.l.&.l.m.m.&.m.m.m.m.m.m.m.M.M.M.M.B.L.M.B.B.B.B.B.U.B.P.U.B.U.U.U.J.U.B.J.U.U.U.H.U.K.[.[.[.[.XXXXXXXXXXXX[.[..XXXXXXXXXXXXXXXXXXXXXXXXXXXXXXXXXoXoXXXoXXXoXoXqXXXoXqXXXqXoXoX@XoXwXoX7XoX7X0XqX0X0X0X7X0X7X8X0X0X8X8X8X8X8X8XrXyXyXyXyXyXyXyXyXyXyXaXyXaXaXaXdXaXdXaXmXyXdXmXmXyXdXmXdXdXdXmXaXMXmXsXMXMXMXMXdXMXMXMXMXMXBXBXMXBXBXNXBXBXNXBXNXBXSXNXSXBXNXNXSXSXFXSXSXBXSXSXSXSXSXSXSXSXSXSXSXSXKXSXKXSXKXSXKXSXKXKXSXSXSXSXKXSXSXSXSXSXSXSXKXSXSXSXSXSXSXSXSXSXSXSXSXSXSXSXSXKXSXSXSXKXKXSXSXSXSXSXSXFXSXSXSXNXSXBXNXBXBXBXBXBXBXMXMXBXMXMXsXMXmXsXnXsXnXsXyXyXyXyXyXyXtXtXyXnX7X8XVX8X0X8X0X8X0XwX8XtXVXwXtXtXrX8X8X8X0XnX8XnX8XnX8XnX8X8XtX0XnXtX8X0X0X0X0X0X0XIXIXE.IX0XIX@X0XU.IXIXU.IX0XIXU.IXE.IX@X+X@X+X@X+X+X+X+X@X+X+X+X+XOX+X+XOX+XOXOXOXOXOX+X.XOXOXOX.XOXOXOXOXOXOXOXOXOXOXOXOXOXP.OXP.P.P.OXOXOXOXP.OXOXP.OX|.OX|.|.|.|.|.|.|.|.|.|.|.|.P.|.P.P.P.|.P.P.P.P.P.P.P.P.P.P.P.P.P.P.L.P.P.L.L.P.L.P.L.L.L.P.L.L.L.L.L.L.N.L.n.L.N.N.L.L.I.N.I.L.I.N.L.L.N.I.N.N.N.%.%.L.L.N.N.L.n.n.L.N.N.n.N.N.N.B.N.N.M.M.N.N.M.M.N.B.N.B.L.N.B.",
"m.X.h.&.m.X.&.l.#.m.m.m.m.m.m.m.n.m.M.N.M.m.M.N.B.B.M.J.B.B.B.B.P.B.U.P.B.U.U.B.B.J.J.U.U.U.U.U.H.H.[..X[.XX{.XXXXXX[.XXXX{.XXXX{.XXXXXX{.XXXXXXXXXXXXXXXXqXXXXXoXXXoXXXXXqXXXXXXXoXqXoXqXqX#XoX0XE.E.0XwX7XwX0X0X8X0X8X0X8X8X8X8X8XrXrXyXrXyXeXyXyXeXyXyXyXaXaXaXmXaXyXaXaXaXaXdXyXdXdXyXmXdXyXdXdXmXdXmXdXMXdXMXdXMXMXMXMXMXMXBXMXBXMXBXNXBXNXBXBXBXNXBXNXCXNXSXBXBXSXSXSXCXSXNXSXSXSXSXSXSXSXSXSXSXSXSXKXSXSXSXSXSXSXSXDXSXKXKXSXKXDXKXSXSXSXSXSXKXSXSXSXSXSXSXSXSXKXSXKXSXKXDXKXKXSXDXSXKXSXSXSXDXSXSXSXSXSXSXSXFXFXNXBXBXMXBXMXMXMXMXMXmXMXMXMXsXmXmXyXsXyXyXyXyXyXyX8XtXeXyX8X8X8X8X0X0X8X8X0X0X8X7X0X8X0X8X0X0X0XwX0X0X8X8X0X0X8XnX0X8XnXnXnX8X0XnXnX0X8X8XtX0X0X0X7X0X0X0XE.IX0XE.IX0X0XU.IXE.0XE.U.IXE.E.IXIXE.E.0XVXE.U.IX+X+XU.IXE.+X+X+X+X+XIXE.IXOXOXOX+X+X+X+XOXOXOXOXOX+XOXOXOXOXOXOXOXOXOXOXOXOXOXOXP.OXOXP.OXOXU.OXU.OXP.OXOXU.|.|.P.OXP.|.|.|.|.|.|..XP.|.P.|.OXP.P.P.P.P.P.P.P.P.P.P.P.P.P.P.L.P.P.P.P.P.P.P.L.L.P.L.P.P.L.P.P.L.B.L.L.N.P.L.L.L.B.L.P.L.L.B.P.B.P.B.B.N.P.B.L.B.L.B.M.N.B.P.B.B.P.B.B.B.B.B.B.P.B.P.B.B.P.B.B.B.B.B.B.B.B.B.",
"&.m.&.&.&.m.l.&.m.m.m.m.m.m.m.m.M.m.M.N.N.B.M.M.B.B.B.L.B.B.B.B.B.U.B.P.U.B.B.U..XP.J.U.U.H.H.H.[..XXX{.[.XXXXXXXXXXXXXX[.XX[.[.XX[.XX[.XXXXXXXXXXXXXXoXXXXXXXqXXXoXXXqXoXXXqXqXqXqXqXqXoX8X7X8XVXnXVXwX0X0XwX0X8X8XrXrXrXrXrXyXyXrXyXaXeXyXeXaXeXaXaXaXeXaXaXyXyXaXaXaXdXdXmXmXmXdXdXmXMXdXdXmXmXdXMXMXFXdXxXMXBXMXMXBXfXMXBXBXMXBXBXMXNXBXNXBXNXNXBXNXSXBXBXSXSXSXSXSXSXSXSXSXSXSXSXSXSXSXSXSXSXKXSXSXKXDXKXDXKXKXKXDXKXKXKXSXDXKXSXSXDXDXKXKXSXKXSXDXSXKXKXKXDXKXDXSXSXSXSXKXSXSXSXSXSXSXSXSXFXSXFXAXFXFXFXAXBXBXBXMXMXMXdXmXMXsXsXaXsXyXeXyXyXyXrX8XyXrX8XtXrX8X8X8X8X8X8X0X8X0X8X0X8X0X0XtX0X7X0X0X0X8X8X0X0X0X0X8XVX0X8X0X8X0X8X0X0X7X7X0X7XE.nX8X0X8XtX0X0X0X0X8X0X0X0XoXIXVXVXE.0XIXU.0X0X@XIXIXVX0XIXVXVXU.U.IXIXU.IXVXIXE.IX+XVXU.IX+X+X+XU.+XU.IX+X+X+X@X+XOX+X+X+X+XOXOX+X+X+XOX+XOXOXOXOXOXOXOXOXOXOXOXOXOXOXOXOXP.OXP.OXP.OXOXP.U.|.OXOXU.P.OX|.P.|.|.P.|.|.|.|.|.P.|.|.P.|.|.|.|.P.P..XP.P.P.P. XU.P.P.P.P.P.P.P.P.J.P.U.P.U.P.P.U.P.U.P.P.B.P.B.U.B.B.B.P.U.U.J.J.P.J.P. XB.P.B.B.J.P.B.P.U.U.B.|.B.B.P.|.J.P.J.U.B.J.P.B.J.B.B.B.F.P.B.B.U.P.B.",
"m.l.&.l.l.l.m.m.m.m.m.m.M.m.M.M.B.M.M.N.M.B.N.M.B.B.B.B.B.B.B.M.B.B.B.B.B.B.B.B.B.U.U.J.H.H.U.XX[.{.XX[.XX{.XXXXXX{.XXXXXX[.[.XX{.[.[.XX{.XXXXXXXXoXqXXX{.oXqXXXXXoXqXqXoXqX7X7X7X7X9XqX7X7X0X8XwX0X8X0XwX0X0XwXyXrXrXrXyXrXeXyXyXeXyXeXaXeXaXyXaXaXaXyXyXyXaXaXaXaXyXdXaXmXyXdXaXdXaXaXaXdXMXdXMXdXdXdXMXdXmXFXMXBXBXBXBXBXBXBXBXBXBXNXNXBXBXSXBXSXSXBXSXSXSXSXSXSXSXSXSXSXSXSXSXSXKXSXDXKXDXSXDXDXKXKXDXSXDXKXDXKXKXKXSXKXKXDXDXSXDXSXSXKXSXSXDXSXSXKXKXSXSXSXSXKXSXKXSXSXSXNXSXNXNXBXNXBXBXBXFXMXMXdXdXmXaXaXaXyXyXyXaXyXyXyXyX8X8X8X8XtXtX8X8X0XtX8X8X0X8X0X8X8XtX8X8X0X8X0X0X8X0X0X8X0X0X0X0X8X0X0X7X0X0X0X7X0X9XVXE.nX0X0X0X7X0X7X0X0XE.0X0X7X0X0X0X0X7X0X0X0X0XqX0X0X0X0X0XVX0X0X0X0X0XIX0XU.IXU.0XU.U.0XIX@XU.@XIXU.IXU.VXU.U.IXIX@X+XIXU.0XIXU.+XU.@X+X@X+X+X+X@X+XqX+X+XOX+X+X+XXX+X+XOXOXOXOXOXOXOXOXOXOXOXOXOXP.OXOXOXOXOXOXOXP.U.OXOXP.OXOXOXU.OXOX|.|.|.|..XP.|.P.|.|.P.|.OXP.|.OXU..X.X.X.X.X|..XU.U.U.U.U.U.U.U.U.U.U.U.U.U..XU.U.U.U.U.P.[..X[.U.U.U.U.U.U.U.H.U.U.U.U.|.[..XB..X|.P.J.[.U.J.U.B.[.B.[.[.J.B..XU.J.U.B.U.B.J.J.J.B.B.J.U.B.B.J.",
"l.&.l.m.m.m.m.m.m.m.m.m.m.M.m.M.m.m.M.M.m.M.M.M.m.M.M.m.m.M.L.B.M.B.B.B.B.B.J.U.U.J.U.H.H.U.H.H..X{.[.[.XXXX{.XX[.XXXX{.XXXXXXXXXXXXXXXXXXoXXX*XXX{.qXXXqXXXqXoXqXqXqXqX0X7X7X7X8X7X8X7X0X8X8X8X0XwX0XwXtXtXwX0XrXrXrXrXyXeXrXyXyXrXeXyXeXaXyXaXaXeXaXaXaXmXaXaXaXyXdXaXdXaXdXdXdXMXMXdXMXdXdXFXdXFXMXMXxXFXdXFXBXNXBXBXNXBXFXFXNXSXFXSXSXBXSXSXSXSXSXSXSXSXSXSXSXSXDXSXSXSXDXKXDXKXDXKXSXKXKXKXKXKXSXDXKXKXKXSXSXDXKXSXDXKXSXSXSXSXSXSXSXSXSXSXSXSXSXSXSXCXSXSXNXBXBXNXBXBXMXBXMXBXMXdXMXmXaXsXaXyXyXyXaXyXyXyXyXrXyXyX8XrXrX8X8XtX8X8X8X8XtX8X0X8X8X0X8X0X8X8X0X0X8X0X0X8X0X7X8X0X8X0X0X8X7X8XnXE.9X0X0X0X7X0X0X0X0XVXE.VX8X7X7X0X0X0X7X0XnX0X0X0X7X0X7X0X0X7X7X0X7X0X0XqXqXqX0XU.0X7XU.VXE.IX0XVXIXE.0XIXIXE.E.0XVXIXE.IXU.IXE.+XIXE.U.@X+XE.IXVXE.VX+X@X@XE.+XoXoXoXoX+X@X+XoX@X@X@X@XoXoX@XVXOXOXOXOXOXOXVXOXOXOXOXOXOXOXOXOXOXP.U.OXOXOX.X|.OXOXP.P.OXOXP.OX|.OX|..XOX.X.XOXOXOXOX|.OXOX|.+X.X.X.X.XOXXXXX.X.XOXOXU..XOX.XU.XXU.XXU.XX+XH.OXU.XXU.XX[..XXXH.U.XXU.XXU.XXH.+XU.XXH.[.[.[.[.J.[.H.H.XXU.H.U.[..X[.J.[.[.[.J.J.J.J.J.J.J.B.J.J.U.J.J.F.F.J.J.",
"l.n.m.m.l.m.m.m.l.m.l.m.m.m.m.m.m.m.m.m.m.m.m.m.m.m.m.m.N.M.M.M.m.B.B.M.B.B.B.B.B.J.U.J.U.H.U.[.[.[.[.XX{.XX{.XXXX*X{.qX*XXXXX{.XXXX{.qXXX{.XXXXoXXXqXqXqXoXqXqXqX7XqXqXqX7XrX8X7X0X8X8X0X8X8X8X8XtX8X8XrXrXrXtX8XrXrXrXrXrXyXyXyXyXyXaXyXaXyXaXaXaXyXaXaXaXaXdXdXaXaXdXdXmXdXMXdXdXdXMXdXBXMXdXFXBXBXBXfXFXFXBXFXBXAXFXFXSXCXAXSXSXCXSXSXSXCXSXDXCXSXSXSXDXDXSXSXSXKXSXDXSXSXKXDXSXDXSXSXSXSXDXSXSXSXDXSXSXSXSXSXSXSXSXAXSXFXBXFXFXFXAXFXFXFXFXFXMXFXFXMXBXxXMXdXMXMXdXmXsXaXaXaXyXaXyXyXyXyXyXyXyXrXrXrXyXrX8X8XyX8XtXtXrX8XtX8XtXrX8XtX0X8X8X8X0X8X8X0X8X8X0X8X0X0X8X0X0X8X0X8X0X8X0X8X0X0X0XVXE.nXVX0X0X8X0X0X0X0X7X0X0XE.0X0X0XE.0X7X0XE.nXE.VXE.VXnX0X0X7X7X0X7X7X0XqXqX0X0X7X@XoXoX7XoXoXE.0XU.VX0XU.VXU.0XIX@X0XqXU.IXE.VXIXU.IX0XE.IXIXqXU.VXE.@X@XIX0XoXoXoX+X0XoXoXoX@X@X@XoXoXoXoX#XoXoXoX+X@X+X+XE.OXOXOX+XOXOXOXOXXX.X.X.XOXOXU.OX.X.XOX.X.X.X.X#XU.U.+XU.U.@XU.@XOXOXXXOXXX+XXXXXXX#XXXXXXXoXXXXXXXXXXXXXXXXXXXXX+X+XXX+XXXXXXXXXXXXXXX}.qXXXXX{.XXXXU.XXXXH.XXH.XX{.#XXXXX[.{.#X[..X[.[.}.[.[.J..X[.[.[..X[.H.H.[.[.[.[.[.[.[.[.H.J.H.H.H.H.H.H.",
"+.l.X.l.+.l.+.l.l.&.&.n.&.l.l.&.&.l.m.m.m.l.m.m.m.m.m.m.m.m.m.m.m.m.M.B.M.B.B.B.B.B.B.B.J.U.J.H..X[.[.[.XX[.[.XXXXXXXXXXXXoX*XqXXXqXXXqXXXqXXXqX{.qXqXXXqXqXqXqXqX9X8XqX8X7X7X8X8X8X8X8X8X8XrX8X8XwXrX8X8X8XrX8XrXrXeXyXyXrXeXeXeXeXeXyXaXaXaXyXaXaXdXaXdXmXaXdXmXdXMXdXdXdXdXMXdXMXBXdXBXfXFXxXxXBXFXFXFXCXFXCXFXCXFXSXCXFXSXCXSXCXSXSXSXSXDXSXSXSXSXSXSXSXSXSXSXSXSXSXSXSXDXSXSXSXSXSXSXSXFXSXSXFXSXFXSXFXFXFXNXBXMXMXMXMXMXMXMXMXdXdXdXaXaXdXaXdXyXyXyXyXyXaXyXeXyXaXyXyXyXyXyXyXyXyXyX8XyXrXyXrX8XyX8X8X8XtX8X8X8XrX8X8X8X8X8X8X0X8X8X8X8X8X8X0X8X0X0X8X0X8X8X8X8X0X8X8X0X8X0X0X0X8X0X8X0X8X0X8X0X8X8X0X0X7X7X8X0X0X7XVXVXtX0X7XnXtX0XVXVXVX7XVX0X7XE.VX0X0X0X7X0X0X0X0X0X0X7X0XqX0X0X0X0X@XIX0X0X7XqX0X7X0X0XE.0XU.VXU.7X0X@XE.IXE.U.VXIXE.VXU.0X0X0XIXU.0X@X0X@X@XoXoX@X@X@X7X@XoXoXoXoXoXoX+XoX@X@X+X@XoX+XOX@XT.@XOXOX+X+XXX+XXX+XXXXXOXXXOXOXXXOXOXXXXXU.IXU.U.IXU.0XU.OXOXoXoXXXXX+XoXoXoXoXoXoXoXXXoXoXoXoXXXoXoXXXXXXXXXXXXXXXoXXXXXoXXXXXXXXXXXXXXXXXXXXXXXXXXXXXXXXX{.{.{.[.XX{.XXXX{.[.XXXX{.XX[.[.[.[.XX}.{.[.{.[.{.[.[.[.{.[.{.XXK.{.{.*XXX{.XX",
"X.l.l.+.+.h.l.+.+.X.l.h.&.l.X.l.X.m.l.&.&.m.#.l.l.m.&.l.m.m.m.m.M.m.m.M.M.N.M.B.B.B.B.B.P.B.J.J.J.[.J.[.H.[.[.[.[.{.XXXXoXXXXXXXqXqXXXXXqX{.qXqXqXXXqXqXqXqXqX9XqX8XqXqX8X7X7X0X8X8XrX7X8X8X8X8X8X8XrX8XyX8XrXrXeXyXyXeXeXaXaXeXaXaXyXaXaXaXaXaXaXaXmXdXdXaXmXdXdXMXdXdXFXfXMXMXFXBXBXBXFXfXFXFXCXFXfXFXFXFXFXFXFXCXCXSXFXSXCXFXSXSXCXSXSXSXSXSXSXSXSXSXSXCXSXSXSXSXSXSXFXSXBXSXFXFXFXFXSXFXFXFXFXFXBXBXfXMXMXMXMXdXMXdXaXdXdXsXyXdXdXaXyXaXyXyXyXeXyXaXyXeXyXeXeXyXaXyXyXaXeXyXyXeX8XrXyX8X8XyXrXrXyXyXyX8X8XrXtX8X8XrX8XrX8X8XyXyX8X8X8X8X8XtX8X8X8X0X8XtX8X0X7X8X8X8X0X8X8X8X8X8X0X8X8X0X8X8X0X8X8X8X8X0X8X0X0X8X0X7XE.nX0X0X7X0XE.VX7X8X0XE.0X0X0X0X7X0X0X7X0X7X7X0XqX0X7X0X0XoX7X7X0XqX0X7XE.0X0XE.U.0X0X7XqXIX0XqXqXqXVXE.IXU.0X0XE.0X0X0X0X0X0X0X0X0X0X0X0X+X0X@X+XoXoXoXoXoX7X#XoXoXoXoXoXoX@X@X+X@XoXoX@X@X@X@X@XT.@X@X+X+XoX+XoXoX+X+XoXoXoX+X@XXX#XXXVXE.H.0XE.IX0XqXOXoXoXoXoX@XoXXXXXXXqXXXXXXXoXXXoXoXXXqXoXXXqXoXqXqXXXXXXXXXqXXX{.XXXXXXqX{.qX{.qXXX*XXXXXXXqXXX{.XX{.XXXXXXXX{.XX{.{.oX{.XXXX{.{.{.{.XX{.XX*X{.{.XXXX;XXX*XqX*XqXqXqXqXXX*XqX*X",
"X.+.X.+.h.+.X.+.X.#.&.X.h.&.X.&.&.h.&.&.h.&.l.&.m.#.m.l.m.#.l.m.m.N.m.m.m.M.m.m.M.M.N.B.B.M.B.B.B.B.B.J.J.J.H.J.[.[.[.{.XX*XqX{.XX*XqXqXqXqXXXqXqXqXqXqXqXqXqXqX7X7XqX8XqXrX7X7X8X8X7X8X8X8X8XrXyXeXeXyXeXeXyXeXeXaXeXeXeXaXaXeXeXaXaXaXaXaXaXaXdXaXdXaXaXdXMXdXdXmXxXFXdXFXfXfXBXdXMXxXMXBXdXFXdXBXBXBXFXfXCXFXBXFXBXBXCXFXFXFXBXBXBXSXBXSXNXBXFXFXCXFXFXFXBXNXCXBXBXBXBXBXBXBXBXFXFXBXBXBXBXBXBXBXMXMXfXMXdXMXdXMXsXsXmXmXaXsXyXdXyXyXaXyXaXyXyXaXaXyXaXaXaXyXyXaXyXeXyXeXaXyXaXyXyXyXyXeXyXeXyXyXrXrXrXyXyXrXyXrXrX8XtXrXyXrX8X8X8XyXyXrXtX8XyXrX8X8X8X8X8X8X8X0X0X8X8X8X8X0X0X8X8X8X8X8X8X0XtX0X9X0X8X0X8X8X8X0X8X8X8X0X8X8X0X8X8X0X8X0X8X7X7X0X9X0X0X0X9X0X0X8X0X0X0X7X0X7X7X0X0X0X0X7XqX0XIXqX0XVX0X0X7X7X0XE.0X0X7X0X0X0X0X0X0X8XVX0X0X0X7X0X0X7XU.0X0X7XqX@XqXoX0XqX+X0X@XoXoX@X@XoXoXoX@XE.E.0XoXoXoX0X0X0X0X@XVX0X0X0X0X0X7X7XqXqX0XqXqXoXoXoXoXoXoX@X0XIX0X0XU.0XH.0X@X@XoXoXoX@XE.oXqXXXXXoXoXoXqXoXoXoXqXoXqXoXqX}.XXXXXXqXXXXXqXXXqXXXqXXXXXqXXXqXqXqXqXqXqX*XqXqXoXqXqXqXqXqXqXqXqXqXqXqXXXqXqXqXqXqXqXqXqXqX7XqXqX7XqXqX7X7XqX7X7XqX*X7XqXqXqXqX",
"X.X.X.l.l.X.&.l.h.&.X.&.&.X.m.X.m.X.m.l.#.l.#.l.l.m.l.m.l.m.m.m.m.l.m.M.M.m.M.M.N.M.M.M.M.M.B.B.B.B.J.J.B.[.J.J.[.[.[.[.XX{.XXqX*XqX*XqXqXqXqXqXqX7X7X7XqXqX8XqX7X7XqX8X8X7X9X7X7X8X8X8X8XrXrXrX8XeXrXrXrXeXeXeXeXaXeXaXaXaXaXaXaXyXaXaXaXaXdXdXmXaXaXdXdXdXdXmXmXdXFXdXdXMXdXMXMXfXMXfXFXdXfXMXdXBXMXdXBXdXMXBXBXBXMXMXBXBXBXBXBXBXBXBXBXBXBXBXFXBXBXBXBXBXBXBXBXBXBXMXBXBXBXBXBXBXBXFXFXdXMXMXBXMXdXdXdXMXdXMXMXdXdXaXsXaXmXsXaXaXaXaXaXaXyXdXdXaXaXyXaXyXaXaXaXyXaXyXyXaXrXrXeXyXeXeXeXeXaXyXyXeXyXyXyXeXyXyXrXrXrXrXrXrXrXrXrXeXyXrX8XrXrX8X8X8X8XrXtX8X8X8X8X8X8X8X8X8XtX8XrXtX8XrX8X0X8XtX9X8X8XnX8X0X8X8X8X8X0X8X0X8X7X8X9X8X0X8X8XE.nXtXE.nXnXnX8X0X8X0X7X8X8X8X8X0X7XtX8X0X0X0X8X0X0X0XVX0X0X8X0X0X0X0X0X0X8X0X0X0X0X0X0X0X8X0X0X8X8X0X8X0X0X0X7X0X7X0X0X7XqX0X0X0X0XqX0X0XoX7X0X@X7X@X0X@X0X0X0XoXwX0X0X0XR.0X0X0X0XE.0X8X0X0X0X7X0X7X7X7XoXqXoXoX7XoXE.qX0XU.VX7XqXIXE.0X@X@XE.oXoXoXoXXXqXXXXXqXoXqXqXoXXXqXXXqXqXqXqXXXXXqXqXqXXXqXqXqXqXqX7X7XqXqXqXqXqXqXqXqX7X7XqXqXqXqXqXqX7XqX7X9X7X9X8X7XqX9X9X8XqX7X-X8X9XqX9XqX9XqX*X7X7X7XqXqXqXqXqXqXqXXX",
"l.+.n.X.X.+.l.+.&.X.m.m.l.&.&.l.+.l.l.&.l.&.l.m.&.l.m.l.m.M.l.m.m.M.M.m.m.M.M.N.M.M.M.B.B.B.B.B.B.B.B.b.F.B.J.[.[.[.[.[.}.XX{.XXXXXXXXqXqXqXqXqX7XqXhX7X7XqX9XqX7XqX9X8X9X7XrXrX8XrX8X8XrXrXrXrXeXeXeXeXeXeXaXeXeXeXeXeXaXeXaXaXaXaXaXaXaXaXaXaXaXaXdXdXaXdXaXdXdXdXaXdXdXdXdXdXaXdXdXmXmXdXdXdXaXdXdXdXMXdXaXMXdXdXMXMXMXdXMXMXMXMXMXMXBXBXMXdXdXMXMXfXBXBXdXMXMXdXMXBXBXBXBXBXBXMXdXdXdXMXdXdXdXMXMXdXmXdXdXdXaXdXmXdXdXaXsXeXaXaXyXaXaXaXaXaXaXaXaXaXaXaXyXeXeXeXeXeXeXaXyXaXaXeXeXaXaXeXyXwXeXeXeXeXeXeXeXeXeXeXeXyXeXyXyXrXyXrX8XrX8XrX8XtXrXyXyX8X8X8X8XyX8X8X8XyX8X8X8X8X8X8X8X0XrX8X8X8X8X8X8X8X8X8X0X8XnX8X9XnX0X8XtX8X0X8X8X0XtX8X0X8XnXnXE.E.8X8X8X8XtX8XrXtX8X8XrX8XrXrX8X8X0X8X8X8X0X8XtX8X0X8X8X0X7X0X0X8X0X8X8X0X8X8X0X8X0XtX7X0X0X0X7X0X0X7X0X0X0X0X0X7X7X0X0X0X0X0X8X0X8X0X8X0X0X0XwXoXoX0X@X0X0XtXtX0X0X0X0XtX8X0X7X0X7X0X7X7X0XqX7X7X0X7X7X7XIX7X7X0XE.0X0XE.@XoXoXE.oXoX@XE.qXoXXXqXqXXXqXqX{.qXXXqXoXoXqXXXqXqXqXqX7XqXqXqX7X7X9XqX8X7X-XqX7X9XqX9X9X7XqX9X9XqX9XrXrXrXrX8XrXrXrXrXrXrXrX8X8X9X8X-X7X7XqX9X9XqXqXqXqXqXqX*XqX*XqXXX{.*X{.{.",
"l.+.X.l.&.l.X.m.l.&.l.X.h.&.l.&.l.&.&.l.m.l.l.m.m.l.m.m.m.m.M.m.m.M.M.M.M.B.M.M.B.B.B.B.F.B.b.F.F.b.J.b.J.G.J.G.G.G.[.[.XXXXXX{.XX*XXXqXqXqXqXqX7XqXqXqX8XqXqX8XrX7X8X7X8X8X8X8XrXrXrXeXrXrXeXeXeXeXeXyXyXeXrXeXyXeXyXeXeXaXyXeXaXaXaXaXaXaXaXaXaXaXaXaXaXaXaXdXdXaXdXaXaXaXaXaXaXaXaXaXdXaXdXaXmXaXaXaXaXaXdXdXmXsXaXsXsXdXdXaXsXsXdXaXaXdXgXMXaXMXdXMXdXMXMXdXMXdXBXdXgXMXMXBXBXdXdXMXMXdXaXdXaXdXsXaXaXdXaXdXdXaXdXaXdXaXyXsXaXaXaXaXaXaXaXaXaXaXaXaXaXeXaXeXaXyXeXeXrXeXeXyXeXeXeXyXrXaXaX8XeXeXaXeXeXeXeXeXeXeXeXeXeXeXeXeXeXeXyXrXeXrXeX8XrXrX8X9XeX8X8X8XyX8X8X8XrX8X8XrXrX8X8XrXrXrXrXrXtXtX8X8X8XtX8X8X7X8X8X8X8X8XtX8X0X8X8X0X8X7X8X0X0X8X8X8X0X8X0X8X7XrX8X8XyX8X8X8XrXrXrXrXrX8XrXtX8X8XtX8X8XtX8X8X0X8X0XtX0XtX8X0X0X8X0X7X8X7X8X0X8X0X8X0X8X8XrX8X8X8XyXyXrXyX8X8XyXrXrXtX8X8X0XrX0X0X0X0X0X0X0X0XwX0X0X0X0X0X0X0X8X7X0X7X0X7X8X7X7X7X7X7X7X7X7X7X7XqX7X7XE.IXVXE.0XE.0X0XE.7X0X7XqXqXqXqXqXqXqXqXqXqXqXqXqXqXqXqXqXqX7X7XqX9X9X7X9X7X8X8X8X-X8X8XrX-X8X7X8X9X9X8XrX8XrXrXrXrXrXrXrX8XrX8XrXrX9X9X7XqXqXqX9X8XqXqXqXqX}.qXXXqX{.[.{.{.XX[.[.[.H.H.",
"l.h.m.X.l.h.m.X.m.h.#.l.m.l.l.l.l.l.l.m.l.l.l.l.m.l.m.l.l.M.M.m.M.M.M.M.M.M.B.B.B.B.B.F.F.F.J.J.F.J.G.J.G.J.G.G.[.[.[.[.{.{.XX{.{.oX*XqXqX7X7X*X7XqX;X8XqX9XqX9X8XrX7XrX8XrXrXrXeXeXeXeXyXeXeXeXeX8X8X8XeX8X8XyXeXeXeXeXeXeXaXaXeXaXeXaXaXaXyXaXaXaXaXaXaXaXaXaXaXaXyXaXaXaXaXdXaXsXyXaXaXaXaXaXyXdXaXdXaXaXyXdXsXaXaXaXaXaXyXdXaXaXsXmXaXsXsXaXMXaXaXsXaXsXsXsXMXdXdXdXBXBXBXdXBXdXBXdXaXdXdXdXdXaXdXsXdXaXdXdXaXaXaXaXaXeXaXaXaXeXaXaXaXaXeXaXaXaXaXyXaXeXeXeXaXeXeXaXaXeXaXaXeXaXeXaXeXaXeXaXaXeXeXeXeXeXeXaXeXeXeXeXeXeXeXyXeXeXeXrXeXeXeXeXyX9XyXrXeXyXeX8XwXyXtXwXeXrXeXeXrXrXyXyXrXtXeXyXwX8XwXtX8X8X8XyX8X8X8X8X8X8X9X0XwX8X8X8X0X8X8X8X8X0X0X8X8X8X0X8XtXrX8XtX8X8XtXrXtX8XtXrXrXtXrX8X8XrX8XeX8X8X8XyX8XtX8X8X8X8X8X8X8X8X8XtX8XtX8X8XtX8X8X8XyXyXyXyXeXyXeXyXyXyXyXyXrXyXrXrXyXyXrXrXwXwX0XwXwX0XwX0XwX0X0X0XwXwX0X0X8X8X7X8X7X8X7X7X8X7X7X0X8X7X7X7X7X7X7XqXnXE.0XVXE.0XE.0X0X7X7X7X7XqXqX9XqXqX7X7XqXqX9X7XrX7X7X8X9X8X8X8X9X8X8X8X8X8XrXrX8X8XrXrXrXrXrXrXrX8XeXrX8XrXrXrXrXrX9XrX9X8X7X8XqX7XqXqXqXqXqXqXXX{.XX{.[.XX{.[.[.[..X[.[.[.[.J.J.J.J.B.",
"l.l.l.l.l.h.l.l.h.l.m.j.m.l.m.l.l.M.M.m.M.l.M.M.M.M.M.M.M.c.M.b.M.M.B.M.B.M.B.F.F.b.F.F.F.G.J.G.G.J.G.[.G.[.[.{.{.{.XXXX{.*X{.qXqXXXqXqXqXqXqX7X7XqXqX7XrX9X9X8XrXrXrXeXeXeXeXaXeXaXeXeXaXeXeXeXeXeXyXrXrXrXrXeXeXrXaXrXrXaXaXeXeXaXeXeXaXeXaXaXyXeXaXaXaXeXaXyXeXaXaXaXeXaXaXeXaXaXaXaXaXaXaXaXaXaXaXaXaXyXaXaXaXaXyXaXyXdXdXaXdXdXaXmXaXdXaXaXdXaXaXdXaXaXdXdXdXMXdXMXdXFXBXdXfXMXdXdXdXdXsXsXaXMXsXsXaXsXdXaXaXaXaXaXaXaXaXaXaXaXaXaXaXaXaXaXeXaXaXuXeXeXeXaXaXaXaXaXeXeXeXaXaXaXuXaXaXaXaXaXaXdXeXaXdXeXeXaXeXaXaXeXeXaXeXaXaXeXaXaXeXeXaXeXeXaXeXeXeXeXeXeXeXeXeXeXeXeXrXrXeXeXeXeXyXeXeXyXeXyXeXeXyXeXeXeXyXyXrXyXrXrXrXrX0X8X8XnX8XrXrX0X8XrX8X8X8XrXtX8XrX8XrX8X8X8X8X8XtX8XyX8XrX8XyX8XrXrXyXrXrXrXrXrXrXyXrXyXyXyXeXeXnXwXyXyXrXrXyXyXeXeXyXeXyXeXeXeXeXeXyXyXeXeXyXrXyXrXyXrXrXyXrXyXtXwXwXtXwX0XwXtX8X8X8X8X8X0X0X8X8X8X8X8X0X8X8X8XrX8X0X8X7X8X0X7X8X7X8X7X7X7X9X8X7X8X8X8X7X8X8X8X8X8X8X8X7X8X8X8X8X8X8X8X8X8XrX8X8XrXrXrXrXrXrXrXrXrXrXrXrXeXrXeXrXrXrXrXrXrXrXrXrX8XrX7X9X7X8XqX8X7X7XXXqXXX*XXXqXXXK.XXXXK.H.U.[.[.[.B.U.U.J.U.J.B.J.B.B.B.B.B.",
"l.m.m.M.l.M.m.M.M.m.M.m.M.M.M.v.M.c.M.c.b.b.b.b.A.F.b.B.b.F.B.A.B.F.F.F.F.G.F.F.F.J.J.J.J.G.G.H.H.H.[.{.{.[.{.{.{.XX{.{.XXoX{.qXqX;X;XqX9XqXqX-X9XrX8X9XrXrXrXrXeXeXeXeXeXeXeXaXeXaXaXeXeXeXeXrXeXrXrXrXrXyXeXeXeXrXrXaXaXeXrXeXaXeXeXaXeXeXeXeXeXaXeXaXeXaXaXeXaXeXeXaXeXaXaXaXyXaXaXaXaXaXaXaXaXaXdXaXaXaXdXaXdXdXBXdXMXdXmXdXdXyXaXdXaXaXaXdXaXMXdXMXdXMXdXdXfXdXxXdXfXdXfXdXdXaXaXaXsXsXdXaXaXaXsXaXaXaXaXeXaXeXaXaXaXyXaXaXaXaXaXaXaXaXaXaXaXaXaXaXaXdXaXaXuXaXaXaXaXuXaXaXaXaXsXdXsXdXiXdXdXfXdXdXdXdXdXdXdXdXdXdXdXdXdXdXsXdXsXsXsXsXaXdXdXaXaXaXaXaXaXeXaXaXeXaXaXeXaXeXeXaXaXeXeXeXeXaXeXeXyXeXeXyXeXyXeXeXeXeXrXyXyXyXwX8X8X8XrXrXrXrXrX0XrXrX8X8X8X8XeXrXrXyXrXtX8XrXrXrXyXrXrXrXrXyXrXyXrXrXrXaXyXaXaXaXyXaXaXyXaXaXgXyXyXsXaXaXaXeXaXaXaXyXaXaXeXaXaXyXeXeXyXeXrXyXrXrXrXrXrXyXrXrXwXtXtXtXtXwXwX0XrX8X8X8XrXrXrXrX8X8X8XrXrX8X8X8X8XrXrX8X8XrXrXrXeX9X8X8X8XrX8X8XrX8X8X8X8XrXrX8X8X8XrXrXrXrXrXrXrXrXeXrXrXrXrXeXeXrXyXrXeXeXrXeXrXrXeXrXrXrXrXeXrX8XrXrX8XrXrX9XqX9X9XqXqXqXXXqXXX{.XXXX[.XX.X.XH.H.U.U.U.U.U.U.B.[. XB.B.B.B.B.B.M.B.B.M.N.M.m.",
"M.M.M.M.c.c.c.M.b.b.b.b.F.F.F.F.G.F.G.G.G.H.J.J.G.G.S.$XH.G.H.G.G.K.G.H.G.G.K.H.}.H.[.{.H.[.{.{.{.{.{.{.*XXX*X*XqX*XqX}.;XqXqXqXqX9X7X8X9X8X9XrXrXrXrXrXrXeXrXuXeXeXeXuXeXuXeXuXeXaXrXeXeXeXeXrXeXeXeXeXrXeXeXeXeXeXrXeXeXeXeXaXeXeXeXeXeXaXaXeXaXeXaXeXaXeXeXaXaXuXaXaXaXeXaXeXaXaXaXaXaXsXaXaXaXaXaXaXdXaXdXdXdXdXfXfXdXdXdXdXdXdXdXdXdXdXdXdXdXMXdXdXfXfXBXdXdXfXdXdXdXdXaXaXaXeXeXaXyXaXeXaXyXaXaXaXeXaXeXaXeXuXaXeXaXaXaXuXaXaXaXuXaXaXaXsXaXfXdXaXdXdXsXsXsXdXsXsXsXaXdXdXsXdXdXdXfXfXfXdXfXxXdXfXfXfXfXxXfXdXfXfXxXMXdXfXfXMXfXdXfXdXdXdXfXdXdXdXdXdXdXdXaXaXaXaXaXaXeXaXaXeXaXeXeXeXeXeXaXeXaXeXeXaXeXeXeXeXeXeXeXeXeXeXeXeXwXrXeXyXrXeXeXyXrXeXrXrXyXyXeXeXeXeXyXeXeXeXaXeXrXyXaXeXeXaXaXaXaXaXaXaXaXaXaXaXaXaXaXdXdXaXaXsXgXsXaXaXaXdXaXaXyXaXaXaXyXeXeXeXeXeXrXrXrXrXrXeXrXrXeXeXrXeX0XtXwXwXwXwXtXE.rX8XrXrXrX8XrXrXrXrXrXrXrXeXrXeXrXeXrXeXeXeXrXeXeXwXeXrX8X8X8XyXrXeXeXeXeXeXeXrXrXrXeXeXeXeXeXeXaXeXeXeXaXeXeXeXaXeXeXeXeXeXeXeXeXyXrXrXrXrXrXrX9X8X9XqX7X7X7XqXqXoXXXXXXX[.[.[.{.[.[.[.J.[.U.J.J.B.U.B.U.B.B.B.B.B.B.M.B.N.M.M.M.M.N.N.N.N.m.m.",
"M.b.b.b.B.F.F.F.F.F.J.G.J.G.F.H.J.H.G.H.G.H.K.K.[.{.{.{.[.{.{.{.K.XXK.{.{.XX{.{.{.{.{.{.{.{.*X{.{.*XXX*XqX*XqXqX-XqX9X9X8XrX9X9X9X9XrXrXbXrXeX9X9XrXeXuXeXuXeXeXuXeXeXeXeXeXeXeXeXrXrXrXrXrXrXrXrXyXeXeXeXeXeXeXeXaXaXeXeXaXaXeXeXyXeXaXeXaXeXeXaXaXaXaXaXaXaXaXeXaXaXaXaXaXaXaXeXaXaXaXeXaXaXaXaXaXaXaXaXdXaXdXdXdXdXdXdXdXdXdXaXdXdXsXdXdXdXdXdXdXdXdXdXdXdXdXdXsXsXaXeXeXeXeXeXeXyXyXeXeXeXuXaXeXrXeXeXeXaXeXaXeXaXaXeXaXaXaXeXaXaXaXdXaXdXsXaXdXdXdXaXfXdXdXdXdXdXfXdXdXdXdXdXgXfXgXfXfXfXfXxXdXBXfXxXfXfXfXdXxXfXfXdXfXfXfXfXdXfXfXfXfXfXfXdXfXfXdXfXdXdXdXgXdXdXgXaXdXdXaXaXdXaXaXaXaXaXeXaXaXeXaXeXaXaXeXaXeXaXeXeXyXeXeXyXeXyXsXaXeXeXeXeXaXeXaXeXaXuXaXaXaXaXaXaXaXaXaXaXaXaXaXaXaXaXaXaXaXaXaXaXaXdXaXaXaXaXdXaXaXaXaXsXaXsXeXaXaXaXeXaXaXaXaXeXaXeXaXeXeXaXuXeXaXeXeXeXeXyXrXeXeXeXeXwXwXtXwXwXnXwXmXrXrXrXeXrXyXeXeXeXeXeXeXeXeXeXeXeXaXeXeXeXeXeXeXeXyXrXeXuXaXyXwXeXeXaXeXaXeXeXaXeXaXaXeXaXaXeXaXeXaXaXeXeXaXeXaXeXeXeXeXyXeXrXrXrXrXrX8X8X8X7XqXqXqXqXqXoXXXXXXX{.XX[.{.XX[.[..X[. XJ.|.J.B.B.U.J.P.B.F.L.B.B.B.N.N.B.V.N.M.N.L.N.m.m.m.m.m.m.m.",
"F.F.F.J.F.F.F.G.G.J.G.H.H.H.K.H.K.[.K.G.K.{.{.{.{.{.{.{.{.{.{.{.{.{.{.*XXX{.*X{.{.*XqX{.{.qX*XqX*XqX*XqX9X9X9X9X9X9X9X8XrX9XrXrXrXrXeXeX3XrXeXeXeXeXeXeXuXaXeXuXeXeXeXeXeXeXrXrXrXrX9X8X9X8XrXrXrXrXrXrXrXeXyXaXyXeXaXeXaXeXaXeXaXeXeXaXaXaXaXaXaXaXaXaXeXaXaXaXaXeXaXaXeXaXaXeXaXeXeXaXaXeXaXaXaXaXaXaXdXaXdXdXdXdXdXaXdXdXaXdXdXaXdXsXdXdXdXdXdXdXdXaXaXdXaXaXaXeXeXeXeXrXeXrXrXrX9XrXeXeXeXeXeXeXuXeXeXeXeXaXuXeXeXeXeXeXaXuXaXaXaXiXaXsXdXdXdXdXdXpXdXdXdXfXfXfXdXdXfXfXfXfXgXdXfXfXfXfXfXfXfXfXfXfXdXfXfXfXfXfXfXfXfXfXdXfXdXdXgXdXfXdXdXdXdXdXdXdXgXfXfXgXfXdXfXdXgXfXdXfXfXdXdXdXfXfXdXdXdXsXaXaXsXaXsXsXaXsXaXsXgXdXsXsXgXgXfXgXdXdXgXdXdXaXdXdXfXdXdXaXaXdXdXdXdXdXaXsXdXaXdXaXaXdXsXaXaXaXaXaXaXuXaXaXaXaXaXaXaXaXeXeXyXaXaXaXeXaXaXaXaXeXuXaXaXaXaXeXaXaXeXeXeXaXaXeXaXrXeXaXeXeXeXeXeXeXeXrXnXyXeXwXeXeXeXeXeXeXeXeXaXeXeXeXeXeXeXaXeXeXuXeXeXaXaXeXeXuXeXaXaXeXaXaXaXaXaXaXaXaXaXaXbXaXaXaXaXuXaXaXaXuXeXaXyXeXeXrXeXrXrXrX9X8X8X7XqXqX7XqXoXoXXXXXXX[.XX[.[.[.[..X[.[.[.|.J.J.U.U.B.J.B.B.B.B.P.B.B.B.N.B.B.L.M.M.B.N.N.N.m.M.m.M.m.L.m.m.m.m.m.m.",
"B.F.F.F.F.G.G.G.J.H.H.H.G.K.H.K.[.K.H.XXH.K.{.K.{.{.{.{.{.XX*XXX*X{.qXXX*XqX*XqXqX*X;XqXqX-XqX9X9X8X9X8X9X7X9X8XrX9XrXrXrX9XrXrXrXeXeXeXeXeXeXeXuXaXeXeXeXeXeXeXeXeXaXeXeXeXeXeX9XrX8XrXrX9XrX9XrXrXrXrXeXeXeXeXeXaXeXaXeXaXeXaXaXaXaXaXaXeXeXeXeXeXeXaXeXeXeXeXeXeXeXeXeXeXeXaXaXeXeXeXeXaXeXaXaXaXaXaXaXaXaXaXaXyXaXaXaXeXeXaXyXaXaXaXaXeXaXeXaXeXeXeXyXeXeXrXrXrXrX8X9X8X9X8XrXrXrXrX9X8X8XeXrXrXrXeXaXeXeXrXeXeXaXeXaXuXaXaXuXaXaXaXaXaXaXaXaXsXaXdXgXgXfXdXdXdXfXfXfXfXfXgXfXfXfXfXfXdXfXfXgXfXdXfXdXdXfXfXgXfXdXfXdXdXgXdXdXdXdXdXdXaXdXaXiXdXdXdXdXdXfXdXfXdXfXgXfXfXfXfXdXxXfXfXfXfXfXfXxXfXfXfXfXdXfXdXxXdXfXfXfXgXfXfXgXBXBXfXfXfXfXfXfXxXdXfXxXdXdXfXfXfXfXdXdXdXfXdXaXxXfXaXfXaXsXdXdXaXdXaXaXaXaXaXaXaXaXaXaXeXaXuXeXaXaXaXaXeXeXuXeXaXaXaXaXeXaXaXaXaXaXaXaXuXaXaXeXaXeXaXeXaXuXuXeXuXaXaXwXsXeXsXaXeXaXuXaXeXaXaXuXaXuXaXiXaXeXaXaXuXiXaXaXaXiXaXaXaXuXaXaXsXsXaXaXiXaXaXuXsXaXaXsXaXaXaXaXaXaXeXeXeXeXeXrXrXrX9XrX7XqX7XqXqXqXXXXXXXXX[.[.[.[.{.[.J.[. X[..XB.[. X XJ.P.|.B.B..XB.|.P.B.P.B.B.M.B.N.B.N.N.M.M.L.N.M.M.L.M.L.m.M.M.m.N.m.n.m.m.n.",
"b.b.b.F.F.F.F.F.G.G.G.J.G.G.G.H.H.K.[.K.H.K.H.K.{.{.{.{.{.*X{.*XqX*XqX*X*X*X7X9X9XqX7X-X9X9X9XqX9X9X8X9X8X8X9X7X9X9X9X9X-X8X9X8X9X9XrX9X9XeXeXrXeXeXeXeXeXeXaXeXeXuXeXeXeXeXeXeXeXeXeXeXrXeXrXeXeXeXeXeXhXyXeXeXeXeXeXaXuXeXaXeXeXeXeXeXbXrXeXrXrXrXrXrXrXrXrXrXrX8X8XrXeXeXrXrXhXrXrXeXeXeXeXeXaXeXaXeXeXeXeXrXeXrXeXeXeXrXeXrXeXeXrXrXrXrXrXrXrXrXrX8X9XrXrX8X8X8X8X8X9X8XrXrX9XrX8XrXrX8XeXeXrXeXeXeXeXeXeXeXeXaXaXeXaXeXuXaXeXaXaXaXaXaXuXiXaXiXiXaXsXiXsXgXgXdXfXfXfXfXfXdXdXfXgXfXdXfXgXfXdXdXdXgXdXgXdXdXgXdXdXdXdXdXgXdXgXdXgXgXiXgXiXaXsXdXuXpXgXsXdXiXdXdXdXgXdXfXfXfXxXdXFXfXxXfXxXfXfXfXCXfXfXBXfXdXfXBXxXfXfXCXBXfXBXBXxXfXCXxXBXBXxXMXfXfXfXfXxXfXfXdXfXfXfXfXdXfXdXdXdXdXdXsXdXaXaXaXaXaXaXaXiXaXaXiXaXeXaXaXuXaXsXuXaXuXuXuXaXaXaXiXaXaXaXaXaXaXaXaXaXaXaXaXsXaXaXaXaXaXaXaXaXaXaXaXsXsXaXsXsXsXaXaXuXaXaXiXaXiXaXaXaXaXaXaXdXdXdXdXdXdXdXdXdXdXdXdXdXdXdXdXsXdXdXaXaXaXsXaXaXaXsXaXeXeXeXeXrXrXrXrX9X8X7X7XqXqXoXXXXXXX[.XXXXXX{.[..X[.$X.X[.[.|.[.|.[.P.J.J.B.J.|.B.|.B.J.B.B.P.B.B.P.L.B.B.L.B.L.M.B.B.N.M.N.B.L.M.m.m.m.N.M.m.m.m.N.m.m.m.m.",
"c.b.c.B.b.b.B.F.F.F.F.G.F.G.H.H.G.H.K.H.{.H.{.{.{.{.XX*X{.XXqX*X*XqX;XqXqXqX9X*X7X-X7X7X-XqX-XqXqXqX9XqX;X9XqX9XqXqXqXqXqXqX9X7X9XqX8XqX8XqX9X9X9X9X7X9X9XrXrXrX9XrXrXrXeXrXrXrXrXrXeXeXeXrXeXeXeXeXeXeXaXeXaXeXaXeXeXaXaXaXeXeXaXeXaXeXeXeXrXeXeXrX9XrXrXrX9XrXrX8X9X8XrXrX9XrXyXrXrXrXrXrXrXrXrXrXrXrX9XrXrXrXrX9XrXrX8X9XrXrX8X8X9X8X8X9X9X8X8X9X9XqX8X8X9X7X9X7X8X9X8X9X9X9X9XrXrX9X9XuXeX9XeXeXeXeXeXuXeXaXeXuXaXaXaXuXaXaXaXuXaXuXuXsXaXaXsXaXaXaXdXaXsXgXdXiXiXsXdXdXdXgXfXdXdXfXdXdXgXfXfXfXdXfXdXdXfXdXfXdXfXgXfXfXfXgXfXgXdXdXdXdXfXdXgXdXfXdXdXfXdXdXgXdXfXfXfXfXfXfXdXxXxXfXfXFXBXCXBXCXCXxXCXxXCXCXCXxXFXxXBXxXCXCXCXfXBXfXfXfXfXfXfXfXfXfXfXfXfXdXfXgXfXdXdXdXdXgXdXaXdXiXdXaXaXgXaXaXzXaXaXaXdXaXaXaXaXiXaXsXaXuXuXaXaXuXaXsXuXaXaXaXaXiXaXaXiXaXaXiXdXaXdXiXuXaXzXeXaXaXaXiXaXaXaXsXsXsXsXgXsXgXpXdXdXdXdXfXdXdXfXfXdXfXpXdXdXpXgXfXdXaXfXpXiXfXgXdXgXaXdXdXsXaXaXaXaXaXaXaXeXrXeXrXrX8XrX8X8XqXqXqXoXqXqXXXXXqX{.XX{.XX[.[.[.{.XX[.[.[..X[.[.[.[..XB.[.B.|..XP.J.B.J.B.B.P.P.B.B.B.B.B.B.B.B.B.B.B.N.B.N.N.B.B.N.M.B.M.L.M.m.L.M.N.M.I.M.m.m.m.",
"M.v.M.c.c.c.b.b.F.F.F.J.G.J.G.F.G.H.H.H.[.{.{.[.{.{.{.{.*X{.qXXXoXqX*XqX*XqX*XqX;XqXqX*XqXqX*XqXqXqX*XXXqXXX{.XXXXXX{.XX{.XXXXXXXX*X{.qX*XXXXXqXXXoXqXXXqXqXqX*XqXqX7X9X8X7X8X8X7XrXrXeXrXrXeXrXeXeXeXeXeXeXeXaXeXaXaXaXaXaXaXaXaXuXuXaXaXaXaXaXaXuXeXeXaXaXeXaXaXeXeXeXeXuXeXeXaXeXeXrXeXeXrX9X8X8X8X9X7X9X9XqX7X9X7XqXqX9X7X7X7XqX7X8X7X8X9X8X7X9X8X8X7X9X9X9XrX9XrX9X9X9XeX9XeXrXrXeXuX9XuXeX3XeXeXeXaXuXaXuXsXsXsXsXsXsXdXsXdXsXdXaXgXdXdXfXdXgXfXfXfXgXfXgXfXdXdXdXfXfXgXdXfXfXfXdXfXfXfXfXfXfXfXgXfXfXfXfXgXfXfXgXfXfXfXfXdXfXfXfXfXfXdXfXfXdXfXdXfXdXfXfXfXfXfXfXfXxXfXBXfXBXxXfXCXfXCXfXCXCXCXCXCXBXxXCXxXCXfXCXxXBXCXfXBXBXfXxXfXfXfXfXfXfXfXfXfXfXfXgXgXfXfXfXgXdXgXdXdXgXdXsXgXgXfXgXdXiXaXdXdXdXdXiXgXuXdXdXiXaXiXfXiXsXdXdXsXsXgXgXaXzXdXfXaXaXdXsXfXgXdXgXsXsXgXdXdXdXdXdXdXpXdXgXfXdXgXfXpXdXdXdXfXfXfXdXfXdXfXfXfXpXfXfXfXdXfXfXdXfXdXdXdXdXdXaXaXdXsXaXaXaXaXeXaXrXeXrXrXrX8XrX8X7X7X7XqXqXqXqXqX{.qXXXXXqXXXXX{.XX{.XXXXXXXXXX[.XX{..X[.[.[.[..XB.[.B.[.B.B.J.B.U.J.P.P.B.U.B.B.P.J.B.P.P.B.B.B.B.B.B.N.B.M.N.N.B.B.m.L.M.m.M.m.M.m.m.m.M.m.I.",
"v.M.M.M.M.v.M.M.b.F.F.B.F.F.F.G.J.G.G.G.G.[.[.{.{.{.{.{.{.{.{.{.{.{.{.{.XX{.XX{.{.{.{.{.{.{.{.XX}.{.{.{.[.[.{.{.{.[.{.{.[.[.{.{.{.XX{.XX.XXX{.XX{.}.{.{.{.XX{.XXXX{.{.XX{.qX{.qXqXqXqX7XqXqX8X8X8XrXrXeXeXeXyXeXeXeXeXeXaXeXeXaXaXaXaXaXiXaXaXiXxXaXdXaXdXiXdXdXuXdXdXfXdXdXgXdXdXdXdXdXdXsXaXsXeXaXeX8XrXrXrX9X9X8X9X7XqX8X8X9X-XqX9X-X9X9X7X9X9X9X-XrXrX9XrXrXeXeXrXeXeXeXeXeXuXeXuXeXeXeXaXsXuXaXaXuXsXsXsXsXdXdXgXdXfXfXfXfXxXfXfXxXfXfXfXfXfXCXCXfXBXxXxXBXxXxXxXfXfXfXfXfXfXfXfXfXfXfXfXfXfXfXfXfXfXfXfXfXfXfXfXfXfXfXfXfXfXfXfXfXfXfXfXfXfXxXfXxXCXxXBXCXCXCXCXxXCXCXCXCXCXCXCXBXCXCXfXCXBXxXBXCXfXCXCXfXBXCXCXfXCXfXfXCXfXxXfXfXfXxXfXfXfXfXfXfXdXfXpXfXfXfXfXdXfXfXfXfXfXfXfXfXdXfXdXgXdXfXdXiXiXdXiXdXgXgXfXgXdXfXdXgXfXdXfXfXfXfXfXfXdXdXfXdXfXfXfXdXdXdXdXfXgXfXdXfXfXdXfXfXfXfXfXfXfXfXdXfXfXfXfXfXfXfXfXfXfXdXfXdXdXfXdXdXfXdXaXdXsXaXsXaXaXaXaXaXaXeXaXeXeXrXrXrXrXrX8XrX9XqXqX7XqXqX7XqXqXqXqXXXXXqX{.qXXXqX{.XXXXXXqXXXXXXXXX{.XX[.XX[.XX[.[..X[.[.|.[.|..X.XB.P.B.U.B.J.U.B.P..XB.P.B.B.B.B.B.N.B.B.N.B.N.B.N.M.B.m.B.M.m.B.B.m.M.M.m.N.m.m.m.",
"l.M.M.M.M.M.c.M.M.b.b.B.F.F.F.b.F.J.J.G.J.G.G.G.[.G.[.[.[.[.[.[.H.G.}.H.G.K.H.H.G.H.G.H.G.J.G.G.[.[.[.[.G.G.G.F.F.[.[.[.G.[.[.J.H..XH.[.H.H.U.H.XX[.[.[.[.XX.X{.[.XX[.[.XXXX{.XX{.XX[.XX{.qXoXqXoX7XqX7X7X8X7X8XrX8XrXrXrXrXrXrXeXeXeXaXaXaXaXaXaXdXdXfXdXfXdXpXdXfXfXpXxXxXfXfXfXfXfXxXxXfXfXdXxXaXdXdXdXdXsXsXdXsXaXuXuXaXeXeXeXaXaXeXeXrXrXeXrXeXrXrXeXeXeXeXeXeXaXaXsXaXsXuXaXsXdXdXsXgXgXdXdXdXfXfXgXfXfXfXfXfXxXxXCXfXCXCXCXCXxXCXCXCXCXCXCXCXCXCXCXCXCXCXCXCXCXfXBXxXBXxXfXfXfXxXfXfXfXfXfXdXxXpXfXfXfXfXfXfXfXfXfXfXfXBXfXfXfXxXCXfXCXCXxXCXCXCXCXCXCXCXCXCXCXCXCXCXCXCXCXCXCXCXCXBXBXxXCXBXCXCXCXxXfXCXCXfXxXfXfXBXfXfXxXfXfXfXfXxXfXfXfXfXfXfXfXdXfXfXfXpXfXfXpXfXfXfXfXfXfXdXfXfXfXfXxXdXfXdXfXdXfXdXfXfXgXfXxXdXfXfXfXfXfXfXfXfXfXfXzXdXxXdXfXdXfXfXfXfXfXfXxXdXfXdXfXfXdXfXfXfXfXdXxXfXxXfXfXfXfXfXdXfXfXiXzXdXdXdXaXfXaXaXaXaXaXaXaXeXeXaXrXeXeXeXrXrXrX8XrX8X7X9X9XqXqXqXqXqXqXqXqXqXqXqXqXXXqXqXqXqXqXoXqXXX{.qXXXqXXXXX{.XXXXXXXX[.{..X[..X[.[..X[..XJ.J..XB.B.J.U.B.U.B.U.P.J.B.P.J.P.P.B.B.N.P.B.B.B.B.B.B.M.B.m.B.m.N.M.m.m.N.m.M.M.N.M.m.m.",
"M.m.v.l.M.M.m.M.M.M.M.M.M.B.c.c.B.b.b.b.b.J.F.J.F.F.J.F.B.b.A.B.F.J.b.B.B.F.B.B.b.B.F.B.B.F.B.B.b.B.b.B.F.J.J.J.F.F.[.F.J.[.J.[.H.H.H.U.H.U.H.U.J.[.H..XJ.J.[.[.H.XX[.XX[.[.XX[.{.{.XX{.XX{.{.XX}.XX*XXXXX{.qXXX{.qXqX7XqXqXqX8X7X8XrXrXrXrXrXeXrXeXeXaXaXaXdXaXdXaXfXfXdXdXfXfXfXfXxXfXBXxXBXxXxXxXCXxXxXxXfXxXfXfXfXfXfXfXfXfXfXfXfXdXdXgXdXgXaXdXdXsXdXsXdXsXgXgXdXgXdXfXfXfXfXfXfXfXfXfXfXfXfXxXfXxXCXfXCXCXCXCXCXCXCXCXCXCXCXCXCXCXCXCXDXCXZXCXCXCXCXZXCXCXCXCXCXCXxXCXCXCXCXCXCXCXBXxXCXCXxXxXFXxXfXCXBXCXCXfXCXxXBXxXCXCXCXCXCXCXCXCXCXCXCXCXCXCXCXCXCXCXCXCXCXCXCXCXCXCXCXCXCXxXCXCXxXCXCXCXxXfXBXBXxXfXxXfXBXfXfXxXxXfXfXfXfXxXfXfXfXfXxXfXfXpXxXfXxXfXfXfXfXfXfXfXfXfXfXzXfXxXpXfXxXfXfXfXxXfXfXxXfXxXfXxXfXfXfXxXfXxXfXxXfXfXxXfXfXfXxXdXdXxXxXxXfXxXfXxXfXxXfXxXfXxXfXxXxXfXfXfXxXfXdXfXfXgXfXfXdXdXaXdXaXdXaXaXaXaXaXeXaXeXeXrXrXrXrXrX8X8XrX7X8X7X7X7X;XqXqXqXqX9XqXqXqXoXqXqXoXqXqXoXqXoXqXoXXXXXXXXXXXXXXXXXXXXXXXXX[.XXXX[.[.XX[.XXXXH.[.[.[. XB.[.J..XJ.J.J..XJ.P.U.B.J.P.B.J.B.B.B.B.J.B.P.B.B.N.M.P.M.N.B.N.N.M.N.m.B.m.M.m.M.M.m.L.m.m.m.M.",
"j.m.l.M.M.l.M.l.M.M.M.M.M.M.M.M.M.M.M.B.M.M.B.M.B.M.B.M.b.B.M.B.B.B.B.B.B.B.B.B.B.B.F.B.B.F.B.J.B.B.b.J.J.[.B.[.[.[.b.[.[.[.[.[.H.H.U.U.U.H.H.H.U.H..XU.J.J..X[.[.[.[.[.[.[.[.[.XX{.XXXXXX[.XX{.XXXXXXXX{.*XXXXXqX{.XXXXXX{.XX;XqXqXqXqX9XqX9X8X7X9XrXrXrXrXeXeXuXeXaXuXsXiXaXdXfXdXdXfXfXxXBXxXCXxXxXCXCXCXCXCXCXxXCXCXxXCXCXxXCXCXxXCXCXBXxXCXCXfXxXCXxXfXxXBXCXfXxXCXxXCXfXBXxXfXCXfXCXfXCXxXCXCXCXCXCXCXCXZXCXCXZXCXDXCXCXCXCXDXCXDXCXDXDXCXCXDXCXCXCXCXCXCXCXCXCXCXCXCXCXCXCXCXCXCXCXCXCXCXCXCXCXCXCXCXCXCXCXCXCXCXCXCXCXCXCXCXCXDXCXCXCXCXDXCXDXCXCXCXCXCXCXCXCXCXCXCXCXCXCXCXCXCXCXCXxXCXxXCXxXCXxXxXBXxXxXBXfXxXxXfXfXxXxXfXxXxXfXxXfXxXCXxXxXxXxXxXfXxXxXBXfXxXxXfXfXBXxXfXfXCXfXCXfXfXxXfXBXxXCXxXCXxXxXfXCXxXCXfXCXfXCXxXCXBXfXxXCXCXfXCXCXfXfXxXfXBXxXfXFXfXfXxXdXxXdXfXfXfXfXfXfXfXdXdXfXaXdXaXaXaXaXeXeXeXeXeXrXrXrXrXrX8X8X7X7X8X7X8XqXqXqXqXqXqXqXqXqXqXoXXXqXXXXXoXXXXXXXqXXXXX{.XXXXXXXXXXXXXX{.XXXXXX[.XX{..X[.XXH..X[.[.[.J.[.[..X[.[.[.[. X[.B.[.J.B..XJ.J.J.B.[.B.J.B.B.P.B.P.J.P.B.B.P.B.B.B.N.N.B.L.N.M.M.N.M.N.N.M.M.B.L.m.B.m.M.m.m.m.",
"l.M.M.l.M.l.M.l.l.M.l.M.M.m.M.M.M.M.M.M.M.M.M.M.M.M.N.B.M.M.M.B.M.M.M.B.B.B.B.B.J.B.B.B.B.F.F.B.B.G.G.B.B.J.[.J.[.F.[.[.[.B.F.[.G.J.H.H.H.H.H.H.H.H.H.H..X[.[.H..X[.[.[.XX[.XXXX.X[.{.[.XX{.[.XXXXXX{.{.XXXX{.XXXXXX*XXX;XqXXXXX}.qXoX*XXXqXoX;XqXqX9X7X9X9X7X8XrXrXrXrXrXrXeXrXaXuXuXuXuXgXgXdXdXfXfXfXfXfXxXfXCXCXCXCXCXCXCXCXCXZXCXCXZXCXCXCXCXDXCXCXCXZXCXZXCXCXCXCXCXCXCXCXCXCXCXCXCXCXCXCXCXCXCXCXCXCXCXCXZXCXCXCXCXCXCXCXCXCXCXCXCXCXCXCXCXCXCXCXCXZXCXCXCXCXCXCXCXZXCXCXCXCXZXCXCXDXSXCXZXDXDXCXDXDXDXCXSXDXCXDXDXDXCXDXDXCXCXDXDXCXCXSXCXCXCXCXCXZXCXCXCXCXCXCXCXCXCXCXxXCXCXCXCXCXCXCXCXCXCXCXCXBXCXCXCXCXCXCXCXxXCXCXCXCXxXCXCXCXCXCXCXCXCXCXxXCXCXCXCXCXCXCXCXCXCXCXCXCXxXCXCXCXCXCXCXCXCXCXCXCXCXCXCXCXCXCXCXCXCXCXCXCXxXCXCXCXCXfXCXxXBXxXxXBXxXfXfXxXfXfXdXfXdXfXdXgXsXsXsXaXeXaXaXeXeXeXeXyXrXrXrXrX8X8X8X8X8X9X7X7X7X7X7X7XqXqXqXoXqXqXqXqXqXqXoXoXqXXXqXXXoXoXXXXXXXXXXXXXXXXXXXXXXXXXXXXX[.XX[.[.[.[.[.[..X[.H.[.[.H..XB.[..X.X[.B.[.[.B.J.J..XB.B..X.XB.[.|.P.J.B.P.P.U.B.U.P.B.B.B.B.B.B.B.B.B.B.B.M.B.M.B.B.M.M.B.M.M.m.m.M.M.m.m.m.m.m.B.",
"l.M.l.M.l.l.M.l.M.l.m.l.l.M.l.M.M.m.M.m.B.M.M.M.M.M.M.M.M.M.M.M.M.M.M.M.B.B.B.B.b.B.B.F.F.B.F.F.J.J.F.[.[.J.J.J.J.J.F.[.J.J.F.F.H.U.H.H.H.U.J.XXU.[.[.[.H.XX[.[.XX[.[.XX[.[.XX{.XX[.XXXX#X{.XXXX{.XXXX{.{.XX*XXXXX{.qX}.XXXXqXXX*XqXqXoXqXqXqXqXqX8X;XqXqXqX9XqX-X7X7X-XqX-X-X9X7X9X8X9X9XaXuXeXuXuXuXaXsXgXdXdXfXfXfXxXfXCXCXCXCXCXCXZXCXZXCXCXZXDXDXCXDXDXDXDXDXCXDXDXDXCXCXZXCXDXZXDXDXCXCXCXCXCXZXCXCXCXCXCXCXCXCXCXCXCXCXCXCXCXCXCXCXCXCXCXCXCXCXCXCXCXCXCXCXCXCXCXCXDXCXDXDXCXDXCXDXDXDXDXDXDXZXDXDXDXDXDXDXDXCXDXDXDXDXCXDXDXDXCXCXDXCXCXCXCXCXZXCXCXCXCXCXCXCXCXCXCXCXCXCXCXCXCXCXCXxXCXCXCXCXxXCXCXCXCXCXCXCXCXCXCXCXCXZXCXCXCXCXCXZXCXCXCXCXCXCXCXZXCXCXZXCXCXCXZXDXCXCXDXCXCXCXZXCXCXCXCXCXCXCXCXCXCXCXCXCXCXCXxXCXCXCXCXCXfXxXBXCXfXfXxXxXfXfXfXdXfXxXaXdXdXaXaXaXeXeXeXeXeXyXrXrXrXrXrX7X8X8X7X9X9X7XqXqX7X9XqXqXqX7XqXqXqX7X7XoXqXoXqXoXqXXXqXXXXXXXoXXXqX{.oXXXXXXXoXXXXXXX[.XXXXXX[.XX[..X[.[.[.XX[.[.[.[.[.J.[.H.H.J.H.[.[.[.U.J.J.[.B.[.B.B..XJ.[.J..XJ.B..XB.B.P.J.B.B.B.P.B.J.B.B.N.B.B.B.B.N.B.B.M.B.N.M.M.M.M.M.N.M.N.B.m.M.m.M.m.m.m.m.M.",
"j.m.l.l.l.M.l.M.l.M.M.M.M.M.m.M.M.v.M.M.M.M.M.M.M.M.M.M.M.B.B.M.B.B.B.B.M.M.B.B.B.B.F.B.B.J.J.F.J.F.J.F.J.F.B.[.F.[.[.b.F.[.[.[.H.H.U.H.U.J.H.H.[.[.[.[.[.[.[.XX{.[.[.[.[.XX[.XX[.[.XX[.{.{.{.{.XX{.XXXX*XXX{.XX*XXXXX*XXXXX{.qXXXXXqXqXqXoX;XXXqXqXqXqXqXqXqXqXqX7XqXqX9X7XqX9X9X9X9X8X9X8X9XuX9XeXeXeXuXuXuXsXuXgXdXgXdXgXfXfXfXCXfXCXxXCXCXCXCXCXCXCXCXZXCXCXDXZXCXCXDXDXDXDXDXCXDXDXDXDXDXZXDXZXDXDXDXDXCXDXCXDXCXCXCXCXCXCXCXxXCXCXCXCXBXCXCXCXCXCXCXCXxXCXCXZXCXZXZXCXCXCXCXDXCXDXCXDXCXDXDXSXDXDXCXDXCXDXDXZXDXDXDXSXDXDXCXSXDXDXCXDXDXDXDXDXCXDXDXCXDXDXDXCXZXZXCXZXCXCXCXCXCXxXCXCXCXCXCXCXCXCXZXCXCXCXZXCXCXZXCXCXDXCXCXCXDXCXDXCXDXCXDXDXCXDXDXDXDXDXSXDXDXDXCXDXCXDXCXCXCXDXCXDXCXZXCXCXCXCXCXCXCXCXBXCXxXBXCXfXxXfXfXfXfXfXfXfXgXfXdXdXsXdXdXsXsXsXaXeXeXeXuXeXeXrXrXrXrXrX8X8X8X8XrX8X9X8X7X8X7X7X7X8X9XqXoXqXqXqX7XqXqXqXqXqXqXqXqXoXXXqXqXXXXXqXoXXXXXXXoXXXXXXXXX}.oXXXXXXXXXXXXX[.[.XX[.XXXX[.[.[.XX[..X[..XH..X.XU.U..XB.U.J.U.U.|.B.[.J.J.J.B..XB.B.J.P.B.J.B.[.B.P.U.B.B.J.B.B.B.B.B.P.M.B.B.B.B.B.B.M.L.B.M.N.M.N.M.m.m.M.m.M.m.B.m.M.m.m.",
"l.v.l.l.l.M.l.m.l.m.m.v.v.M.M.M.M.M.M.M.M.M.M.m.M.M.V.M.M.M.M.M.B.M.M.B.M.B.b.B.B.B.B.F.F.B.J.B.J.B.J.J.F.F.F.J.[.b.[.F.F.J.[.F.J.H.J.H.H.H.H.H.[.[.XX[.[.[.[.XX[.XX[.{.{.XXXX{.{.{.XX{.XX{.XX{.oX{.*X{.qXXXqX{.XXXX*XqX{.qXXXoXqX}.qXqXqXqXqXqXqX*XqXqXqX*XqX;XqXqX;X8XqXqXqX-X8X7X9X9X9X9XeXrX-XuXuXeXeX9XuXeXuXuXeXuXuXaXaXdXdXiXfXfXfXfXxXxXfXxXxXFXxXxXxXCXCXCXxXCXCXCXCXCXDXCXZXCXZXSXZXDXZXDXDXDXDXDXDXDXDXDXDXCXCXCXCXCXCXCXCXCXCXCXCXCXCXCXCXCXCXCXCXCXCXCXCXCXCXDXZXCXDXCXCXDXDXZXCXSXCXDXSXDXDXDXDXDXDXDXDXDXCXDXDXSXDXDXDXDXCXDXDXCXDXDXCXDXSXDXDXCXDXZXDXCXCXZXCXCXCXCXCXDXCXCXCXCXCXCXDXCXDXCXCXCXDXCXDXCXCXDXSXDXCXDXZXDXDXDXDXSXDXDXSXDXDXSXDXZXCXDXCXCXZXCXCXCXCXCXxXCXCXCXxXCXxXxXfXBXfXfXfXfXfXfXfXfXdXfXgXdXdXdXsXaXaXaXuXaXaXaXeXeXeXeXrXrXrXrXrX8X8X8X9X8X8X8X8X8X8X8X8X8X8XqXqX8X7X7X9XqX7XqXqXqXXXqXqXqXqXqXXXqXqXqXqX{.qX{.qXqXoXqXoX{.XXqXoXXXXXXXXXXXXXXXXXXXXXXX[.XXXXH.H.XX{..XXXH.[.[..XK..XH.U.H.H..XH.H.H.U.H.U.H.H.U.U.J.U.J.B.[.B.B.[.B.B.B.P.B.B.P.J.P.B.B.P.B.B.B.B.B.B.B.B.B.B.M.B.N.B.B.B.M.B.M.m.M.B.M.M.B.m.m.M.m.m.m.m.",
"l.m.v.m.M.M.m.v.M.v.M.m.M.M.M.V.M.c.M.M.M.b.M.M.M.M.B.M.M.B.M.N.B.M.B.B.b.B.M.B.B.b.F.B.F.F.F.b.F.J.F.F.J.J.J.J.F.[.F.F.[.[.F.[.H.H.H.H.H.H..XK.H.XX[.[.[.XXXX{.{.XX{.#XXX[.{.{.{.XX{.#XXX{.{.{.*XXX}.XXXX{.{.qXXX*XqX{.qX*X;XXXqXqXqX*XqX*X*XqXqXqX*XqXqXqX7X7XqXqX7X-XrX-X9X9X9X9X-XrXeX9XwXeXeXeX9XrXuXuXeXuXuXuXuXuXeXuXuX3XuXuXaXeXaXiXeXuXsXsXiXdXsXgXgXdXaXxXfXxXfXfXxXxXfXCXxXCXxXCXCXCXCXCXCXCXCXCXCXZXCXZXCXDXZXDXZXZXDXZXZXCXCXCXCXCXCXCXCXCXCXCXCXCXZXCXCXCXCXCXCXCXCXCXDXCXCXCXDXCXDXCXDXDXCXSXDXDXSXCXDXSXDXDXDXDXDXDXDXDXDXDXDXDXDXCXDXDXCXDXCXDXDXCXCXCXCXCXCXDXCXZXCXCXCXDXCXDXCXDXDXCXCXDXDXDXDXSXDXDXDXCXDXDXDXDXDXDXDXCXDXDXDXZXZXCXCXCXCXCXCXBXCXCXxXBXfXCXxXfXfXfXfXfXdXfXdXdXdXgXdXsXdXsXsXdXaXaXaXaXuXeXeXeXeXeXeXeXrXrXrXrXrXrX8XrX9XrX8X9X7X8X8X8X0X8X9X7X7X7X7X7X7X9X;X8XqXqX8X;XoXqXqXqXqXXXqXqXqXqXXXqXqXqXXXXXqXqXoXqXXX}.XXXXXXqXXXXXXXXXqXXXXXXXXXXXXXXXXXXXXXXXXXXXXXH.XXXXH.XX{..XK..XH.H.XXXX[.H.H.U.U.H.H.U.H.U.J.U.J.U.U.J.J.J..XB.J. XJ.|.J.B.U.B.J.B.B.J.J.B.J.B.P.B.B.B.B.B.B.B.M.B.B.M.N.M.m.B.N.M.m.m.N.M.m.M.m.M.m.M.",
"c.M.v.v.z.v.v.M.c.M.M.M.M.c.c.c.c.M.B.b.b.B.B.b.b.b.b.b.B.b.b.b.B.c.F.b.B.b.B.B.F.F.F.J.F.F.F.J.J.F.G.F.J.F.J.G.[.F.[.[.[.F.[.F.H.H.H.H.H.H.[.{.[..XK.[.[.XXH.[.{.{.XXXX{.XXXX{.{.{.{.XXXX*XqX}.XX{.XXXXXX*XqX*X*XqX*XqXqXqX{.oXqXqXqXqXqXqXqXqXqX7X7XqXqX;X9XqX-X8X9X-X-X9X9X9X9XwXeXeXrXeXuXeXeXeX3XuXeXuXuXeXuXeXeXuXuXuXuXuXeX3XuXeX3XeXuXaXuXuXuXuXaXuXuXuXuXiXiXiXiXdXiXdXpXdXgXpXfXfXfXfXfXfXxXxXCXxXCXCXCXfXCXCXCXCXCXCXCXCXCXDXDXZXCXDXZXDXDXCXZXDXCXDXDXDXCXDXDXCXDXCXDXCXDXCXDXCXDXDXDXDXDXDXDXDXDXDXDXDXDXDXDXDXDXDXDXSXDXDXDXDXDXCXDXDXCXDXDXDXCXDXDXCXDXCXCXDXDXDXDXDXDXDXDXDXDXDXDXDXDXDXDXDXDXDXDXDXDXDXDXDXDXDXDXDXDXCXZXCXCXCXCXCXxXxXCXxXfXfXfXfXfXfXgXfXdXdXdXdXuXaXuXuXaXuXaXuXuXaXuXuXuXuXeXuXeXuXeXeXeXrXrXrX8X8XrXrX9X7X8X9X9XrX8X8X7X8X8X7X8X8X8X8X7X8X7X7X8X7X7X7X9XqXqXqXqXqXqXqXqXqXqXqXqXqXqXqXqXXXqXqXqXXXqXqXXXqXXXqXXXqXqXXXXXXXqXXXqX{.{.XXXXXXXX[.XXXXXXXXXXXXXXH.XXXX.X{.H.H.XXH.H.[.XXH.H.U.XX[.XXH.H.U.U.H.U.H.H.J.J.J.J.P.[.B.J.J.J.J.J.B.J.P.B.U.P.J.B.B.B.B.P.B.B.B.B.B.B.N.B.B.B.B.M.B.N.B.M.M.M.M.M.B.m.m.m.m.m.M.m.M.",
"c.v.c.c.c.M.b.c.c.c.b.b.b.b.b.b.A.b.b.F.b.b.b.A.b.b.F.b.J.B.b.b.A.F.F.B.F.F.b.F.b.F.A.B.G.B.B.G.b.G.F.J.G.G.G.G.F.[.F.[.F.[.[.F.H.H.H.G.H.}.[.{.{.{.{.{.{.*X{.{.XX{.{.{.XX{.*XXXqXXX*XqXXX*XqX*X;XqX;XqXqXqX*XqXqXqXqXqX;XqX;X9X*X-XqX;XqX;XqX;XqX-X9X9X9X9X9X9XqX9X8X9XrX9XrX9XeX9XeX9X,XeX9XeX9XuX9XeX3XeXeX,XeXeXeXrXeXeXeXeXuXeXeXuXeXuXeX3XuXuXaXuXuXuXaXiXuXiXaXiXuXiXiXiXiXiXgXiXiXiXpXiXiXpXgXpXgXpXpXfXpXfXfXxXfXxXCXCXCXCXCXCXDXDXDXDXDXDXDXDXDXDXDXDXDXDXDXDXDXDXDXKXDXDXDXDXGXDXDXDXDXDXDXGXDXDXKXDXDXDXDXDXDXDXDXDXDXDXDXCXDXSXDXDXDXCXDXDXCXDXDXCXDXDXDXDXDXDXDXDXDXDXDXDXDXGXDXDXGXDXDXDXGXKXDXDXDXDXDXDXDXDXDXZXCXCXCXCXCXCXBXfXfXfXdXxXgXgXdXsXgXgXuXuXuXsXuXuXuXuXaXuXaXeXaXuXuXeXeXuXeXeXrXeXeXrXrXrX9XrXrXrX9XrX8X8X9X9X8X8XqXrX7X8X9X9X7X0X7X8X8X7X7X7X7X7X9XqX7X7X7X7XqXqX7X7XqXqXqXqXqXqXqXqXqXqXqXqXqXqXXXqXqXqXqXXXqXqXqXqXqXXXoX;XqXXX{.qXXXqXXXXXoXXXXXXX[.XXXXXXXXXXXXXX[.XXH.XXXXXXH.XXXXH.XX[.H.XXH.U.U.H.U.[.H.U.H.U.U.H.U.U.J.J.B..XB.J.J.B.B.J.J.J.B.B.B.B.U.B.B.B.B.B.B.B.B.M.B.B.B.M.B.B.N.M.M.M.B.N.N.M.m.m.M.M.M.N.m.m.m.m.",
"v.c.b.b.b.b.b.b.b.b.F.b.b.b.F.c.A.b.F.J.F.F.b.F.J.F.G.F.A.F.F.A.F.F.F.F.F.J.b.F.F.F.F.B.F.F.F.F.G.F.J.G.G.J.G.G.[.S.[.F.[.[.S.{.K.{.{.[.{.{.{.{.XXXX{.{.{.*XXX{.XX;X{.{.*XqX*XqX*XqXqX*X*XqX*XqXqX7X;XqX-X7X-X7X9X7X-X9X9X-X9X9X9X-X-X-X9X9X9X9XrX9X9X9X9XrX9X9X9X9X9XrX9XhX9XrX-X9XrX9X9X9X9X9XeX9XrX-X9XrX-XeXrXuXrX3XeX,X,XeXrXuXeXrXeXuXeXuXuXeXuXeX3X3XaXiXuXiXiXaXiXiXiXiXuXiXpXdXpXiXiXiXgXpXgXpXfXpXgXpXfXfXxXpXfXxXpXxXCXCXCXZXCXZXDXDXDXDXDXDXDXDXDXDXDXDXDXDXKXDXDXDXDXDXKXGXDXKXGXDXDXDXHXDXDXGXKXDXDXDXDXDXDXDXDXDXDXSXDXDXCXDXDXCXDXDXCXDXDXDXDXDXDXDXDXDXDXDXDXKXHXDXHXGXKXGXGXDXDXDXDXDXDXDXDXZXCXDXCXCXCXCXxXxXxXxXdXxXgXpXfXgXiXiXaXuXaXuXaXuXeXuXuXuXuXuXuXeXuXeXuXuX3XeX3XeXrXeXuXrXeX9X8XeX8XeX9X9XrXrXrX9X9XrX8X9X8X9X9X7X9X9X8X7X9X7X9X8X9X7XqX7XqX7X7XqX7XqX7XhXqX9XqXqX7X7X7X7XqXqXqXqXqXqXqXqXqXqXqXqXqXqXqXqXqXqXqXXXqXqXqXXXqXXXqXqXqX{.qXoXqXXXXXXXXXqXXX{.XX{.XX{.XXXXXXK.{.XX{.XXXXXXH.XXH.XXH.H.H.XXU.H..XH.U.H.U.H.J.J.U.U.J.B.B.P.J.J.B.[.[.B.B.J.B.J.P.B.J.B.B.B.B.B.B.B.B.B.M.L.M.B.B.B.B.M.M.B.N.M.M.N.M.m.m.M.M.m.M.M.m.m.",
"b.b.c.b.b.b.A.A.b.F.b.G.F.A.F.[.G.A.A.G.G.F.G.J.G.F.F.G.[.F.F.[.J.F.F.G.F.A.F.J.F.F.J.F.F.F.G.F.J.G.G.F.G.S.H.H.[.[.[.{.{.{.{.{.{.{.{.{.qXXXoX*X*X*X*XqXqX*X*XqXXX*XqX;XqX*XqXqXqX9XqX9X;X9X9X9X,X-XrXrX9X3XrX3X,XeXeX,XrXeX-X-XeXrXeXrX9XrX3XrX3XeX,XrX9X,X9X9X,XeXrX-XwX9X9X9X9X9X9XrX9X9X9XrX9X9X9X9X9X9X-XeX,XrX,XeX3XeXeXuX3XeX3XuXuX3XuXuX3XuXiXuXaXiXuXuXuXiXsXiXgXiXiXgXiXgXiXiXpXiXpXfXpXpXfXpXpXpXpXfXxXpXfXxXfXxXxXxXxXxXxXCXCXCXCXCXCXCXCXCXCXDXDXDXCXDXCXDXGXDXGXGXGXGXDXHXGXGXGXHXGXKXGXDXGXGXGXGXGXDXDXDXDXDXDXDXDXDXDXDXDXDXDXDXDXDXDXDXDXDXGXGXHXDXHXHXGXHXHXDXDXGXDXDXDXDXDXDXDXCXDXCXCXCXCXxXCXfXxXxXfXfXfXdXdXsXiXiXuXuXuXuXuXuXeXuXuXeX3XuXuXuXeXeXeXeXeX,XeX9X9XeXrXrXrXeXeX,XrX9XuXeXuX9XwX8XuXeX9XeX8XrXrX9X9X8X9X9X9X9X9X8X9X9X8X9XqX8X9X9X7X8X9X9X7X9X;XqX8X7XqXqXqX9X7XhX9XqXqXqXqXqXqXqXqXqX7XqXqXqXqXqXqXqXqXqXqXqXXXqXqXqXqXqXqX{.qXoXXXqXXXqXqX*XXXXXXXXXXX*XXXqXXX{.{.XXXXXXXX{.XX{.{..XXXXXXXH.H.H.{.[.[.H.H.U.U.U.H.H.J.U.U.J.[.B.J.B.B.B.B.b.B.J.J.J.J.J.P.B.P.B.B.B.P.B.B.B.B.B.F.B.B.M.N.B.B.M.M.M.M.M.M.N.N.M.m.M.m.m.m.M.",
"b.c.A.c.A.A.A.A.A.S.A.F.A.S.S.F.A.S.G.A.J.G.G.G.G.S.G.F.A.S.[.F.G.G.G.J.G.G.G.G.G.G.G.F.G.G.G.G.S.{.[.[.{.{.{.{.{.{.}.K.{.XX*XqX*X{.*X*X*XqX*X*X;X*XqX*X*X*X*XqX*XqX*X9X*X-X-X9X-XrX9X,XrX3X9X9X3X9X3X3XeX3XuX3X,XeX3XeX3XuXuXuX3XeXuX3X3X,XrX,XrX3XeX,X9X9X3X9X,XrX-XeX-X9X9X9X9X-X9X-X-X-X9X-X-X8X9XeXeX-XeX,X,XeXrX3XeXuXuXuXuX3XuXuXuXiXuXuXiXiXiXiXiXiXiXiXiXiXiXiXiXiXiXpXpXiXiXiXiXpXiXiXgXpXpXpXpXxXpXzXzXpXpXxXxXxXxXxXxXxXxXxXcXxXxXCXCXCXCXCXCXCXDXCXDXKXDXDXDXDXDXDXKXGXDXGXGXGXDXGXDXHXGXGXDXGXGXDXDXDXKXDXDXDXDXDXDXDXGXGXKXGXHXGXKXHXHXHXHXHXHXHXHXHXDXDXGXDXDXDXDXDXDXCXCXDXCXCXCXxXCXxXfXfXfXdXgXfXiXgXiXiXsXuXuXuXuXuXuXuXuXuXeXuX3XeX3XeXeXuX,XrXuX9XuXeXeXuXeX3XeXrXeXeXeXrXeX9XrX9X9XeXeXeXeXeXeX9XeX9XeX9X9X8X9X9XrX8X9X9XqX9X9X-X9X9X9X9X8X7X8X8X8X8X9X9XqX8X8X;X9X8XqXqXqXqXqXqXqX9X;XqXqXqX9XqXqXqX7X7X9XqX*XqXqXqXqXqXqXqXqXqXqXXX{.qX*XqX*XoXqXXXqXXXXXoXqX{.{.XX{.qX*XXXqX{.XX{.XX{.XX{.{.XXH.{.{.[.XXXXH.[.[.H.XXH.U.H.H.H.H.H.J.J.J.J.J.J.[.B.J.G.J.B.J.P.B.J.J.J.F.F.J.J.B.J.F.B.J.B.B.B.B.M.M.M.M.M.M.N.m.M.M.m.M.M.m.m.M.m.m.M.",
"x.c.c.c.c.b.b.b.A.A.A.A.A.A.S.F.F.G.F.F.S.G.S.S.G.G.G.G.[.A.{.S.G.K.G.K.K.H.G.H.G.K.H.K.H.K.{.{.{.{.{.{.{.{.{.XX*X{.*X*X*XXX*X*X*XqXqX*X*X*X*XqX*XqX*X;XqXqX*X-X;X9X8X-X9XrX9XwX9X3X,XrX3X9XeX3XrX3X9XrX3X9X3X9X3XrX3X3XeX,XuX,X3X,X3X9X3XrX3XrX,X9X,XeX,X3XrX,X-XeX3X-X9XuX9X-X-XrX-XrXrX9X9X9X-XwX-XeX,XrX3XeX9XuXuXuXuX3XuXuXuXiXuXiXiX3XiXiXpXiXiXiXdXiXiXpXiXiXiXpXiXiX4XiXiXiXiXiXiXiXpXpXpXpXpXpXpXpXfXfXpXxXpXxXpXxXfXzXfXxXxXxXCXxXxXxXxXCXCXZXDXCXDXDXDXDXDXDXGXGXKXGXGXDXDXGXKXDXGXGXDXDXKXDXKXGXDXGXHXGXHXHXHXHXHXHXHXHXHXHXJXHXHXJXJXJXHXHXHXHXHXGXDXDXDXDXDXDXCXDXCXCXCXxXBXxXfXfXzXfXgXpXgXpXlXaXpXuXgXiXiXuXiXiXuXuXuXiXuXuX3XuXuXuXuXuXuXuXuXuXuXuXuXuX9XeX3XeXeXeX3X3XeXuXeX3XeXuXuXuXuXeXuX9XwXuX9XuXuXeXeXuXuXeXeXeXrXrXeX9XrXeXrXeX8XrX9X9XrXrX-XrX7X9X8X8X9X9X8XqX8X9X9XqX-X9XqX9X8X7X7XqX9XqX9XqX9XqXqX-XqXqXqXqXqXqXqXqXqXqXXXqXoXqXqXXXoXXXqXXX{.qXXX{.qX*XXXXXqXXXXX{.XX{.XXXXXX{.{.XX{.[.XX{.XX{.XXXXH.H.H.[.[.[.H.U.U.H.H.U.J.J.H.J.[.J.J.J.G.[.J.J.[.J.J.J.J.J.J.H.U.J.B.J.J.B.J.F.B.J.F.B.B.B.B.B.N.B.B.M.B.M.M.M.N.m.M.M.N.M.m.m.",
"c.c.c.c.c.c.A.c.b.A.A.A.S.A.F.S.F.G.S.F.S.D.S.{.{.S.S.{.S.{.S.{.K.K.{.D.{.K.K.{.{.{.D.{.{.{.{.*X{.*X*XXX*XXXqX*XXX;X*X*XqX*X}.qX*XqX*X*X*XqX;X{.;XXXqX;XqXqX9X;X-X9X9X,X3X9XbX9X-X9X9X9X9X9X-X9X9X-X9X9X9X,X9X9X9X9X9X-XrX9X9X9X9X3X,X9X9X9X,X,X,XeX9X3X9X3XuX-XeX,XeXeX3X,X9X3X,XeXrX,XeX-X3X9XuX9X3X9XeX3X3X3XeXuX3XuX3XuXuXiXuXiXiX4X3XiXiXiXiXiXiXiXiXiXiXiXiXiXiXiX4XiXiXiXiXiXiXiXiXiXiXpXpXpXpXpXfXxXpXpXzXfXpXpXxXzXxXxXxXxXxXxXCXxXCXCXCXCXDXCXDXDXDXDXDXDXDXKXGXGXDXKXGXDXDXKXDXGXDXDXHXGXHXDXHXHXHXHXHXHXJXHXJXHXJXJXJXJXJXHXJXJXHXHXHXHXHXDXGXDXDXDXDXCXZXCXxXxXxXxXfXfXfXpXpXgXpXgXpXiXiXiXiXiXiXiXiXiXuXiXiXuXiXuXiXiXuXiXaXiXuXaX3XuXuXuXuXuXuXeXuXuXuX,XeXuXeXeXuX3XuXeXeXuXeXeXeXuXeXeXeXuXuXeXaXuXuXuXeXeXeXeXuXrX,XuXrXuXeXeXeX9XeXrXrX3XeXeXrXeX-XeXrX9XrX9XrX9X9X9X9X9X7X9XrX9X9XqX9X9XqX9XqXqXhX9XqXqXqXqXqXqXqX*X7X7XqXqXqXoXqXqXoXqXqXqXoXqXqXXXqXqXXX*XXX{.*XXX*XXX{.XXXXXX{.XX{.[.{.XX[.XX[.XX[.{.{.H.{.[.{.[.[.[.[.[.H.XX[.H.H.H.H.H.J.J.G.J.G.[.J.G.J.J.J.G.J.B.J.F.J.J.F.B.J.J.B.J.B.F.J.b.F.B.B.B.B.B.B.B.B.B.M.M.M.M.M.M.M.M.m.m.",
"c.c.c.c.c.A.A.A.b.A.S.A.}.A.A.A.F.S.F.S.[.F.[.S.S.{.{.S.{.S.{.S.K.{.{.D.}.D.{.{.{.{.{.%X{.%X*X}.*X*X*X{.;X*X*X*X*X;XXX;X*X*X;X*X;X}.;XqX*X*XqX;X;X;X;XqX;X;X;X9X9X-X9X9X9X9X9X9X9X-XhX8X;X9X;X9X;X9XqX;XqX9X;XhX-X-X9X-X;X9XhX,X-X-XrX,X3X9X3XeX,X3X3X9XbX,XuX3X,X3X3X3X3XuXuX3X3X3X3XuX3X3XuX3X3XuXuX3X3XuXuXuX3X3XuX3XuXiX3XiXuXiXiXuXiXiXiXiXaXiX3XiXiXiXiXiXiXiXiXiXiXiXiXpXiXiXpXpXpXpXpXpXpXpXzXpXpXpXfXzXpXxXxXxXxXxXxXxXxXCXxXCXCXZXCXZXDXCXZXDXDXDXDXDXDXDXDXDXDXGXDXDXGXDXHXGXHXHXHXHXHXJXHXHXHXJXHXJXJXJXJXJXJXJXJXJXJXJXJXHXHXHXGXGXDXDXDXDXCXZXCXxXxXxXpXfXpXgXiXpXiXpXiXiXiXiXiX4XuXiXaXiXiXaXuXiXaXiXuXuXuXiXuXuXiXuXeXiXiXuXiXiXuXiXuXiXiXuX3XuXuXuXuXaXiXeX3XuXuXeXuX3XuXuX3XuXuXuXuXuXuXuXuXuXuXeXeXuX,XuXuXeXeXuXeXeX-XeXrX3XeX3XeXrXrXeX9X9XrX9XuX9X9XrX9XeX9X9X8X9XrX9X9X9XqX8X7X9XqXqX9XqX8X7X7XqXqXqXqXqX;XqXqXqXqX7XqXqXqX*X*XqXqXXXqX{.qX{.XXqX{.XX{.XXoX{.XXXXXX{.{.qX{.{.XX{.{.XXXX[.H.XX{.{.XX{.XXH.[.[.[.[.[.[.[.[.H.G.H.H.U.H.H.G.[.G.[.J.[.B.J.J.J.J.J.J.J.F.J.J.B.F.B.J.F.B.F.B.F.B.B.B.B.B.b.B.B.M.B.M.M.M.M.M.M.M.M.M.M.m.m.M.",
"v.c.c.c.c.b.A.A.S.A.S.A.C.A.F.S.S.G.G.{.[.S.S.S.S.S.{.S.S.S.{.{.K.D.{.{.{.{.E.*X%X{.{.{.*X*X{.*X*X*X*X;X*X*X*X;XqX*X*X;X;X*X*X*X*XqX;X*X*X*X;X*XqX*X;X;X;X;X9XqXqX9X;X9X;X;X;X;X-XqXqX;X;XqXqX;XqX;X9X;X9X;X9X;X-X;X-X9X9X,X-X9X,XrX,XrXhX,XeX,X,X3X,X3X9X3X,X3XeX3XeX3X3X3X3X3XuX3X3XiX3XuXuX3X3XuX3X3XiX3XiX3XiX3X3X3X4X3XiX,X3X3X3XiX3X3X3XiX4XiX3XuXiX3X3XiXiXiX5XiXiXpXiXpXpXpXpXpXpXpXpXxXxXzXpXxXxXxXxXxXxXxXxXxXxXcXCXxXZXCXZXCXDXCXDXZXDXDXDXDXDXDXDXDXDXGXDXGXHXHXHXHXHXHXHXHXJXJXJXJXJXJXJXLXJXLXJXJXJXJXJXJXJXJXHXHXHXGXDXGXDXDXCXZXCXCXBXfXfXpXpXpXiXiXpXiXiXiXiXiXiXiXuXuXuXiXuXiX3XiXeXiXuXuXiXuXiX3XuXiXiX3XuXiXiXaXiXiXiXiXiXuXiXuXiX3XuXuX3XuXiXuXuX3XeX3XuXeX3XeXuXuXuXuXuXuX3XaX3XuXuXeXeXuXuXuXeXuXuXeX-XuX3XrXrXuXuXrXeXeX,XrXeX3X9XeX9XrX8X9X9X9XrX9X8X9X9X9XqX9X8X9X9X9X-X7X7X8X9XqXqXqX;XqX7X7XqXqXqXqXqX*XqXqXXXqX*XqXqXqXqXXXqXqXqXqXXXXXoXqXoX*XqX{.*XXX{.XX{.XXXX}.XXXX{.XX{.{.{.XXXX{.K.XXK.{.XXXX[.[.[.[.[.[.[.G.H.H.H.K.H.H.H.H.[.J.[.G.G.G.J.G.G.B.J.J.B.J.B.F.B.F.B.B.F.B.F.B.B.B.B.M.B.B.B.M.M.M.B.M.M.M.M.B.M.M.M.M.M.M.M.M.",
"c.c.A.c.A.A.A.C.A.S.A.S.A.S.S.G.S.D.S.S.S.S.S.{.{.S.D.S.D.{.{.D.{.{.{.{.T.{.*XD.{.*X%X*X*X*X;X*X*X*X*XqX*X*X*XqX*X;XqX*XqX*X;XqX*X;X*X*XqX;XqX*X*X;XqX;XqXqX;X;X;X;XqX;X;XqX;XqX-X;X;X;X;X9X;X;X;X9X;X9X-X;XqX9X9X9X9X-X-X,X9X9XrX-X9X,X-X9X,X9X9XeX9X,X,X,XrX-X,X,X3X,XeX6X3XeXuX3XuX3X3X3X3X3X3X3XuX3X3X3X3X3X3X3X3XiX3XuX3XiXiX3X3X4XuXiX4XiXiX3XiX5XiXiXiXlXpXpXpXpXpXzXzXpXfXzXzXzXxXxXzXxXxXxXxXxXxXxXcXxXxXcXCXCXCXCXCXZXZXCXDXDXDXDXDXDXDXDXDXGXDXDXHXHXHXHXHXJXHXJXJXJXJXJXLXLXLXJXJXLXLXJXJXJXJXHXHXJXHXHXDXHXDXDXDXDXCXDXCXCXxXxXxXfXfXpXpX5XpXiXgXpXiXiXiXiXiXiXiXiXiXiXiXiX3XiXiXuXuXiXiXiXiXiXuXuXiXuXiXuXiXuXiXuX3XuXiXiXuXiXiXuXiXiXiXaXiXiXuXiXuX3XuXuXiXuX3XiXuX3XuXuXuX3XeX3X,XuXeX3XeX3X3XeX9XeX,XeX,XeX,XeXeXeX-XrXrX,X,XrXeX9X-XrXrX-X9X9X9X8X9X9XrX-XqXrX9X7X9X-X7X;XqX7X7X-X-X7XqXqX;XqXqXqXqX;X;XqX*XqXqXqXqXqXqXqXqXqX*XqXqXqX*XXX{.qXqX*X*X}.XXXXXX*X{.XXqX*XXX{.*XXX{.*XXX{.XX{.XX{.{.[.XXK.XXH.H.[.{.[.[.[.[.H.[.[.H.H.H.H.H.G.H.G.G.G.J.G.B.G.J.J.J.F.B.F.F.B.J.b.B.B.B.F.B.B.M.B.B.B.b.B.b.M.M.B.F.M.M.c.M.B.M.M.M.M.M.M.M.l.M.M.",
"x.A.c.C.C.A.S.A.A.S.S.S.A.S.S.S.G.S.S.S.S.S.D.{.K.K.K.{.D.T.{.{.{.{.{.{.{.%X%X{.*X{.%X*X*X*X*X%X*X*X*X*X*X;X*X*X*X*X*X*X*X;X*X&X*X;X*X*X*XqX;X;X*X*XqX;X;X;X;XXX;XqX;X;XqX;XqX;X;X-X-XqX;X9X;X9X;X9X;X9X;X9X9X;X;X-X;X9X-X-X9X;X-X-X9X-X9X9X;X;X-XuX-X-X-X-X,X9X-X,X,X,X,X,X3X9X3X9X3X3X3XeX3X3X3X3X3X3X3X3X3XuX3XiX3XiX4XiXiX3XiXiX4XiX5XiXiXiXpXpXpXpXpXfXpXzXpXxXzXfXzXxXpXzXxXxXzXxXxXxXcXxXCXxXZXxXxXxXCXZXcXCXcXCXCXCXCXDXDXDXDXDXDXDXHXDXDXHXHXHXHXHXJXHXHXJXJXJXJXJXJXJXJXLXJXJXJXJXJXJXJXHXHXHXHXDXDXDXDXCXCXZXCXxXxXxXfXxXpXzXpXpXpXpXpXpXpXpXiXiXiXpXiXiX5XiXiX4XiXiXiXiX4XiXiX3XiXiXuXiXuXuXiX3XiXiXuXiXiXiXiXiXiXiXiXiXiXiXiXiXiXiXiXiXiXiXiXuXiXuXuXiXuXiX3XiXuX3XiXuX3XiXeXiXuXuXuXeX3XeX3XeXeXuX3XeXeXrXeXeX3X-X,XrXeXuX,X9XrX9X-X9X9X9X9X9X9X9X9X9X9X9XqX-X7X-XqXqX7X9XqXqXqX;XqX9XqXqX;X;XqXqXqXqXqXqXqXqXqX*XqXqXqXqXqX*XoXqX{.qXqXqXqX{.*XqXoX*X*XXXqXqXXX*XqX{.{.{.*XXX*XXX*X{.{.{.{.XX{.XXXX[.{.XX[.{.{.[.H.K.[.H.[.G.G.J.[.J.J.G.G.G.H.H.G.[.J.F.J.J.J.F.B.F.J.B.B.F.F.B.F.B.B.B.F.B.M.B.M.B.B.B.M.c.M.M.M.M.M.b.M.c.M.b.M.c.c.c.c.c.M.b.",
"c.x.A.A.A.C.A.A.S.A.A.A.S.A.S.S.S.S.S.S.{.S.S.S.S.K.{.D.K.}.{.u.%X{.T.*X%X{.{.%X*X%X{.%X{.*X*X%X*X{.*X*X}.*X{.*X%X%X*X*X{.%X{.{.{.*X*X*X*X*X*X*XqX*X;X*XXX;X*X;X*XqXqX*X;X;X;XqXqX*XqX-XqX;X;XqX;X;XqX;X;X;X*X9X;X9XqX;X9X;X;X9X-X;X-X-X;X;X;X9X-X-X-X-X,X9X-X,X6X-X9X,X,X,X,X,X,X,X,X3X3X3X3X3X3X4X3XiX3XiXiX4XiX3XiX4X4XiX5XpX5XpX5XpXpXpXpXzXpXzXpXzXzXzXxXzXzXfXxXzXxXxXxXxXzXxXxXxXxXzXxXxXcXxXxXCXCXZXZXxXCXCXZXDXDXDXDXDXDXDXDXDXDXHXHXJXJXHXHXHXJXHXJXJXJXJXHXJXJXHXJXJXHXJXHXHXHXHXDXDXDXDXDXZXCXCXZXxXzXxXxXpXxXxXpXpXpXpXpXpXpXpXpX5XpX5X4XpX5XiXiX4X5XiXiXiXpXiXiXiXiXiXiXiXpXiXiXpXiX5X4X5XiXiXiXiX4XiXiXiXiXiXuX4XiXiXiXuXiX3XiXiXiXiXiX3XiXiXuXiXuXiXiXiXuXiXuXiX3XuXuXuXuXuXuXeXuXuXuX3XeXuXuX-XeXeX,X3XeX9XeXeXeX9X9X-XeXeX-XrX9X9X9X-X9X-X9XqX-XqX-XqXqX9X9X-X-X;X;XqX7X;X;XqX;XqX;XqXqXqXqXqXqX;XqX*XqXqX;XqX;XqXqXoX;XqX*XqXqXqXXX*XqXqXqXqXqXqXXXqX}.*X*XXX{.{.*XXXXX{.{.{.XX{.XXXX{.{.{.{.{.{.XXK.[.[.H.K.[.[.H.H.J.G.[.G.J.[.G.G.H.J.J.G.J.G.J.J.J.G.F.J.G.F.G.F.F.b.B.F.F.F.B.F.B.b.F.M.M.F.b.b.F.M.b.b.b.M.b.b.M.c.b.b.b.M.c.c.b.b.b.F.",
"e.c.c.c.C.c.b.A.A.A.b.S.A.A.S.A.S.S.S.S.K.S.S.}.D.K.D.K.K.{.{.{.D.{.{.D.{.D.{.}.K.{.D.{.{.{.{.{.{.K.}.D.{.{.{.{.{.{.{.{.{.%X{.%X{.*X*X*X*X*X*X*X;X*X*X*X*X;XqX*X;X*X;X;X*X*X9X*X*X;X;X*XqX*X*X;X*X*X;X;XqX;X;X;X;X;XqX;X;X;X9X;X;X;X-X9X;X9X9X-X-X3X-X,X,X,X,X,X-X,X,XhX9X3X3X3X3X3X3X3X4X4XiX3XiX3XiXiXpXpXiX5X5XpX5XpXpXpXzX5XzXpXzXzXpXzXzXfXpXxXpXxXzXxXzXzXzXzXxXzXzXpXxXxXzXxXzXxXxXxXxXcXCXxXxXCXCXZXCXZXDXDXDXDXDXDXGXGXHXHXHXHXJXHXHXJXJXHXHXJXHXHXJXHXHXJXHXHXHXHXDXHXDXDXDXDXDXZXZXCXCXCXxXxXxXxXxXzXzXxXxXzXpXxXpXzXpXpXpXpXpXpXpXpXpXpXpXpXpXpXpXpXpXpXiXpXpX4XpXiX5XiXiXiXpX4XiX4X4XiXiX5XpXiXiXpXiXpXiXiXiXiXiXiXiXiXuXiXiXiXiXiXuXiXiXiXiXiXiXuXiXaX4XuXuXuX3XuXuX3X3XuX3XuX3X3XeX3XuX,X3XeX3XuX3X9XuX9XuX9X3X9X-XuX,XrXrX-XeX-X9XrX9X9X9X9XrX-X9X9XqX-X-X9XqXqX8XrXqX9X-XqX;X9XqX;X*X;X;XqX*X;XqXqXqXqX*X9XqXqXoX;XqX;XqXqXqXqXqX*XqXXX*XXXqX*X*XXXqX{.XXqXXX{.{.qX{.XX{.{.XX{.{.{.[.{.{.XXXX[.{.[.K.{.[.[.[.[.H.[.H.H.[.G.[.G.G.[.G.[.[.G.H.G.G.G.[.J.G.G.G.G.G.G.J.J.J.J.G.F.F.F.G.F.F.G.F.F.F.F.F.F.F.F.F.F.F.F.F.F.F.F.F.F.F.F.F.F.F.G.F.F.",
"w.x.v.v.x.x.c.x.x.c.x.x.c.x.c.b.A.A.A.S.S.C.S.S.S.K.S.K.D.S.S.{.S.D.K.K.D.K.K.D.D.}.D.{.D.D.D.K.K.K.{.D.{.D.{.{.{.D.{.D.}.{.{.{.*X{.*X{.*X*X*X{.*X*X{.*X*X}.*X*X*X*X{.*XXX;X*X*X*X;XqX*X;X;X*X*XqX;X*X;X;X*X*X;X;X;X;X;X;X;X;X;X-X;X,X-X,X,X,X,X,X,XhX3X,X9X3X,X,X3X3X3X3X3X3X3X3X3X4XiXiXiX4XiX5XpXpX5XpX5X5XpXpXpXzXpXzXpXpXzXpXpXzXpXxXpXzXzXpXzXzXzXpXzXpXfXzXpXzXfXzXzXzXfXzXzXxXcXxXcXCXxXCXZXZXZXZXZXDXDXDXGXDXGXGXGXGXGXHXGXHXHXHXHXGXHXHXHXKXHXGXGXGXDXGXDXDXDXDXDXDXDXDXDXDXZXZXCXZXCXZXCXZXxXZXCXxXxXxXxXxXxXxXxXxXxXcXxXxXxXxXxXzXxXpXzXpXxXpXpXpXzXpXpXpXpXpXpXpXpX5XpXpXpX5XpXpXpXpXpXpXpXpXpXiXpXpXiXpXpXpXiXpXpXiXiXiX4XiXbXuXiX3XiX3XuXuXbXuX3X3X3X3XuX3XuX3XuX3XuXeX3XeX3XeX3XuXeX3XeXeXuX-X,XeX3XeX3X-XuX9X3XeXuXrX3XrX3X-X3XeX,X9XrX9X9X9X9X-X9X9X9XrX9X-X9X7X-X-X9X8X9X7X9XqX9X9XqX9XqX;X8X;X8X;X;XqX;X9XqX;XqXqX;X*XqXqX;XqXqX*XqX*XqX}.qXoX*X*XXX*X{.XX*XXX*X{.*X{.{.{.{.{.[.{.{.[.[.[.{.[.[.[.[.{.K.[.[.K.[.K.K.[.G.H.[.G.G.H.G.H.K.G.[.G.{.G.G.[.G.H.K.G.H.H.G.G.G.G.G.S.H.G.F.G.F.G.G.H.G.G.J.J.G.G.F.F.J.F.G.G.G.F.F.S.F.G.S.A.A.A.A.",
"z.v.v.v.z.v.v.v.v.c.v.c.c.x.c.C.A.C.b.A.c.A.A.A.S.A.S.S.S.S.S.S.S.S.S.S.S.S.S.S.K.S.G.S.S.K.D.S.K.S.K.K.K.S.K.S.K.K.K.K.K.{.{.{.{.{.{.%X{.%X{.%X%X{.%X%X{.%X*X*X*X*X*X*X*X*X*X;X}.;X;X*X;X;X;X;X;X-X;X;X;X;X;X;X-X-X-X-X,X;X,X,X,X,X,X,X,X3X,X3X3X3X3X3X3X3X3X4X3X3X4X4X4X4X4X4XpX5X4XpX5XpX5X5X5XpXpXpXzXpX5XzXzXpXzXpXpXzXpXzXzXpXpXzXzXpXzXpXzXpXpXzXzXpXpXzXpXzXpXxXzXzXzXxXxXxXcXCXZXCXZXCXZXZXDXZXZXDXDXDXDXDXDXDXDXDXGXGXDXDXDXDXGXDXDXDXDXDXDXDXDXDXDXDXDXDXZXZXZXDXZXZXDXZXDXZXDXZXDXDXDXZXZXZXZXDXDXZXZXZXZXZXZXZXxXZXZXcXCXcXxXxXxXcXxXcXxXzXxXzXxXzXzXzXfXzXpXzXpXpXpXzXpXzXpXpXpXzXpXpXzX5XpXpXpXpXpXpXpXpXpXpXpXgXpXpXiX4XiX4X4XiXiXiXiXiXiXuXiXiXiX3X3XuXiX3XuXiX3X3X3XuX,XuXuXwX3XeX3XrX9X3X3X9X3XeXeX3X9X3XrX3X,XeX3XeXuX3XeX,XeXrX9X3X3XrX9XrX9X9XeX9XeX-X9XrXrX,X9X9XrX-X3X9X9X9X9X;X9X;X8X9XqX9X9XqX9XqX-XqXqX-XqX;XqX;XqX*XqXqXqX*XXX;XXXoX{.XX*XXX*XXX{.{.{.{.{.{.{.{.{.{.{.{.[.{.{.{.{.{.{.{.[.[.{.K.H.K.[.[.K.{.G.G.G.[.K.K.[.K.[.K.K.{.K.K.D.{.{.{.S.{.{.S.{.K.K.K.K.K.{.[.{.S.K.{.G.{.S.{.[.[.G.G.G.G.K.K.G.G.S.F.G.S.G.S.S.A.A.A.A.A.",
"k.q.k.k.k.z.z.z.z.v.z.v.x.x.v.c.c.x.x.A.c.C.C.b.b.A.t.A.C.A.S.A.S.S.S.A.A.S.S.S.S.S.S.S.S.G.S.G.S.S.S.F.G.S.K.S.K.D.S.K.K.S.D.{.D.}.{.{.D.{.}.{.{.{.{.{.{.%X%X{.*X*X*X*X;X;X;X*X;X*X;X;X;X;X;X;X-X;X-X-X,XhX,X,X,X,X,X,X3X3X,X9XeX6X3X3X3X3X3X3X4X3X4XiX4X4X4X4X5XiX5XpX4XpXpXpX5XpX5XpXkXpXpXpXpX5XzXpX5XpXpXpXpX5XpXpX5XpXpXpXpXpXpX5XpX5XpXpXpXpX5XpXpX5XzXpXzXpXzXxXzXxXxXxXxXcXxXxXxXZXZXCXZXcXZXCXZXZXZXZXZXZXZXZXDXZXCXDXDXZXDXDXDXDXZXDXDXDXZXDXDXZXZXZXDXZXDXDXDXDXDXDXDXDXDXDXDXGXDXDXGXDXDXGXGXDXDXGXDXDXDXDXGXDXDXZXZXDXZXZXZXZXZXZXZXxXZXxXcXxXxXxXxXzXxXxXzXxXxXzXzXzXxXpXzXzXzXpXpXzXpXzXpXpXpXpXzXpXpXpXpXpXpXpXpXpXpXpXpXpXpXiXiXiX4XiX4XiX4XiXpXiXiXiXiXiX3X3XiXuXuX3XiX3X3X,X3X,X3X3X3XuXrX3X,X3X3X9X3XeX3XrXrX3XeX,XeX,X,X3X3X3X3X9X9X3X3X,X3X3X,X9X3XeX3X,X9X9X3X,X9X3X9X9X3X9X,X9X9X9X,X9X9X,X-X9X-X9X-X-X;X-X-XqX;XqX*XqX;X*X*XqX*XqX;X{.;XXXXX*X{.qX{.qX{.*X*X{.{.{.{.{.{.{.[.[.[.K.{.{.{.{.{.{.{.K.{.[.{.{.{.{.{.{.{.{.K.K.{.K.K.{.{.{.K.{.{.{.S.{.{.{.{.{.}.K.{.K.{.K.D.{.S.{.K.[.S.G.[.{.S.S.G.G.J.G.S.G.F.G.S.$XF.S.S.A.A.A.F.A.b.b.",
"k.q.q.k.z.k.z.z.z.z.v.x.x.x.c.C.x.c.b.C.C.b.C.C.C.A.$XC.A.S.S.C.C.S.S.S.S.S.S.S.S.S.K.S.S.S.S.S.D.S.S.S.S.K.S.K.K.K.K.S.K.K.K.K.D.D.K.D.{.{.T.K.K.%X%X}.%X*X*X*X*X*X;X*X;X;X;X;X;X;X;X;X;X;X,X;X,X,X-X,X,X,X,X,X3X3X6XbX3X3X3X6X3X3X3X4X4X4X4X4X4X4X5X5X4X5XiX5X5XiX5X5XpXpX5XiX5XpXpXiX5XpXpX5XpX5XpX5X5XpX5X5XpX5XpX5XpX5XpX5XpX5XpXpX5XpXpX5XpX5XpXkXpXpXpXpXpXpXzXzXzXxXzXzXzXxXzXcXzXcXxXzXzXxXxXxXxXxXxXzXfXzXxXxXxXzXxXxXxXxXxXxXxXxXZXxXcXZXZXZXZXDXZXDXDXDXDXDXHXDXGXDXDXGXDXGXHXGXGXGXGXGXGXGXGXGXGXDXGXGXGXGXGXGXGXDXDXGXDXDXDXDXZXDXZXZXCXZXCXZXxXZXxXcXxXzXxXzXzXxXzXzXzXzXzXzXpXzXzXpXzXpXzXpXpX5XpXpXpXpXpXpXpXpXiXpXpXiXpXpXpXpXpXpXpX5XpXiXiXiXiX5X5XiXiXiX4XiX4XiXiXiXiXiXiXiXiX3XuX3X3X3XuX3XuX3XuX3X3XuX3X3XuX3X3XeX3XeX3XeXeX3X3X3X3XeX3X9X,XeX9X3X-X,X,XrX3X,X,XeX,X3X,X9X9XuXbX9X3X9X9X3X,XhX9X-X9X;X9X-X9XqX;XqX-XqX;X-XqX;X*XqXqX*X*XqXqX*X*X}.}.*X*X{.{.{.{.{.{.}.u.XX{.{.V.F [.{.{.{.{.{.{.{.{.{.{.K.{.{.{.{.{.{.{.{.E.{.%X{.{.{.{.{.{.{.D.{.{.{.{.}.{.S.D.{.K.{.K.[.[.{.{.G.G.S.G.G.S.G.F.G.G.S.G.A.G.F.A.S.S.A.A.A.A.A.c.A.c.A.c.A.",
"q.q.q.q.w.q.z.w.z.x.v.v.e.x.x.v.x.C.x.x.C.x.C.A.A.A.C.A.A.S.A.S.S.C.S.}.D.S.}.S.K.S.D.S.S.S.S.{.S.S.}.S.K.S.K.S.S.D.S.K.K.D.S.K.K.K.D.{.K.D.K.E.%X{.%X*X%X*X*X;X;X;X;X;X;X;X;X;X;X,X,X,X;X,X,X,X;X3X,X3X,X3X3X3X6X3X4X3X3X4X4X4X4X4X4X4X4X4X4X4X4X4X4X4X4X4X4X4X4X4X4X4X4X4X4X4X4X4X4X4X4X4X4X4X4XiXiX4XiX4XpX4X5XiXiX5XiXpX5X4XpXiX5XiXiX5XpXiXpX4XiX4XpX5X5XpX5X5XpXpXpXpXpXpXpXpXpXpXpXpXpXpXpXpXpX5X5XpXpXpXpXpXpXpXpXpXxXpXzXxXzXxXxXxXxXcXxXCXxXZXZXZXDXZXGXDXZXDXDXDXGXGXHXDXHXGXGXGXGXHXHXGXHXHXHXGXHXGXHXGXHXGXGXGXGXHXGXGXGXGXDXDXDXDXDXZXZXZXZXZXZXCXxXCXZXxXcXxXxXxXzXxXpXxXpXpXzXpXpXpX5XpX5XpXpXpXpX5XpXpXpXiXiXpXpXiXpXpXiXpX5XiXiX5XiXiX5XpXpX5XpXiXpXiXiX5XiXpXiXpXpXiXiX4XiX4XiXpXiXiXiXiXiXuXiX3XiXiXuXiX3XuX3XuX3X3X3X3X3XuX3X3X3XeXeX3X3X3X3X3X,X3X3XeX3XuXeX,XeX,X,XrX3X9X3X-XwX,X9X9X,X9X9X,X-X9X9XrX-X9X-XqX9X9XqX;XqX-X;XqX*X;X*X;XqX*X*XqX*X;XXX;X{.{.*X{.*XXXk.' z.{.{.x.) 6 F q.b.{.{.*X{.{.{.{.*X{.{.%X{.{.{.{.{.{.}.{.{.{.{.{.{.{.{.{.{.{.K.K.K.D.{.{.{.{.K.K.K.K.{.S.G.G.G.G.G.S.F.S.F.S.F.S.S.A.A.S.A.A.A.A.A.b.b.c.A.c.c.c.A.c.",
"q.4.q.4.z.q.k.z.z.k.w.v.x.x.x.x.x.C.x.x.e.b.b.S.C.A.S.A.A.u.S.S.S.S.D.D.{.S.D.D.S.{.S.D.{.D.S.{.D.{.S.S.D.D.S.S.K.D.D.D.{.S.K.D.}.D.D.{.E.{.{.%X%X%X*X%X*X;X;X;X&X;X;X;X;X;X;X>X>X;X,X,X,X,X,X3X6X,X3X3X3X3X3X3X3X3X4X3X4X3X4X4X4X4X4X4X4X4X4X4X4X4X4X4X3X4X3X4X3X3X3X3X3X6XbX6X3X3X3X3X3X3X3X3X4X3X3X3X3X4X3X3X4X4X3X4X4X4X3X3X4X3X4X3X4XiX4X4X3X4X4XiX4X4X3X4XiX4X4XiX4X4XiX4XiX4XiXiXiXiXiXpXiX5X5XpX5XpXpXpXpXpXpXpXzXpXzXpXzXzXpXzXxXzXxXzXcXxXcXZXCXcXZXZXZXZXDXDXZXDXGXDXGXGXGXGXGXGXHXGXGXHXGXHXGXHXHXGXGXGXGXGXGXGXGXDXDXDXDXDXDXZXDXZXZXZXZXZXZXZXCXcXZXCXcXxXxXzXxXzXzXzXzXzXzXpXzXpXpXpXpXpXpX5X5XpXpX4X4XpXiXiXiX4XiXiXpXiXiXiXiXiXiXiXiXiX4XpXiXpX4XiXiX4XpXiXpXiXiXpXiXiX4XpXiXpXpXiX5XiXiX5XiX5XiXiXiXiX5XiXiXiXiXiXiXiXiX4XiX3X3X3XiX3X3XuX3X3X3X3X3XeX,XuX,X-X3X9X3X3X-XeX,X,X-X,X,X9X,X9X9X,X-X,X,X9X-X,X-X9X-X9X;X-X9X;X;XqXqX;X*X;XqX;XqX;X*X*X;X{.;X{.*X*X*X*X{.XXS 6 ] q.oXn S 6 6 U [ qX{.q.{.{.*X{.}.E.%X{.%X{.%X%X{.{.{.{.{.{.{.{.%X{.{.{.{.{.*X{.K.K.{.{.S.[.{.S.u.[.S.S.F.S.S.S.G.S.S.S.F.F.S.A.A.S.A.S.S.S.S.A.A.S.A.A.A.A.A.A.A.A.",
"q.4.4.h.j.4.k.6.q.w.z.z.z.e.e.e.x.e.x.C.C.x.C.C.C.C.C.A.S.A.C.}.S.S.S.S.u.S.S.{.S.D.D.{.S.D.{.u.u.{.D.{.D.{.D.K.D.K.D.{.{.{.%X}.E.%X{.%X%X%X%X%X*X*X*X;X*X&X*X;X;X;X&X;X;X;X;X;X;X>X,X;X;X,X,X,X,X3X,X6X3X,X,X3X6X3X4X6X4X3X3X3X6X3X3X6X3X6X3X3X3X3X3X6X3X3X6X,X,X,X,X,X-X,X,X,X,X,X,X,X6X-X,X,X,X,X3X3X,X3X,X3X,X3X,X3X3X3X3X3X3X3X3X3X,X4X3X,X3X3X3X3X3X3X3X4X3X4X3X3X4X3X4X4X4X4X4X4X4X5X4X5X5XpXpXpXpXpXpXzXzXzXzXzXzXxXzXcXzXxXcXxXxXxXxXcXcXCXxXcXxXZXZXZXZXZXZXZXZXDXDXDXDXDXDXGXDXGXGXDXDXHXGXGXDXGXGXHXGXDXDXGXDXDXGXZXDXZXZXZXZXZXcXZXZXcXZXxXZXCXcXxXzXcXxXzXxXzXzXzXpXzXpXzXpXzXpXpXpX5X5XpX5XpXpX5XpXpXpX4XiX5XpXiX4XiX4XiX4XiXiX4XiX4XiXiXiXiX4XiXiXpXiXpX4XiXiXiXiX4X4XiXiXiXiXpXiX4XiXiXiXiXiX5XiXiX5XiXiXiXiXiX4XiXiX3XiXuX3XiX3XiX3XiXiX3X3XiX3X3X3X3X3X3X3X3X3X,X3X9X3X3X3X9X9X3X9X,X9X,X9X;X9XeX;X-X9X;X-X;XhX;XqX;X;XqX;X;XqX;XqX;X;XqX*X*X*XqX*X*X*X;X*X*X{.7Xw.v.S 6 6 D 0X~ - 6 K K M. Xs L *XD.{.*X%X{.{.{.{.{.{.{.{.%X{.%X%X{.{.%X{.{.%X{.%X{.K.{.K.{.D.{.{.D.S.{.[.S.G.{.S.{.{.S.G.K.{.S.S.{.S.K.G.K.S.G.S.S.S.S.S.F.S.S.S.C.S.C.S.A.",
"4.4.4.4.4.q.q.k.q.w.w.w.z.w.w.e.e.x.e.b.e.b.b.e.x.C.C.A.x.x.A.t.A.S.S.S.S.S.S.S.u.S.D.S.{.D.S.{.D.D.u.{.{.{.%X*X%X%X{.*X%X%X%X%X%X%X*X;X&X;X;X&X&X;X;X&X;X;X;X&X;X;X;X;X;X;X;X;X;X;X;X;X,X;X;X>X,X>X,X;X6X,X,X,X,X3X6X,X6X,X3X3X,X,X6X,X3X6X,X6X,X,X3X,X,X,X-X-X,X>X>X;X,X;X;X>X-X,X>X-X-X,X,X,X-X,X-X,X,X,X,X,X,X,X,X,X,X,X>X,X-X3X3X3X,X,X,X,X,X3X,X6X3X3X-X3X3X3X4X3X3X3XiX3X4X4X4X4X4X5X5XpXpX5XpXpXzXzXzXzXzXcXzXxXxXcXxXCXcXxXcXcXcXZXZXZXZXZXZXZXZXDXZXZXDXZXDXDXGXDXDXDXDXDXDXGXGXDXGXGXHXGXHXDXGXGXGXDXGXDXDXGXGXZXDXZXZXZXZXcXcXxXZXxXzXxXzXxXvXzXzXzXzXzXzXzXzXzXpXzXzXpXzXpXpXpX5XpXpXpX5XpXpX5XpXpX5XpXpXpXpXpX4X4XpX4XpXiXiX5XiX4XiX4X5X4XiXiX4X4XiXiXiX4XiXiXpXiXiX4XiXiXiXiXiXiXiX3XiX4XiXiXiXiXiX4XiX4XiX4X4XiXiXiX4XiXiX3XiX3XiX3XiX3XiXiX3X3XiX3X3X3X3X3XbX,X3X3X3X3X3X-XhX3X,X9X,X9X,X,X9X3X,X,X,X;X-X;X9X;X;X9X;X9X;XqX;X;X;X;X;X;X*XqX;X*X*X*XqX*X*X*X*X*X*X[.K K K D 6 S @XV.6 =.K ) V.=.6 J.{.{.{.{.%X{.{.{.%X{.%X{.{.}.{.{.D.{.%X}.{.{.}.D.{.{.{.{.{.E.D.{.K.K.{.{.{.%X{.D.{.{.K.K.K.K.D.{.{.{.K.K.K.K.K.K.K.K.{.D.S.D.}.D.S.{.D.S.S.S.",
"4.4.4.4.4.h.4.4.q.q.q.q.w.q.w.q.C.r.e.e.e.e.e.x.x.x.b.e.C.C.t.A.S.t.t.S.S.S.u.S.D.S.D.D.u.D.{.u.{.%X%X%X%X%X%X*X*X=X=X=X&X;X;X;X;X;X>X;X;X;X;X;X;X>X;X;X;X;X;X&X%X;X;X;X;X&X;X;X;X;X;X;X;X;X;X;X;X;X;X;X;X,X;X,X;X-X,X,X,X6X;X3X,X,XhX,X-X,X;X,X;X;X;X;X-X>X;X;X;X;X;X,X;X;X;X>X;X,X-X-X-X-X>X;X,X,X-X-X-X>X;X,X-X,X-X,X,X-X-XhX-X-X-X3X-X,X,X3X,X3X,X3X,X3X3X3X,X3X,X3X4X4X3X3X3X4X4X4X4X4X4X4X5XpXpX5XpXpXpXzXzXzXzXxXcXxXcXcXZXcXZXZXZXZXZXZXZXZXDXDXDXGXDXDXDXGXGXDXGXGXGXDXGXGXDXHXGXGXGXHXGXGXGXGXGXGXGXDXGXDXDXZXZXZXZXZXCXcXZXcXxXcXzXzXzXzXzXzXpXzXpXzXpXpXzXpXpX5X5XpXpXpXpX5XpX5X5XpX5XpXpX4XpXiX5XpXpX4X4XpX5XiXpXpX5XpXpX4XiX5XpXiX5XpXiXiX4X5XpXpX5X4XpXpX5XiX4X4XiXpX4X4X4XiX4X4X3XiXiXiX3X4X3XiX3X3XiX3X3XiX3X3X3X3XiX3XiX3XiX3X3XiX3XiX3X3X3X3X3X3X3X4X3X4X3X3X3X9X3X3X3X3X,X,X3X,X3X,X,X,X,X,X9X,XeX-X,X9X,X-X,X9X;X;X;X-X;X;X;X;X*XqX;X*X*X;X;X*X;X*X*X*X{.A.qXx.6 =.S S 6 =.@XV.6 D K V.=.6 S {.{.{.D.{.{.{.s.{.{.K.K.{.D.E.{.%X{.{.K.D.{.{.%XK.{.D.{.%XD.{.{.%X{.E.D.}.{.{.{.%X{.{.E.{.%XT.}.%X{.D.*XD.K.K.K.D.K.D.D.K.{.D.D.S.D.{.S.{.D.D.",
"q.5.5.4.3.q.q.q.q.w.q.w.w.w.w.w.x.r.x.e.x.e.x.t.x.t.C.C.C.C.t.S.S.S.D.S.Z.u.{.u.D.{.{.u.{.{.%X%X%X}.%X*X=X*X=X&X;X;X;X;X;X;X;X;X;X>X;X;X;X;X>X;X;X;X>X;X;X;X;X;X;X&X;X;X;X;X&X;X&X;X%X;X;X;X*X;X;X;X;X;X;X;X;X;X;X;X>X;X6X;X>X;X;X;X;X&X;X;X;X;X;X;X&X;X;X;X;X;X;X;X>X&X;X;X;X;X;X;X;X,X,X;X;X;X;X,X;X,X;X,X,X;X>X-X,X;X,X;X,X,X6X-X,X,X,X,X,X,X,X3X6XhX>X3X3X,X3X3X3X3X3X4X6X4X3X3X3X4X4X4X4X4X4X4XiX5X5XpXpX5XpXpXpXzXzXzXzXcXcXcXxXZXcXZXZXZXZXZXZXDXZXGXDXDXGXGXGXGXGXGXGXGXHXGXGXGXGXGXHXGXGXHXGXHXGXGXDXGXDXZXZXZXZXZXZXcXcXxXxXcXxXcXzXxXzXpXzXzXpXpXzX5XpX5X5X5X5X5XpX5XpX5XpX5XpXpXpX5X5XpX5XpXiX5XpX5X5XpXpX5XpX5X5XpXpXiXpX5XpX5XpX5X5X5XpXpX5X5XpX5XpX5XpX5X5XiX5XiX4XpX4X4XpX4X4XpXiX4X4XiXiX4X3XiX4X5X4X3X3XiX3XiXiX4XiXiX3X4X4XiXiX3XiX3X4X3X3X3X3X4X3X3X3X3X3X3X3X3X3X3X,X3X3X9X3X,X9X3X9X,X,X,X,X,X-X-X,X,X-X;X;X-X;X-X9X;X;X;X;X*X;X;X;X;X;X*X;X*XqX*X*X*X{.d b.[.=.6 6 ) 6 6 #X[.6 D *.D D # K F.S.{.D.{.{.%X{.}.E.D.%X{.%X}.E.D.{.%X{.%X{.{.{.%X{.%X%X*X{.%X{.{.%X*X{.%X%X%X%X%X%X{.%X%X%X}.%X*X{.{.{.%XD.*X{.{.u.{.D.D.S.{.D.D.K.D.S.{.D.S.",
"1.q.3.q.q.q.q.q.w.w.w.w.w.w.e.x.e.e.C.x.x.C.x.C.C.S.S.S.S.Z.}.D.D.D.D.D.{.{.D.u.{.u.u.%X%X%X%X%X*X&X&X=X*X&X*X&X&X;X&X&X;X;X&X;X&X;X;X;X;X;X;X;X&X;X;X;X&X;X;X;X;X;X>X;X;X&X;X;X;X;X;X;X;X;X;X&X;X;X;X;X;X>X>X&X;X;X;X;X;X;X;X;X;X;X;X;X&X=X=X=X;X&X%X;X;X;X;X;X;X;X;X;X;X;X;X;X;X>X;X;X;X>X;X,X,X;X>X,X,X;X,X,X,X;X,X,X,X6X,X,X-X6X,X,X,X,X6X,X3X,X,X,X,XbX3X3X6X3X3X6X3X3X3X3X6X4X3X4X6X4X4X4X1X4X4X4X4X1X5X5X5X5X5X5XpXpX5XpXpXzXzXzXzXxXzXcXxXcXZXZXZXZXZXDXZXGXGXDXDXHXGXDXGXGXGXHXGXGXGXDXGXGXGXGXGXGXGXGXGXDXZXZXcXZXcXcXcXxXvXxXzXzXzXzXzXzXpXzXzXzXpXpXzXzXpX5XpXpXkX5X5X5X5X5X5X5XpX5XpX5XpX5X5XpX5XpXpXpX5X5X5XpXpX5XpX5X5XpX5XpXkXpXpXpX5XpX5XpX5XpXpX5X5XpXpXpXpX5X5XiXpX5XpX4X4XpX5X4XpX4X4X4X4X4XiX4X4X4X4X4XiX4X4X4X6X4X4X3X4X4X4X4XiX4XiX4X4X3XiX3X3X4XiX4X3X3X3X3X3X3X,X3X,X3X3XbX,X,X,X3X,X-X,XhX3X-X,X-X,X,X,X;X-X;X;X;X;X;X;X;X;X;X*X*X;X;X*X;X;X*X;X*Xl.S S #XK 6 S $XD 6 b. X- D S S =.6 K I S.%X%X{.%X%X%X%X%X*X{.%X%X%XE.*X%X%X*X*X%X*X%X%X{.*X*X*X*X%X*X%X{.*X*X*X%X{.%X{.{.%X%X{.%X%X{.%XE.D.{.D.D.}.u.D.{.{.D.{.D.S.S.K.D.S.S.S.S.S.",
"q.1.4.5.5.q.w.w.w.w.w.w.x.r.e.x.e.x.x.t.C.C.S.u.S.D.D.D.D.D.D.T.D.T.D.%X%X{.{.{.%X%X%X{.%X%X%X%X%X%X%X%X*X%X*X%X*X%X%X%X&X%X%X%X*X%X%X%X*X%X*X%X%X;X;X&X;X=X;X;X&X;X;X;X;X;X;X;X&X;X;X;X;X>X>X;X>X;X6X;X,X;X,X>X;X,X;X;X>X;X;X;X;X;X;X;X;X=X=X=X;X;X;X;X;X;X&X;X;X;X;X;X;X&X;X;X,X;X;X,X;X,X>X;X;X;X>X;X>X,X;X,X,X,X,X,X;X,X,X;X,X,X,X,X-X,X,X3X6X,X,X6X6X,X3X,X,X3X3X,X6X3X6X6X3X4X3X4X4X3X6X4X4X4X4X1X4X1X1X4X4X1X5X1X1X5X5X5X5X1X5X5X5X5XpXpXzXzXzXzXcXzXxXcXcXcXZXZXZXDXDXDXDXDXGXDXDXGXGXHXGXGXGXGXGXDXGXDXZXZXZXZXCXcXZXcXcXzXxXzXzXxXzXzXxXzXzXxXzXzXzXzXzXpXpXzXzXpXpXpXpX5XzX5XzX5XpX5X5X5X5XpX5XpXpXpXpX5XpXpXpXpX5XpX5X5XkX5X5XzXpX5XpX5XzX5X5X5X5X5X5X5XpX5XpX5X5X5XpX5X5X4X5X5XiX4XiX5X5X4X5X5X4X5XiX4X5X4X4X4X4XiX5XiX4X4X4X4X4X4X4X4X4X4X4X4X4X4X4X4X4X4X4X3X4X3X3X3X3X4X3X3X,X3X,X,X,X3X3X,X-X3X,X-X3X-X,X,X,X;X;X,X,X;X,X;X,X,X;X;X;X;X-XS.C.{.7X;X;X*X;XqX} 6 6 r.{ - S { D 6 D K 6 D *.S 6 - < G.7X*X%X%X%X;X*X=X%X=X*X=X*X*X*X=X*X*X*X*X*X*X*X*X=X*X*X*X*X*X*X*X;X%X%X%X%X%X%X%X{.%X%X{.{.{.D.{.D.}.D.{.D.{.{.S.S.S.S.S.S.S.S.C.S.S.A.S.A.A.",
"q.q.q.w.w.q.w.e.w.e.e.e.C.C.e.C.C.t.S.C.Z.D.Z.S.D.D.D.D.D.E.D.{.T.{.E.Y.}.s.s.%X%X{.s.{.%X%X}.%X%X%X%X{.%X%X%X{.%X}.%X{.%X{.%XT.{.*X%X%X%X%X*X*X*X%X*X%X=X%X%X;X;X;X%X;X;X;X&X;X;X;X>X;X;X,X;X,X;X>X,X>X6X,X>X,X6X>X6X,X,X,X>X;X;X>X;X>X&X;X=X=X&X;X;X;X;X&X;X;X;X%X;X;X;X;X;X>X,X;X;X;X>X;X;X,X>X,X-X,X;X;X,X>X;X>X,X;X,X,X>X,X>X,X,X,X6X,X,X,X,X,X,X3X,X6X,X,X6X3X3X6X3X3X6X3X6X6X6X6X6X3X4X4X4X6X4X1X4X6X4X1X1X4X1X5X5X1X4X2X5X2X5X1X5X5X5X5X5X5XpXkXpXpXkXzXzXzXzXzXxXcXcXcXCXZXDXZXDXGXZXDXZXGXGXGXDXGXDXGXGXZXZXZXZXcXcXcXcXxXcXzXzXzXzXxXvXxXzXzXxXzXzXxXzXzXzXzXzXzXzXpXzXzXzXpXkXpXzXzXzXzXzXpXpXzXkXpX5XzXkX5XzX5X5XzXpX5X5XpX5X5X5X5X5X5X5X5X5XpXpX5X5X5X5XpX5X5X4X5XiX5X5X5X5XiXpX5X5X5X5X4X5XpX5X4X5X4X4X5X5X5X4X5XiX4X4X1X4X4X4X4X4X4X4X4X4X4X4X4X3X4X4X6X6X4X3X3X3X3X6X3X3X3X6X3X3X3X,X6X3X3X3X,X,X3X,X6X9X,X3X,X,X,X,X-X,X,X,X;X,X;X,X;X3Xe.a d G.qXx.{.-X9Xz.S =.D K 6 =.6 =.=.6 6 =.{  X6 6 # V.XX5.S.;X;X{.x.*X%X=X*X;X;X%X=X=X*X*X*X;X*X*X*X*X;X*X*X=X*X%X%X%X%X%X}.{.%X{.{.}.T.{.D.D.K.K.D.D.K.S.{.D.S.S.S.S.A.S.S.F.A.A.b.A.A.c.c.x.c.x.c.",
"w.w.w.w.w.e.e.e.e.x.e.t.C.C.Z.C.Z.S.u.Z.S.D.S.D.S.{.u.D.{.D.D.%XD.{.u.%X%XD.%X{.T.%Xu.{.E.%XD.T.T.%XD.{.{.%X%Xu.%X{.D.%XD.%X{.{.{.%X%X%X{.%X%X%X%X%X%X*X%X%X%X;X%X;X;X*X&X;X&X;X>X;X;X>X;X>X;X,X;X>X>X,X,X6X,X6X6X6X6X6X6X>X6X,X6X6X,X,X,X>X,XhX>X;X>X;X&X;X;X;X;X;X;X;X;X;X;X;X;X>X;X;X>X;X>X>X>X>X6X;X>X6X;X,X;X>X,X,X>X-X,X,X,X,X,X,X>X,X,X,X,X6X,X6X,X6X,X3X3X,X6X6X6X3X6X6X6X6X6X6X4X4X4X6X1X6X1X4X1X4X1X4X1X4X4X1X1X1X5X1X2X5X1X5X5X1X5X5X5X5X5X5X5X5X5X5XpXzXzXpXzXzXxXxXxXcXxXZXZXZXZXZXZXGXZXGXGXcXcXGXZXZXZXZXcXcXcXcXcXcXxXZXcXzXxXcXxXzXzXzXzXzXzXcXzXzXzXzXzXzXzXzXzXkXzXzXzXkXzXzXzXzX5XkXzX5XzXpXkX5XzXpX5XzX5X5X5X5XkX5X5X5X5X5X5XpX5X5X5X5X5X5X5X5X5X5X5X5X5X5X5X5X4X5X5X4X4X5X4X4X5X5X5X5X5X5X5X5X5X4X5X4X2X4X5X1X5X5X5X4X5X4X4X4X1X4X4X4X4X4X4X3X4X4X4X4X6X4X6X4X6X3X6X4X6X4X4X3X3X6X3X4X3X6X3X6X3X3X4X6X3X3X3X6X6X3XbX,X,X,X6X3X;X6X,XqXT 6 S V.g r.9X9X{.6 6 =.=.=.D 6 V.*.6 =.D  XD 6 : 6 K 6 6 S.qXw.D d {.qX*XqX{.D.%X*X*X*X%X%X%X{.*X*X*X*X{.%X{.%X{.{.{.{.{.{.D.{.K.K.D.}.S.{.S.S.S.S.S.S.S.S.S.A.A.b.C.c.b.x.c.b.M.x.v.M.v.c.v.v.v.z.",
"e.e.x.e.e.t.C.A.C.u.A.S.C.C.S.Z.C.S.D.S.D.u.D.D.u.D.D.D.D.u.D.u.D.D.D.D.D.T.D.D.D.D.{.s.D.D.D.{.D.{.{.s.s.D.{.{.D.%XT.{.%XK.%X{.u.%X{.%X%X%X%X%X%X*X%X%X*X%X%X%X*X%X%X&X;X;X;X;X;X&X>X;X;X>X>X,X,X>X,X,X>X,X6X>X,X6X,X>X6X6X,X6X6X>X6X6X6X6X6X6X6X3X6X6X>X6X>X>X,X,X>X>X>X>X>X;X>X;X>X,X;X>X;X;X;X;X;X;X;X;X;X>X,X-X>X;X-X>X-X>X>X,XhX,X,X,X6X>X>X,X,X6X3X,X6X6X6X6X3X6X6X6X6X6X4X6X6X4X6X6X6X4X4X1X4X1X4X4X4X1X5X1X1X5X5X4X4X2X5X1X5X1X1X5X2X2X5X5X2X5X5X5XkX5X5X5X5XzXzXxXzXzXcXxXcXxXcXcXcXZXZXZXZXZXcXGXZXZXZXZXZXcXGXcXZXcXcXZXcXcXcXcXcXzXcXvXcXzXxXcXzXzXvXzXzXzXcXzXzXzXzXzXzXzXzXzXpXzXzXzXzXzXzXzXzXzXzXpXzXkXpXkXkXpXkXzXpXpXkXpX5XkX5XkX5XpXkX5X5X5X5X5X5X5X5X5X5X5X5X5X5X5X5X5X5X5X5X5X5X4X1X5X5X4X4X5X2X5X5X5X5X5X5X4X5X5X5X5X5X1X5X5X5X5X5X4X5X1X4X2X4X4X5X4X4X4X4X4X4X4X4X4X4X4X4X4X4X4X4X6X4X4X4X3X4X6X6X3X3X6X3X6X3X,X>X,X6X,X;X,X,X-X*XuX{.S 6 S 6 [ 9X*XqXD 6 =.D K =.) oX X=.6 { { S 6 6 6 : 6 ) r.S # = S V.' P { d R {.{.*X{.{.{.{.{.%X{.{.{.{.{.D.}.K.K.D.D.S.{.S.u.C.}.A.S.A.F.S.A.S.F.A.A.x.b.b.c.x.c.c.c.c.c.z.c.v.v.v.v.v.v.v.v.z.V.",
"C.t.t.S.t.S.t.S.C.S.t.D.u.S.Z.Z.D.u.D.u.u.D.Z.S.D.S.S.D.D.S.u.D.D.D.D.D.u.{.D.D.D.{.D.{.{.u.T.{.%XD.%Xu.D.{.{.T.%X{.{.%X%X%X%X}.%X%X{.%X%X}.%X%X%X%X%X*X%X&X;X*X%X;X&X;X&X;X&X>X>X&XhX;X,X>X;X>X>X;X-X>X>X>X;X,X>X>X,X>X>X,X6X>X6X>X6X6X,X6X6X6X6X6X6X6X4X6X6X6X1X6X6X6X6X6X>X6X6X,X,X>X>X;X;X;X>X;X;X>X;X>X>X>X;X>X;X>X,X,X,X,X;X,X,X>X>X,X>X,X,X6X,X,X6X>X,X,X6X3X6X6X6X6X6X3X6X6X6X6X6X6X4X6X6X4X1X1X4X1X1X4X1X1X1X1X1X1X1X2X1X5X1X5X5X2X5X5X2X5X5X5X5XkXpXkX5XzXzXkXzXzXxXvXcXxXCXcXZXxXCXcXZXcXcXZXZXGXZXZXZXZXZXZXZXZXZXcXcXCXcXcXxXcXcXzXxXzXzXzXvXzXzXxXzXzXcXzXzXzXzXzXzXzXzXzXzXvXzXzXzXzXzXzXzXzXzXzXzXzXzXzXzXzXzXzXzXpX5XkXkX5XzX5X5X5X5XpXpXkX5X5XkX5X5X5X5X5X5X5X2X5X5X5X5X5X5X5X5X5X5X5X5X4X5X5X5X5X4X2X5X2X5X5X5X5X2X5X1X4X5X5X4X5X4X5X4X5X5X4X5X4X5X4X4X4X5X4X4X4X4X1X4X4X4X4X4X4X4X6X3X3X3X3X3X6X6XbX3X6X,X,X3X,X,X,X,X,X,X,X&X6.{.qXf b.}.=.=.S 6 S F.qXK =.S =.S D S K { { 6 =.S 6 6 6 6 : 6 V.) 6 6 6 6 =.6 6 6 6 S l.x.{.{.{.D.{.{.S.K.S.S.S.S.S.S.K.S.S.G.F.S.S.A.S.A.A.S.A.A.x.b.C.A.b.b.b.x.b.c.b.c.c.c.v.c.c.c.z.v.M.v.z.c.z.z.M.v.z.",
"e.t.S.t.S.t.S.C.u.S.S.Z.S.D.u.S.D.C.D.D.D.S.D.D.u.D.D.u.D.D.D.D.D.D.u.{.D.D.%XD.%Xu.D.%XD.{.D.s.D.D.%X{.%Xu.%Xu.%XD.%X%X%X%X%X%X%X*X%X%X%X%X&X%X%X;X*X%X;X%X*X&X;X;X;X;X;X;X>X;X;X>X~.>X;X>X>X;X>X>X>X>XhX;X>X;X;X>X;X;X;X;X;X;X;X>X;X;X>X>X,X,X6X6X6X6X6X6X6X6X6X6X6X6X6X6X6X6X6X>X6X6X,X6X<X6X>X6X>X>X>X;X>X>X>X>X,X>X,X>X>X,X6X>X,X>X>X,X>X6X6X>X,X6X,X6X6X6X6X>X6X6X6X6X6X6X6X6X4X6X4X6X1X6X1X1X1X6X1X1X1X1X1X1X1X1X5X1X1X5X1X5X2X2X5X1X2X2X5X5X5XkX5XkX5X5XkX5XzXzXzXzXzXcXcXcXcXcXcXcXZXcXcXcXZXcXZXcXZXZXZXZXZXZXZXZXZXZXZXZXZXcXZXcXcXcXcXcXcXcXcXcXcXzXcXcXcXzXvXxXvXvXcXvXvXvXzXzXzXvXvXzXvXzXzXzXzXvXzXzXzXzXzXzXzXzXzXzXzXzXzXzXzXzXzXkXzXkXzXpXzXpXkX5X5X5X5X5X5X5X5X5X5X5X5X5X5X5X5X5X5X1X5X5X5X5X1X5X5X5X4X5X5X4X5X4X4X5X4X5X4X4X5X1X4X4X5X4X4X4X4X1X4X4X4X4X4X3X4X4X3X4X3X3X3X3X3X3X3X3X3X3X3X,X,X3X,X,X,X,X;X,X;X>X;X;X;X;X;X;X-X7.j V.D 6 D K S =.=.6 D V.D 6 =.S 6 K s 6 { K =.D 6 6 # # - 6  XS =.6 6 =.6 : - 6 6 =.K _ k.{.K.K.[.D.}.Z.K.K.D.{.{.S.S.S.S.A.S.S.A.F.S.A.S.A.S.A.S.b.A.A.A.b.C.b.b.b.c.x.c.v.c.v.c.z.c.v.v.v.v.c.z.z.v.z.z.w.",
"S.u.S.t.u.S.C.S.u.S.C.S.u.S.u.S.Z.u.S.Z.D.u.D.S.D.u.u.D.D.D.S.D.D.D.D.{.s.D.D.%XD.{.s.}.%XD.%XD.%XD.{.u.%X%X{.%X{.%X%X%X%X%X%X%X%X%X*X%X%X&X=X%X=X=X&X=X*X=X&X=X;X;X;X;X&X>X;X;X;X:X;X>X;X;X>X;X;X;X>X;X&X>X&X;X&X;X;X;X;X%X%X;X;X;X&X;X&X;X;X>X>X;X>X>X>X>X>X6X6X>X6X6X6X6X,X6X6X6X6X6X6X6X6X6X6X6X6X6X,X6X3X6X6X6X6X6X6X6X6X6X1X4X6X6X6X1X6X6X6X6X6X6X6X6X6X>X<X6X6X4X6X>X6X6X3X6X6X6X6X6X1X1X1X6X1X1X1X1X4X1X2X1X2X1X2X1X2X1X5X5X1X2X5X2X5X2X5X5X5X5XkXjX5XkXpXkXzX5XzXvXzXcXcXcXxXcXcXcXcXcXxXcXZXcXZXZXZXGXGXZXGXZXGXZXGXZXZXZXZXGXGXZXZXZXZXZXZXcXZXcXcXZXcXcXcXcXcXcXcXcXcXcXcXcXcXcXzXcXxXcXvXzXxXvXxXzXvXzXcXzXzXzXzXzXzXzXzXzXzXzXzXkXkXzXkXpXkXkXpX5X5XkX5X5X5X5X5X2X5X5X5X5X5X5X5X1X2X5X2X5X4X2X5X4X2X1X5X4X2X4X4X2X4X4X4X6X4X4X4X4X4X6X4X6X4X3X3X4X6X6X3X6X3X3X3X,X6X6X6X,X3X6X,X6X-X>X,X;X,X,X;X>X;X;X;X;X;X;X;X;X=X;X;X=X=X*X%X*X*X*XI 6 D S S { { 6 6 =.6 D { K 6 6 S D 6 XX$XS =.6 % K 2 # # K { + : 6 =.> - - - 6 - S ) A.[.{.K.K.K.K.K.K.S.K.{.S.{.S.G.G.S.S.}.S.A.S.S.A.A.A.A.C.A.c.A.A.A.c.c.A.x.A.x.c.M.c.v.v.c.c.v.v.v.v.v.v.v.l.v.v.l.z.",
"x.C.t.S.C.C.S.t.S.t.C.Z.S.C.S.t.C.S.t.S.S.S.D.Z.S.D.S.D.D.D.D.u.D.D.D.D.D.D.D.D.T.D.D.Z.D.T.D.%XD.%Xs.{.{.%Xs.%X%X%X%X%X%X%X%X%X%X&X%X%X*X*X%X%X%X%X*X=X%X&X=X=X&X&X&X&X;X;X&X;X;X;X;X;X>X&X;X;X;X;X;X;X;X;X&X;X;X;X;X&X&X;X;X;X;X&X>X;X>X&X;X;X;X&X;X;X;X&X;X;X;X:X>X;X>X>X>X>X>X>X>X6X6X6X6X6X1X1X1X1X1X1X1X1X4X1X1X1X4X1X1X1X1X1X1X1X1X4X4X1X4X1X4X1X4X1X4X1X4X4X1X6X1X4X1X4X1X1X1X1X1X1X1X1X1X1X1X1X1X2X2X1X1X1X5X1X1X2X1X5X2X2X2X5X2X5X2X5X5X2X5XjX5X5X5X5X5XkXkXzXzXzXxXzXzXzXcXxXcXcXcXZXZXZXZXDXZXGXDXGXGXGXGXGXGXGXGXGXGXGXGXGXGXGXGXGXGXGXGXGXGXGXGXZXGXZXDXZXZXZXGXcXcXcXZXcXcXcXcXcXcXvXcXcXcXvXzXcXzXvXzXzXzXvXkXzXkXzXkX5X5XkX5XkX5X5X5XkX5X5X5XkX5X5X5X5X2X5X5X5X1X5X2X4X1X5X1X5X4X5X4X4X4X6X6X4X4X4X4X6X4X6X6X6X6X3X4X6X4X6X3X>X3X3X,X6X,X,X,X>X,X6X,X,XhX>X>X,X-X,X-X-X;X>X;X;X;X-X&X>X;X;X;X;X;X=X;X&X;X;X*X*X*X%X*X*X*X%X*X%X*X*X.XS S D S D { S 6 =.=.K *.S S 6 6 =.c.qX) 6 S - D K % : K K 6 6 # 6 ) l.M.b.V.) 8 5 F [ {.{.K.K.K.K.S.K.D.K.S.S.S.S.S.S.F.F.C.S.A.S.C.S.A.A.A.S.S.c.A.c.A.c.A.c.c.c.c.c.v.c.c.v.v.v.M.v.v.v.v.v.v.v.z.v.z.v.",
"e.C.C.t.C.C.t.t.e.S.t.S.t.S.t.S.S.C.S.u.S.u.u.S.S.S.D.Z.D.u.D.S.Z.S.D.S.u.D.u.D.D.D.D.T.D.{.s.{.%X{.T.%Xu.%X{.{.%X%X%X%X%X%X%X%X%X%X{.%X%X%X%X%X%X%X%X%X%X&X=X%X%X%X%X*X%X*X%X=X%X=X=X%X%X%X=X%X&X%X=X%X*X=X%X;X;X&X;X%X;X;X&X>X>X;X&X;XhX&X>X;X&X&X;X&X>X;X&X&X;X>X;X;X&X;X>X>X;X>X>X>X6X6X>X6X6X1X1X1X4X2X1X1X1X2X2X1X1X5X1X2X2X5X2X5X5X1X2X2X2X2X2X2X2X2X2X5X1X1X1X2X5X1X2X1X1X4X1X5X4X1X1X4X4X1X2X1X2X1X1X1X1X2X1X2X5X2X5X2X5X2X5X2X5X2X2X2X5X2X5X5X5X5XkX5X5XkXkXzXkXzXzXzXxXZXcXZXGXGXGXGXHXHXHXHXHXGXHXHXHXJXJXHXJXJXHXJXJXJXHXJXHXHXHXHXHXHXHXHXHXHXGXGXGXGXGXGXGXGXZXGXGXZXcXZXZXcXcXcXvXcXzXcXzXzXzXzXzXzXkXkXkXkXkX5XjX5XkX5X5X5X2X5X5X5X5X5X5X2X5X5X1X5X2X5X1X4X4X1X1X4X1X4X4X4X1X4X6X6X3X6X6X6X6X6X6X6X6X>X6X,X,X6X6X,X,X6X,X,XhX>X,X,X,X>X,X>X>X;X>X,X;X>X>X;X;X;X;X;X;X;X;X;X;X;X;X;X;X;X;X;X;X;X;X=X*X=X*X=X*X;X*X*X*X*X*X*X*X%X{.{.D.K 6 =.D S S S =.: 6 D =.- J.B.6 6 {.{.{ =.=.6 S 6 : % K 2 # # 6 ) [.{.{.{.{.{.[.b.[.{.{.S.K.K.K.K.K.S.K.S.S.{.S.[.S.S.S.S.S.S.S.A.S.S.$Xc.A.A.A.A.A.A.A.x.x.x.c.v.v.c.x.c.x.M.v.v.v.v.v.v.l.v.v.k.v.v.z.v.",
"e.e.e.x.t.e.x.e.x.t.e.C.t.e.t.x.t.C.t.A.t.A.C.S.u.C.S.t.C.S.S.u.S.u.S.u.S.S.D.D.S.Z.Z.D.u.S.S.S.u.D.D.D.{.D.%Xu.D.%XD.{.{.%Xu.%X%X{.s.{.%X%X%X%X%X%XE.%X%X%X%X%X*X%X%X%X%X%X%X%X&X%X*X%X=X%X%X=X%X=X%X=X&X&X;X&X;X&X;X;X;X&X;X&X&X&X;X&X&X&X;X&X;X>X>X;X&X&X>X>X&X>X>X:X>X>X>X&X>X>X,X>X>X>X6X<X6X6X1X1X1X1X1X1X1X2X1X2X2X2X2X2X2X1X2X5X2X2X5X2X2X5X5X2X5X5X2X5X5X5X2X5X5X2X5X2X5X2X2X2X5X2X2X2X2X1X5X1X1X2X1X2X5X1X2X1X2X1X1X2X1X2X5X1X2X2X5X5X2X5X5X2X5XkX5XkXzXzXzXvXxXcXcXZXDXDXGXHXHXHXHXJXJXJXJXJXJXLXJXJXJXJXJXJXJXJXJXJXJXJXHXJXJXJXJXJXJXHXHXHXGXGXHXGXGXGXGXGXGXZXZXZXcXZXcXcXcXcXcXvXzXvXzXzXzXkXkXkXkXpXkX5X5X5X5XkX5X5X2X5X2X5X2X5X2X1X5X2X1X5X1X4X4X4X1X1X4X1X1X4X4X1X6X6X<X6X6X6X6X6X6X6X6X6X3X6X6X,X,X6X,X6X,X>X;X>X,X,X>X-X>X>X>X;X>X;X;X,X;X,X;X>X;X;X=X-X;X>X>X-X;X>X;X>X;X&X;X;X;X;X;X*X;X;X;X=X;X*X;X*X=X*X=X=X;X%X*X*X*X%X%X%X{.} S S =.S S 6 { S 6 D 6 6 [.qXK s [.$XD =.6 =.6 = # : : 6 : 6 s ~ {.S.S.D.S.S.S.{.S.D.D.S.D.S.S.K.S.K.S.K.S.S.S.G.S.F.F.S.A.S.A.S.A.C.u.A.S.A.C.A.C.c.C.A.A.A.c.A.c.c.c.v.v.v.v.M.v.v.v.x.v.v.v.v.l.v.v.k.",
"w.e.w.e.e.e.C.e.e.e.x.e.e.x.e.C.t.x.C.e.x.C.C.t.t.A.t.S.C.C.C.C.C.S.t.S.C.S.C.C.u.S.S.Z.S.u.D.Z.S.S.S.D.D.D.D.D.D.D.{.T.{.D.u.{.s.E.D.E.D.%X{.%X%X%X%X%X%X%X%X%X%X%X=X%X%X%X&X&X=X&X%X&X%X&X=X&X;X&X;X&X&X&X&X;X;X&X;X&X;X;X&X;X;X:X>X;X>X;X>X;X;X>X;X>X>X;X>X>X>X,X>X>X>X6X>X>X>X6X6X>X6X6X6X1X1X1X1X1X1X1X_.1X1X2X1X1X2X2X2X2X2X2X2X5X2XjX5XjX5X2XkX2XjX5XjX5X2XkX2X5X5XjX5XjX2X5XjX5X5X2XkX5X5X2X5X2X5X2X2X1X2X1X5X2X2X1X5X2X2X2X2X5X5X2X5X2X5XkXlXlXlXvXzXcXvXcXZXZXZXGXGXHXHXJXJXJXJXLXJXLXLXJXJXLXLXJXLXJXJXJXJXJXJXJXJXJXHXJXHXJXHXHXHXHXHXHXGXGXGXGXZXZXZXZXZXZXcXZXcXcXcXvXvXvXcXzXzXkXzXkXkXkX5X5XkX5X5X2X5X2X5X5X2X2X2X5X2X1X5X1X5X1X1X5X1X5X1X4X1X1X1X1X1X3X<X6X6X6X6X6X,X1X>X6X,X6X>X6X6X6X>X6X,X6X,X>X>X,X>X,X>X,X>X6X,X>X,X,X,X;X>X,X>X,X>X;X;X,X>X;X&X;X;X;X;X;X;X;X;X;X;X;X;X;X;X;X;X;X;X;X;X;X=X=X=X;X*X=X*X*X*X*X=X%X*X*X*X%X%X*X*XJ.D { S 6 =.S { *.6 - 6 6 ) [.l.- {  X6 6 6 : 6 % # S 6 6 6 6 ) B.S.{.{.S.S.}.D.S.{.S.{.{.K.S.K.S.S.}.S.S.G.S.F.S.S.A.S.S.A.A.S.C.S.A.A.A.C.S.C.A.C.C.c.C.A.C.v.c.c.x.c.x.v.c.v.v.v.v.z.v.v.v.z.v.z.v.l.z.",
"6.6.6.w.w.w.w.e.e.e.e.C.x.e.C.e.C.e.e.x.e.e.x.C.e.e.C.C.C.C.C.t.C.t.S.t.C.u.S.S.S.t.C.S.C.S.S.u.u.Z.Z.D.u.D.D.S.D.D.u.D.u.s.{.S.}.Z.D.T.T.E.T.%X%X%X%X%X%X%X=X%X&X%X=X&X&X;X;X;X&X;X&X;X;X&X;X&X&X&X&X;X;X>X>X&X&X>X>X>X:X>X&X>X>X>X;X>X>X>X;X>X>X>X>X>X6X6X6X6X6X6X6X6X1X6X6X1X6X1X1X1X1X1X1X1X1X1X1X1X1X1X1X2X1X2X2X2X2X2X2X2X5XjX2XjX2X5XjX5X5XjX5XjX5XjX2XjXjX2X5X2XjX5XjX5X5XjXjXjXjX5X5XjXjXjX5XkXkX5XkX5XkXkX5XjX5XkXkXkXkX5XkXzXkXzXzXvXvXvXcXcXcXZXZXZXZXGXGXGXHXHXHXHXHXJXJXHXJXJXJXJXJXJXJXJXHXHXJXHXHXHXHXHXHXGXGXGXGXGXDXDXGXZXDXZXcXcXZXZXcXcXcXcXvXcXvXvXcXvXzXvXlXvXzXkXkXkX5XkXjX5XjX5XjX5X5X2X5X5X2X5X2X2X5X1X1X2X1X2X1X2X1X1X1X1X1X5X4X1X1X4X1X1X1X4X4X6X<X4X6X4X6X6X6X6X6X6X6X6X,X6X6X6X>X,X,X6X6X,X,X6X,X>X6X;X>X,X>X;X,X>X;X;X>X;X;X>X;X>X;X>X;X>X>X;X>X;X>X;X;X:X>X;X;X;X&X;X;X;X;X%X;X&X=X=X*X=X=X=X=X=X*X=X*X=X=X%X*X%X*X*XK.*Xr.K D S 6 =.*.{ =.6 6 S = w.[.6 S S 6 6 =.S # : 6 =.6 : - 8 K 3.[.S.u.S.{.S.K.D.S.D.S.D.S.K.K.D.A.{.S.S.S.S.S.S.}.S.S.C.A.S.C.S.b.b.t.A.b.A.A.C.A.A.c.A.C.x.c.x.x.x.x.x.c.v.v.x.v.v.z.x.v.z.v.z.z.z.z.z.",
"5.5.5.q.6.w.e.w.e.e.e.e.e.e.t.e.e.e.t.e.x.e.x.t.e.A.C.e.e.C.C.C.t.S.C.C.C.C.C.C.t.S.C.u.Z.S.C.S.S.D.D.u.D.D.D.D.D.T.u.{.D.{.{.s.%XD.%X%X%X%X%XT.%X%X%X&X=X%X&X=X=X:X&X;X:X&X;X&X&X>X>X&X&X>X&X;X>X>X&X>X>X&X>X>X>X&X>X>X>X>X>X>X>X>X>X>X>X>X6X6X6X<X6X6X_.6X_.6X1X1X1X1X1X1X1X1X`.1X1X_.1X1X1X2X1X1X2X1X2X1X2X1X1X2X2X2X2X2X2X2X5X2X2X2X2X2X5X2X2X2X2X2X5X2X2X5X5XjXjX5XjX5XjX5XjX5XkX5XjXkXkX5XzXlXkXzXkXlXvXzXvXvXvXcXvXvXvXvXcXvXcXvXcXvXcXcXcXcXZXZXZXZXZXDXGXGXGXGXGXHXHXHXHXHXHXHXHXHXHXHXGXHXGXGXGXGXGXGXGXZXGXZXcXcXcXcXcXcXcXcXcXvXzXvXvXcXvXvXzXvXvXvXkXkXkXkXkXkXkX5XkXkXkXjX5X5XjXjX5X5XjXjX5X5X5X5X2X2X2X2X2X2X2X1X1X5X2X1X2X1X1X2X2X2X1X1X1X5X1X1X4X1X6X1X1X6X6X6X6X1X6X6X6X6X>X6X,X6X6X6X,X6X>X6X>X>X6X>X,X6X>X>X>X>X,X;X,X,X>X>X,X>X;X>X>X;X>X;X;X;X;X;X;X;X;X&X;X;X;X;X;X&X;X;X;X;X;X;X*X;X*X;X=X*X=X*X*X=X=X*X%X*X*X%X%X%X%X%X*XK.1.c.$XS S 6 S =.K { V.6 6 6 6 r.qX4 6 6 6 # K S 6 6 =.=.6 =.6 $ d 1.e.{.u.[.S.K.D.K.K.D.K.S.K.S.S.K.S.S.D.S.}.S.[.A.A.S.S.S.A.S.S.A.A.u.A.t.A.C.x.A.x.A.C.C.C.A.c.x.c.x.e.c.v.x.x.z.v.x.z.z.z.v.x.z.v.z.z.z.",
"5.5.5.5.5.5.5.w.w.w.e.e.e.e.e.e.e.x.e.x.t.e.e.e.e.t.C.e.C.C.e.C.C.C.S.C.u.Z.u.S.S.u.Z.S.S.u.D.Z.D.u.S.D.u.D.D.u.u.{.D.D.D.s.T.D.D.D.%XT.E.%X&X&X%X%X&X%XR.%X&X&X&X&X&X&X;X&X:X:X;X&X&X>X>X&X>X>X>X&X>X&X>X>X>X&X:X>X>X>X>X>X>X>X>X>X6X>X>X>X6X>X/.6X6X6X,X6X6X6X<X1X6X1X6X1X1X6X6X1X1X1X1X1X_.1X1X2X1X2X1X2X1X2X2X2X1X2X2X1X1X2X2X2X2X2X2X2X2X2X2X2X2X2X2X2X2X2X2X2X2XjX5XjX2X5XjX5XkXjX5XkXkXkXkXkXvXzXvXvXcXcXcXcXcXcXcXZXZXZXZXcXcXcXcXcXcXcXcXcXcXcXZXZXZXZXZXZXGXZXZXGXDXZXZXGXZXGXGXZXGXZXGXGXZXGXGXGXZXZXGXcXcXZXcXcXcXcXvXcXvXzXvXvXvXzXzXzXkXzXzXkXkXkXkXzXkXkXjX5XkX5XkXkXjXkXkXjXkX5XjX5X2X5XjX2XjX2X2X2X5X2X5X5X2X2X2X1X5X2X5X2X2X1X1X1X1X1X1X1X1X1X1X1X6X6X6X6X6X6X6X>X6X6X>X1X,X6X6X6X>X>X,X6X>X6X6X,X>X,X>X>X,X,X,X,X>X>X>X;X,X;X>X;X>X;X>X>X;X>X>X;X>X>X>X;X;X>X;X;X;X;X;X;X;X;X;X&X;X;X&X;X&X;X=X=X*X=X=X=X=X*X*X=X%X=X*X=X*X=X*X*X] { } S 6 6 D S 6 r.*.6 6 6 6 c.qX~ 6 =.= - 6 S =.6 =.6 6 6 6 1 _ A.}.D.{.D.K.D.K.S.S.{.D.K.D.K.D.S.D.S.{.S.Z.S.S.S.S.S.S.F.u.A.A.S.S.A.S.A.t.A.A.C.A.A.C.b.x.C.A.v.C.x.x.x.x.x.x.x.v.x.z.x.v.z.z.z.z.v.l.v.",
"1.1.5.5.1.5.5.5.6.6.6.w.w.e.e.e.6.C.x.6.6.t.6.C.e.e.e.e.C.C.S.t.C.y.C.C.C.Z.C.Z.y.C.D.Z.S.Z.D.u.D.D.u.D.D.T.D.D.D.u.%XD.{.T.D.%X%XT.T.%X%X%X%X&X%X&X%X&XR.&X&X%X&X&X&X&X:X&X:X;X&X>X&X&X>X&X&X>X&X>X&X>X>X>X>X~.>X>X>X>X>X>X>X>X>X>X>X<X>X>X>X>X6X,X/.,X>X>X6X6X/.<X>X6X1X<X<X1X6X1X_.6X<X1X1X1X1X1X1X1X1X1X1X1X1X2X1X1X1X1X2X2X2X1X_.1X1X1X2X1X1X2X1X2X2X2X2X2X2X2X2X2X2X2X2XjXjX5XjX5XjXkXkXkXkXkXzXzXzXvXvXvXcXcXcXcXcXcXcXcXcXcXcXcXcXcXvXcXvXcXvXcXcXcXcXxXcXcXcXcXcXcXcXcXcXcXZXZXZXDXGXGXGXGXHXHXHXHXGXGXGXGXGXGXZXcXZXcXcXcXcXcXcXcXcXcXvXvXvXvXvXlXlXlXlXkXlXkXkXkXkXkXkXkXkXkXjXkX5XkXjX2X5X2XjX2X5X2X2X5X2X2X2X2X5X2X1X2X2X2X1X5X2X1X1X1X1X1X1X1X<X4X1X6X<X6X6X6X1X6X6X6X<X,X1X<X6X6X6X>X6X>X6X6X6X,X>X,X6X>X,X6X,X>X>X>X>X,X>X,X>X>X>X>X>X;X>X>X>X;X;X>X;X;X;X>X>X;X>X;X;X>X&X;X;X>X;X;X;X;X;X;X;X;X;X;X&X;X=X%X=X*X=X*X%X=X%X*X*X=X*X*X` K K 6 6 6 =.=.6 D { =.S 6 =.{ $XD 6 6 # D D 6 : 6 6 6 S s ^ b.{.D.{.D.D.D.K.D.D.D.{.D.D.{.K.D.D.D.D.S.{.S.S.K.S.D.S.S.S.S.S.S.C.S.C.A.S.S.A.A.e.S.C.b.C.A.C.x.b.e.r.S.C.x.x.w.x.e.w.c.c.z.z.z.z.z.v.v.k.z.",
"` [ ,.1.[ 1.1.1.1.5.5.5.8.w.6.6.6.9.6.C.C.x.e.6.e.e.t.S.t.C.e.t.C.C.C.C.C.u.C.Z.D.C.D.Z.u.D.D.D.Z.S.D.D.Z.D.T.D.T.{.{.T.T.%X%XT.T.%X%XT.T.%X%XT.%X%X&XE.&X%X&X%X&X&X:X&X;X&X&X:X&X>X&X>X&X>X>X&X&X>X>X&X&X>X&X;X;X:X>X&X&X>X&X>X>X&X>X>X>X&X>X>X>X>X>X>X>X>X>X>XhX>X>X>X>X>X>X>X>X>X>X6X6X6X>X>X<X<X<X1X1X1X1X_.1X1X1X1X1X1X1X1X1X_.1X1X1X_.1X1X_.1X_.1X_.1X1X`.2X2X2X1X2X2X2X2X2X5X2XjX5XjXjXkXkXkXkXkXzXlXvXzXvXvXvXvXvXvXcXvXcXvXvXvXvXvXvXvXvXvXvXvXvXvXcXvXcXcXcXvXcXZXZXZXZXZXGXGXGXHXHXHXHXJXJXJXJXJXJXJXJXHXHXGXHXGXGXGXGXGXGXGXGXZXcXcXZXcXcXvXlXvXvXkXlXkXlXkXjXkXkXkXjXjX5XkXjX5XjXjX5XjX2X2X2X2X2X2X2X2X2X2X1X2X2X1X2X2X1X1X1X1X1X1X1X1X1X1X4X1X1X1X6X6X1X6X6X<X6X6X1X,X6X6X>X,X6X>X6X>X>X6X,X>X>X>X6X6X>X>X>X>X>X6X>X>X6X>X,X>X;X>X;X>X,X>X>X;X>X>X>X;X>X>X>X&X;X,X;X;X>X;X>X;X>X;X;X;X&X>X>X}.;X&X&X;X;X;X;X&X;X=X%X=X=X*X=X=X%X%X*X*X' S S S 6 6 S =.=.6 =.6 K #X=.=.S 6 6 6 6 D =.6 =.=.6 K q..XoX{.D.{.u.{.{.D.D.K.{.D.D.{.D.S.S.K.K.S.S.K.S.D.S.S.S.D.S.S.S.S.C.}.A.S.S.A.t.A.A.A.A.S.b.C.C.x.x.C.b.A.b.t.x.x.x.x.x.x.x.w.w.c.z.x.w.z.z.w.z.k.",
"1.[ [ 5.,.1.[ ,.1.1.1.5.5.6.5.w.6.6.6.6.6.6.e.x.e.t.C.e.t.S.S.t.C.t.C.t.C.C.u.C.C.Z.D.C.D.Z.Z.D.u.D.D.D.D.D.Y.D.D.T.s.D.T.T.T.T.T.%X&X%X%XT.&X%X&XR.T.&X&X&X&X&X&X&X&X;X:X&X&X>X&X&X&X>X&X&X>X>X&X>X&X>X;X:X&X&X&X&X&X;X&X>X&X&X&X&X;X&X&X&X&X>X&X;X:X&X&X>X&X>X&X>X&X>X>X>X>X>X>X>X>X>X>X>X>X>X>X>X<X<X>X6X<X6X1X<X<X1X1X<X1X<X1X1X1X1X_.1X_.1X1X2X_.2X1X2X_.1X2X2X2X2X2X2X2X2X2XjX2XjXjXjXkXkXkXkXkXkXlXkXkXkXzXkXkXlXkXlXlXvXvXlXvXvXvXcXcXvXcXcXcXcXcXZXZXZXZXZXZXGXDXDXGXGXHXHXHXHXJXJXJXLXLXLXLXJXLXLXLXLXJXLXJXJXJXHXJXHXHXGXGXGXGXGXGXcXcXcXcXcXvXvXvXkXlXkXkXkXkXkX5XjXkX5X2XjX5XjX2X2X2X2X2X2X2X2X2X1X2X2X2X1X2X1X1X1X1X1X1X1X1X1X1X1X4X1X1X1X<X1X<X1X1X<X1X6X<X6X<X6X6X6X6X6X>X6X6X,X6X6X6X6X6X>X6X>X,X>X6X,X>X6X,X>X,X>X,X>X>X6X>X,X>X>X>X>X>X>X;X>X>X>X;X>X>X;X>X>X>X;X;X>X;X>X>X;X>X;X;X>X;X>X;X&X&X;X&X;X;X=X=X=X=X=X=X%X=X*X=X=X*X*X{.D S S S 6 { D 6 6 S =.V.B.6 S 6 6 6 6 S 6 6 =.6 S V.N U l.k.q.S.{.D.D.D.D.K.K.D.D.K.D.{.S.D.D.D.D.D.K.D.S.S.S.S.S.S.S.C.S.S.t.C.S.t.t.S.C.C.C.t.b.C.A.e.A.S.e.e.e.A.e.e.x.C.x.e.e.w.e.e.e.e.x.w.e.z.w.w.w.",
"1.,.1.1.1.1.5.1.1.1.8.1.5.5.5.5.4.6.6.6.6.7.6.x.e.e.e.e.t.e.t.e.C.y.C.C.C.Z.S.y.u.Z.Z.D.u.D.Z.D.D.D.T.Z.D.T.E.E.T.%XT.%X%XT.%X%X%X%XT.&X&X%X&X&X%X&X&X&X&X&X&X&X&X&X&X&X&X;X&X&X&X>X&X&X;X:X&X&X&X&X&X&X:X:X&X&X&X&X&X&X%X&X&X&X%X&X&X%X&X&X&X&X;X&X&X&X&X;X&X&X>X&X&X&X&X&X&X;X:X;X&X>X&X:X>X>X>X>X>X>X>X>X<X<X>X<X<X<X<X1X<X_.<X1X1X_.1X1X_.2X_.2X1X1X2X`.2X2X_.2X2X2X2X2X2XjXjX2XjXjXjXjXjXjXkXkXkXkXkXkXkXlXkXkXkXlXlXlXvXvXvXvXvXcXcXcXcXcXZXZXZXGXGXGXGXHXHXHXHXHXJXJXJXJXJXLXLXLXLXLXLXLXLXLXLXLXLXLXLXLXLXJXLXJXJXJXJXHXJXHXGXGXGXZXcXGXZXcXcXvXvXvXvXkXkXjXkXkXjXkXjXjXjX2XjX2XjX2XjX2X2X2X2X2X2X2X`.2X2X_.1X`.1X2X2X_.1X_.2X1X2X_.1X1X1X1X1X1X<X1X1X1X1X6X<X6X1X<X6X6X<X<X6X6X6X6X1X<X>X6X6X>X6X6X6X6X6X6X6X6X>X>X>X6X6X>X>X6X>X>X>X,X>X6X,X>X>X>X>X>X>X>X>X>X>X>X>X;X>X>X>X;X>X;X;X>X;X>X;X&X&X>X;X;X>X;X;X;X=X=X=X=X=X=X=X&X=X=X=X=X=X;X*XK =.=.S S D S S 6 =.=.{ K S =.=.6 6 6 D S =.6 =.N.K =.6 n N j u.{.{.u.{.{.K.D.D.{.D.D.}.D.K.K.S.}.D.S.S.S.S.D.D.S.S.S.S.S.A.A.S.C.S.S.C.A.A.$Xt.A.A.C.A.C.t.A.e.A.e.e.A.x.x.e.x.C.x.r.w.x.e.z.e.w.w.w.w.w.",
"1.,.8.1.1.1.1.8.1.1.1.1.5.5.5.5.5.6.6.4.6.7.6.9.6.t.e.e.e.x.t.t.C.t.C.Z.y.C.C.Z.S.D.Z.D.D.u.D.D.D.Y.D.T.T.E.T.T.%XT.%XT.T.%XT.&X%X&X%X%XR.&X%X&X&XR.&X&X%X&X%X&X&X&X&X&X&X&X&X&X&X&X&X&X&X&X&X&X&X&X&X&X&X&X%X&X&X&X&X&X%X&X&X%X%X&X%X&X;X%X&X%X&X&X;X&X&X&X&X&X&X&X&X&X>X&X>X&X&X>X&X>X;X:X>X:X:X>X>X:X>X>X<X>X<X<X<X<X_.1X_.1X1X_.1X_._.1X_.2X2X1X`.2X_.2X2X`.2X2X2X2X2XjX2XjXjX2XjX2XjXjXjXkXkXjXkXkXkXjXkXkXkXlXlXlXvXvXvXcXcXcXcXcXZXZXZXGXGXGXGXHXHXJXHXJXJXJXLXLXLXLXLXPXLXLXPXLXLXPXLXPXLXPXPXLXLXPXLXLXLXLXLXJXLXJXJXJXHXHXGXGXZXZXZXcXcXcXvXvXvXlXlXkXkXkXkXjXjXjXjXjXjX2XjX2X`.jX2X2XjX2X2X2X2X`.2X2X2X2X2X`.2X2X1X_.1X2X2X1X_.1X1X1X1X1X1X1X1X_.1X1X1X1X<X1X1X1X<X1X1X<X1X1X1X<X1X6X<X6X<X6X<X6X6X_.6X6X6X>X6X>X6X>X6X6X>X6X>X>X6X>X>X>X>X>X>X,X>X>X>X>X;X>X;X>X>X>X;X;X>X;X;X&X>X&X>X;X;X>X&X;X&X;X&X&X:X;X;X&X&X;X&X=X=X&X=X=X=X=X=X*X=Xq.6 S S S D { D D =.6 { S S S 6 6 6 S S 6 6 : K S 6 6 6 W q.F.{.T.D.{.D.D.D.D.u.{.K.K.D.D.{.D.S.S.D.S.D.S.S.S.S.D.u.D.S.S.S.S.A.A.t.S.t.S.C.C.C.A.C.C.C.c.b.r.x.e.C.x.x.e.e.x.e.v.w.e.x.w.r.w.w.w.w.w.w.w.",
",.1.[ 8.,.1.1.1.1.1.1.8.6.5.5.5.5.5.6.5.6.6.6.j.t.6.C.t.e.t.x.t.t.C.t.C.C.Z.Z.Z.Z.Z.D.u.Z.D.Z.Y.T.D.D.Y.T.Y.D.E.T.D.T.T.%XT.%XT.T.T.T.%XE.T.E.R.%X%XT.%XT.R.%X%XT.&X%X%X%X%X%X%X%X&X%X&X&XT.&X&X%X&X&X%X%Xs.&X&X%X&X&X%X&X&X&X&X&X&X&X&X&X&X&X&X&X&X&X&X&X&X&X&X&X&X&X>X&X&X&X&X>X&X:X;X>X:X>X>X>X>X>X>X>X<X>X>X<X6X<X1X<X1X1X_._.1X_.2X2X_._._._.2X1X`.2X_.2X2X2X`.`.jXjX`.2X2X`.jX2XjX2XjXjXjXjXkXjXjXkXlXkXvXlXvXvXvXvXcXcXZXZXZXZXGXGXGXHXHXHXHXJXJXJXJXJXLXLXLXLXLXLXPXLXLXLXPXLXPXPXLXPXLXPXLXLXPXPXLXLXLXLXJXJXJXJXHXHXHXGXGXGXcXcXcXvXvXvXvXvXvXkXvXlXzXlXkXjXkXkXkXjXjX2XjX2XjXjXjXjX2X2X2X2XjXjX`.2X2X2X2X2X2X`.2X2X2X2X2X2X_.2X2X2X1X2X1X1X2X1X2X1X1X1X1X1X1X1X2X1X_.1X1X1X1X1X1X1X1X1X6X1X1X6X6X6X6X6X_.6X6X_.6X6X6X>X6X6X>X6X6X>X6X6X6X>X>X>X>X>X;X>X>X:X>X>X>X&X;X>X>X>X>X>X;X;X;X;X&X;X&X;X;X>X;X&X;X;X;X&X;X=X;X=X&X&X=X&X&X=X%X*X=X*X{.D S } D D D =.D S =...=.6 6 6 6 =.=.# : 6 : 6 = # # 6 B.*X{.u.{.{.u.{.u.{.D.{.D.D.D.K.D.D.S.D.D.}.D.D.D.D.Z.S.S.S.S.u.S.C.S.u.A.S.S.C.A.C.A.A.A.e.b.e.$XC.S.C.e.x.e.e.x.C.e.w.e.v.w.e.w.x.e.w.w.w.w.w.w.",
"1.[ 8.1.1.1.1.1.8.1.1.r.5.5.5.5.5.7.5.6.6.6.j.6.6.x.e.e.e.t.t.e.C.t.t.S.t.Z.Z.u.D.u.Z.Z.Z.D.Z.Z.D.Z.Z.D.D.D.Z.D.D.D.Z.D.D.D.D.T.T.D.T.T.D.T.D.T.T.T.T.T.T.%X%XT.T.E.T.%X%X%XT.&X%XR.&X%X&X%X&XT.&X&X%X&X%X&X&X&X&X&X&X&X&X&X&X&X>X&X&X&X&X&X&X&X&X;X&X&X&X&X&X>X&X>X&X&X&X&X&X&X&X&X&X>X:X>X:X>X>X>X>X>X<X<X<X/./.<X1X/.1X1X_.1X_.1X1X_._._.2X_._.1X2X`.`.`.2X2X`.2X2X`.`.jX`.jX2XjXjX2XjXjXjXjXjXjXkXkXlXlXlXlXvXvXcXcXcXZXZXcXZXGXGXGXGXHXHXJXJXHXJXJXLXJXLXLXLXLXLXLXLXPXLXPXPXLXPXPXPXPXLXPXLXLXPXLXLXLXJXLXJXJXHXHXHXGXGXZXGXcXvXvXvXvXlXlXkXlXvXkXkXlXlXkXkXkXkXkXkXjXjXkXjXjXjXjXjXjX`.jX2X2X2X2X2X2XjX2X2X`.2X2XjX2X`.2X`.`.2X2X2X2X2X_.1X2X_.2X1X1X1X1X1X1X1X1X1X1X1X1X1X1X1X1X1X1X1X1X1X1X6X6X1X6X<X6X6X6X<X6X6X6X>X/.>X<X>X6X>X>X>X>X>X>X>X>X>X>X>X>X>X&X>X;X:XhX&X>X;X>X;X>X&X;X>X;X;X>X;X;X&X;X&X&X;X>X}.{.-X%X&X&X;X&X&X=X;X=X=X=X%XD.D.S.$XS D D { S =.6 =.6 # 6 6 =.=.=.6 S D # S =.6 : =.c [ S.S.D.D.D.D.u.{.{.u.{.S.D.D.{.D.D.D.D.D.D.Z.D.D.S.u.S.A.S.S.S.A.S.S.C.C.A.C.A.C.C.A.S.x.e.A.A.e.t.C.C.x.x.t.x.e.e.x.w.w.x.e.e.e.w.e.z.w.w.w.w.w.w.",
"R ,.[ 1.R 1.8.1.1.5.8.1.1.8.5.5.5.5.5.5.5.6.7.6.7.7.6.e.e.e.t.e.t.e.t.t.C.t.C.t.C.t.S.t.y.Z.C.C.C.C.u.Z.y.C.y.u.u.C.u.D.u.S.Z.Z.Z.u.D.Z.D.D.D.D.D.D.D.T.T.D.D.E.D.T.%XT.T.T.T.T.E.R.E.%XR.%X&X%X%X&X%X&X&X%X&XT.&X&X&X&X&X&X:X&X&X&X&X>X&X>X:X>X:X>X&X>X>X>X&X>X&X>X>X&X>X>X>X>X>X>X:X>X>X>X:X>X>X>X/.<X/.>X<X1X1X_._.1X_./.1X_._._._._.1X1X_.1X1X_.)._.'.1X_.`.`.`.`.`.2X`.2X`.`.jX2XjXjX5XjXjXjXkXkXlXkXlXlXvXvXcXcXcXcXcXZXZXcXcXGXGXGXGXGXGXHXJXJXHXJXJXJXJXJXJXLXLXJXLXLXLXLXLXLXLXLXLXLXLXLXLXJXJXJXJXHXHXHXGXGXZXcXZXcXcXvXvXvXvXvXvXvXvXvXvXvXvXvXvXlXvXlXlXlXkXkXkXkXkXjXkXjXjXjXjXjXjXjXjX`.jX2XjX`.2XjX2X2XjX`.`.jX2X2X2X`.1X2X`.2X2X_.2X_.2X2X2X_.2X1X_.1X2X_.1X1X1X_.1X<X1X1X1X<X6X6X6X_._.6X<X6X6X/.6X<X>X>X6X>X>X6X>X>X>X>X>X>X>X>X>X>X>X&X>X;X>X>X>X&X>X:X~.>X&X>X;X&X&X>X;X&X;X&X&X&X>X>X&X;X;X;X%XS.q.}.S.D.=X&X;X&X;XS.%X=X=XE.8.R S K { S D D S =.6 6 # =.{ =.=.6 6 6 .XK 8 K S 6 6 K ..[.{.D.{.D.{.D.{.D.D.D.S.{.D.D.D.D.D.D.D.S.D.S.D.D.D.S.S.D.u.S.S.S.C.A.u.S.A.C.u.C.C.t.C.e.S.t.A.t.b.x.x.e.C.x.e.x.e.e.x.e.e.v.e.w.x.e.w.w.w.w.w.w.w.",
"R R R R ,.R 1.R 1.,.[ 8.1.8.<.8.5.8.4.5.7.5.5.6.6.6.7.j.7.7.j.e.j.9.e.9.e.t.t.t.t.t.t.t.C.t.t.C.t.t.Z.t.C.t.C.t.C.t.C.C.Z.C.C.Z.D.Z.D.Z.Z.Z.S.D.Z.Z.D.D.Y.D.T.D.D.T.D.T.D.E.T.D.E.T.T.%X%XT.&X&XT.&X%XT.R.&X&X&X&XR.&X&X&X&X&X&X&X>X:X&X:X:X:X>X&X>X>X:X>X>X>X:X>X>X~.~.>X>X>X~.>X/.>X>X>X~.<X>X>X<X<X<X<X1X<X<X_.<X1X/.1X/./.<X/._.<X_._._._._._._.1X)._.`.2X_._.`.2X2X`.2X2X`.2X`.jXjXjXjXjXjXjXjXlXlXlXlXlXlXvXvXvXvXvXcXcXvXcXcXcXGXcXGXGXGXcXGXGXHXHXGXHXGXHXHXHXHXJXJXJXJXJXJXJXJXJXJXJXJXJXJXHXJXHXGXGXGXZXGXZXGXZXZXZXZXcXGXcXcXZXcXcXGXcXcXcXcXcXcXvXcXvXvXvXlXlXlXlXlXkXkXjXjXjXjXjXjXjXjXjX2X2XjX2XjXjX2XjXjXjX`.`.2X`.2X2X`.2X1X2X`.1X2X_._.1X1X_.1X1X2X1X1X1X1X1X_.1X1X<X6X6X1X6X_.<X6X<X>X6X<X6X>X>X>X_.>X>X>X>X>X>X>X>X;X>X>X>X>X>X>X&X>X&X>XhX~.>X:X>X&X;X>X;X:X:X&X,X;X&X>X>X&X>X;X;X&X&X&X;X%X{.}.} D S { r.;X;X&X;X{.R S.=X&X%X{.k.f S =.S D S =.S 6 =.=.{ V.s =.6 6 K XXS D 6 6 6 - ; a <.D.Z.}.D.D.D.D.u.{.D.{.u.{.S.D.D.D.S.{.D.{.S.D.D.u.u.S.S.S.u.S.S.u.A.t.S.t.t.}.C.C.x.u.C.x.A.t.t.x.e.x.x.t.x.e.x.w.e.x.e.w.z.e.w.w.w.w.w.w.w.w.w.q.",
",.R ,.1.[ R 1.1.R R 1.1.1.<.5.<.8.5.5.5.5.5.5.7.5.5.6.6.7.j.j.7.7.j.j.9.9.j.j.7.j.9.j.j.7.x.j.9.j.t.j.j.t.j.t.t.t.C.t.t.C.t.C.t.t.C.S.t.Z.Z.Z.C.D.Z.Z.Z.Z.D.Z.Z.D.D.D.T.D.T.T.E.E.T.T.T.T.T.T.T.T.E.R.&X%XE.T.%X%X&X&X&X&X&X&X&X&X&X&X&X&X&X&X:X>X:X:X>X:X>X:X>X~.>X>X>X>X/.>X>X>X>X~.>X>X>X>X/.<X<X<X<X/./.<X_.1X_./._./._./.1X_._._.1X_.2X_.1X_._.'.`.`._.`._.`._.`.`.'.`.`.2X`.2X`.2XjXjX`.jXlXjXjXjXjXlXlXlXlXlXlXlXlXlXlXlXvXvXvXvXvXvXvXcXcXcXcXcXcXGXcXGXGXZXGXGXGXGXHXHXHXJXJXJXJXLXLXJXLXJXJXJXJXJXJXJXHXHXJXHXHXHXHXHXGXGXGXGXGXGXGXGXGXcXGXcXGXcXcXcXvXvXlXlXlXlXlXlXkXkXkXkXjXkXjXjXjXjXjXjXjX`.jX`.2X2X`.`.`.2X2X2X2X`._.2X2X_.2X1X1X_.2X1X1X1X1X1X1X_._.1X/.<X1X<X/.1X<X<X<X/.6X>X<X>X<X<X>X>X>X>X>X>X;X6X6X>X>X>X>X>X/.>X>X>X>X>X:X>X>X>X>X>X&X>X&X>X&X>X:X&X&X;X;X&X>X&X;X&X;X&X&X;X&X&X;X>X;Xt.g D D S S D r.;X;X&X3Xt.D w.*X&X&X%X%XK.q.{ =.S D =.=.S S S D D =.6 # $ ] M.6 > 6 S l.b.c.S.S.}.D.D.D.{.{.D.{.D.D.D.D.u.{.S.D.D.D.u.D.D.Z.S.S.S.S.S.S.S.S.S.C.A.A.S.C.S.S.t.C.C.C.A.e.C.e.x.x.x.x.e.e.x.e.e.e.e.e.e.e.w.e.e.w.w.w.w.6.w.q.w.w.4.",
"R R R R 1.R / ,.R <.,.` <.1.5.5.5.5.5.5.5.5.5.6.6.5.6.6.6.6.7.7.j.7.j.7.j.j.j.j.j.7.j.7.j.9.6.e.e.e.t.e.e.e.t.e.e.t.t.e.e.t.t.C.t.C.t.t.C.C.C.Z.C.C.Z.C.D.Z.Z.D.D.Z.Z.D.Z.D.Y.T.D.E.E.T.T.E.T.E.T.%XE.T.R.E.&XR.R.%X&XT.%X&XR.&X%X&X&X&X:X:X&X&X&X:X&X&X:X:X:X:X>X:X:X:X:X:X>X/.~.>X>X/.>X/.<X<X<X/.<X/./.1X<X/./././.<X_._._._._._.)._._._._.'._.'.'._._.`.`._.2X`.`.2X2X`.2X`.`.2X`.jX`.jX`.jXjXjXjXjXjXjXjXlXjXlXjXlXlXlXlXlXlXlXlXlXvXvXvXvXcXcXcXcXcXcXcXcXZXZXGXGXGXHXHXJXJXJXLXLXLXLXLXLXLXLXLXLXLXLXLXLXLXLXLXJXJXLXJXJXJXJXHXHXGXGXGXGXGXcXcXvXcXvXvXvXvXlXlXlXjXlXjXjXjXjXjXjXjXjXjXjXjXjX`.jX`.2X`.2X2X`.`.2X`.2X_._._.2X_._.1X_._._.1X_.1X/._.1X_.1X<X<X<X<X<X<X<X<X<X<X<X>X<X>X<X<X<X6X<X>X6X>X<X>X>X>X>X>X>X/.,X>X>X>X>X>X>X>X>X>X>X>X/.&X&X>X&X:X;X>X&X:X>X>X&X;X&XE.*X;X&X;X&X&X&X;X>X;X;X:X;X%Xr.D D D } S UX{ {.;Xb.{ S { qX%X&XR.%X*X*X{.[ S { =.K ) ) S S 6 6 # : : { 6 = > 5 N [ {.{.D.D.S.D.D.u.D.u.D.D.D.D.D.S.D.D.D.D.D.S.D.D.u.S.S.D.S.D.S.u.S.t.S.S.A.u.A.C.t.t.A.C.C.C.x.C.e.t.x.C.e.e.x.e.e.e.e.x.e.C.r.x.w.w.w.w.w.w.w.w.w.q.6.6.4.",
"R R R 1.R ,.R [ 1.1.<.<.<.8.<.5.5.8.7.5.5.<.7.6.5.7.6.5.5.6.6.7.7.5.7.j.j.7.7.7.7.j.7.j.7.j.9.j.9.j.j.j.9.j.j.9.e.e.e.t.e.e.e.t.e.t.C.t.C.t.t.C.y.C.C.Z.C.C.Z.Z.Z.Z.Z.D.Z.T.D.Y.Y.T.Y.E.E.T.T.T.E.R.R.%XT.R.%XR.T.&XR.&X%XR.&X%X&X&X&X&X&X&Xs.&X:X&X&X:X&X>X&X:X:X~.>X>X>X~.~.>X>X>X/.>X<X>X/./.<X/./.<X_./._.1X_._._.<X_._./._._._._._._._._._._.`._._._._.`.`.`._.`.`.'.`.`.`.`.`.`.`.`.`.jXjX`.jXjXjXjXjXjXjXjXjXjXlXjXlXlXlXlXvXvXvXcXcXcXcXcXcXGXcXGXcXGXGXGXGXGXHXHXJXJXLXLXPXLXLXLXPXPXPXPXPXPXPXLXPXLXPXLXLXLXLXJXJXJXJXHXHXHXGXGXGXcXcXcXcXcXlXlXlXvXlXlXjXlXjXjXjXjXjXjX2XjX2X`.jX`.`.`.`.`.`.`.`.`.`._.2X`._._.`.2X_.2X_._.1X_.1X_.1X1X_.1X1X1X/.<X<X<X1X1X<X1X<X1X<X<X1X<X<X<X<X6X>X>X>X>X<X<X6X>X>X>X>X>X>X>X>X>X>X>X>X>X>X>X>X:X:X>X>X;X>X>X>X>X;X>X;X;X;X;X;X;X>XS.{ D F.-X;X;X;X&X&X&X;X&X&X;X*X{.r.D D D D D D [.eXK S D } C.;X%X&X*XR.%X*Xb.D { a { { V.S D 6 6 6 # =.6 - F l.A.A.e.D.D.D.D.D.D.S.{.S.D.D.D.S.S.D.S.D.D.u.S.D.S.u.S.S.u.S.S.u.t.S.S.t.S.t.t.u.C.S.t.A.S.e.C.e.C.e.C.C.e.x.e.e.e.e.e.x.e.w.w.e.z.e.w.w.w.w.6.w.w.6.q.4.6.4.4.w.",
"1.R R R ,.,.1.,.,.8.1.,.<.5.5.8.5.5.5.8.7.<.5.8.5.7.6.5.6.5.6.6.j.<.j.7.j.j.7.j.j.6.j.6.6.7.j.7.j.7.7.9.j.9.j.t.e.e.t.e.j.t.t.t.t.x.e.C.e.C.C.t.C.t.t.Z.y.Z.Z.Z.Z.Z.Z.Z.Y.Z.Z.Z.Y.E.T.Z.E.T.T.T.T.R.T.T.T.R.E.T.&X%XR.&X&X&XR.R.&X&X%X&X&X&X%X~.&X&X&X&X:X&X:X>X:X:X>X~.>X~.:X<X/.>X>X/./.<X<X<X/.<X/././.1X/./.<X1X/._.1X)._._._._._._._._._.)._.'._.`.`.`.'._.`.`._.`.`.`.`.`.`.2X`.`.2X`.jX`.jXjX`.jXjXjXjXjXjXjXlXlXlXlXlXlXvXcXcXcXcXGXGXGXGXGXGXGXGXGXHXHXJXJXJXJXLXLXLXLXLXPXLXPXPXPXPXLXPXPXPXLXPXPXLXLXPXLXLXJXJXJXHXGXGXGXcXcXcXvXcXvXlXlXlXlXjXjXjXjXjXjXjXjXjXjX`.`.`.`.`.`.`.`.'.'.`.`.'.`.2X_._._._._._._._._._.1X_._./._.1X1X_.<X1X<X1X_.<X1X<X<X1X<X<X<X<X<X<X1X<X<X<X<X<X>X<X>X>X<X>X>X>X>X<X>X>X/.>X>X>X>X>X>X>X>X>X>X>X>X>X>X>X&X:X>X>X:X&Xu.u.e.{.;Xr.C.{.*X3.D D D A.Q.[ %X;X-X=X&X&X=X-Xt.L { { } D D D { Q.7X{ S D 6 [ *XT.&X%X%X{.S.q.D D S =.) { 6 S 6 =.: 6 6 n x.K.*XD.%X%XD.D.D.D.D.D.D.D.D.D.S.D.S.D.u.D.S.D.S.S.S.S.u.C.D.S.u.S.C.S.t.S.S.S.C.Z.C.C.x.C.C.C.t.C.x.A.e.A.e.x.e.C.x.x.x.e.e.e.e.e.z.6.x.w.6.w.w.w.w.6.6.6.4.4.6.k.4.",
",.,.1.,.1.,.1.8.1.8.1.1.5.<.8.5.5.8.5.7.7.5.7.5.7.5.5.6.7.5.5.7.7.<.7.<.<.<.7.j.6.6.6.7.6.j.6.7.j.j.j.j.9.j.9.j.9.e.9.e.t.t.t.j.e.t.9.C.t.9.e.t.9.C.C.t.t.C.y.C.Z.Z.Z.Z.D.Y.D.Z.Y.Z.T.Z.T.Y.D.T.T.T.T.T.E.R.T.&XR.T.T.&X%XR.&X&X~.&X&Xs.&X~.&X~.].&X~.~.:X:X:X:X:X:X~.>X/.>X~.<X/././.>X<X/./.<X<X/./.1X/././._./._.!._._._._._._.1X_._._._._.)._.)._._._._._.`.).`.`._.`.`._.'.`.`.`.`.`.2X`.`.`.jX`.jXjXjXjXjXlXjXlXjXlXlXlXlXvXvXcXcXGXcXcXGXGXGXGXGXHXJXJXJXJXJXJXLXLXLXLXPXLXPXPXPXPXPXPXPXPXPXPXPXLXPXLXPXLXJXJXHXHXGXZXcXcXcXvXlXvXlXlXlXjXjXjXjXjXjXjX`.`.`.`.`.`.`.`.`.`.`.`.'.'.`.'.'._._._._.)._.'._._._._.1X_._._._.<X_._.1X/././.<X/.<X/.<X<X<X/.<X<X<X<X<X<X<X<X<X<X<X>X<X>X<X<X>X>X>X>X>X>X>X>X>X>X>X>X>X>X/.>X>X>X&X>X&X:X&X>X&X>X;X>X&X&X>X&Xu.1.f a { { D D } }.{ D { K { D { }.D.*X-X&X&X&X;Xq.S S K { D { D { { D D D =.q.;X%X&X%X*Xu.n I s =.{ =.S ] r.6 D S 6 6 ' K.K.D.T.D.E.D.D.%Xu.D.D.C.D.Z.S.Z.D.D.{.{.S.D.D.u.D.Z.S.D.S.D.C.Z.S.Z.C.S.u.S.t.C.C.C.C.t.A.S.r.C.C.C.e.t.e.A.t.e.C.e.e.e.e.e.e.z.e.w.e.w.w.w.e.6.w.6.w.w.k.6.6.4.4.4.4.",
"R ,.,.<.1.5.5.8.5.8.8.8.<.7.7.<.7.5.5.8.5.7.5.5.5.7.5.7.7.5.7.7.7.7.j.7.7.j.j.j.6.j.6.7.7.7.j.7.j.j.9.j.j.9.9.j.j.t.e.e.t.j.j.t.e.6.t.t.t.e.t.t.C.9.t.C.C.C.C.C.t.C.t.Z.Z.Z.Z.Z.Z.Z.Z.Z.D.D.Y.T.Y.T.T.T.T.T.R.E.T.&XR.&X&X&XT.&X%X&X&X~.&X~.&X&X%X~.~.&X&X:X&X:X:X:X:X~.:X~.>X~.:X>X/./.~.<X/././.<X<X/./.<X/.<X<X/./._._././._.!./._._._._._._.'._.)._.)._._.'._.'._.'._._.'.`.`.'.`.'.`.`.`.`.`.jXjX`.jXjXjXjXjXjXjXjXlXjXlXlXvXvXvXcXcXcXcXGXGXGXGXGXHXJXHXJXLXJXLXLXLXLXPXLXLXPXPXLXLXPXPXPXLXPXLXLXPXLXLXLXJXJXHXHXZXcXcXcXvXlXlXjXjXlXjXjXjX`.jXjXjX`.`.`.`.`.'.`.'.'.`.`.`.'.'.'._.).).).)._.)._._._._._._._._./._./._./.<X/./._./.1X1X/.<X/.<X<X<X<X<X<X<X<X<X<X<X>X>X<X/.>X<X~.<X>X<X:X>X/.>X/.>X:X:X>X>X>X>X&X:XhX:X:X>X:X>X:X~.hX:X>X>X:X&X>X;X&X&XhX,X$X` d S =.S D { } S { D D D D D r.r.{.=X=X-X-X-X{.} =.D UXK D D D { S D =.{ w.x.S.%X%X*XT K D 6 { D 6 K K 6 D =.6 k.{.D.D.T.D.D.D.E.D.u.{.D.{.S.D.S.{.K.S.S.Y w.S.w.C.D.S.D.u.S.y.C.D.S.A.S.C.t.S.S.S.Z.C.C.C.t.A.t.t.e.e.S.C.C.S.e.t.x.e.x.x.e.e.e.e.e.e.x.w.w.e.6.w.w.w.6.6.6.j.4.4.4.4.6.5.",
"1.,.8.5.8.8.8.5.8.5.8.7.8.7.<.7.7.8.7.7.7.8.7.7.5.7.7.7.7.7.6.7.7.j.7.7.j.9.7.7.7.7.7.j.7.j.9.j.7.9.j.9.j.9.j.9.t.j.e.9.j.t.9.t.t.t.C.6.e.t.e.t.e.t.C.t.t.t.C.t.Z.t.C.Z.C.C.Z.C.Z.Z.D.Z.Z.Z.Z.Z.Z.Z.T.T.T.T.T.T.R.T.T.R.R.s.&X&X&Xs.&X&X&Xs.&X~.~.%X&X&X:X:X&X:X:X&X:X:X&X:X~.~.:X~./.&X>X~.>X~.<X:X<X/.<X/.<X/./.<X/.<X/./._././._./._.!._._._._.)._._.).)._._.).'._.).'.'.'.'.'.`.`.`.`.'.`.`.`.`.`.`.`.`.`.jXjXjXjXjXjXjXjXlXvXvXlXvXvXcXcXcXcXcXGXGXGXHXHXJXJXJXJXLXLXLXLXLXPXLXLXPXPXLXLXPXPXPXLXPXLXLXLXJXLXHXHXGXGXZXcXcXvXlXlXlXjXjXjXjXjX`.`.`.`.`.`.'.`.`.'.'.'.'.'.'.).)._.).)._.'.).)._._._.).'.)._._._._._._._.1X/./.1X/.1X/.<X/.<X<X<X/.<X/.<X<X<X<X>X<X:X>X>X<X:X>X>X>X>X:X<X>X>X>X:X>X~.>X>X>X~.:X>X:X:X~.~.>X>X>X:X:X:X:X:X>X&X&X>X:X&X>X:X>X&X&XT.-X{.w.D =.{ Q.{ 6 6 S Q.{ S { Q.} D $X;Xt.{.,XrX{.{ D S D S D D D S D D =.S ' 5.*X%X*X[.6 D S K D =.6 K S S 6 { {.K.E.Y.D.T.T.D.T.E.{.{.t.w.D.D.A.[ ^ G.K 6 K F f S.D.S.D.S.t.S.S.C.u.u.S.Z.S.Z.t.t.t.S.C.t.S.t.t.A.S.t.t.t.t.r.t.e.t.C.6.C.r.x.e.e.e.6.6.e.6.w.w.w.6.6.6.6.6.4.6.4.4.4.5.4.",
"8.,.8.8.5.<.8.8.8.7.<.7.<.7.7.<.7.7.7.7.7.7.7.7.7.7.7.7.j.j.9.7.j.9.j.j.9.j.j.t.j.9.t.j.9.7.j.t.9.9.9.e.9.9.j.9.9.j.9.e.9.e.t.j.t.t.9.t.e.t.t.9.t.C.t.t.t.t.Z.t.t.t.C.C.y.C.Z.t.C.Z.Z.Z.Z.Z.Z.Z.D.Y.Y.T.T.T.T.T.T.T.R.T.R.R.&Xs.R.R.s.&Xd.&Xs.:X&Xs.~.&X&X&X~.s.&XR.:X&X~.&X:X&X:X:X:Xd.:X:X:X^.:X/.<X^.<X<X<X^.<X/./.^.<X/.<X/._././._./._.!./._./.).)._._.).).)._.).).'.).'.).'.'.'.'.'.'.'.'.`.`.`.`.`.`.`.`.`.jXjXjXjXjXjXlXlXjXlXlXvXvXvXvXcXcXcXGXGXGXHXJXJXJXLXLXLXLXLXPXLXLXPXPXPXPXPXPXPXPXPXLXLXLXLXLXLXHXHXGXZXZXcXvXlXlXlXjXjXjXjXjX`.`.`.`.`.`.`.`.'.'.'.'.'.'.'.'.'.).).).'.).).).).)._.).!.)._.!._._./._./._./.<X/./.1X<X<X<X/.<X<X<X<X/.<X<X^.:X<X>X>X>X<X>X<X:X<X<X:X>X>X:X>X:X:X>X:X:X:X>X:X:X>X:X:X>X>X:X>X&X:X>X:X>X>X:X&X:X&X&X>X&X>X:X&X>X&X&X:X=X*X{.q.6 S { D 6 S r.V.D D Q.D UXQ.}.Q.} Q.{ {.{ K } s =.D D S K { S K =.D C.;X*X*Xv.6 6 D D D 6 =.UXS a d [.%XD.D.D.{.T.D.D.{.u.{.q.g [ {.z.a # 6 ) 6 # 6 - ] v.4.z.5.S.D.S.Z.C.Z.C.S.u.A.Z.C.C.C.C.C.Z.C.C.C.t.C.t.C.t.C.e.e.e.x.x.e.e.e.x.6.e.w.e.w.6.6.e.w.6.w.6.6.4.4.6.6.6.5.6.4.5.",
"8.<.<.8.8.5.5.8.8.<.8.7.8.<.<.7.7.>.7.<.j.>.7.7.7.7.7.7.7.7.7.j.9.7.7.9.j.9.9.9.t.t.j.9.j.t.9.j.e.e.j.t.e.e.j.t.t.j.e.9.j.t.t.j.j.e.e.t.t.9.C.C.t.t.t.t.C.t.t.C.y.t.Z.t.t.y.C.Z.y.Z.Z.y.Z.Z.Z.Z.Z.Y.Z.Y.Z.T.Y.T.T.R.T.T.T.T.T.R.&XR.&XR.R.R.&X&X&X&X&Xs.s.:X:X&X:XR.:Xd.&X~.:X~.:Xd.<X<X:X:X<X<X<X:X:X<X:X/./.<X^.<X<X/././.^.<X<X/._./././._._.!._./.).!._.)._.)._.)._.).'.).).'.'.'.'.'.'.'.'.`.`.`.'.`.`.`.`.jX`.`.jXjXjXjXjXjXlXlXlXvXvXvXlXcXcXGXcXcXGXGXHXJXJXJXLXLXLXLXPXPXPXPXPXPXPXPXPXLXPXPXPXPXLXLXLXJXHXHXGXGXcXcXvXvXlXlXjXjXjX`.`.jX`.`.`.`.`.`.`.`.'.'.'.'.'.'.'.'.).).'.).).).)._.).)._.)._.)._.!._._./._././._._.<X/././.<X<X/.<X/./.<X/.<X<X<X~.<X<X~.:X<X:X<X:X:X<X:X:X<X:X<X>X:X:X>X>X:X:X>X>X>X&X>X>X:X:X>X>X:X:X:X:X:X>X:X>X>X&X>X&X>X&X&X:X;X:X&XC.j F K =.D { 6 S 1.S D D Q.{ Q.} UXQ.{ UXD { { K {.A.f 6 D D Q.*.{ { =.} {.D.{.*Xq.6 6 S S =.6 S D S 6 q.*XD.T.D.D.s.D.D.T.D.{.D.L 6 [ *.: 6 6 =.6 6 6 6 K V.1 6 s 4.v.e.t.C.D.S.C.S.C.Z.C.C.C.C.Z.C.C.C.t.C.C.x.C.C.x.t.x.e.x.e.t.e.e.6.x.e.6.w.6.e.e.6.w.6.w.6.6.6.6.4.6.5.6.5.4.4.5.",
",.8.1.8.8.<.8.5.<.7.<.7.8.7.<.7.<.7.8.7.7.7.<.7.7.7.j.7.7.7.7.9.9.j.9.7.9.9.7.j.7.9.7.9.t.j.t.9.9.9.e.9.t.j.t.j.e.t.t.9.t.j.t.t.t.t.t.C.t.t.C.9.C.t.C.t.t.Z.Z.Z.Z.y.Z.Z.Z.Z.Z.Z.Z.Z.Z.Z.Z.D.Z.T.Y.Y.Y.T.T.T.T.T.T.T.T.R.&XR.R.&XR.R.s.R.&Xs.&Xs.s.&X~.&Xs.&X&X:X:X:X:X:X~.:X:X>X^.:Xd.:X^.<X<X:X^.^.<X^.^.<X^.<X<X/.<X<X<X/././././._././././././././././.).!.!.)._.).).).).)._.).'.).).'.'.).'.'.'.'.'.`.`.`.jX`.`.`.'.`.jXjXjXjXjXjXlXlXlXlXlXvXlXvXcXcXGXGXGXHXJXJXLXLXLXPXLXPXPXPXPXPXPXPXPXPXPXPXPXLXPXLXLXLXJXHXHXGXcXcXcXlXlXlXjXjXjXjX`.`.`.jX`.`.`.`.`.`.'.'.`.'.'.'.'.'.'.'.).).'.).'.).).).).).).).)._.!.!._./._.!._._././.<X/.<X<X/./.<X<X<X:X<X<X:X~.>X<X:X<X:X<X:X<X>X:X:X~.>X>X:X>X>X>X:X/.>X>X>X:X>X:X>X>X:X>X:X:X>X>X:X:X>X:X:X:X&X:X>X&X:X&X:X:X&X;X&X-X{.K 6 D 6 S S S {.} S D UX{ Q.D D { D { D D D D q.{.A.S D S { { { S S A.b.} } [.4.D =.# S 6 6 D { 6 D {.%X%XD.T.D.S.u.D.T.D.1.M.=.S S =.6 6 6 S 6 # 6 S { 6 2 S S S ; } C.C.C.C.S.C.Z.C.C.C.t.C.C.Z.C.t.C.t.C.t.C.e.t.x.e.C.t.6.x.e.6.6.6.6.6.w.6.w.6.w.6.6.6.6.4.6.6.5.5.6.5.6.6.5.5.",
",.<.,.<.<.8.8.<.8.8.8.<.7.8.7.8.>.7.7.7.j.>.7.7.7.8.7.7.7.7.7.7.7.7.7.9.j.7.7.9.7.j.9.7.j.9.7.j.j.9.j.9.j.9.9.t.t.e.t.9.t.t.t.t.t.t.t.y.t.C.y.y.Z.y.Z.Z.Z.Z.Z.Z.Y.Z.Y.Y.Y.Y.Z.Y.Y.Y.Y.T.T.T.T.T.T.R.T.T.T.T.R.R.R.R.&XT.s.&XR.R.s.&X&Xd.&X&Xd.&X:X:X&X~.:X:X:X~.:X~.:X:X:X~.~.:Xd.<X<X:X^.:X^.:X:X<X^.<X<X<X^.<X^.<X^.^./.<X/.<X<X/./././././././._./._._././._.!.)./.).)._.).).).).'.'.'.'.).).'.'.'.'.'.'.`.`.`.`.'.'.`.`.`.`.jXjX`.jXjXjXjXjXlXlXvXvXvXcXcXZXHXHXJXJXLXLXLXPXLXPXPXPXPXPXPXPXPXPXPXPXPXPXLXPXLXLXJXHXHXGXGXcXcXlXlXlXlXjXjXjXjX`.`.`.`.`.`.`.`.'.`.'.'.'.'.'.'.'.'.'.).'.'.'.).).).).)._.)._._._._._./._._./._./._./.<X_./.<X<X/.<X/.<X^.<X<X<X<X<X~.:X<X~.:X:X:X<X:X:X:X>X:X:X~.:X:X:X:X:X:X>X:X:X:X>X:X:X:X&X:X:X:X:X&X:X&X>X>X&X&X:X&X>X:X:X&X&X&XS.3.{ D { V.D =.L *XK.F =.UXUXD d K.*Xr.D D D S D D r.*X} D S D K D S { qX[ D S ] { 6 =.6 $X6 6 D { 6 w.%XD.D.S.D.D.{.t.D.D.{.U K =.S 6 =.D # 6 6 6 $ 6 s # 6 ) 4 = # ~ c.D.Z.C.C.C.y.C.Z.C.C.Z.C.C.C.t.C.t.t.x.t.t.C.t.t.t.e.e.t.e.e.t.C.6.j.x.6.6.6.6.6.6.6.6.6.6.6.6.6.6.7.5.5.5.5.5.",
",.,.<.<.8.8.<.8.8.<.8.8.j.>.8.7.7.<.7.7.7.7.7.7.7.7.7.7.7.7.7.7.j.7.7.7.j.9.7.7.7.9.9.j.9.7.j.9.9.j.9.9.t.9.9.t.C.9.y.C.t.t.t.t.Z.y.t.Z.y.Z.Z.y.Z.Z.Z.Y.Y.Y.Y.Y.Y.T.T.T.Y.T.T.Y.T.T.T.T.R.T.T.T.T.&X%XR.R.R.R.&XR.&Xs.R.R.R.R.&X&X:Xs.&X:Xs.&X&Xs.:X&X~.:X~.&X~.:X~.:X:X~.:X:X:X:X<X~.:X:X:X<X<X<X^.:X^.d.^.<X:X/.<X^.<X<X<X/.^././.<X^./././.<X/./.!./.!./.!.!._./.)._./.).).).).).).).).).).).).).).).'.'.).'.).'.'.'.'.'.'.'.`.`.`.`.`.jXjXjXjXlXjXlXvXvXcXcXZXGXHXJXLXLXLXPXPXPXPXPXPXPXPXPXPXPXPXPXPXPXPXPXPXLXLXLXJXJXHXGXGXcXvXvXvXvXlXlXjXjXjXjXjX`.`.`.`.`.`.`.`.`.`.`.'.'.'.'.'.'.'.'.'.).).).'.).).).).)._._._._._._._./._././._./././././.<X<X<X/.<X~.<X:X<X<X~.<X<X:X<X:X/.:X:X:X/.~.>X:X:X:X~.~.>X:X:X:X:X:X>X:X:X:X:X&X>X:X:XhX~.&X:X:X:X&X:X:X&X&X:X&X7.C 6 6 S S { [.K =.G.-Xc.6 UX{ S C.;XT.{.} D { { D { K [.K D D =.D UXD r.{ =.{ S S { S 6 ) }.s 6 S S S K.{.S.L f e.q.L S.D.D.q.) S S =.6 =.S K 0 : = S  XF $ =.2 $ # 1 f 5.C.C.Z.y.Z.S.t.C.C.Z.C.C.C.C.C.C.C.t.C.t.C.t.t.t.e.e.t.e.t.x.7.C.7.j.7.6.6.6.7.6.j.6.6.6.5.7.5.6.5.6.5.5.5.6.5.",
"<.<.,.<.,.<.8.<.<.8.7.<.7.7.<.8.7.7.9.>.8.7.8.7.7.7.8.7.7.7.7.7.j.9.7.7.9.j.9.7.9.j.7.9.9.9.t.9.9.t.t.t.t.t.t.t.t.9.Z.9.Z.Z.Z.Z.Z.Z.Z.Z.Y.Z.Y.Y.Y.Y.T.Y.Y.Y.Y.T.T.Y.T.Y.T.T.R.T.T.R.T.T.%XT.T.&XR.T.R.T.R.R.R.T.T.R.&Xs.T.R.&Xs.R.&Xs.&X&Xd.&Xd.&X&X~.&X:Xs.:X:X:X:XW.:X:X:X:X:X:X:X~.:X^.:Xd.:Xd.:X:X<X:X<X:X^.:X/.<X^.^.^.<X<X<X^./.<X/././.^./././././.!././.!./.!.!.!.!.!.!.!.).!.!.!.!.).!.!.!.).).'.'.).).).).).).'.'.'.'.'.'.'.'.`.`.`.`.`.jXjXlXlXvXcXGXDXHXJXJXLXLXPXPXPXPXPXPXPXPXPXPXPXPXPXPXPXPXPXPXPXPXPXLXLXJXJXHXGXGXGXcXcXvXvXlXlXlXlXlXjXjXjXjXjX`.jX`.`.`.`.`.'.'.'.`.'.'.'.'.'.'.'.'.'.).'._._.).).!.!.).!._.!._.!._./././././.<X/.<X<X^.<X:X<X/./.<X~.<X~.<X<X~.>X:X<X<X:X:X~.:X:X>X>X:X:X:X:X:X:X:X:X:X:X>X:X>X:X:X:X>X:X&X:X:X:X:X>X&X&X:X&X&X&X%XC.} s S S a } { =.L *X-Xw.D } e.;XT.s.{.$XD } { S D D { { S D D D D D { D S S =.S { D 6 q.b.S D 6 1 h.F.e.T a D q.a [ x.D.{.d S D S =.6 6 6 { 6 6 x N.b # : + # m X.l.b.t.Z.C.C.C.C.C.t.C.t.C.C.C.t.Z.t.t.C.t.C.j.t.e.C.t.t.e.e.e.6.t.6.j.9.9.6.9.j.6.6.6.6.6.6.6.5.5.6.7.5.5.8.5.5.5.5.",
",.8.8.,.<.8.<.8.<.8.7.>.>.7.7.7.7.j.j.7.7.7.7.7.7.7.7.7.7.7.7.7.9.7.9.9.9.7.9.9.9.t.t.9.t.9.t.t.t.t.t.t.Z.t.Z.t.Z.y.Z.y.Z.y.t.y.Y.Z.Z.Z.Z.Y.Y.Y.Y.Y.Y.Y.Y.Y.T.Y.T.T.T.R.T.T.T.T.T.T.R.T.T.R.T.R.R.T.%XR.R.T.T.&XT.&XR.T.T.&Xs.&XR.s.R.&Xs.&X&Xs.R.&X~.R.&Xs.s.&X:XR.W.W.W.W.W.:X:XW.d.:X:X:X:X:X:X:X:X:X:X:X:X<X<Xd.:X<X:X^.<X^.<X/.^.<X<X^././.<X/././././././.!.(.!./.!.).!.!.!.).).!.!.).!.).).).!.).!.).).).).).).).'.'.'.'.'.'.'.`.`.`.`.`.jXjXlXvXvXcXcXGXJXJXLXLXLXPXPXPXPXPXPXPXPXPXPXPXPXPXPXPXPXPXPXPXPXPXPXLXLXLXJXJXHXGXGXGXGXcXcXcXlXvXvXlXlXjXjXlXjXjXjXjX`.`.`.`.'.`.'.`.'.'.'.'.).'.).).).'.).).).).).)._.).!._._._././._././././.<X/././.^.<X/.~./.:X~.<X<X<X:X~.<X~./.~.:X:X<X>X>X~.:X~.:X:X>X/.:X:X>X:X:X:X:X:X:X:X>X:X:X:X>X:X:X:X:X&X:X&X&X:X~.&X:X&X=XK.R S 6 =.6 D K R *XA.D e.=X&XT.u.S.Q.K { UX=.=.D D Q.D { D D D D { D D 6 =.6 S D =.K K S { 6 6 d d _ a 6 K S 6 g E {.D.w.=.6 D =.- 6 S S 6 - 6 2 X $ 6 6 9 S P I w.S.y.C.C.u.t.Z.S.C.Z.C.C.t.Z.t.C.C.t.t.x.t.t.e.t.j.e.j.t.e.t.6.e.7.j.7.6.j.7.6.6.4.7.5.5.5.6.5.5.1.5.5.1.5.1.<.5.",
">.<.8.<.8.8.<.8.7.>.j.7.<.<.7.7.>.7.7.>.8.7.8.7.0.7.7.7.9.7.9.9.7.9.9.j.9.9.t.9.9.9.t.t.t.t.t.t.t.t.y.t.t.t.Z.t.9.y.y.y.y.y.s.y.y.y.Z.Y.Z.Y.Y.Y.Z.Y.Y.Y.T.Y.Y.Y.Y.Y.Y.Y.Y.T.R.T.T.T.R.T.T.R.T.T.T.T.R.T.T.R.R.T.R.R.T.T.Y.s.&XR.R.&XR.R.&XR.d.&XR.d.R.&Xs.:X&Xs.W.&XW.:XW.:X:XW.W.:X:Xd.:Xd.:X:Xd.:X:X:X^.:X:Xd.d.<Xd.^.:X:X:X^.~.:X^.:X~.<X^.<X^.^./.^.^./.!./././.(.!.!./.!.!.).!.!.!.).!.).!.).!.).).).).).).'.).).).'.'.'.'.`.`.`.`.`.jXjXjXlXlXvXcXcXGXGXJXJXLXLXPXPXPXPXPXPXPXPXPXPXPXPXPXPXPXPXPXPXPXPXPXPXPXPXPXPXPXLXLXJXHXHXGXGXcXGXcXvXvXvXvXlXlXjXjXjXjXjX`.`.`.jX`.'.'.'.'.`.'.'.'.'.'.).'.).).).)._.!.)._.).!._./././._.!.!./._.<X^././.<X/.<X^.<X/.<X/.<X/.~.~.<X<X~.<X~.~.<X/.:X~.~./.>X/.>X:X~.:X:X/.:X>X:X>X:X:X>X:X:X:X:X:X:X>X&X&X:X:X&X&X:X&X&X&X&X:X&X&X=X%X[ a =.S $XU 1.G.j %X%XT.%Xw.F D D { { =.S D =.{ { $XD D D D D } { =.D S a  XS S D { D 6 6 6 - ~ =.6 6 - 6 d S.{.u.G.D 6 D 6 D =.=.=.=.6 # 6 : 6 6 - # = = ; Y 6.C.C.C.C.S.y.t.C.t.Z.t.C.t.C.t.e.t.e.t.t.e.e.j.9.t.t.e.7.6.j.9.j.7.j.6.6.6.5.7.5.6.5.5.5.6.5.5.8.5.5.1.<.1.1.8.",
"<.<.<.,.<.<.,.8.8.<.<.8.7.8.<.7.j.7.>.9.7.7.7.7.7.9.7.9.9.7.9.9.9.7.7.9.9.9.7.9.9.9.9.9.9.y.y.t.t.y.9.t.y.9.Z.t.y.t.Z.y.y.y.y.y.y.y.Z.Z.Y.y.Y.Y.Y.Y.Y.Y.Y.Y.Y.y.Y.Y.Y.Y.R.T.Y.T.R.Y.R.Y.T.R.T.R.T.T.R.T.R.T.R.T.R.R.T.T.Y.R.R.R.R.R.R.W.R.&X:XR.R.R.:Xs.&Xd.R.:XR.&Xd.&Xd.&X:Xs.&X~.&X~.&Xd.&X~.:Xd.:Xd.:X:X:X<Xd.<Xd.<X:X<Xd.<X:X^.^.<X^.<X^.<X<X^.<X^.<X^././.(./.!.!.!./.!.!.!.!.!.!.!.!.).!.).!.).).).).).).).).).'.'.'.`.`.`.`.jXjXjXjXjXlXvXvXcXcXGXGXJXJXLXLXPXPXPXPXPXPXPXPXPXPXPXPXPXPXPXPXPXPXPXPXPXPXPXPXPXPXLXPXLXJXJXHXGXGXGXcXcXcXlXlXlXlXjXjXjXjXjXjX`.`.`.`.'.'.'.'.'.'.'.).'.'.'.).).).).).).!.).).)._.)._._.!._./././.!./.<X/./.<X/.^.<X^.<X<X<X/./.~./.~.~.<X<X:X<X:X<Xd.:X:X:Xd.:X<X:X<X<X:X<Xd.:X:XW.W.W.R.:X:X>X:X:X&X:X:XW.W.W.W.W.W.W.W.&X&X&X&Xs.&X&XR.&X&XS.U 1 P $X5 ' T %XT.R.T.K.L 6 S { D { S.] { K { *XF.D K S } {.{.L D } b.b.=.S D UXS 6 6 S # ) K 6 6 > Y {.{.{.u.K.V.s 6 =.{ =.=.=.=.=.S 6 6 =.6 8 s x Z / A Y 9.C.C.C.C.9.Z.t.t.t.C.t.t.t.t.j.j.t.j.t.j.t.j.t.t.t.j.7.j.7.j.7.7.j.7.j.2.2.7.<.2.2.7.2.2.7.<.7.<.<.<.<.<.<.<.",
",.,.,.,.,.,.<.,.<.8.8.5.8.8.<.8.8.8.7.<.7.8.7.7.>.7.7.7.<.0.7.7.9.7.9.0.7.9.7.9.9.9.9.9.9.9.t.9.9.t.9.y.9.y.9.Z.t.y.9.y.y.y.y.y.Z.Z.y.y.y.Y.y.Y.y.Y.Y.Y.Y.Y.Y.Y.Y.Y.Y.Y.Y.T.T.Y.Y.T.Y.R.Y.T.T.T.T.R.T.R.T.R.T.R.R.E.R.Y.T.T.R.R.R.R.R.R.R.R.R.R.R.R.d.&XR.d.s.&X:Xs.&Xs.&X~.d.:Xs.:Xs.:X~.:X&X~.:X:X:X^.:X:Xd.:X^.d.:Xd.:X^.^.^.^.:X:X^.:X^.:X^.^./.^././.^./././.(.(./././.!./.!.!.!.!.).!.!.).!.).).!.!.).'.).'.'.'.'.'.`.`.`.`.jXjXjXjXlXlXlXcXcXGXGXGXHXJXLXLXPXPXPXPXPXPXPXPXPXPXPXPXPXPXPXPXPXPXPXPXPXPXPXPXPXPXPXPXLXLXJXJXGXGXGXcXcXvXvXlXlXjXjXjXjXjX`.`.`.`.`.`.'.'.'.'.'.'.).).'.).).).'.).).)._.)._.!.).!._.!./.!././.!._././././.^./.^.<X<X^.<Xd.:X^.~.<X<X<X<X~.:Xd.<Xd.<Xd.<X:XwX^.<X:X^.:X:X:X:Xd.>X:X>XwXW.W.R.:X:X:X:X:X:X&X&XwXW.wXW.R.R.wXR.~.s.&Xs.&XR.R.R.R.&X&X;Xe.a S K 6 Y D.R.T.T.%Xe.a S } r.%XD.K.} D S {.*X{ D S e.{.%Xw.a d b.] =.D D { =.=.=.6 6 D =.6 6 T F.D.x.4.w.V.} S =.6 S S 6 6 6 6 6 # 6 6 6 ~ b.A.C.C.S.C.C.t.C.t.Z.9.C.Z.M.t.t.t.t.t.t.t.t.t.t.j.9.9.j.9.j.7.j.j.9.j.7.j.7.2.7.7.7.7.7.7.7.7.<.7.<.<.2.<.<.<.h.<.<.2.<.",
"R ,.,.<.,.,.<.,.,.<.8.,.<.8.8.8.<.7.8.8.>.j.7.<.j.7.8.7.7.7.<.7.7.7.9.7.7.9.9.9.7.0.9.9.9.9.9.9.9.9.t.y.y.t.t.t.y.Z.y.y.y.y.y.y.y.y.y.Z.y.y.Y.y.Y.y.y.Y.Y.Y.Y.Y.Y.Y.Y.Y.Y.T.Y.Y.T.T.Y.R.R.Y.T.R.R.Y.T.R.T.R.R.R.T.R.T.Y.Y.Y.R.R.R.R.R.R.&XW.R.W.&XR.R.R.s.&X&XR.d.&Xd.:XR.&X:Xd.:X:Xd.~.s.:X~.:X:Xd.:Xd.^.:X^.:X^.:X^.<X:X^.^.^.<X:X^.~.:X^.^./.<X^./.^.^././.^./.!.!./.!.!.!.!.!.!._.).!.).).!.!.).).).).).).).'.'.'.'.`.`.'.'.jXjXjXjXjXlXlXvXcXcXcXGXGXHXJXJXLXLXPXPXPXPXPXPXPXPXPXPXPXPXPXPXPXPXPXPXPXPXPXPXPXPXPXPXLXLXJXHXGXGXcXcXvXvXlXjXlXjXjXjXjX`.'.'.`.`.'.'.`.'.).'.'.).).).).).).).).).).!.!.)./.).!././.!./././././././.^.<X/.^.<X^.<X<X^.<X:X<X>X:X:X:X^.:X~.~.:X:X:X:X:X:X<XW.W.:X:X:X:X:X:X:XW.:X:X>Xd.W.W.R.wX:X:X:XR.:XW.:XW.W.W.wXR.W.R.R.R.R.&Xs.&X&Xs.R.&XR.&XR.T.=XK.n S =.s S.&XT.D.%XD.{ D } {.%X%X%Xw.S D r.-X' D ` *Xs.T.{.[ f V.{ { D { D D S =.=.6 6 6 6 ] K.F.U a 6 D D 6 6 6 6 S =.=.=.6 6 6 6 6 - 6 f w.Z.C.C.t.C.C.t.C.C.t.C.t.t.t.j.t.M.t.j.t.t.t.j.t.j.t.9.9.j.j.9.7.7.7.7.7.j.7.j.7.<.<.j.2.7.2.2.<.7.2.<.2.2.<.j./ <.1.<.<.",
"R E ,.R R ,./ ,.,.,.,.<.8.<.8.<.8.<.<.7.j.>.8.7.7.>.7.7.7.7.7.0.7.7.7.9.9.7.9.7.9.9.9.9.9.9.y.9.9.y.9.9.9.9.y.y.t.t.9.Z.t.y.y.y.y.y.y.y.y.Y.y.Y.y.Y.y.Y.Y.Y.y.Y.Y.Y.Y.Y.Y.Y.T.Y.Y.Y.T.Y.Y.R.R.Y.Y.R.T.T.Y.R.T.T.T.R.T.Y.Y.Y.R.R.R.R.R.R.R.R.R.&Xs.R.s.&X&Xs.d.R.&Xs.&Xs.~.&Xs.&X&X~.&Xd.:X~.&Xd.:Xd.:X^.:Xd.:X^.:X:X^.d.:X^.<Xd.^.~./.<X^.<X/.^.^.^./././.^.(./././.!.(.!./.!./.!.!.!.!.!.!.!.).).!.).).).).).).).'.'.'.'.`.`.'.`.`.jXjXlXlXlXvXcXcXcXcXGXHXJXJXLXLXPXPXPXPXPXPXPXPXPXPXPXPXPXPXPXPXPXPXPXPXPXPXPXPXPXLXLXJXHXGXGXcXvXvXlXlXjXjX`.jX`.`.`.`.'.'.'.`.'.).'.'.).).).).).).).).!.).!.!._.!.!.!.!.!./.!.(./.!./.^./.^././.^./.^.^.<X^.:X^.:X:X^.d.<X^.:X:X~.~.:X:X:X<Xd.d.:Xd.d.W.wX:X:X:X:X:Xd.:X:Xd.:XW.d.wXW.R.R.:X&X:XW.&X:X:XW.W.W.W.W.R.W.R.=X&XR.&XR.&XR.&XR.&XR.&XR.s.&XT._ 6 1 q.%X%Xq.t.*XC.D r.{.{.S.*X%XK.{ D XXr.D K.*XT.%Xs.{.f { K D S { 6 S 6 - 6 K 6 6 ) k.' F 6 # 6 D K V.6 6 =.6 =.=.S =.6 S 6 =.) k.x.e.j.C.t.t.t.C.t.t.t.C.t.t.t.t.t.t.t.t.t.j.j.j.9.j.9.7.j.j.7.7.j.7.j.7.j.j.7.7.<.7.<.7.7.<.2.<.2.7.2.<.2./ <.<.<.<.` <.1./ ",
",.E ,.,.R ,.R ,.,.<.<.,.<.<.8.8.8.<.8.<.8.7.7.8.>.7.7.7.8.7.7.7.7.9.7.7.7.7.7.9.9.9.9.9.9.9.9.9.9.9.9.t.t.t.t.t.t.y.t.y.t.y.y.y.y.y.y.y.Z.y.y.y.y.Y.Y.y.Y.Y.Y.Y.Y.Y.Y.Y.Y.Y.Y.Y.Y.Y.R.Y.R.Y.R.Y.T.R.T.R.Y.R.T.R.R.R.Y.Y.Y.Y.R.R.R.R.R.R.R.R.R.R.T.R.R.R.R.R.&Xd.d.R.~.&X~.R.~.d.:Xd.:X~.~.&X~.~.:X:X:X:Xd.<X>Xd.:X^.^.:X:X^.^.<X/.:X^./.^.^.^././.^./.^.^./.(././.(.!.!./.!.!.!.!.!.!.!.!.).).!.).).!.).).).).).'.).).).'.'.'.'.`.`.`.`.jXjXjXjXlXlXvXcXcXGXHXHXJXLXLXLXPXPXPXPXPXPXPXPXPXPXPXPXPXPXPXPXPXPXPXPXPXLXLXJXHXGXcXcXvXlXlXjX`.`.`.`.`.`.`.'.).).'.).'.).).).).).).).).).!.).).!.!.!.!.!.!./.!./.(.(./././.(.^.^.^./.<X^.~./.^.:X^.:X:X:X^.:XW.W.wX:X:X:X~.:X:X:X:X~.d.:X:Xd.W.W.W.W.d.:X:X:X:XW.:X:X:X:X:XW.R.R.R.wX:X:XW.:XW.:XW.&XE.wXW.W.wXR.R.R.R.R.&XR.&XR.&X&XT.%X&X&XR.T.R.T.e.s s {.{.} d S.w.D Q.Q.{ { 3.D.&XE.[ { V.[ *XT.&XT.T.%Xv.D D D D S =.6 S 6 6 D =.6 S 6 6 S 6 6 =.=.=.=.=.6 =.6 6 6 6 6 6 6 6 : 6 3.6.9.C.t.e.t.e.t.e.t.e.e.t.e.t.t.j.9.9.t.9.7.9.j.7.9.j.7.7.j.7.j.j.j.7.7.7.<.7.<.7.<.7.<.<.<.<.2.2.<.2.2.2.<.` ,./ / <./ / / ",
"R ,.R R R ,.,.,.,.,.,.,.8.<.<.8.<.<.8.8.<.<.8.8.<.7.<.7.7.7.7.7.7.>.7.7.7.7.9.7.7.9.7.7.0.9.7.9.9.9.9.9.t.9.9.y.9.t.9.9.t.y.t.t.t.y.y.y.y.y.y.y.y.y.y.y.y.y.y.Y.Y.y.Y.Y.Y.Y.Y.Y.Y.Y.Y.Y.Y.Y.Y.s.Y.T.R.Y.T.T.T.R.Y.Y.R.Y.Y.Y.R.R.R.R.R.T.R.R.R.Y.s.Z.R.R.&XR.s.&Xs.:XR.d.R.~.&X~.d.&Xd.&X&X~.&X~.d.:Xd.:Xd.d.d.>Xd.:X^.:X:X^.^.d.~.^.^.^.<X^.<X^.^./.^././.(./.^.(.(./.!.!.(.!.!.!.!.!.!.!.!.).!.).!.).!.!.).).).).).).).'.).).).'.'.'.'.`.`.`.jXjXjXlXlXvXvXcXcXGXGXHXJXJXLXLXPXPXPXPXPXPXPXPXPXPXPXPXPXPXPXPXLXLXJXGXGXZXlXlXlXjXjX`.`.'.'.`.`.`.'.'.'.).).).).).).).).!.).!.).!.!.!.!.!.!.!.!./.!./.!./.^./././.^.^.^./.^./.^.~.~.~.~.:X^.<Xd.^.:X:X:XW.W.d.d.:X:X:Xd.d.:XW.:Xd.:X:X:XW.W.W.W.:Xd.:Xd.:X:XW.:X:XW.W.:XR.R.R.R.R.&XR.R.W.=XR.&XW.E.R.R.R.R.R.R.&XR.%XR.R.R.T.&X%X%Xe.S.*X&XT.s.T.Z.a T *XD 6 { r.} { UX} K 4.E.T.E.K.I { { *XT.T.T.T.E.{.} { } D =.D { ! ] 6 6 { D 6 =.D D S S 6 # 6 =.=.- 6 6 6 6 - # - 3 = < < f x.e.C.6.t.e.t.e.t.t.e.9.j.9.j.9.t.j.j.7.j.j.j.9.j.j.j.7.7.7.7.7.8.<.<.j.j.<.2.7.<.2.2.2.2.<.<.2.2.<.2./ <.2./ / <.<./ / / / ",
"R R R ,.,.,.<./ ,.<.<.<.<.8.<.8.7.<.>.7.<.>.8.7.7.8.7.7.>.7.<.8.7.7.7.7.7.7.7.7.9.7.7.7.7.9.9.0.9.9.9.9.9.t.9.9.y.9.9.y.9.y.t.y.t.y.t.y.y.y.y.y.y.y.y.Y.y.y.y.Y.y.Y.y.Y.y.Y.Y.Y.Y.Y.Y.Y.Y.Y.Y.Y.Y.Y.R.R.R.R.T.Y.R.T.Y.y.Z.Y.R.R.R.R.R.T.R.R.R.Y.t.Z.Y.R.d.R.R.d.R.d.s.&XR.:Xs.d.:Xs.&X~.~.:Xd.~.:Xd.<Xd.:X:XW.W.:X:X:X:Xd.^.:X<X^.:X^.:X<X^.^.^.^./.^.^.^.^././.(.(./.(././.!.(.!.!.!.!.!.!.!.!.!.).!.).!.).).).).).).).).).).).'.'.'.'.'.'.`.`.`.`.`.jXjXjXlXlXvXZXGXHXJXJXLXPXPXPXPXPXPXPXPXPXPXPXPXPXPXPXPXLXJXHXDXcXlXlXlXjXjX`.`.`.'.'.'.'.'.).'.'.).!.).!.).!.!.).).!.).!.!.!.!.!.!.(.(.(.(./.(././.(.^././././.^./.^.<X^.~././.~.:X^.:X<X^.:Xd.<XW.W.d.d.:X~.:Xd.W.:XW.:X:X:Xd.d.d.W.d.R.W.W.d.:X&XW.W.:XW.W.W.W.R.0XR.R.R.R.&XR.R.R.R.R.E.R.E.R.R.T.R.T.T.R.R.R.R.E.C.E L r.[ D { e.D.R.s.Z.5.1 V.K 6 } { { { D } F.E.E.T.R.E.j.D { *XT.T.D.Y.D.K.b.D UXD S S P v.v.6 S F.z.6 =.D 6 D 6 # 6 6 =.6 # 6 6 6 > d ! M k.Z Z ` 1.e.t.9.t.e.t.e.e.t.j.e.t.9.e.j.9.j.9.j.7.j.7.j.j.7.7.7.7.7.7.<.j.<.j.<.<.<.j.2.<.2.<.2.2./ 2.<./ 2.<.<./ / / ' / / / E / / R ",
"A ,.,.E A ,.,.,./ ,.<.>.<.<.>.<.<.>.7.<.<.7.<.7.8.7.>.7.7.7.7.7.>.7.7.7.7.>.7.0.9.>.9.7.9.7.7.9.9.9.9.9.9.9.9.t.9.t.y.9.t.9.t.t.y.t.t.t.y.t.y.y.y.y.y.y.y.Y.y.y.y.y.Y.y.Y.Y.Y.Y.Y.Y.Y.Y.Y.Y.Y.s.R.T.Y.Y.Y.Y.Y.R.R.Y.Z.y.y.Y.R.Y.Y.R.Y.R.R.R.R.y.y.9.s.Y.s.T.R.R.R.&X&Xs.&Xd.R.&Xd.&XR.~.R.s.&Xd.d.d.d.:Xd.d.W.W.d.^.d.^.^.d.^.d.d.:X~.^.d.^.d.:X:X^.:X~.^./.^.^./.(.(.^.(.(.(.(.].!.!.!.!.!.!.!.!.!.!.!.!.!.!.!.).).!.).).).).).'.'.'.'.'.'.'.'.`.`.`.`.jXlXlXvXvXZXGXHXJXLXLXPXPXPXPXPXPXPXPXPXPXPXPXPXPXPXPXLXJXHXGXZXcXlXlXlXjXjX`.`.'.'.'.).).).'.).).!.).).).).!.!.!.!.!.!.!.!.!.!./.!.!.!.(.!.(.(././.^.^.^.^./.^.^.^.~.^.~.~.~.~.^.^.d.d.:Xd.d.d.d.d.d.d.W.W.W.W.W.:XW.W.R.W.W.W.R.R.R.R.R.W.R.W.R.R.R.R.R.R.R.E.R.R.T.T.R.T.E.R.R.E.R.E.R.R.E.R.R.T.T.R.T.T.T.T.T.E.D.r.S S S S 6 6 Y D.D.Z.D.d 6 D 6 S { } } t.{.%XT.T.T.T.T.E.} D K.T.D.Z.Z.t.S.r.UXUXS S 1 ( {.h.; ' G.M.S s 5 =.=.6 % 6 6 6 6 6 # $ 1 P c.S.A.C.C.x.C.C.t.e.e.e.e.e.9.e.t.j.9.j.9.j.7.j.9.j.7.j.7.j.7.7.2.7.<.2.2.2.j.<.j.<.j.j.<.<.<.2.2.2.2.<.2.2.2.2./ / ( / / / / ( / / ( ( / ( ",
"R R E ,.R ,.R ,.,.,.,.R ,.<.,.<.8.<.7.8.<.8.<.8.7.<.<.7.7.7.7.<.7.7.7.7.7.7.7.7.7.7.9.7.9.0.7.9.9.7.7.9.9.9.9.9.9.9.9.9.y.y.t.9.y.t.y.t.y.y.y.y.y.y.y.y.y.y.y.Z.Y.y.Y.Y.Y.Y.Y.Y.Y.Y.Y.Y.Y.Y.Y.Y.Y.Y.Y.R.Y.Y.R.Y.Y.Y.y.y.9.y.Y.R.Y.R.Y.R.Y.R.R.Y.0.7.9.9.y.Y.Y.Y.R.R.R.W.R.d.R.d.s.&X:XW.R.R.&Xd.d.d.d.W.W.W.d.W.W.W.W.W.d.d.d.d.^.^.:Xd.:X:Xd.^.:Xd.^.^.^.:X^.^.^.^.^.^.^.^.(.^.!.(.(.(.!.(.!.!.!.!.!.!.!.!.!.!.!.).).!.).!.).).).).).'.'.'.'.`.`.`.jXjXjXlXlXvXcXGXHXJXLXLXPXPXPXPXPXPXPXPXPXPXPXPXPXPXPXPXPXPXLXJXGXGXGXvXlXlXjXjX`.`.`.`.'.'.).).).).).).!.).!.!.!.!.!.!.!.!.!.!.!.!.(.!.(././.(.(./.(.^.^./.~.^.^.^.~.~.^.:X~.~.~.d.~.~.W.W.R.R.R.R.R.R.R.R.R.W.s.R.R.R.W.R.R.R.R.R.R.R.R.R.R.R.R.R.R.R.R.T.R.R.T.R.T.R.Y.T.R.E.R.T.R.T.T.R.T.T.T.T.T.R.T.T.T.R.T.T.T.T.6.K V z a D D 6 6 C Z.Z.T.4.6 S D S } w.E.T.E.Y.T.T.Y.T.T.%Xr.D A.D.Z.C.t.6.x.r.Q.S S S { k.[.{ s A.S.l.6 S D =.6 6 6 6 # $ = 8 s a L v.t.t.t.t.t.t.t.e.9.e.e.t.e.e.j.t.9.9.j.j.7.j.j.7.j.7.7.j.j.7.7.7.2.j.j.7.<.j.<.<.<.j.2.2.<.2.<.2.<.2.2.( 2.2.<./ / / / ( ( ( / / A <.A ( A ( ",
"A A R R / ,.A R ,./ ,.<.<.,.<.,.,.<.<.>.<.<.<.7.>.j.>.7.<.>.7.7.7.<.7.7.7.7.7.7.>.7.7.7.7.7.7.7.7.9.9.9.9.9.9.9.t.9.9.y.9.9.9.y.9.y.t.t.y.9.t.y.y.y.y.y.y.y.y.y.y.Y.y.y.y.Y.y.Y.Y.y.Y.Y.Y.Y.Y.Y.Y.R.Y.Y.R.R.Y.Y.Y.T.Y.y.y.Y.Y.R.R.T.R.R.R.R.R.Y.9.>.,.,.>.>.9.y.Y.R.R.R.R.R.W.R.s.d.s.:XR.~.d.d.R.d.d.W.W.W.W.d.W.W.W.W.d.d.d.d.d.d.d.^.^.d.^.d.d.^.:Xd.d.^.^.d.~.^.~.^.^.^.^.^.(.(.^.(.(./.!.(.(.!.!.(.!.!.!.!.!.!.!.!.!.).!.!.).'.).'.'.'.`.`.`.`.jXjXlXlXvXcXZXHXHXJXLXLXPXPXPXPXPXPXPXPXPXPXPXPXPXPXPXPXPXPXLXJXGXGXcXcXlXlXjXjXjX`.`.`.'.'.).).).).).!.).).!.).!.).).!.!.!.!.!.!.(.!.(.!./.(.(.(.(.^.^.~.~.^.~.~.:X~.~.d.~.~.:X~.W.R.W.d.d.R.s.R.R.R.R.R.R.R.R.R.R.R.s.R.R.R.R.R.R.Y.R.Y.R.R.T.R.Y.Y.R.T.T.Y.T.T.T.T.T.R.R.T.T.T.T.Y.T.T.T.T.T.T.T.T.Y.R.Y.T.T.T.T.T.T.C.6.j.$.X.) { } D 6 L S.Z.A.S =.S s ` K.T.Z.Y.T.Y.Y.T.T.T.Y.K.K r.{.Z.C.C.e.A.{ { S D S } D K S W K.k.s S S D 6 K : = S ) 6 W b.x.w.w.e.t.e.e.t.e.C.j.t.e.t.e.j.t.t.j.j.j.j.j.9.7.7.7.7.j.<.j.7.7.7.2.j.<.7.<.<.2.2.<.j.<.<.2.2.2.2.2.2./ 2./ <.( ( ( / / ( ( ( ( ( E ( X.A X.A Q ( ",
"/ A E ( E ,./ ,.E / ,.<.,.,./ ,.,.,.<.<.7.<.8.8.7.<.7.>.<.7.>.7.>.7.>.7.>.7.>.7.7.7.7.7.9.7.0.7.7.9.9.7.7.9.7.9.9.9.9.9.t.9.y.9.9.9.y.9.t.9.t.y.t.y.y.y.y.y.y.y.Y.y.y.y.Y.y.y.Y.y.Y.Y.Y.Y.Y.Y.Y.Y.R.R.Y.Y.Y.Y.s.Y.Y.Y.9.9.Y.R.Y.Y.R.Y.R.Y.R.R.Y.9.,.j t t g A 8.9.Y.R.R.W.R.R.d.R.R.R.R.d.~.R.d.d.d.d.d.d.W.d.d.W.W.d.W.d.d.d.d.^.d.d.:Xd.:X:Xd.d.:Xd.^.d.^.d.^.~.~.^.~.^.^.(.(.^.^.(.(.(.(.(.(.(.!.(.!.!.!.!.!.!.).).).).!.).).).).).'.'.'.'.'.`.jXjXjXlXlXvXcXZXGXHXJXLXLXPXPXPXPXPXPXPXPXPXPXPXPXPXPXPXPXPXLXJXJXGXGXcXcXlXlXjXjX`.`.`.'.'.'.).).).).).).!.!.).).!.!.).!.!.!.!.!.(.!.!.!.(.(.(.(.^./.^.~.^.~.^.~.~.d.~.~.d.~.~.d.~.W.:Xd.R.d.R.s.R.R.R.R.R.R.R.W.R.R.R.R.R.R.R.R.Y.R.R.R.R.R.T.R.T.R.Y.R.R.T.T.T.T.Y.T.R.Y.T.R.T.R.R.T.T.T.T.T.T.T.T.T.Y.T.T.T.T.Y.T.E.Y.T.E.E.Z.2.V 6 a S 6 a ` S.S.P : - a e.T.Z.Y.Y.Y.Y.Y.Y.Y.Z.E.D.r.{ {.S.S.t.t.r.UXD S S a D D D =.{ { s } J.k.=.S { 6 ) *.) l.l.z.e.e.e.e.e.e.t.e.j.t.t.t.e.e.9.j.e.j.j.j.j.7.j.7.j.7.7.j.7.j.2.7.2.2.j.2.2.<.2.2.2.2.2.2./ h./ 2./ 2./ 2./ / / / ( ( / ( ( ( ( / ( >.( ( A ( ( A ( A ",
"A ,.E / / A E ,.,./ ,.A / / ,.,.<.,.,.,.<.<.<.8.7.<.<.<.7.>.7.7.7.7.7.<.7.7.7.7.7.7.>.7.7.>.7.7.9.7.9.7.9.7.9.9.9.9.9.t.9.9.y.9.y.9.9.y.y.y.y.t.y.9.y.y.y.y.y.y.y.y.y.Y.y.Y.y.Y.Y.Y.y.Y.Y.Y.Y.Y.Y.Y.Y.Y.Y.Y.Y.Y.Y.Y.Y.9.9.y.Y.R.R.Y.R.Y.Y.R.R.y.9.>.l t ; < ; u >.y.Y.W.R.R.R.R.R.~.R.~.R.R.R.d.d.R.R.d.W.d.W.W.W.d.d.d.d.d.d.d.d.:Xd.d.d.^.d.d.^.d.^.d.:Xd.^.^.^.d.^.~.^.^.d.^.(.^.^.^.^.(.(./.(.(.!.(.!.!.!.!.!.!.!.!.!.).!.).).).).).'.'.'.'.`.`.jXjXlXlXvXvXcXZXGXHXJXLXLXLXPXPXPXPXPXPXPXPXPXPXPXPXPXPXLXJXHXGXGXcXvXvXjXjXjX`.`.`.'.'.'.'.).).).).).!.!.).!.!.!.!.].!.!.!.!.(.!.!.(.(.(.(./.(.^.^.^.^.~.~.~.~.~.~.d.~.~.d.d.d.W.d.d.d.d.R.R.s.R.R.d.R.d.R.R.R.R.R.s.R.R.R.R.R.R.R.R.Y.R.R.R.R.T.R.R.T.T.R.Y.R.T.R.T.T.T.T.T.T.T.T.T.R.T.T.T.T.T.T.T.T.T.T.T.T.T.Y.Z.T.T.Z.Z.9.>.2.8.w.w.5.I a 1.K.r.- 6 f C.Z.Z.Y.Y.Z.Z.Z.Z.Z.D.e.S.c.D $XH.C.S.S.4.{ D D 6 { Q.{ D D 6 6 q.[.G.M.S { =.S *.6 S D 1 s e.e.e.x.t.e.e.e.t.e.j.j.7.e.j.9.7.7.9.j.7.j.7.2.j.7.7.2.j.2.j.2.2.7.j.<.j.2.2.2.2.2.<.2.2./ 2.<./ 2./ ( 2./ ( <.( ( / / ( >.( ( ( Q A ( Q ( ( ( Q Q ",
"( E / A / ,.A / / <.<.A ,.>.R ,.<.A <.<.<.>.<.<.>.<.7.>.<.7.>.<.7.>.>.7.<.7.7.7.7.7.7.>.9.7.7.7.7.7.9.>.7.9.9.9.9.9.9.9.9.9.t.9.t.t.t.t.t.t.y.9.y.y.y.9.y.y.y.y.y.y.y.y.y.Y.y.y.y.y.y.Y.Y.Y.Y.Y.Y.Y.Y.Y.Y.Y.Y.Y.Y.Y.9.9.9.y.Y.Y.Y.Y.Y.Y.Y.R.Y.s.9.8.,.k g i ; < l 8.y.R.s.R.R.R.R.R.R.s.R.R.R.d.d.d.R.d.d.d.d.R.W.d.W.d.d.d.R.d.d.d.d.d.d.d.d.d.d.d.d.d.d.:Xd.d.~.^.d.^.^.^.d.(.^.^.^.^.(.^.^.(.(.^./.!.(.!.(.!.!.!.].!.!.!.!.!.).).).).).).).).`.`.'.'.`.`.jXjXlXlXcXcXZXHXHXJXLXPXPXPXPXPXPXPXPXPXPXPXLXJXGXcXcXvXlXkX`.`.'.'.'.'.).).'.).).).).!.!.).!.!.!.!.!.!.!.!.!.!.].!.(.(.(.(.^.(.(.(.^.(.^.(.^.^.~.~.^.~.~.^.~.d.~.W.d.d.d.d.d.d.R.d.R.R.R.s.R.R.R.R.R.R.s.R.R.R.R.R.R.R.R.Y.R.T.R.R.R.R.R.Y.R.T.R.Y.T.T.R.T.T.T.T.T.T.T.T.T.T.T.R.T.T.T.T.T.T.T.T.Y.T.Z.T.Z.Y.T.T.T.OXY.Z.Z.Z.U.Z.Z.v.s 6 C V.D 6 S C.Z.y.Z.C.9.D.7.C.D.l.K { #XD K } 8.{.{.r.{ D D 6 { l. XD S =.q.S.K.S.K S =.6 6 6 6 6 # 6 ' e.w.6.e.7.C.7.e.t.j.j.j.9.j.6.7.j.j.j.5.6.6.j.5.j.<.2.7.2.j.2.2.2.<.2.2.2.2.2.2.<.2.2./ ( 2.( 2.2.( ( 2.( ( ( ( ( ( ( ( ( Q ( Q >.( Q ( ( Q Q Q Q Q ",
"E E ( A A / / / / A <.,./ / / <.<.<.,.,.<.<.<.<.<.<.7.<.<.7.7.<.7.<.7.7.7.7.<.7.7.>.7.7.7.7.7.7.7.7.9.9.9.7.7.7.7.9.9.9.9.9.9.t.9.9.9.t.9.y.9.y.9.t.t.y.t.y.y.t.y.y.y.y.y.y.y.y.y.Y.Y.y.y.y.Y.Y.Y.Y.Y.Y.Y.Y.Y.Y.Y.Y.y.9.9.y.Y.Y.s.Y.Z.Y.Y.T.Y.y.9.0.9.7.>.>.A k k 7.y.Y.R.R.R.R.R.R.R.R.R.R.R.R.R.R.R.R.R.R.R.d.W.W.W.W.R.d.R.d.d.d.d.d.d.d.d.d.d.d.d.d.d.d.d.d.d.d.d.d.d.^.^.d.d.d.^.^.^.^.^.^.^.^.(.(.(.(.(.!.!.!.!.!.!.!.!.!.!.!.).!.!.!.).).'.'.).).'.`.'.'.jXjXjXlXlXcXcXGXGXHXPXPXPXPXPXPXPXPXPXLXGXvXlXlXjXjX`.`.'.'.'.'.).).).!.'.).!.).).!.!.!.!.!.!.!.!.!.!.!.!.!.!.!.(.(.(.(.(.(.^.(.~.^.~.^.~.~.~.~.d.~.d.d.W.d.d.d.d.d.W.W.R.d.d.R.R.R.R.R.R.R.R.s.s.R.R.R.R.R.R.R.R.R.R.R.R.R.Y.R.T.Y.R.R.Y.R.T.R.Y.T.Y.T.Y.Y.T.T.T.T.Y.T.T.Y.T.Y.T.T.Y.T.T.Z.T.T.T.T.T.E.T.Z.D.Z.Z.Z.Z.Z.Z.Z.Z.2.S { S 1 s D 6 f A.y.Z.C.v.} { { r.r.D { { { D D D }.D.e.{ D S r.v.} 6 r.$XD K [.S.x.D 6 =.=.6 6 6 6 6 6 F l.e.e.6.x.x.7.t.e.e.e.j.9.7.j.j.j.7.j.j.6.j.j.6.j.2.j.7.2.2.2.2.j.2.2.2.2.2.2.2./ / 2.2./ 2.2.( ( / ( ( ( ( ( ( ( ( ( ( ( ( ( Q ( Q Q Q A Q Q Q Z Q Z ",
"( A ( A ( A ( <.A / / / A ,.R ,.<.<.A <.,.<.>.<.<.<.<.<.>.<.<.<.<.7.>.<.>.7.<.7.<.7.>.<.7.7.>.7.7.7.7.7.9.7.7.9.7.9.7.9.9.9.9.9.9.9.9.9.t.y.9.t.t.9.9.y.y.t.t.y.0.y.y.t.y.y.y.y.y.y.y.y.y.Y.y.Y.y.Y.y.Y.y.y.y.Y.Y.Y.y.9.0.y.Y.Y.Y.Y.Y.Y.Y.R.T.y.y.y.y.s.y.9.9.7.9.9.y.Y.Y.s.R.R.R.R.R.R.R.R.R.R.R.s.R.R.R.R.R.R.R.d.R.W.R.R.R.d.W.d.d.R.R.d.d.d.d.d.d.d.d.d.d.d.d.d.d.f.d.d.d.^.d.^.d.^.^.d.^.^.^.^.^.(.(.(.(.(.(.!.!.].!.(.!.!.].!.).!.!.).!.!.'.).).).'.'.).'.'.`.`.`.`.jXlXlXlXZXHXJXLXPXPXPXLXLXJXGXcXvXkXjXjX`.`.'.'.).).).).).!.).!.!.!.!.!.!.!.!.!.!.!.].(.!.(.!.!.(.].!.^.(.(.^.^.^.^.d.d.(.d.~.~.d.~.d.d.d.d.d.d.d.d.d.R.d.R.d.d.W.R.R.R.s.R.s.R.s.R.R.R.R.R.R.R.s.R.R.R.Y.R.R.R.Y.R.Y.Y.R.R.Y.R.Y.T.Y.T.T.Y.T.T.T.T.Y.T.T.T.Y.T.Y.Y.T.T.Z.T.T.Z.T.Z.E.Z.E.T.Z.Z.E.Z.Z.Z.Z.Z.Z.Z.Z.t.( K ) d 1.T 1 6 D C.y.Z.x.q.D D UX{ { { { D D { =.S F.}.Q.{ D g w.D.{.{ S Q.K F S.{.E S 6 K =.=.=.6 6 =.6 - f v.e.t.x.6.C.j.9.e.e.7.j.j.9.j.7.6.6.7.j.j.7.5.2.5.h.2.j.2.j.2.2.2.2.2.2.<.2.2.2./ X./ / 2.( ( ( / ( ( ( ( Q ( ( Q ( ( Q Q Q Q Q Q Q Q Q Q M Z Q Q Z ",
"Z ( A / ( A A A / A A <./ / <.A A <.<.<.A <.<.<.<.<.>.<.<.7.<.<.<.<.7.<.<.<.7.>.7.<.7.7.<.7.7.7.>.9.<.7.7.7.7.7.7.7.9.7.7.9.9.9.9.9.9.9.9.9.9.t.9.y.9.9.t.t.9.t.y.t.9.y.9.y.y.y.y.y.y.y.y.y.y.y.y.y.y.y.y.y.Y.y.y.Y.y.9.0.y.Y.Y.Y.Y.Y.Y.Y.Y.Y.y.9.Z.Y.Y.R.Y.Y.Y.y.Y.Y.R.R.Y.R.R.Y.R.R.R.R.R.R.R.R.R.R.R.R.R.R.R.R.R.R.R.s.R.R.s.W.R.R.d.R.d.R.R.d.d.d.d.d.d.d.d.d.d.d.d.d.d.d.f.d.d.d.^.f.^.d.^.f.^.^.f.(.(.(.(.(.!.].!.(.!.(.!.!.!.!.!.!.!.!.).).).).).'.'.).'.'.`.`.`.`.jXjXbXlXcXcXcXZXGXGXKXGXGXcXvXlXlXjXjX`.`.`.'.'.'.'.).).).).).).).!.).!.!.!.!.!.!.!.!.!.(.!.(.].!.!.].(.(.(.(.^.^.^.d.d.^.d.^.~.^.d.~.:X~.d.d.d.W.d.d.d.R.d.R.R.R.R.R.R.R.R.R.R.R.R.R.R.R.R.R.Y.R.R.Y.R.R.Y.Y.R.R.R.Y.R.Y.R.T.T.R.Y.R.T.Y.T.T.T.Y.Y.Y.T.T.T.Y.T.T.T.Y.Y.E.Z.Z.E.Z.T.Z.T.Z.Y.Z.D.Z.Y.D.Z.Z.Z.Z.Z.Z.Z.7.4.R T 5.4.' - 1 x.Z.Z.4.K { { Q.Q.Q.D S D { { { K ] }.UXD D 5.}.S.x.K D =.{ S 4.4.6 6 D D =.=.=.6 6 6 # S ] v.e.e.e.9.j.6.e.j.7.j.7.j.j.j.5.j.j.j.5.2.2.6.h.h.<.2.2.2.2.2.2.2.2./ 2.( 2.( 2./ ( / / ( ( ( ( ( ( ( ( @.( ( Q Q Q Q Q Q Q Q Z Q Q Q Z Q Z Q Q Z Q ",
"A ( ( Z E ( A / A ( ( ( >.( >.( ( / ( ( <./ <.<./ <.>.<.<.<.<.>.<.<.<.>.<.7.<.<.<.7.<.7.7.7.<.7.7.7.7.7.7.7.7.7.7.7.7.7.7.7.7.9.7.9.9.9.7.9.9.j.t.t.t.t.t.t.t.t.t.t.t.t.t.t.t.y.y.t.t.y.y.y.y.y.y.y.y.y.y.y.y.y.Z.Z.y.9.0.9.Y.Y.Y.Z.Z.Y.Y.Y.Y.y.y.y.Y.Y.Y.R.Y.R.R.Y.Y.R.R.R.R.T.R.Y.R.Y.R.R.R.Y.R.Y.Y.R.s.R.R.R.R.R.R.s.R.R.R.R.d.R.R.d.d.s.s.d.d.d.d.d.d.d.d.d.d.d.d.d.:Xd.d.d.^.d.d.^.d.(.^.d.^.^.^.f.^.(.(.(.(.!.(.(.!.!.!.].!.!.!.!.!.!.!.!.!.).).).).'.).'.'.`.'.`.`.`.jXjXjXlXlXlXvXvXvXvXvXvXlXlXlXjXjX`.'.'.'.'.'.'.).'.).).!.).).!.!.!.!.!.!.!.!.!.].!.(.!.(.(.!.(.(.(.(.(.(.(.^.f.^.^.^.^.^.d.^.d.^.:Xd.:Xd.d.d.d.d.d.d.R.d.R.d.R.R.R.R.R.R.R.R.R.s.R.Y.R.s.Y.R.s.Y.Y.R.Y.Y.R.Y.R.Y.R.Y.T.T.Y.T.Y.T.T.T.T.Y.T.T.T.T.Y.Y.T.Y.T.Z.T.T.Z.T.Z.T.Z.T.Z.E.Z.E.Z.T.Z.OXY.OXY.Z.Z.Z.Z.Z.Z.Z.L.t.7.5.<.8.w.s - 4.Z.Z.S.{ UX{ { Q.D D { { { S { D D Q.D =.6 V.q.S S S D S $XK K { S =.{ =.6 6 6 - 6 6 = M v.x.6.x.6.6.6.j.6.6.6.j.6.6.j.4.j.h.4.j.2.j.2.h.2.2.2.2.2.2.2.( 2.2.( ( 2.( 2.2.( ( ( @.( ( ( Q ( ( Q ( Q @.( Q ( Q V Q Q Q Q Z Q Z Q Z Q Q Z Q M Q Z ",
"A Z E A ( A A A ( A >.Q / Q ( / ( >.>.<.<.A >.<.<.<./ <.<.<./ <.<.<.<.<.<.<.<.7.>.<.<.<.<.<.7.7.7.<.<.7.>.7.7.7.9.<.7.j.7.9.7.j.9.7.j.9.9.9.9.9.9.9.9.9.t.9.9.t.t.9.y.9.y.9.y.9.t.t.y.t.t.y.y.y.y.y.y.y.y.y.y.y.t.s.y.9.9.y.Y.Y.Y.Z.Z.Y.Y.Y.Y.y.9.9.y.Y.Y.Y.Y.R.Y.R.R.Y.Y.R.R.R.Y.R.R.R.Y.R.R.R.R.R.R.R.R.Y.s.R.R.R.R.R.s.R.R.R.d.R.d.s.d.d.d.d.d.s.d.d.d.d.d.d.:Xd.d.d.f.d.d.^.:Xf.^.d.^.d.^.^.(.d.(.(.(.^.(.(.(.(.!.(.].!.!.!.!.!.!.!.).!.).).).).).).).).).'.'.'.'.`.`.`.`.`.jXjXjXjXlXlXjXlXlXlXjXjXjXjXjX`.'.'.'.'.'.'.).).).).).!.!.).).!.!.!.!.!.!.!.!.!.!.(.!.(.].(.(.(.(.(.(.(.^.^.^.^.^.d.d.^.d.^.d.d.d.d.d.d.d.d.d.d.d.R.R.d.R.R.s.R.s.R.R.R.R.R.R.R.R.R.R.R.Y.R.R.R.R.R.R.Y.R.Y.Y.Y.T.Y.Y.T.Y.T.Y.Y.T.T.Y.T.T.Z.OXY.T.Y.T.Z.T.T.Z.E.T.T.Z.E.Z.T.T.Z.Z.Z.Z.Z.Z.Z.Z.Z.Z.Z.Z.Z.Z.Z.Z.Z.j.j.7.8.5.6.n < / C.t.e.r.D S D D } $X{ S D S D S Q.{ D D { K S 6 { D =.S Q.} S S =.S S 6 6 6 6 6 ) h.' f w.6.6.6.e.j.6.6.4.j.4.4.j.4.4.h.5.2.2.2.2.2.2.2.2.2.2.2.2.2.2.2.( ( 2.2.2.( ( ( ( ( ( ( ( ( Q ( ( Q ( Q Q Q Q Q Q Q Q Q Q V Q Q Q Q Z M Q Q Z Z M M M ",
"Q E Q I ( A ( Z ( ( ( A A / ( ( A ( >.( <.<.A / >./ / / / / <.<.<.>.<.<.>.<.<.<.7.<.<.7.<.<.7.<.7.<.7.<.7.7.<.7.7.7.7.7.7.7.7.7.7.9.j.j.j.9.9.9.j.9.9.t.9.t.t.t.t.9.t.y.9.t.t.t.t.t.t.y.t.y.y.9.y.y.y.y.y.y.y.y.y.Z.y.9.9.0.Y.Z.y.y.Y.y.Y.Y.Z.9.9.9.y.Y.Y.Y.Y.Y.R.R.Y.R.R.R.R.R.R.R.R.Y.R.Y.R.Y.R.R.R.R.R.R.R.R.R.s.R.R.d.R.s.d.s.R.d.d.d.d.d.d.d.d.d.d.d.d.d.d.d.d.d.^.d.d.d.^.d.f.^.^.^.f.^.^.^.(.(.^.(.(.(.(.(.(.!.(.!.!.!.!.!.!.!.!.!.).).!.!.).).).).).).).'.'.`.'.`.`.`.jX`.jX`.jXjXjXjXjXjX`.jX`.`.`.`.`.'.'.'.'.).).).).).!.).!.!.!.).!.!.!.!.!.!.!.!.!.!.(.!.(.!.!.(.(.(.(.(.f.^.^.~.^.^.d.^.d.d.d.^.d.^.^.d.d.d.d.d.d.d.d.R.d.R.R.R.R.R.s.R.s.s.R.R.R.R.R.R.Y.R.R.R.Y.Y.R.Y.R.R.Y.R.Y.Y.T.T.Y.T.Y.T.T.T.T.T.T.T.T.Y.Y.T.Z.Z.T.Z.T.T.Z.Z.Z.T.Z.Y.Y.Z.Z.Z.Z.Z.Z.Z.Z.Z.Z.Z.Z.Z.Z.P.Z.Z.Z.9.j.7.8.8.6.^ ; C e.9.9.e.} { UX{ { K ' 6.[ D D Q.Q.{ Q.D =.6 } { { D 6 6 S S 6 6 =.D D 6 =.K s a a 1.F.v.v.6.x.z.6.j.z.j.6.4.j.4.3.j.2.2.2.h.2.2.2.2.2.2.2.2.2.2.2.( 2.( 2.2.( 2.( / ( ( ( ( ( ( Q @.( Q Q | ( ( Q Q Q Q Q Q Q Q Q Q Q Q Z M Q Q M Q Q M Z Q M ",
"Z A Z E Z A ( ( A ( A ( ( A >.Q ( ( ( ( A ( / / / / <.>./ >.<.<.2.<.<.<.<.<.<.<.<.<.<.<.<.7.<.<.>.7.<.7.7.<.7.7.<.7.7.7.7.j.9.7.j.9.7.9.9.j.9.j.t.t.j.9.9.t.9.9.9.y.t.9.y.t.y.t.t.y.t.t.y.t.y.t.y.y.y.9.y.9.y.y.y.y.y.9.7.9.Z.Z.y.Y.y.Y.Y.Y.Y.9.0.9.y.Y.Y.Y.Y.R.R.Y.R.R.R.R.Y.R.R.Y.R.R.R.R.R.R.R.s.R.Y.s.R.R.R.R.d.s.R.R.d.d.d.d.d.s.d.d.d.d.d.d.d.d.d.d.d.d.d.d.^.d.f.^.d.^.d.^.^.^.d.^.(.^.^.(.(.(.(.(.(.(.(.!.(.!.!.!.!.!.!.!.).!.!.).!.!.).).).).).).'.'.'.'.'.'.`.`.`.`.`.jX`.`.jX`.jX`.jX`.jXjX`.`.`.'.`.'.'.'.'.).'.).).).).).).).).!.!.).!.!.!.!.!.!.].!.!.].!.!.(.(.(.(.(.(.(.(.(.^.^.^.^.^.^.^.^.d.d.d.d.d.:Xd.d.d.d.d.s.d.d.s.R.s.R.R.R.R.R.R.R.s.R.s.R.R.R.Y.R.R.R.R.Y.R.Y.Y.R.Y.R.T.T.Y.T.Y.T.Y.T.T.T.Y.T.Z.T.T.T.Y.T.Z.T.Y.T.Z.E.Z.E.T.Z.Y.Y.Y.OXT.Z.Z.Z.Z.Z.Z.Z.Z.Z.Z.Z.Z.Z.Z.Z.t.9.7.7.8.7.1.1 f j.7.e.C.{ } q.[.[ f w.$Xw.K } Q.{ D D =.6 =. XUXD { } 6 6 =.6 - 6 D =.s K ' M.k.q.6.x.x.x.x.z.6.x.4.j.j.j.j.6.j.3.3.h.h.h.j.2.2.l.2.2.2.2.2.2.( 2.2./ 2.( 2.( ( / ( ..( ..( ( ( ( ( ( Q ( ( ( Q Q Q Q Q Q Q Q Q Q Q Q Z Q Q Q M Q Z M Z Q M M ",
"A Q A Q Z ( Z A ( A ( A ( A A ( A ( A / <.( ( / ( / <.<.>.<./ <.<.<.( <.<.<.<.<.<.<.<.<.<.<.7.7.7.<.7.7.<.7.<.7.7.7.7.7.j.7.7.7.7.7.7.9.j.9.j.9.9.t.j.t.t.9.9.t.9.t.t.y.9.t.y.t.t.t.y.t.t.y.y.y.9.y.9.y.9.9.9.9.C.y.y.7.8.8.7.9.t.0.y.Z.y.Y.y.9.9.9.y.Y.Y.Y.Y.R.Y.R.Y.R.Y.R.R.R.R.R.R.Y.R.R.R.R.s.R.s.R.R.R.R.R.R.R.R.s.R.R.s.s.d.d.d.R.d.d.d.d.d.d.d.d.d.d.d.d.d.^.:Xd.f.^.d.^.^.f.^.(.^.(.^.(.(.(.(.(.(.(.(.!.!.!.!.!.!.!.!.!.!.!.!.).!.).).).).).).).).'.'.'.'.'.'.`.`.`.`.`.`.`.jX`.jX`.`.jX`.`.`.`.`.`.`.`.'.'.'.'.).).).).).).).!.).!.).!.!.).).!.!.!.!.!.!.!.!.(.].!.(.!.(.(.(.(.(.(.(.(.^.^.^.d.^.d.d.^.d.^.d.:X:Xd.d.d.d.d.R.s.d.d.R.R.s.R.s.R.R.R.s.R.s.R.R.Y.s.R.R.R.R.Y.R.Y.R.Y.R.Y.Y.T.T.Y.T.Y.T.Y.Z.T.T.T.T.Y.T.T.T.Z.T.Z.E.Y.Z.Z.Z.T.Y.Z.T.Z.T.OXZ.Z.Z.Y.Z.Z.Z.Z..XZ.Z.Z.Z.Z.Z.Z.t.t.j.7.8.5.5.a i 4.7.6.4.Y _ 6.e.A.R Y j w.q.{ Q.{ D S D D =.S D { { D 6 6 =.6 6 6 =.6 6 ' c.c.x.c.x.e.6.x.z.w.z.6.z.j.6.j.4.j.2.j.2.6.2.2.h.2.2.2.2.2.2.X.2.2.2.2.( 2.( ( X.( ( X.( ( ( ( ( ( @.( @.( Q ( Q Q @.( Q Q Q Q Q Q Q M Q Q M Q Q M Q M Q M M M M M ",
"Z Z Z Z ( Z ( Z Q A A ( A Q ( ( ( ( ( / ( A <.<./ ( / / ( / / / ( <.( <.<.( ( <.7.<.<.<.<.7.<.<.<.7.<.7.7.<.7.7.j.7.<.7.7.7.7.j.7.7.9.7.9.9.j.9.j.9.9.9.j.t.t.9.9.t.9.9.t.t.t.t.t.t.y.t.y.t.y.t.y.y.y.y.0.9.7.>.8.7.<.>.k j k E >.,.7.y.y.Y.y.9.9.y.Y.Y.Y.Y.Y.T.R.R.R.R.R.R.Y.R.R.R.R.R.R.R.R.R.R.R.R.R.R.R.R.s.R.s.s.R.s.s.R.R.d.d.d.d.d.d.d.d.d.d.d.d.d.d.d.d.d.d.f.^.d.:X^.^.d.(.^.d.^.^.(.(.(.(.(.(.!.(.!.!.!.(.!.!.!.!.!.!.!.).).!.).).!.).).).).).).'.).'.'.'.`.`.`.`.`.`.`.jXjXjXjXjXjXjXjXjXjX`.`.`.`.`.'.'.'.'.'.).).).).).).).).).).!.!.!.!.!.!.!.!.!.].!.!.!.!.(.!.(.(.(.(.(.(.(.(.(.^.^.^.^.^.(.^.d.^.d.^.d.d.d.d.d.d.d.d.d.R.d.s.s.s.R.R.R.R.R.R.s.R.R.R.s.R.R.R.Y.Y.R.R.R.Y.R.Y.R.T.Y.Y.T.Y.T.T.T.T.T.T.T.T.T.Y.Y.Z.E.T.Z.E.Z.T.T.Z.T.Z.Y.Z.Z.Y.Y.Z.Z.OXY.Z.Z.Z.Z.Z.Z.P.Z.Z.Z.Z.Z.C.C.t.t.7.7.7.M 1 ' e.6.Y 4.z.5.,.q.C.C.8.R r.Q.Q.D D K D { { D { K 6 =.K *.S 6 6 6 6 & d #.c.z.x.x.x.x.x.x.x.6.6.z.4.j.h.j.h.3.h.5.h.2.2.h.j.2.l.2.2.2.2.2.2.2.2.X.2.( ( 2.2.( ( ( ( ( ( @.Q ( ( Q ( Q ( Q @.Q Q Q Q Q Q Q Q Q Q Q Z Q Q M M Q M Q V Q Q M M M ",
"I Z Z A ( Z Z A Q Q ( A ( ( ( A ( Q ( ( ( A A ( ( >./ >./ / / <.>.( <.<.<.<.<.<.2.<.<.<.<.<.<.<.<.7.<.<.7.<.7.7.7.7.j.7.7.7.7.7.7.7.j.9.j.j.j.9.9.9.j.t.t.9.t.t.9.t.9.t.9.t.9.y.t.t.t.t.t.y.t.y.9.y.9.9.7.7.>.y h j Y g 5 1 1 i a j ,.8.7.9.9.7.9.9.T.Y.Y.Y.T.T.Y.R.R.Y.R.R.R.R.R.R.R.R.R.R.R.R.R.R.R.R.s.R.R.s.s.R.R.R.s.R.s.R.d.s.d.d.d.d.d.d.d.d.d.d.d.d.d.d.d.d.^.d.^.^.:Xf.^.^.^.^.^.^.f.(.(.(.(.(.(.!.(.(.(.!.!.(.!.!.!.!.!.!.!.).).!.).).).).).).).'.).'.'.`.`.`.`.`.`.jXjX`.jX`.`.jX`.`.jX`.`.`.`.`.`.`.'.'.'.'.'.).).).).).).).!.).).).).!.!.!.!.!.!.!.!.!.!.!.!.(.!.(.(.(.!.(.(.(.(.(.(.(.f.(.^.(.^.:Xd.^.^.d.d.:Xd.^.d.d.d.d.d.d.d.R.R.R.s.s.s.s.R.R.R.R.R.R.R.s.R.s.R.Y.Y.R.R.Y.R.Y.Y.T.T.Y.T.Y.Y.T.T.T.T.Y.T.T.T.Y.T.Z.T.T.Y.T.Z.Z.T.OXY.Y.T.Y.Z.Y.Z.T.Z.U.Z.Z.U.Z.Z.Z.Z.Z.Z.Z.Z.Z.Z.Z.C.t.e.7.5.U - _ j.L R 2.E A Y R e.e.1.L { Q.UXD D UXD UXUX{ { { 6 S { B.K S =.6 =.J a s 4.v.z.x.x.e.e.x.z.z.w.z.j.h.h.4.h.4.4.2.2.h.h.2.2.h.2.2.2.2.2./ 2.( ( ( / 2.( 2.( ( ( ( ( ( ( ( ( Q ( Q Q Q ( Q Q | Q Q Q Q V Q Q V M Q M Q Q Q V V M Q M M V Q M M ",
"Z A A Z Z A Z ( Q A A Q A A Q ( ( A ( A ( ( ( ( / ( / ( ( / ( >.( <./ ( <.( 2.<.<.<.<.<.2.7.<.2.<.<.<.7.<.7.<.7.7.<.7.7.7.<.7.7.j.7.j.7.9.7.j.9.j.9.t.j.j.t.j.9.t.9.t.9.9.y.9.9.t.y.9.t.9.y.t.t.t.9.t.t.9.7.>.v r 1 1 > @ @ @ $ < ; a Z A >.A >.7.t.Y.Y.T.Y.T.T.R.Y.R.Y.R.Y.R.R.Y.R.R.R.R.R.R.R.R.R.R.s.R.R.R.R.R.s.R.s.R.R.s.R.s.d.d.d.d.d.d.d.d.d.d.d.d.d.d.d.^.d.d.^.d.f.d.^.^.d.^.^.f.^.(.^.(.(.(.(.(.(.(.(.!.(.!.!.].!.!.!.!.!.!.!.!.).!.!.).).).).).).).).'.'.'.`.`.`.`.`.`.`.`.`.`.`.'.'.`.`.`.`.`.'.'.`.'.'.'.).'.).).).).).).!.).!.!.!.).!.).!.!.).!.!.!.!.!.!.(.!.(.!.!.(.(.(.(.(.(.(.(.^.(.^.^.d.^.f.^.d.f.d.^.f.d.d.d.d.d.d.d.s.R.s.R.s.R.R.R.R.R.R.R.s.R.R.R.R.R.R.R.R.R.R.Y.R.Y.R.T.T.Y.T.Y.T.T.Y.Y.T.T.T.Z.T.OXY.T.T.Z.T.T.Z.T.T.Y.Y.Y.OXZ.Z.Z.Y.Z.Y.Z.Z.Z.Z.Z.Z.Z.Z.Z.Z.Z.Z.Z.P.Z.C.Z.t.t.5.5.[ - D W P Z f g g f f j f g g Q.Q.{ D } { UXQ.UX{ Q.F P 6 D B.D D =.=.=.6 m ! ' v.z.x.w.x.6.x.k.6.z.4.z.4.j.j.4.h.5.h.h.2.2.h.2.2.2.2.2.2.2.2.h.( 2.X./ ( X.( ( X.( ( Q ( ( @.@.( Q ( ( @.( Q Q Q Q Q Q Q Q Q Q Q Q Q Q M V M Q V M V V Q M M M M ",
"Z A Z A A Q Q Z A Q A A Q A ( A A ( A ( ( Q ( Q ( ( ( >.( ( ( / 2.( <.( <.<.2.( 2.<.<.<.2.<.<.<.j.<.2.<.j.<.7.<.<.7.7.2.7.2.7.7.j.7.7.7.9.7.7.9.j.9.j.9.t.9.j.9.9.t.t.j.t.t.9.t.t.9.t.t.9.y.t.t.y.t.t.t.t.j.<.a @ . @ . X X o o O @ = < 1 i ; g A 7.Z.Y.Y.Y.T.T.Y.R.Y.R.R.R.Y.R.R.R.R.Y.R.R.R.R.s.R.s.R.R.Y.R.R.Y.Y.R.R.R.R.R.R.R.R.s.d.d.s.d.d.d.d.d.s.d.d.d.d.d.d.d.^.^.f.d.d.d.^.d.^.^.^.^.f.(.^.(.(.(.(.(.(.(.!.!.!.!.(.!.!.!.).!.!.!.!.!.).).!.).).).).).).'.'.).'.).'.'.'.'.'.'.'.'.'.'.'.`.`.'.'.).).).).).'.).).).).).).!.).!.).!.).!.!.!.!.!.!.!.).!.].!.(.!.!.(.!.!.(.(.(.(.(.(.(.(.(.(.(.^.(.^.f.d.f.d.^.d.^.d.d.^.d.R.s.s.R.s.R.s.R.d.R.R.R.R.d.R.s.Y.R.R.Y.R.R.R.Y.Y.R.R.Y.R.Y.R.Y.Y.T.Y.T.T.Y.T.T.T.T.T.T.T.T.Y.T.Y.Y.T.Z.Z.T.Y.Y.Y.Y.Y.Y.Z.OXY.Y.U.Z.Z.Z.Z.Z.Z.Z.Z.Z.Z.Z.Z.C.C.Z.C.t.t.j.j.( A Q 6 6 6 1 1 - @ ; 1 1 - # $ =.Q.Q.D =.=.{ Q.Q.{ UXK I XXP 6 K s =.6 - # 5 m _ v.z.x.6.z.v.z.z.6.z.j.h.6.j.4.j.j.h.h.h.2.2.h.2.2.2.2.2.2.2.h./ ( 2.2.( ( 2.2.( ( ( X.( ( ( ( ( @.( ( @.( Q Q Q Q Q Q Q V Q Q Q Q Q Q V Q Q V V Q M Q V M V M M M M ",
"Z Z A Z Z Z Q Z Q Q Q Q Q Q A ( ( ( ( Q ( Q ( >.( ( ( ( ( >./ / <.( ( ( <.( ( <.( <.2.( 2.<.2.<.<.<.<.2.<.2.<.7.7.<.<.7.7.7.7.7.7.7.7.j.7.j.7.7.7.7.9.j.j.j.t.9.9.j.9.j.9.j.9.t.9.t.9.y.t.t.t.t.9.t.9.y.t.9.<.i @       X X * * + X O @ O @ @ = g ,.y.Y.Y.Y.Y.Y.Y.Y.R.Y.Y.R.R.Y.Y.R.Y.R.R.Y.Y.R.Y.R.R.R.R.Y.R.R.R.R.R.R.Y.R.s.R.R.d.R.R.R.R.s.d.d.d.d.d.d.d.s.d.d.d.d.d.d.d.d.d.^.d.d.^.d.(.^.^.^.^.d.(.(.(.(.(.(.(.(.(.!.!.(.!.!.].!.!.!.!.!.!.!.!.!.).!.!.).).'.'.).).).).).).).).).'.).).).'.'.'.'.'.).).).).).).).).).).!.).).).!.!.!.!.!.!.!.!.!.!.!.].!.!.!.(.(.!.(.(.(.(.!.(.(.(.(.(.^.(.^.^.f.^.^.d.d.d.^.d.^.f.d.d.d.d.s.R.R.s.R.R.s.R.s.s.R.s.R.s.R.R.R.R.R.R.Y.Y.R.R.R.Y.R.Y.Y.R.Y.R.Y.T.T.Y.Y.T.T.T.Y.Y.T.T.T.Y.T.T.T.OXT.T.T.Y.Y.Y.Z.Y.Z.Z.Y.Z.Z.Z.Z.Z.Z.Z.Z.Z.Z.Z.Z.Z.Z.Z.C.Z.Z.Z.C.C.9.j.A g i 4 =.6 % . @ @ X O @ . . X   { hXD D D =.Q.Q.{ { { 1 P h.k.6 = 6 6 F M F m.M.M.v.v.z.z.z.w.z.4.z.4.j.j.j.4.j.3.5.4.j.2.2.h.2.2.h.2.2.2.2.2.( h.h.( ( 2.( ( / ( ( ( ( ( @.( ( ( ( Q Q ( @.( Q Q Q Q Q Q Q Q V Q Q V Q Q V M Q Q V V M V M M Q M M V ",
"Z Z Z Z A Z Q A Q Z Z Q Q A ( A Q Q A ( >.Q Q >.Q Q ( ( Q ( >.( ( ( / >.( <.<.<.2.<.<.2.2.2.2.<.2.<.7.<.2.2.7.2.2.j.<.7.<.j.7.<.<.7.7.7.j.j.7.7.j.7.7.9.7.j.9.j.j.j.9.9.9.t.9.j.t.t.t.t.t.t.t.t.t.t.9.y.t.<.A a @   . X X X o * O X + $ + X   @ a / 9.Z.Y.Y.Y.Y.Y.Y.Y.Y.Y.Y.Y.R.Y.R.R.Y.R.R.Y.R.Y.R.Y.R.R.R.R.Y.Y.R.Y.R.R.R.Y.R.d.R.s.R.R.s.d.d.d.R.R.d.d.d.d.d.d.d.d.d.d.d.d.d.d.^.f.^.^.d.d.^.f.^.^.^.^.^.(.(.(.(.(.(.(.(.(.(.!.!.!.!.!.!.!.!.!.!.!.!.!.!.).!.!.).).).!.).).).).).).).).).).).).).'.'.).).!.).!.).).).).!.).!.!.!.!.).!.!.!.!.!.!.!.!.!.!.!.!.(.!.(.(.!.(.(.(.(.(.(.(.^.(.^.^.^.d.^.d.d.^.d.d.d.d.d.d.d.d.d.d.s.s.s.R.s.R.R.R.R.R.R.R.s.R.R.R.R.Y.Y.R.R.Y.R.Y.Y.R.Y.R.Y.T.R.Y.T.Y.T.T.T.T.Y.T.T.OXT.Z.Z.Y.Y.Y.Y.T.T.Y.Y.Z.Y.Y.Z.Z.Z.Y.Z.Z.Z.Z.Z.Z.Z.Z.Z.Z.Z.Z.F.Z.Z.F.Z.C.Z.C.Z.C.t.h.C < + = D 6 X     . o X         # Q.Q.D D D =.Q.Q.{ { 6 s a a v.^ 6 6 s l.M.v.v.v.z.k.z.z.z.z.z.z.k.6.j.3.j.j.h.h.4.5.2.h.h.h.2.h.2.2.2.2.2.X.2.2./ ( / 2.( +./ X.( @.( ( ( ( ( @.Q ( Q Q Q Q Q Q Q Q @.Q Q Q V Q Q V Q V Q V M V V Q V M V V M M M M V ",
"Z Z Q Z Z Z Z Q Z Q Z ( Q A Q Q Q >.Q Q Q ( Q ( ( >.( Q ( ( ( ( ( ( / / <.( ( ( ( 2.( ( 2.<.2.<.2.2.2.<.2.<.2.<.2.<.7.2.7.7.2.7.j.j.<.7.j.7.7.7.j.9.j.7.j.9.j.9.j.9.j.9.j.j.j.9.j.t.j.t.9.t.Z.t.t.9.Z.9.9.<.C ; X X X   . . o * o X + $ O O   X a E 9.Z.Y.Z.Y.Y.Y.Y.Y.Y.R.Y.Y.Y.Y.Y.R.Y.Y.Y.R.T.R.Y.R.Y.Y.R.Y.R.R.R.Y.R.Y.R.R.R.R.R.R.s.R.R.R.R.d.R.d.d.R.s.d.d.d.d.d.d.d.d.d.d.d.d.d.d.d.^.d.d.^.d.d.^.d.(.f.^.(.(.(.(.(.(.(.(.!.].!.!.].!.!.!.!.!.!.!.).!.!.!.!.!.).).).).!.).).).).).).!.).).).).).).).!.).).).).!.).!.!.!.!.!.!.!.!.!.!.].!.].!.!.!.].!.].!.(.(.(.(.(.(.(.(.(.^.^.(.(.d.(.d.^.d.d.^.d.d.d.d.d.d.d.d.d.d.d.d.R.R.R.s.R.s.R.s.R.s.R.s.R.R.R.R.Y.R.R.R.Y.R.R.Y.R.Y.R.Y.R.Y.R.Y.T.T.T.Z.Y.T.Y.Y.Y.Y.Y.Z.T.Y.Y.Y.Y.Y.Z.T.Z.Z.OXZ.Z.Z.OXY.Z.Z.Z.Z.Z.Z.Z.Z.Z.U.Z.Z.Z.Z.Z.C.Z.Z.C.Z.t.t.v./ d < X > D =.o . . o + * X . o   K Q.{ S D =.D Q.UX{ S 2 N s ] [.V.S 6 k.v.w.z.v.z.v.v.v.z.k.k.j.q.k.j.4.j.4.h.h.3.h.h.h.h.<.h.2.2.2.h.2.X.2.2.( 2./ X.X.X.2.( ( ( ( ( ( @.( @.( ( ( Q ( ( Q Q Q Q Q Q Q Q Q Q Q V Q Q V Q V Q V Q M V Q M Q Q M V M M M ",
"Z Z Z Z Z Z Z A Z A Z Q Z Q Q Q ( Q Q Q Q Q Q ( Q ( Q Q Q ( ( ( / ( <.( ( ( <.( <.( <.<.<.( ( 2.2.2.2.2.<.2.<.2.2.7.7.2.2.7.2.<.<.j.7.7.7.2.7.j.7.j.7.j.j.7.j.7.j.7.j.7.j.9.7.j.7.7.<.<.<.8.5.7.7.9.j.7.<.j i #   X . X X . * * X X + % $ o . @ r A 7.Z.Z.Y.Y.Y.Y.Y.Y.Y.Y.Y.Y.Y.Y.Y.Y.Y.Y.Y.Y.R.Y.Y.R.Y.R.Y.Y.R.Y.R.Y.R.R.Y.Y.R.R.R.R.R.R.R.s.R.s.R.R.s.R.d.d.d.d.d.d.d.d.d.d.d.d.d.d.d.d.d.^.d.^.d.^.^.d.^.d.^.f.^.f.(.(.^.(.(.(.(.(.!.!.!.!.!.].!.!.!.!.!.!.!.!.!.!.!.!.).!.!.!.!.).!.).!.!.).!.!.!.).!.!.).!.!.!.).!.!.).!.!.!.!.!.].!.!.(.!.!.!.(.(.!.!.(.(.^.(.^.(.(.^.(.^.^.^.^.d.^.^.d.^.d.f.^.d.d.d.d.d.d.d.d.d.d.d.d.d.R.R.s.R.R.R.s.R.R.R.s.R.Y.R.R.R.R.R.Y.R.Y.T.Y.T.Y.T.Y.Y.Y.T.Y.Y.Y.T.Y.T.T.Y.Y.Y.Y.Y.Y.Y.T.Z.Y.Y.Z.Y.Z.Z.Z.Z.Z.Z.Z.P.Z.Z.OXZ.Z.Z.Z.Z.Z.Z.Z.Z.Z.Z.Z.Z.C.C.C.Z.t.t.C.C.C./ d < . 1 K =.O . X * + * X . . X UXQ.D D D 6 { Q.{ D 6 6 N l.H.v.{ 6 ) b.z.v.v.z.z.z.v.k.k.z.k.k.k.4.4.j.j.h.2.j.2.h.2.h.<.h.h.h.<./ / h.( 2.2.( ( h.2.( ( ( 2.( ..( ( ( ( ( @.( ( ( @.Q Q Q Q Q Q Q Q Q Q Q V Q V Q Q V V V Q M V M M M M M M M M V V m ",
"W Z Z Z Q Z Z Z Z Q Q Q A Q Q Q A Q >.Q Q ( Q Q Q ( >.( ( >.Q >.( ( ( ( ( ( ( ( ( ( ( <.( 2.2./ <.2.2.<.<.2.2.2.2.<.2.2.2.j.7.j.7.j.j.j.7.7.j.7.j.7.j.7.7.j.7.j.7.7.7.j.7.<.7.7.j.7.<.A A A A A Q >./ A M i # O X   . . o   o o X X O # % O . @ 1 A 7.Z.Z.Z.Z.Y.Y.Z.Z.Y.Y.Y.Y.Y.T.Y.Y.Y.Y.Y.Y.R.Y.R.Y.R.Y.R.Y.R.R.Y.R.Y.Y.R.R.R.R.R.R.s.R.s.R.R.R.s.R.d.R.R.s.R.d.d.d.d.d.d.d.d.d.d.d.d.d.d.f.d.d.d.d.f.^.d.^.^.~.^.^.^.^.^.(.(.(.(.(.(.!.].].!.!.!.!.!.!.!.!.!.!.!.!.).).].!.!.!.!.!.!.!.!.!.!.).!.).!.!.!.!.!.!.!.].!.).].!.!.!.!.!.!.(.!.!.(.(.(.(.(.].!.(.(.(.(.(.(.^.f.^.^.f.^.d.^.f.^.^.d.^.d.d.d.d.d.d.d.s.d.d.d.d.d.R.R.Y.R.R.R.R.s.R.R.R.R.R.R.R.T.R.Y.R.Y.R.Y.R.T.R.Y.T.Y.T.T.Y.Y.Y.T.Y.Y.Y.Y.T.Z.T.Z.Y.Y.Y.Y.Z.Z.Z.OXZ.Z.Y.OXZ.Z.Z.Z.Z.Z.Z.Z.Z.Z.Z.Z.Z.Z.B.Z.Z.C.C.Z.C.t.C.Z.t.Z.Z.C.9.C.7.<.x <   6 } 6 O . X * % + o .   6 Q.{ =.D D % Q.Q.{ =.6 G ! M.M.*.S 1 m.z.z.v.v.z.v.k.k.v.z.6.z.j.6.k.j.3.4.h.4.2.2.h.2.2.<.h./ h.2.h.h./ 2.2.( h.( ( ( / 2.( ( / ( ( ( ..( @.( @.( Q ( Q Q Q Q Q Q | Q Q Q Q Q V M V Q Q Q V M V M M M M M M M M M V v M ",
"M M Z Z Z V Z Z Q Z Q Q Q Z Q A Q Q ( Q >.Q Q >.>.Q ( ( Q Q ( ( >.( ( ( ( ( <.( <.( ( 2.<.( 2.2.2.<.<.2.2.2.2.2.2.2.2.2.<.<.2.2.<.2.2.<.2.2.2.7.7.2.7.j.7.7.j.9.j.7.7.7.2.7.2.<.j.7.<.<.<.A f a 3 r r ; < @ o X X   X .     . X X   + # O o   X 5 I 7.Z.Z.Z.Z.Z.Z.y.t.y.Z.Y.Y.Z.Y.Y.Y.Y.R.Y.Y.T.Y.Y.R.Y.R.Y.R.R.Y.R.Y.R.R.Y.R.Y.Y.R.R.s.R.s.R.R.R.R.R.s.R.s.R.R.d.s.d.R.d.d.d.d.d.d.d.d.d.d.d.d.d.d.d.d.d.f.^.d.d.^.d.^.^.^.^.(.(.(.(.(.(.(.!.!.!.(.(.!.!.(.(.!.].!.!.!.!.!.!.!.!.!.!.).!.!.!.).!.!.!.!.!.!.!.).!.!.!.!.!.!.!.!.!.].!.].(.(.(.(.(.(.(.(.(.(.(.(.(.^.^.^.^.^.^.d.^.d.^.f.^.d.d.^.d.d.d.d.d.d.d.d.d.d.d.R.d.s.d.R.R.s.R.R.R.R.R.R.R.R.R.R.R.R.Y.R.R.Y.Y.Y.Y.Y.Y.T.Y.Y.T.Y.Y.Y.Y.Y.Z.T.T.Z.Y.Z.Y.T.Y.Y.Y.Z.Z.T.Z.Z.Z.Z.Y.Y.Z.P.Z.Z.Z.Z.Z.Z.Z.P.Z.Z.F.Z.t.Z.C.C.Z.t.t.Z.t.C.C.t.C.C.Z.C.x./ N -   8 { =.o . . X * o o .   K Q.D D K 6 6 Q.Q.D 6 4 c J ) { { 6 x l.z.z.v.z.v.z.z.z.k.z.k.z.j.j.j.k.4.6.2.h.2.j.2.2.h.h.h.h.h./ / h.h.( ( X.( ( X./ X.( / ( ..( ( ( ( ( ( ( ( @.Q @.( Q Q Q Q Q Q Q V Q M Q V Q V Q V V Q M Q Q M M M M M V V v M M v ",
"Z Z Z M Z Z Z Q Z Z Z A Q Z Q Q Q A Q Q Q Q ( Q Q Q Q ( ( ( ( ( ( ( ( ( <.<.( ( ( ( 2.( ( 2.( 2.( 2.( 2.2.<.2.2.<.2.2.<.( Q Q Q ( A ( Q ( ( ( ( ( ( 2.7.j.7.j.j.7.j.7.7.7.2.7.2.5.7.e.j.<.2.Z ; % + o o X X X     X   . . . . o X X O O # O X X ; M ,.7.t.t.Z.Z.9.9.9.y.Z.Z.Z.9.Z.9.Z.Z.Y.Y.Y.Y.Y.Y.Y.Y.Y.Y.Y.Y.R.Y.R.Y.Y.R.Y.R.R.R.R.R.R.R.R.s.s.R.R.R.R.R.s.R.R.R.R.d.d.d.d.d.d.d.d.d.d.d.d.d.d.^.d.d.d.^.d.f.^.d.^.d.f.d.(.(.f.(.(.(.(.(.!.].(.(.(.(.(.!.!.(.!.!.!.].!.].!.!.].).!.].!.!.!.!.].).!.!.!.!.!.].].!.!.!.].!.!.].!.!.!.!.(.!.(.(.(.(.(.(.(.(.(.(.(.^.f.^.(.d.^.f.^.^.d.:Xd.^.d.d.d.^.d.d.d.d.d.d.d.R.d.R.R.s.R.R.R.R.s.s.R.R.R.s.Y.R.s.Y.Y.R.R.T.Y.T.Y.R.R.Y.T.Y.T.Y.Y.Y.T.Y.Y.T.Y.Y.Y.Y.Y.Y.Y.Y.Z.Z.Y.Z.Z.Z.Z.Z.Z.Z.Z.Z.Z.Z.Z.Z.Z.Z.Z.Z.Z.Z.Z.Z.Z.t.t.t.t.j.j.t.c.j.9.j.t.C.t.t.e.9.6.Q a $   F { 6 X X . X X X .   + Q.Q.D { D : S Q.UXS 6 3 3 x s V.D - N ] k.k.z.z.z.z.k.z.z.k.j.j.h.3.h.3.3.2.h.2.h.2.h.<.X.h./ <./ h.2./ / X.2.( 2.X.( / ( ( ..( ( ( ..( ( Q @.( Q Q ( Q Q @.Q Q Q | Q Q Q Q Q M Q V Q V Q M M V V V V M Q V M M M M m M V ",
"M Q M Z Z Z Z Z Q Q Z Z V Q Q Q Q Q Z Q A @.@.A @.A Q ( Q ( ( ( ( ( ( ( ( ( ( ( ( ( ( ( 2.( 2./ / / 2.2.2.2.2.2.2.2.2./ Q g t v s s s g g s d n n n ( 5.6.6.6.7.7.j.j.7.7.5.<.<.<.4.7.7.2./ Z -   . . . . . . . X X X X o * o + X O $ # = $ O X + a Z A ,.8.9.t.9.8.8.9.C.9.7.,.<.A 7.9.Z.T.Y.T.Y.T.Y.Y.T.T.T.Y.Y.R.T.T.R.R.T.T.Y.R.R.R.R.R.R.R.R.R.R.Y.R.R.R.R.R.R.R.R.R.d.R.d.R.d.d.d.R.d.d.d.d.d.d.d.d.d.d.d.d.f.^.d.~.f.^.(.^.^.^.(.(.(.(.(.(.(.(.(.(.(.(.(.!.(.!.(.(.!.!.(.!.(.(.!.!.!.!.!.(.!.(.!.(.!.(.!.(.!.!.(.(.!.!.(.!.].(.(.(.(.(.(.(.(.(.(.(.(.^.^.^.^.(.f.^.f.^.d.^.d.^.d.^.d.d.d.d.d.d.d.d.d.d.d.d.d.R.d.R.R.R.R.R.R.R.R.R.R.R.R.R.R.R.T.R.Y.T.R.T.R.T.R.Y.R.Y.T.T.Y.Y.Y.Y.T.Y.Y.Y.Y.Y.Y.Z.Z.Z.Y.Y.Z.Z.Z.Z.Z.Z.Z.Z.Z.Z.F.Z.Z.Z.Z.Z.Z.Z.F.Z.C.Z.C.t.j.j.A ( A j.j.7.j.4.6.7.t.C.t.6.h.<.m - O   K } 6 . . X X X . .   =.}.UXD { =.o K Q.{ =.6 + 2 2 K { S 6 W 2.3.j.z.z.z.z.k.z.k.j.3.2.' ( ( Q ( ( ( ( ( ( ( Z ( / 5.<.2./ 2.2./ 2.( ] / ( / ( / ( X.A h.( @.Q ( ( ( @.! ( @.Q Q ( Q Q Q Q Q Q V Q V Q V Q V V H Q V Q V M Q V M M M V v M M v V ",
"M M M V H H H Z H Z H Q Z Q Z Z Z Q Q Q ( Q A @.A @.Q Z ! Q Q ! ( ( ( ( Q ( ( ( ( ( ( ( ( ( / / 2.( ( ( ( 2./ 2.2.2.2.( v 3 # < = # = @ @ < 1 1 ; ; M ' h.5.2.j.j.5.2.6.j.j.h.( ' 2.4.2.Z n a @   . . . . . X * * o % % % # % # + $ + & : # O + X = ; 1 g R 7.7.<.k A <.7.<.A p r t A 7.t.Z.Z.Y.Y.Y.Y.T.Y.Y.Y.T.Y.T.Y.T.Y.Y.T.T.R.Y.R.T.T.T.R.Y.R.R.R.R.R.R.R.R.R.R.s.R.R.R.R.d.d.R.R.R.d.R.d.d.d.d.d.d.d.d.d.d.d.d.d.^.d.^.~.d.^.d.(.~.d.(.f.^.(.(.(.(.(.(.(.(.(.(.(.(.!.!.(.(.(.!.(.(.(.(.(.!.!.(.!.!.(.!.(.(.!.(.(.(.(.(.(.(.(.(.(.(.(.(.^.(.^.^.^.^.^.f.^.^.^.d.~.~.~.~.d.^.^.f.d.d.d.d.d.d.d.d.d.d.d.d.R.R.R.d.R.R.R.R.R.R.R.s.R.R.Y.R.R.Y.T.T.Y.R.R.R.T.T.T.Y.T.Y.Y.Y.Y.Y.Y.Z.Y.Y.T.Y.Y.Y.Z.Y.Z.Z.Z.Z.Z.Z.Z.Z.Z.Z.Z.Z.Z.Z.Z.Z.Z.Z.Z.Z.Z.Z.Z.Z.Z.Z.Z.Z.C.Z.7.( j a a d Z / 2./ / 2.j.j.j.6.<.A N 3 $ . . K D 6   . X X X X . . { Q.{ D { 6 X { Q.D =.: o $ : { } =.H ) h.h.h.h.k.v.v.k.l.k.3.' ( W M b a z x b b x v N a m Q / X.' 2.X.' / X.] ] ( X.X.( 2.( A X.@.X.Q ( h.@.@.( ! ( ! Q Q | Q Q Q Q V | Q Q V V Q Q V V Q V V V V M V V M M V V m v M M v ",
"m M V V V V M V V H M Z H W Z W @.V Z Q Q H Z Z @.Z Z ! ~ ~ W ~ | ( Q ( | ( @.@.( ( ..( ..( ..( ..( X...( ( ( 2...( X.( m > o o X X .     O : 2 = - N ( h.h.h.h.h.h.h.j.h.h.Z Z W ( ( P x ; + .       . . . X * % & % & # , : % $ $ + = : # O O X @ < - 1 N / Q N ; i n Z n i @ O @ i A j.t.Z.Z.Z.Z.Y.Z.Z.Y.T.T.Y.Y.Y.Y.Y.Y.T.T.Y.Y.Y.T.T.Y.Y.Y.T.T.T.T.Y.T.T.T.T.T.R.R.T.T.R.T.R.R.T.R.R.R.R.R.R.R.R.W.d.d.s.d.W.R.d.d.d.d.W.W.d.d.:XW.d.:X:Xd.~.~.~.f.^.^.^.^.^.^.d.(.f.^.^.^.(.(.(.!.!.!.!.!.!.!.!.(.(.(.(.(.(.^.^.^.(.^.^.^.(.^.d.^.d.^.d.d.~.:X~.~.d.:Xd.~.d.:Xd.d.:Xd.d.d.d.W.W.R.R.W.d.d.R.R.R.R.R.R.R.T.T.R.R.R.T.T.T.T.Y.T.T.T.T.Y.Y.Y.T.Y.T.Y.Y.Y.T.Z.Y.Y.Y.Z.Z.Z.Z.Y.Z.Z.Z.Z.Z.Z.Z.Z.Z.Z.Z.Z.Z.Z.Z.Z.Z.Z.Z.Z.Z.Z.Z.Z.Z.Z.Z.Z.C.Z.t.Z.t.Z.C.c.Z.C.Z.v.2.Z r @ @ < z Z Q Z C Z ( 2.2.h.A N ; < X X + K D # X X o + o + X 6 Q.UXD D D 6 o Q.UXD =.X o   S { S K ) X...X.h.X.h.l.l.l.m.k.' W H s z : @ = = < < - ; - - a V X.( X.X.( ( X.( X.( X.( @.<.@.@.X.@.( ( Q A @.( @.~ W Q W W ~ Q Q Q Q Q Q Q V V Q V Q V Q V H Q V Q V V V V V V V m m v V M v ",
"B V V V G V G V J V V J J | J V J J H | H | | V @.@.| ~ | ~ ~ @. .@. .@.@.O.(  .@...@.( O.( ....X.O.( ..X...o...X.X.n.@.m 3 X o X X X X   & z x > 3 m ..+.m.X.X.X.X.X.X.@.Q m x x m m x < .             . . . % & & e : & , & : + O * # = # O O + + # > 1 5 a 5 < @ @ = ; > @ . X @ < N h.j.A.G.H.U.G.G.H.U.H.U.K.H.H.D.K.K.K.E.Z.Z.Z.Z.Z.Y.OXZ.K.Z.E.E.Y.T.Z.T.Z.T.Z.Y.D.E.Z.T.Y.Z.Y.T.Y.T.Y.Y.T.T.T.T.T.T.T.T.T.R.E.R.T.E.R.R.R.R.R.R.R.R.R.W.T.R.R.:XR.R.R.R.W.W.W.W.W.d.R.~.d.^.(.!.!.).'.).).!.!.(.(.(.d.:Xd.d.W.d.W.d.W.R.d.R.d.R.W.R.W.W.R.R.R.R.R.R.R.R.R.R.R.R.R.%XT.R.E.R.T.E.T.E.T.R.T.T.T.Y.Y.T.Y.T.Y.Y.Y.Z.T.Y.Y.Y.Y.Y.Z.Z.Z.Z.Z.Z.Z.Z.Z.Z.Z.F.Z.Z.Z.OXZ.Z.Z.Z.Z.OXZ.B.Z.Z.Z.U.Z.B.P.Z.Z.U.Z.B.Z.Z.U.Z.P.Z.P.Z.B.P.b.b.c.b.B.c.M.b.B.b.b.M.b.B.B.j.( v % o   X # a 4 5 ; > x M Z M m 9 : @ O X : { D $   o * $ % # X D hXUXD { D # 6 Q.{ D :   X X ) { =.J J J ~ ) X...X.+.l.&.m.m.X.H z 4 > O . . . . . . . . X 3 M @.X.X...X.X...X.@.X.@.X.@.@.@.@.Q ( @...@.@.@.@.Z @.~ ~ @.~ ~ Q | V | | | V V H Q | V H H G H V V V V V V V V m m m V V m V v ",
"V G J J G J G J G J J | J J | J | | | | | J @.| | @.| @. .@.@. . .(  .....@...O...@.....O.( O.O...O.O...O.O.O...+.+.+...B 3 o o o X X X   & v G x 8 V ..$.$.&.&.+...~ V m x 3 = # 3 2 & .               . . X % & & , & & & & % $ X X $ # O O O O * # = - # @ X X X X . X . . X X O @ > Z X.M.U.U.H.U.U.U.U.H.E.U.H.H.E.U.U.H.H.Z.OXZ.OXOXZ.OXZ.E.U.H.U.U.E.H.U.OXH.U.H.H.E.E.H.H.E.K.K.H.T.H.Z.K.K.D.K.K.K.K.K.K.E.K.K.E.K.D.D.K.D.*XD.E.D.E.K.E.T.D.D.T.E.E.D.T.E.T.T.E.T.R.R.:X:X/._._.2X_.2X2X).!.<X<X:X&XR.R.T.%XT.E.R.T.E.T.T.T.E.T.T.E.E.E.E.D.T.E.E.K.E.K.K.D.K.K.E.D.K.K.K.K.K.K.K.K.G.E.H.G.K.D.K.H.K.H.Z.G.G.G.F.K.G.U.Z.U.Z.U.Z.P.Z.U.J.F.F.b.B.J.U.P.P.P.Z.P.P.Z.I.Z.L.t.U.L.Z.P.Z.B.B.Z.L.P.B.B.B.B.M.B.U.M.B.B.B.P.U.B.B.B.M.P.P.B.B.P.L.P.P.B.m.W 3 o     . X o O O X X @ < > > 2 > $ O @ o 6 Q.D $   X O $ % % # Q.Q.D { { =.. { Q.D =.* X   2 *.D 6 2 8 0 B G B |  .X.+.%.%.$.o.J x c 0 # . X . X X X X X @ 8 V ..+.X.+.X.X.X.@...X.@...O.........@.@.@...@.@...@.@.@. .@.| | |  .Q | | Q | | Q G | H | V | V G | V G G | V G V V G V V V B V ",
"| G | G | J | | | | J | | | |  . .@.| @. .@.@. .@... . .........O...O.O.O.O.O...O.O.O.O.O.O.o.+.o.o.X.+.+.+.+.O.+.+.+.o.| 3 O X o + o X X 2 F F c x m W ..X...+...V 9 > > + X X . . X . .   .     .       . o * % % & % # & # # + X X O O @ O O O O O @ $ O X X O O O O + O X X O O @ @ x ..m.U.U.+X@XU.+XU.U.U.U.U.+X+X+XE.qXU.OXOXOXZ.OXOXOXOXU.U.U.E.U.U.oXE.E.U.E.OX+XU.H.U.H.H.U.U.U.XXU.OXXXK.H.H.H.XXK.K.H.H.XXK.XXK.XX{.{.{.{.{.K.{.{.{.{.{.{.{.K.K.K.K.K.K.D.{.T.K.%X%X&X~./.1X1X2X2X2X2X2X_.1X/.:X&X%X*XE.%X*X*XK.{.%X{.{.{.{.{.{.K.{.K.K.{.XXH.H.K.H.{.{.[.H.[.[.[..XH.XXH.H.H.H.H..XU.U.H.H.U.U.H.H.U.U.U.U.J.H.U.U.U.U.U.H.P.U.P.P.U.U.U.U.U.U.U.P.Z.Z.P.P.OXP.Z.P.P.U.P.P.P.P.P.P.P.P.P.P.P.U.U.P.P.U.P.P.P.P.P.P.P.P.P.P.P.P.P.P.P.P.P.P.P.P.I.o.m = .   .   . . X   X X . . X O # @ O O $ O 6 Q.S + X X $ $ & # =.Q.Q.D { K 6 * Q.UXD 6 . .   S { =.X o $ % & , 7 9 m ..+.%.%.+. .F N c 0 % . . X X X . X X % w | O.+.+.+.+.O...o.o.o.o.O.o.O.o.o...O.o.............@. .@.@...@.@. . .@.| | | | | | | | | | | | | G | G V | | G G G G G B G G B ",
"| | | | | | |  . .| |  .@. . .@... .......................O...o.O.O.O.O.( +.O.O.O.o.+.+.+.+.X.+.$.+.$.$.l.O.+.o.+.n.%.o.| 3 X o * * o X . & 8 8 2 > 8 c v V @.X.H 3 & O X .   . .       .       . . . . . . X + % & % % % & # # $ X O O $ $ $ $ O O O $ O $ O O O O $ # # # # + @ $ # = 3 W l.B.OXU.U.VXU.@X0XU.U.@X@XU.IXU.E.IX@X+X+X+XE.+X+X@XoXoX@XE.0X@XU.oX@XoXoX@XoX@XoX+X0XU.@X@XE.@XE.@XH.XX+XK.XXqXH.XXqXK.qXK.XXK.qXK.{.qX{.XXXX{.XX*X{.{.{.{.{.*X*X*X*X*X*X*X*X%X*X&X:X<X1X1X`.2XjXjX2X2X1X1X/.<X&X=X=X*X*X*X*X*X*X*X{.*X*X*X{.{.{.{.XX*XK.XXXXqXH.qXXXXXXXXX{.XXXX{.XXXXXXXXXXXXXXXXU.qXH.U.U.K.U.U.OXU.E.U.U.+XU.U.U.U.U.U.U.U.U..XU.U.U.U.U.U.OXOXOXP.P.OXP.OXP.OXU.P.P.U.U.U.U.U.U.U.U.P.U.U.P.P.U.P.P.P.P.U.U.U.P.P.|.|.U.P.P.P.P..XP.P.U.P.I.Q 8 O X @ X X X X O o X X X X X X o @ O O @ X ) UXS $ X O $ $ : $ { Q.UXD UXD # 6 $XUXS 6     $ { D #   . X . . . X @ q | ..o. .| G 0 B x 6 % . X X X X o + X % q  .+.&.+.+.+.+.+.+.+.o.+.o.o.o.o.o.o.o.o.o.o...O.O...O... .O.O...O. .@. . .@. .@. . . . .|  .|  .| | | | G | | G | G G G | G G G ",
"| | @. . .@.@.@.| @...@. .@.......................o.o.O...o.+.+.+.O.+.+.+.+.+.+.n.+.+.+.+.n.&.&.n.$.n.$.n.n.n.n.n.n.n.+.V 3 O o + o O X . O : : # + X + O 3 ~ ..H :   . . .   .                 .           . o * % % $ $ & 2 # $ $ $ = : : : = # % # : : # # = # # > > 3 3 2 3 > > , > , z Q M.U.+XVXE.+XIXE.@X@XVXE.VXU.0XIXU.@X@X@X@X@XoX@X@X@X@X0XoX@X0X0XoX@X@XoXE.E.@XE.@XE.0XE.0X@X0XE.@XXXqXqXqXXXqXqXqXqXXXXXqXqXXXqXXXqXXXqXqXqXqXqXqXqXqXqXqX*X*XqX*X*XqX*X*X*X=X=X,X>X1X1X_.2XkXjXlXkX2X5X2X1X1X,X-X-X-X;XqX*XqX*XqX*X*XqX*XqXqX*XqXqX*X7XqXXX*XqX*XqXqX*XoXqXqXXXqXXXqXXXXXXXoXoXXXH.+X0X0XH.0X0XH.U.@X@X@XH.E.@XU.E.U.oXU.oXOXoXU.U.0XU.IXU.U.E.U.OXOXOXOXOXP.OXOX.X.XOX.XU.OX.XOX.X.X.X.X.X.XOXU.U.U.U..XOXP..X.XOXP.OXU.U.U.OXU.P.U.|.OXU.P.l.B > # # : > : = # : # @ $ * O O # @ + $ $ # $ { Q.=.O O $ O $ = # Q.Q.D } { =.  K Q.K =.* .   =.{ =.X . .           X 8 J @.J c 3 2 2 3 3 & * . X X X X % + X % q  .+.&.&.+.+.%.+.n.+.+.+.&.o.$.+.+.+.o.o.o.o.+.O.o.O.O.O.O...O...O.O. .O.O.O... ... .@. . . .@. . . . . . .| |  .| | | | G G | | ",
"@.@.@.@...@.........................O.o.+.O.+.+.+.+.+.+.o.+.+.+.$.$.&.&.&.$.&.&.&.&.&.&.&.n.&.&.m.n.n.m.m.I.m.m.m.m.m.+.~ > o X o o X X     X o . .       2 @.X.@.: .   .   . .                   .           o * % % % & : 3 2 2 2 2 3 4 5 3 3 > 2 > > 2 3 , > 3 3 3 8 8 9 8 8 3 4 3 3 3 3 M h.U.VXE.IXU.E.VXIX0X+X0X+XqXqX0X0X0XoXoX0XoX0XoX0XoX7X0X7X0XoX0X0X0XqX7X0X7X0XqXqXVX0X7X0X7X7X0XE.qXqXqXqXqXqXqXqXqXqXqXqXqXqXqXqXqXqXqXqXqX9X9XqX-X9XqX-X9X7X;X9X9X-X9X-X-X=X,X>X1X1X2X2XkXvXvXcXcXvXkX2X2X1X6X>XwX-XwX-X-XwX9X-X-X-X9XqX9XqX9X9X9X8X9X9X7XqX7XqXqX9X7X7X7X8X7X7XqXqXqXqXqXqXXXXXE.0X+XqXqXU.qX+X0XU.0XU.0XH.0XU.@XU.0XE.IXU.E.U.E.U.0XU.E.@X+XIXOXOX+X+X+XXXOXXXOXOXE.OXOXXXOXXXOXOXE.OXXXOX.X.X.X.X.X.X.X.X.X.XU.+XOXU.U.OXU.U..X.XOX.X.XN...x : : 2 3 3 8 3 > > > > > > > , - > : : > 6 6 UXUX=.$ # # & # # 6 Q.Q.D UXD =.+ Q.Q.D =.      { D 6   .             X 0 | X.~ 2 X o . o + o . . . . . . o + X + q | +.&.+.+.+.$.&.+.%.+.+.+.+.$.+.+.+.+.O.$.O.$.O.o.o.o.O.O.O.o.O...O.O...O.....O... ... . . . . . . . . . .|  . . .| | | | | | G ",
"@.........................o.....X.O.O.X.X.o.X.+.+.+.+.X.+.+.&.+.&.$.&.&.&.&.&.&.&.&.I.m.m.&.m.I.n.n.m.m.m.I.I.I.n.m.m.+.V 8 . . o           . . . .       3 ~ X.~ : .   . .       .             . .             o * % * % : 3 4 4 4 x 8 x x 8 4 7 3 8 4 5 9 8 3 7 9 4 8 8 8 8 3 4 4 4 3 3 > m m.E.VXVXVXnX0XE.0X0X0XqX0X0X0XVXE.0X0X0XoX0X@X0X7X7X0X0X7X0XE.E.tXqXqXqX7X7XH.qX7X7X7X7X7X7X7X0X0X7X7XqXqXqX7XqXqXqXqX9X7X9X9XwX8X-X8X9X9X8X9X9X9X9X9X9XeXwX8X9X9XwXeXwXwXwX,X,X6X1X5X5XlXvXcXZXZXZXcXvXjX5X2X1X,X3XwXwXwXwXwXwXwXeXeXuXuX9X9X9X9X9X9X9X9X8X8X9X9X8X7X8X8X8X0X8X7X0X7XqX0X7X0XqXqX0X7X7X0X7X0X7X7X7XqXqXqX0X7X0XqX0X@X@XVXE.0XVXIXVXVX0X0X0XU.IXU.OXOX+XE.+XoXoXoXoXoX+XOXoXoXXXOX+X+X+XoXOX+X+X+XOXOXXX+X+X+XXXOXU.OX+XOXOX+X+XOX+X+XOX+X.XM.) x ; 3 3 8 z z 8 8 z 3 3 8 3 4 4 3 8 4 8 8 5 S Q.UX=.2 2 3 5 2 = { Q.UXD UXD - 2 Q.{ D 6     6 { D #       X         X q ..+.@.3 . . . . . . . . . . . X o o X * q  .+.&.+.$.%.&.&.+.n.%.&.&.$.$.+.$.$.$.$.$.$.$.+.+.o.+.o.O.O.o...O.O.O.......O...........O.( O. . .@. . . .|  . . . .| | | | | | ",
"..........X.....X.....X.X.o.+.X.O...X.O.X.+.+.+.+.X.+.+.+.+.&.m.$.I.&.&.&.&.&.&.j.I.&.m.n.n.I.m.n.m.I.m.n.m.I.m.m.m.I.n.J 8 X . X X   X     X X           : H @.V #   X .                                     X o % & % & : 2 4 4 8 8 x x 8 4 4 3 3 8 3 4 4 3 9 3 3 3 3 3 3 3 3 3 3 3 3 3 3 M v.U.VXE.E.0X0XVXVX0X7X0X0XqX0X0X0X0X0XwXoX0X0XoX0X7X0XoX0X@X0X0X0XqX0X8X7X0X7X7X7X7X7X7X7X7X0X7X8X9X7X8X8X9X9X7X9X9X9X8X9X9X9X9X9X9X9X9X9X9X9X9X9X9X8X9XaX9XwX9XwX9XwX3X,X,X3X6X4X1XkXlXvXcXZXGXGXZXcXvXkX2X2X1X4X3X3X3XiXwXwXuXwXwXwXeXwXeXuXwXeXwXeX9X9XwXeX9X8X8X8X8X8X9X8X9X8X8X7X8X0X8X8X0X7X8X7X7X7X7X7X7X7X0XqX7X0XqXqX0X0XVXE.0X0X7X0XIXE.0X0X0X0X0X0XU.0X@XOXOX@X+X+X+XoX@X+XXX+XoXXXoXOXXX+X+XoXXX+XOXXX+X+XXXXXXXoX+XOXXX+XXX+X+X+XoXoXXX+X+X+XXXv.( 4 > 3 4 4 8 4 4 4 3 3 3 3 4 4 3 z 4 8 8 8 5 K Q.{ 6 4 4 3 3 2 - Q.Q.D D UXS + D Q.{ S $     K D =..                 X c ..$.@.5 . . . .   . . . . . . . . X   # q O.&.%.n.%.n.%.%.n.+.+.%.%.&.%.%.n.$.&.$.$.$.$.$.+.+.+.+.+.+.+.+.+.+.O.O.O.O.O.O.O.O.O...O...O. .O. . . . . . .@. . .| | | | | | ",
"..................o.O...o.o.o.o.O.o.O.X.+.+.+.n.&.$.&.+.&.m.m.+.&.2.I.&.%.j.&.&.%.&.&.n.&.I.j.I.m.I.I.L.I.m.m.I.m.m.N.+.@.c +     X     X       .         O 0 S 8 O     .                                       o * * # $ & 2 5 4 4 4 4 4 3 3 2 > 2 2 2 > > > 3 2 > > > 2 2 3 2 3 7 3 > 3 3 Z M.U.nXVXnX0X0X8XVX0X7X0X0X0X0X0XqXwX0XtX0XwX0X0XwX0X0XoXwXwX0X0X0X0X0X8X0X0X7X0X8X8X8X0X7X8X8X8X8X8X8X9XrX8X8X8X8X8X8XeXwXrX9X9X9X8X9X9X9X7X9X9X9X9X9XwX9XwX8XwX9XwXwXuXuXiX4X4X1X2XkXvXvXcXGXGXGXGXZXcXlXkX5X1X4X4X3XwXwXuXuXuXuXuXuXwXeXwXaX9X9XeX9X9XrXrXeX8XeX9X8X8X8XeX8X8X8X8X8X8X8X0X8X0X8X0X8X0X7X7X7X7X0XIXE.7XU.qXqXqX0X7X@XVXE.7X0XIXIX0XVX@XE.0XU.IX@XOXOXE.OXOXE.oX+XoXOXE.OXXXOXOXXXXX+XXX+XOXOXXX+XXX@X+X+X+X+X+X+X+X+XoX+X+X@X+XXXoXXXXX+XXXM./ z 3 3 3 3 3 3 3 3 3 3 2 2 3 3 3 3 3 4 3 8 6 } Q.{ 6 3 4 3 3 = S Q.UXD UXD =.$ Q.Q.D =.X   : { S 6   .                 w | ..J 2 . . . . o X . . . . . . . . . e G ..n.I.I.I.I.n.I.I.I.I.I.n.n.I.%.n.n.I.n.n.%.%.%.%.%.+.%.+.+.n.+.+.+.+.+.+.+.+.+.+.o.+.O.O.O.o.O.O.O.@...@.....@. . ...@. . .|  .",
"@.....@.@.........o...o.X...O.X.O...o.+.X.+.X.n.&.&.&.l.m.&.+.m.&.&.&.n.&.m.I.n.I.n.m.m.I.m.I.m.L.L.L.N.m.I.L.I.N.I.I.m.X.B $   . .     o                   % 2 %                                               o * + # & : > 2 3 3 3 3 2 3 2 > > > 2 > : > 2 2 2 > , > 2 > 3 2 > 3 3 3 3 3 Q M.U.IX0XIX0XIX0X0X0X0X0XqXqX0XqX0X@X0XtX0XwX0X0X0X0XwX0XtXtXwX0XwX0X8X0X0X0X8XeX8X0XeX8X0X8X8X8X8X8XeXrXeXwXrX8X8X8XwX8XrX9X9X8X8X9XuX9X9XwX8X9X9X9X9X8XuX9X9X9X9XwXwXuXwXwX3X4X1X5XjXvXvXcXZXGXGXZXZXcXzX5X5X1X4XiX,XwXiXuXwXuXuXuX9X9X9XeXuXuXeXeX9X8X7X9X8XeX8X8X8X8X8X8X8X8X8X8X8X8X8X8X8XtX8XwX0X8XVX7X0X7X0XqX0XqXU.XXqX+XqXE.+XH.E.VXIXE.IXU.U.0X0XH.0XE.@XE.OXOXE.@X@X+X+X+XXXOXOXOXOXOXXXXXOX+XXXU.+XXXOX+X+XOX.XOXOXXXOXOXOXOXXX+XXX+XXXXXXXXX+XXXF.' b 3 3 4 3 3 3 2 5 3 > > 2 2 3 > 2 > 2 2 2 - { Q.{ 6 2 2 2 2 # { hX{ D UXD : S Q.UXD 6     S { S $                     : B J c %   . . .   o . . . . . . . . . 2 G +.I.L.L.L.L.L.L.L.L.L.B.L.L.L.L.L.L.n.I.I.I.n.I.n.n.n.+.n.&.%.%.n.$.&.&.$.$.+.+.+.+.+.$.$.+.+.+.O.O...O.O.....O.......O.O.O. .@.",
"....@.....@.....O...X.O...o.O.O.o.o.X.+.+.+.+.+.&.X.&.&.X.&.m.&.I.j.I.I.m.m.m.m.m.m.I.I.I.m.M.I.L.B.B.L.L.m.M.M.N.I.N.m.X.V >     .   o     .               X                                                   . + % % > , , > > > 3 2 2 3 3 2 , 2 > , 2 , : 2 , > 2 2 2 3 7 > 3 3 3 3 3 4 h.J.H.IXE.VXE.VXVXE.oXqXoX+X+XXX.XoXoX0X0X0X0X0X0XtX0X0X0X0X0X0X0X0X7X7X7X0X8X0X7X0X7X7X7X7X8X7X8X0X7X0XtX8XtX8X7XqX7X9X7X8X8X9X8X8X8X9X9X9XwX9X8X8X9X9X9X9X9X9X8X;X9X9X9XwX,XwXwX6X4X2X5XkXvXcXZXcXcXvXvXkX2X1X4X>X,X,XwXwXwX9X9XwX8X9X9X9X9X9X9X8X9X8X9X8X8X9X8X9X8X9X0X7X7X7X0X7XqX7X0X0X7X7X7X7X7XVX0XE.qXH.qX0XU.H.H.U.U.U.H.U.U.U.J.U.U.U.U.U.U.U.U.U.U.U.IXU.OXOXOXOX@X@X+XVXoXXXoXOXOXXXXX+X+XXX+XOXOX+X+X+X+X+XOXOX.XOXOXOXOX+X+X+X+XXXOXOX+X+X+XXX+XF.l.Z 4 3 3 4 4 3 3 > > 3 2 3 3 3 3 2 > 2 > > - Q.Q.D 2 : > > : 1 Q.Q.{ D { =.$ { Q.{ S #   X { D =.                      . # > #     .   . o   . . . . . X . . X 7 J +.L.L.N.I.L.I.N.I.I.m.L.B.L.m.I.L.m.I.n.I.n.n.I.m.n.n.m.n.I.n.n.I.j.&.&.%.$.&.&.&.$.+.&.&.$.&.+.X.+.X...O.O...X.....O.O.O.( @.O.",
"..@.......O.......X.+.X.X.o.X.X.X.+.+.X.+.+.n.+.+.&.m.+.&.m.m.m.&.%.I.j.m.j.I.I.I.L.M.I.M.I.M.B.N.B.L.B.B.L.L.B.B.L.P.N.X.~ >   o   .                     . . .             . .     .       . .                   o + & , 2 > 3 7 3 3 3 3 3 3 > 2 > 2 > : 2 2 : 2 > > 2 , 3 > > 7 > 3 7 3 g j.J.0X0X0XE.IXU.U.IX0X+XXXU.U.U.U.XXOXOX+XOXOX+X+X+X+X+X+XOXU.OXXXU.U.0XH.E.qXU.U.qXE.+XqXqX0X0XE.0XqXqXqXqXqXqXqXqXqXqX7X7X7XqX7X7X7XqX7XqX9XqX9X-XqX7XqX*XqX;XqX=XqX=X7X*XqX-X-X-X>X1X1X2XkXjX5X5X5X5X1X1X6X>X>X;X-X9X-X-X-X*X*XqX9X9XqX;XqX9X8X9X9X9X8X8X0X8X7X7X7X7X8X7XqX0XqXqXqXqX7XqXXXqXU.qX7XU.U.H.U.U.H.H.K.U.U.U.J.B.J.U.P.B.B.B.F.B.B.B.U.U.P.U.U.U.U.U.Z..XOXOXOXOX+XOX+XOXOXOXXXOXOXOXXXOXXX.X.XOXOXOXXXOXOX.XOX.XOXOX+XOXU.OX+X.X.XOXOXOXOXXXoXXXF./ a 4 4 4 3 3 2 3 3 > 2 > > 3 7 > 2 > > > 6 Q.Q.D - 2 : 2 = S hXQ.D { D 6 : Q.Q.D =.o   6 { D 6                                       . . .   .   . . . .   o 0  .n.I.I.I.I.I.N.I.I.I.I.I.I.n.n.n.I.I.n.n.n.m.n.n.n.m.n.m.n.n.%.%.&.%.%.&.&.&.$.$.+.+.+.+.+.$.+.+.+.+.+.O.+.X.....O.X...( ........",
"X.o.o.X.X.+.O.h.+.+.X.+.X.+.+.n.X.l.X.n.m.X.n.l.l.+.m.&.m.m.+.m.I.j.&.I.m.I.L.M.M.L.P.B.P.P.P.M.L.L.B.P.P.B.B.P.B.L.L.B.n.@.8 X   .     .               . X o . X . o o o X o o X . o X . X * o X X . X         . X + & , 2 2 > 3 2 2 3 3 3 2 , , > 2 2 2 : > 2 2 , 2 > > 2 2 > > > > 3 4 Z b.H.U.H.U.H.H.U.U.U.U.U.U.U.U.U.U.P.Z.P.Z.P.Z.P.Z.P.Z.P.Z.P.Z.P.J.J.H.U.U.U.H.XXH.XXH.U.U.qXU.E.H.U.XXK.H.qXK.qXqX*XqXqXqX9X-X7X9X9X9X9XqX-X7X9X9XqX;X7X-X9X-X9X9X9X9X8X9X=X-X-X-X&X>X>X1X1X6X4X5X4X4X4X4X1X6X>X>X,X-X-X-X-XqX9X*XqX*X9X-XqX;X9X9X9X9X8X8X9X9X8X7X8X8X9X7X7XqXqXqXH.qXH.H.XXU.K.U.H.H.H.U.H.U.H.U.U.U.H.U.U.J.U.B.U.U.U.P.U.B.U.L.B.U.B.B.B.U.P.U.P.P.L.t.P.Z.P.P.Z.Z.P.P.U.U.Z.L.P.U.U.P.B.B.P.P.Z.P.U..XP.P.P..XU.U.P.U.U.U.U.U.U.U.U.U.+XqXqXK.6.N 2 2 3 2 > > 2 > 3 2 2 > 2 3 > 2 > , , 6 Q.Q.D > 2 > 6 = { hX{ D { D 6 S hX{ S 6     K { S + X . . .     .   .         .         .         . .   . . . . # q O.%.I.n.I.I.n.I.n.I.I.I.+.n.n.n.n.n.m.n.n.&.+.n.n.n.+.n.n.I.+.%.$.$.$.$.$.$.$.+.+.+.X.+.+.+.+.+.O.O.O.o.o.........O...O....... .@.",
"X.X.+.X.h.o.+.n.o.+.l.+.n.n.+.l.m.m.l.m.m.m.m.m.n.m.m.n.n.m.m.m.m.m.n.M.N.L.P.L.B.P.P.P.L.P.B.P.P.L.B.m.B.M.m.m.m.m.n.m.X.@.z X . .     .             o . X X o * o * * % * % * * * * * * * * * * X X X X X       X o % : : 2 2 > 3 , 3 3 > > , , > 2 > 2 2 : 2 > , > > , , : : : # > 3 z Q z.B.U.J.M.M.m.l.m.m.m.m.m.m.m.M.N.N.B.M.m.M.B.B.B.B.B.U.B.J.H.U.H.H.H.E.0X+XqXH.0X7XqXU.qXE.0XU.qXE.E.qXqX7X7X0X7X7X9X8X8X9XrXrXwXeXwX9X9XeXsXeXuXwXaXwXuXuXuXgXuXuXuXuXuXwXwXwX3X4X4X5XzXcXZXZXZXZXGXZXZXcXvX5X4XiX,X,XiXwXwXwXwXwX9XwX8XwX9XaXwXuXaXuXaX9XaX9XrXeXeX8X8X7X7X9X7X7X7X7X0XqXXXXXXXXXXXXXXXXXXXXXXXXX.XXXXX.XU.XXU.U.XXU.XX.X.XU.U.B.P.M.P.P.P.B.B.B.M.m.M.m.M.M.M.M.B.B.M.m.m.l.m.m.m.n.2.+.X.+.&.&.l.m.m.I.M.m.M.L.N.M.N.m.m.M.m.M.N.P.B.U.+XqXT.C.C 5 2 3 2 > > > 2 2 > : , > > > > > 2 # D Q.Q.6 : 2 2 3 1 Q.Q.UXD { D : Q.Q.D S #   # { D =.o X o o . X . o o o X   . o X X .         .     .   . . . X . e G O.n.n.n.n.%.I.I.%.L.I.%.%.I.%.%.%.%.%.%.I.%.%.%.%.%.$.%.%.%.%.%.%.$.&.&.&.$.&.$.+.$.O.+.O.+.+.+.O.+.+.O.O.O.O...............@. . .",
"........X...o.o.O.X.+.+.o.h.l.+.+.+.+.+.+.+.+.l.+.l.l.+.m.m.n.m.m.m.m.m.n.m.m.m.m.m.m.m.M.m.m.m.m.l.m.+.+.+.X.o.......o...B 8 X   .     .                 . o * * o * * % * * * * * * % % % * * * o * o * X X X   X O % & : : : > > > > 3 , : : : : 2 , 2 2 & : : : : : , : : : , > > 3 x J X.h.X.X...~ ~ W W @.@.@.X.X.X.X.X.h.l.l.m.M.L.B.J.U.U.U.H.+XoXXXqXqX8X0X7X0X7X7XH.U.qXH.H.U.0XqX0X0X8X7X0X8XyXeXyXeXeXwXeXeXeXwXeXgXsXgXgXgXgXgXgXgXgXgXgXuXgXgXgXgXgXwXuXwXwXiX4XpX5XvXcXGXHXJXLXJXJXJXHXGXcXzXzXpXpXiXiXgXiXuXgXgXuXgXgXgXsXsXgXsXsXgXsXaXaXaXsXsXsXgXyXgXaXyXaXaXsXsXeXyXrXyXrX8XtX8X8X8X0X7XqXqXqX7X7X7XqXqXqX+XXXXX+XXXOXU.U.B.M.P.B.U.J.P.P.P.J.P.B.M.M.M.L.B.N.M.n.m.m.n.X.X.2.+.O.@.@.O.( ..O.( ....X...X.X.X.X.o.X...X.X.X.X.&.l.m.U.qXT.6.Z 5 3 2 > : , , : : , : > : : : : : : # { Q.{ 6 : 2 2 : D hXQ.{ { { 6 S Q.Q.D =.X   =.{ D 6 X o o o o * * % * o o o * X * X . . .               . . . . . e | $.n.n.n.n.I.I.%.L.L.%.I.I.I.I.I.%.I.%.I.I.I.%.%.I.n.%.&.%.%.%.%.%.%.$.&.&.n.&.&.n.n.n.+.n.+.+.+.+.+...o.X.X...O.........@. .@.@...",
"V G G | | |  . .@. ......... .O.O.....O.....o.o.o.o.O.o.O.+.+.O.o...+.+.+.+.o.+.+.+.+.X.o.o.O.O.O. . .| G G G B B B B G G c , X   .   . . . . . . .     . . . o * o o o * * % * * * % & & & * o o X o X o o o X X X o % & , 2 & , : > > > > > # & : , > : & = : : : , : : > , , , > 7 3 8 V W @.| V J B B x c 8 B B B V V M ~ @...X.X.l.M.B.U.U.U.XXH.qXqXXXXXXXqXH.U.H.U.H.U.B.U.B.U.U.U.qXqX0X0X0XyX8XyXsXeXsXyXeXeXwXwXeXwXgXsXsXgXuXgXeXeXsXeXwX9X9X9X9X9X9X9XqXqX=X9XwXiXpXpXvXcXDXHXJXJXJXJXJXHXZXcXpXpXpXiXgXgXuXgXgXuXgXuXgXgXwXuXuXuXgXsXsXaXwX9XaXsXgXgXsXgXsXsXgXMXsXsXdXsXsXyXeXsXyXdXaXyXyXrXrXyXyXtX8XtX8X0X0X0X+XXXXX.X+X.XU.P.L.M.M.B.P.P.P.P..XP.U.P.P.P.N.L.B.N.L.N.m.n.%.&.&.$.X.O.....( O.( ..( O.Q H H H | J | J J V | J | @.@.| @.X.c.z.' N x 8 8 2 7 > > > , , : : : : : , & - # { Q.{ 6 - 2 2 # { hXQ.D UXD 6 UXhXUXS 6   X K K =.* o % * o o * * * * * * . * o X o . . .   . .       . .   . . o 3 J $.n.%.%.%.%.%.%.%.%.%.%.%.%.%.I.I.I.&.%.%.$.&.%.n.%.%.$.$.$.$.%.$.$.$.n.$.$.$.$.$.O.+.+.o.+.+.O.+.+.+.o.o.O.O.O.O.O.O....... ... .",
"w 8 w w B B B V G G G G G | G | | | G | | | | @.@. .| @.@. . .| |  . . ...@. .|  .@.| | | | | | G B B B q q w w 9 w w c q w 7 X   o . .   . . .   . . X o o o * o o X o X * * * * * & & & & o o X . X X o o o X     o % # : : 2 : : : , > , : : # : : 2 2 & 2 2 , : , 7 7 > , 7 9 7 9 9 9 q B B B B B q 9 9 8 8 0 q c B B B B J | ....o.+.m.I.L.L.U.U.P.U.U.U.P.B.B.P.U.m.m.m.n.m.m.l.m.B.U.U.U.0XH.0X0X7X0X8X0X8X7X0XqX7X0X0X8X8X8X9XrX8X7XqX0XXXXXXXXXK.H.H.J.G.H.G.G.K.*X-X,XiXpXzXvXcXZXZXZXZXZXZXcXzX5XpXuXuX9XwXuXuXwXeXwX9X9X8XrX8X8X8X8X8X8X8X0X8XrXrXaXaXaXaXaXsXaXgXaXaXyXyXeXyXyXrXyXyXyXyX8X8XtXyXtXtXtX0X0X0X+X+XOXU.U..X.XOXU.P.L.n.n.n.n.L.N.L.P.P.P.L.m.I.+.%.+.n.I.%.n.&.&.$.+.$.X.O.O.O.O.@.....@.| G B B q B B c q q B B B B B B B B V V M m c c 8 7 9 7 , 7 2 2 > > : & : , : : : : Q.Q.} 6 : & 2 6 Q.hXUXD UXS =.Q.Q.D =.#   : UXD 6   o o * * * * o o o o X X X X . . . . . . . . . o         o . o 7 | O.$.+.+.+.$.%.$.o.$.$.%.$.%.$.$.$.$.O.O.O.O.O.O.O.o.O.O.O.O.O.O.O.O.O.O.O.O.O.O.O. .O.O. . .@.....O. ...@. ...@. ...@.@.| | |  .| ",
"& , e 7 7 9 9 w q q q B B B G B G G B G B B B G G G G | | | G G | | B | G | | | G G | | | G G G G B G B B B q B q q B B G B 7 %     . .   X   X . . . o o * * * * o o X . * * * * % & & & * *   . X X o o o * X . . . % , , 2 , : & : : , 2 e 7 2 2 7 7 7 9 9 7 7 9 9 7 9 7 9 w 9 w 9 w 9 q q q B q w 9 9 9 0 0 B B G G G | | | J | | | ..O.o.+.+.+.n.+.%.%.%.%.n.$.I.I.I.%.I.&.n.+.n.+.+.n.m.m.L.B.B.U.U.U.U.U.U.H.U.U.H.qXU.qXXXqXXXXX+XU.H.U.U.U.B.B.P.J.J.J.B.J.B.B.J.F.K.qX%X&X,X6X3XiXiXiX4XpX4XiX3X-X;XqXqX7X7X7X8X0X7X7X7X7X7X0X7XqX0XXX7XoX7XoX@X0X0X0X0XtXtX0X8XtXnX0X0X0X0X0X0XoX0X0X0X0X0X0X@X@X@X@X0XoX@X+XOXOXOXP.U.P.P..XP.P.P.I.%.&.$.$.o.$.&.%.%.&.+.o.O.O......... .O. .O.O. .@... .|  .| | | G G G q w q z w w w 7 7 w q q q B q B q q q q q w q 9 9 w 7 9 7 7 9 9 7 7 2 3 > 3 3 > 6 Q.UXD 6 : & : D hXQ.UX{ UX=.{ hXQ.D =.$   D { =.# o o o * o o * * o X o o   X X o     o o . o . . . .     X   X o e | |  . . .O. . .O. . .O.O. .O. . . . .| | | | | |  .|  . .| |  .G | | | | | | | | G G B G G V G G | G | H | G | V | | | | G G G G G ",
"& , & & , , , 7 7 7 9 w w q q B B B q q B B B B B G G | | G | | | | | | | | G G | G G G | G | G | G G G G G G G G G B G G B w & X     .         . . o o * * * * * o o . X * * o o * % * % * X X X X o   * * * X X . . % , 2 7 7 e e & , 2 7 7 w 0 w q w q 0 q q 0 9 0 9 9 7 7 7 w w w 9 9 7 w 7 7 7 7 7 2 7 9 B B | |  . .O. .O.O...O.O.O.O.+.+.n.n.I.L.L.L.L.L.P.P.P.P.P.L.L.L.I.I.+.+.+.+.+.+.o.X.X.X.l.l.M.m.m.B.m.B.P.B.P.B.U.U.U.U.U.U.U.U.P.U.P.U.P.U.U.P.U..XU.U..XU.H.{.{.{.{.{.*X;X%X*X%X*X*X*X*XqXXX*XqX7X7X0X0X8X0X8X8X0X0X0X0X8X0X0X0X0X0X0X@X0X0X0XoX0X@X+XoX+X+X+X+X+X+X+X+XOX+X+X+X@XOX.XOXOX+XOXOX.XOX.XP.U.|.P.P.OX|.P.P.L.L.I.n.&.$.&.$.%.$.$.+.+.O.O...O. .@.| | | G B | | | | G | V | G G G G G B q q q q q q w w w w q q w 0 w w w 9 9 w w w 9 9 0 7 7 9 9 9 9 9 8 9 w 8 9 9 0 3 S Q.{ D # & 6 # UXhXQ.D D { =.hXhX{ D =.. + { D =.X X o * * % * * * o o X o     o     o o X o . . . . . .   X X   o e w B B q B G G G G | G G q | B B q q q q w q q q q B B G B B G q G q q B B G B B q q q q q q q q q q q q q q q w q B q B q q q q q q ",
"7 e 7 7 7 7 7 7 9 9 9 w w q q q q q q B q q q w B q B B G G | | | | B | B B q B B q B B B B G B B B G G G B B G B q B B B B 7 %           X X   .   o o * * * * o o * o o * o . X X o * * X     o o o o o o * X . . . * & e 7 w w w w 7 7 w q q B B | G G q q q q q q 0 9 7 7 7 7 7 e , & & & & , & % # : e 7 w q G | |  .O.O.O.o.+.o.+.%.%.%.I.I.P.P.P.P.P.P.P.P.P.P.P.L.L.L.I.I.+.+.+.+.O.O... .| | | | @. .@.....X.+.+.m.l.n.m.B.U.U.P.P.L.L.B.B.L.N.N.B.L.B.N.N.B.P.B.P.J.U.{.{.{.{.*X*X*X*X{.{.*X{.XX{.XXqXoXqX@XqXqX7X0X0X0X7X8X0X0X0X0X0X0X0X0X0X0X0X@X@X+X+X+X@XU.U.OXP..XOXOX@X+X+X@X0X@X@X+X+XOXOXOXOXOXOXOXOXOXP.OX.XP.OXOXP.P.P.P.L.L.L.P.P.P.P.P.|.P.L.L.I.%.&.+.+.O.O...O.O...o.O.O.O.O...O.+.O.O. . . .O. . ..... .| | | | | | G G B B B J B B B B G G G B | | B B q B B q q B B B q 4 D Q.Q.S # & : 6 Q.Q.Q.D UXD UXbXQ.{ D 6   =.{ S 6 . X o o o o * % * o * o X X X   X       . X . . . . . . X   X . o 7 q G B q q q q q q q q q B q q q q q q B q B B B q G B G q B B B G G B q q q q w w w w w w 7 w w 9 w w w w w w w w w w w w 7 7 7 7 7 ",
"w w w 7 9 9 w w q w z w q w q q q q q q q q w q w q q B q G G G B G B w w w w 9 7 w w w w w w w w w w w w w w w w q q q B w e %     X           . o . . o . o o * o * * * * * o o X X X o   o o X o o o o * % * X . o % , e 9 q q q w w w w q G | | | G J G G q q q q q 9 w 7 7 , & & & # $ + + @ $ % # % : , 3 w w B | | O.O...o.+.+.+.%.I.I.I.L.P.L.P.P.L.P.P.I.L.L.I.I.%.%.&.+.o.O..... .| G V B v v B B v B m B B m V J J H @.X.+.n.l.n.l.l.+.+.X.@.@.X.X...X.X.+.l.h.m.m.M.V.[.[.{.{.*X{.{.G.J.H.H.H.B.B.P.U.XXU.J.U.U..XH.U.U.XXXX.XXXOX.XOXOXOX+XOXOXU.U..XU.P.P.P.P.P.L.P.P.|.OX+X@X@X0X0X0X@X+X+X@X@X@X@X@X@X@X@X@X+X+X+XOXOXOXP.OX|..XOXOXOX+X@X+X@X+XOXOXU.P.L.I.n.+.+.O.+.+.&.&.&.%.I.%.I.I.I.I.I.%.$.+.o.+.n.n.n.n.%.$.$.$.$.%.$.$.O.O.o.O.O.o.o.O.o.o.O.O.O. . . .| | | | | | | G G G 6 D Q.{ 6 # 6 : S hXQ.UXD UXD Q.hXQ.D D $   { D =.+ . . . * o X o * % * * * * * o X X o o o . .   o .   o . X       % 7 q | | B q q w w q w w w q q q B G | G G | G | | | | G G | G G G G G G G G G B B q q q q q q q q w q w w w w w w w w w w w w w 7 w w ",
"B B B B B B B B B B G B B G B B B G B G G G B B B B G B G G G | G B B q w w w 7 w w 9 w w 7 7 7 7 7 7 w 7 w 7 w w w w w q w 7 %                       * o * * * % % % % % % % * * * * * * o * * * % * * % % e e % % % e 7 w w q q q B q q q q B G G G | B G G B G G G G G q w w w 7 7 7 e 7 , 2 , e e e 7 7 7 7 9 9 w B G | | O.O.O.+.+.n.%.%.n.n.I.I.I.n.n.n.+.n.&.$.n.o.o.o.O.O..... . . .| G J B B B B B B z c x 0 z x x x c v v V V V V V V V V V V m V m V V V V V J W @.@.] ] h.h.v.v.v.M.k.l.v.l.l.l.h.h.l.M.m.l.l.h.l.m.m.m.l.m.m.m.m.l.l.&.m.n.l.n.m.m.M.N.N.I.I.I.I.N.L.L.P.P..XOX@X@X@X@X@X+X@X+X@X@X@XtX@X@X0X@X@X@XIXOXOXOXOX+XOX+X@X+X@X@XVX0XVX0X+XOXU.P.L.I.%.%.$.&.&.%.n.%.n.I.L.P.L.P.L.P.L.L.I.n.n.I.I.L.L.P.L.L.L.L.P.P.L.L.L.%.L.%.L.L.I.I.I.%.$.$.$.$.O.o.O.O. . . . . .| G B 0 UXQ.} =.2 7 : { hXQ.UXD { UXhXQ.UXD D o 6 UXD 6 o o o o * * * * % % % & & % % * * * % % % * * * o * o         o   % w G |  .G B q w 7 w 7 w w w w w q | |  .| O.O. .O.O.| |  .| | | | | |  .| | | G G G | G G G G G G B G B G G B G B B B B B q q B q q B ",
"G G G | | | | | | | | | | | | | | |  .| | | @.|  . .| @. . . . . . .|  .| | | | | | | G G B w w 7 7 w 7 w 7 w w w w q w w w 7 & * o o   o   X   o * * * * % % & e e e e e e e & & % % & & % & & e & e & e w 7 w 7 e 7 w w w q q B B B B q q w q w q q q q B B B G G | | | G B B B B B B q q q w q c B c B B G B B | |  .O.O.+.%.%.I.L.L.L.P.L.L.P.L.L.L.L.I.L.L.I.I.I.L.n.n.$.$.+.+.+.+.+.%.+.o.........| G @.| | | J J ~ J J | | V V | | V ~ | | J | | ~ | ~ @.@.) @.! X.X.X.( ) X.) ) ( ] ] _ ] ] ] ) ) ] X.) @.@.....@.X...@.@.@.....@.X...X.X.X.X.X.X.X.X.X.X.+.+.#.m.m.n.n.L.L.P.P.P..XOX+XOXOX+XOX+X+X@X@X@X@XVX0XtXtXVX@XIX+X+X+X@X@X@X@X@X@X@X@X@X@X@X@X@XOXOXP.P.P.L.L.L.I.L.L.L.P.L.P.P.P.P.P.P.P.P.P.L.I.P.P.P.P.P.L.L.L.P.P. XP. XL.P.L.L. XP.L.L.L.I.%.%.%.%.$.$.$.O.O.O.O. . . . .| | S Q.Q.UX=.7 7 6 Q.Q.UX{ { D hXhXQ.{ { =.% D { S : * * % * % & & & 7 7 7 7 7 7 e e e e e e e & & & % * * o   * * o o % w B | | G q w w w 7 e 7 w 7 7 w q G | O.o.o.o.+.o.$.o.o.o.O...o.O.O.O.O.O.O.O.O. .O. .O. . . . .|  . . . .@.| | | | | | | | G G G G G ",
" .O.@.@. .O.......@.O.......O.....o.O.o...o.o.o.+.+.o.o.+.+.+.+.$.+.$.+.+.+.+.$.+.+.+.+.O.| B w 7 7 7 7 7 7 9 w w w w w w w 7 e & % o * o * o o * % % & & e e 7 7 7 7 7 7 w 7 e 7 7 w 7 7 e 7 7 w w w w w q q q q w q w q q q q q B q B q q w q w w w q q q B B G |  . . . . .O...O. . . . . .| | | | .. .O...o.+.&.n.I.L.P.P..XU..XOXOX+X+X+X+XOXXX+XOX+X+XU.U.U.OXU.U.U.P.P.P.P.P.L.P.P.P.L.L.L.L.n.n.n.n.$.n.m.m.m.m.m.+.l.l.m.n.m.m.l.m.l.+.m.l.&.l.n.m.l.m.m.m.M.M.M.M.M.M.B.B.M.M.M.M.M.c.c.M.v.M.M.l.v.M.l.l.m.m.m.l.m.m.M.m.M.m.m.B.B.B.P.P.B.P.B.P.B.P.P.P.P.B.P.P..X.X.X+X.XOXOX+XOX+X+X@X@X+X+X@X@X@X@X@X0X0XIX@X0X@XIX0X0X0X@X0X0X@X0X@X0X@X0X@X@X@X@X@X+X+X+X+X+X+X+X+X+XOXOXOXOXOXOXOXU.0XU.IXU.IXOXOXOXU.U.OXU.OX|.|.|.P.P.|.P.|.|.L.P.L.L.L.L.I.I.%.%.$.%.%.%.%.%.$.$.$.O.O.+.O.O.O.K Q.UX{ 0 q 0 D hXQ.UXD D UXhXhXUX{ { 6 & UX{ =.e e 7 7 7 7 7 7 7 w w w w w w w w w w q w w 7 7 7 e e e % % % & % & & e w q q q w w w w w w w 7 w w w q |  .o.$.n.I.n.n.n.I.n.&.n.n.n.$.n.$.$.$.$.+.$.$.$.$.+.X.n.X.+.O.+.O.+.+.o.o.o.o...O...........@... .",
"....X.O.X.X.+.O.X.X.X.X.h.+.+.l.l.+.X.X.+.l.X.n.+.m.m.m.m.m.m.m.m.N.N.M.B.N.m.L.B.L.m.I.n.+. .G q w w 7 w 7 7 9 w w 7 7 7 7 e e e & & & % & % & & e e 7 7 7 7 w w 7 w w w w 7 w 7 w w w w w w w w w w q w q q q w w w w w w w w w w q 0 q q q q q q q B G | | |  .O.O.o.o.&.%.%.%.I.%.&.&.#.o.X.+.+.+.+.n.m.I.N.P.P..XOX+X@X0X0XVXnXnXtXtX0XnXnXtXtXtXnXtXtXtXtXVXVX0X0XIXIX0XqX0X@X@X+XU.+XoXU.U.U.U.P.U.U.U.U.U.U.H.XXU.H..XH.H.K.H.H.U.XXH.H.[.H.XXXXXXH.XXXXXXXXXXXXXXXXqXqX*X*X*X*XqX=X*XqXqX*X*X{.{.*X{.{.K.K.K.XXU.XXXXXXqXXXXXqX0XqX0X0X0X0X0X0X0X0X0X0X0X7X0X0X0X0X0XtXtXtX8XtXnX0XtXnXtXnXyXyXnXtXtXyXtXnXtXyXnXnXyXtXtXnXnXtXnXyXnXnXyXtXyXyXnXtXtXyXVXyXnXtXnXnXVXnXyXtXnX0XVXtXtXnXnXVX0XtXVXVX0XVXVXnXVXVXVX@XVX@X@X@X@X@X+X+X+X+X+XOXOX|.#X|.|.|.P.L.P.L.L.L.L.L.L.L.I.L.L.I.%.%.$.$.{ Q.UX{ S B 9 UXhXQ.UXD { hXhXQ.{ { D 6 S UXD =.w w w w w w w w w w w q w w q q w w q q q w q w w w 7 7 e e e 7 e e e e 7 7 7 w 7 7 w 7 w w w w w w B G O.O.I.I.L.P.L.L.I.L.I.I.L.I.I.I.I.n.n.I.I.n.m.n.n.I.n.n.n.m.n.l.n.n.l.n.X.n.n.l.&.$.+.+.+.X.o.O.X.+.",
"h.+.h.+.+.h.X.h.h.+.h.o.+.$.l.n.l.+.m.m.m.l.m.m.M.m.M.N.M.M.B.B.B.P.B.B.P.P.U.B.U.B.U.B.B.M.l.+.O. .G G B B G B B B q q w w e e & e & e e e e e e 7 7 7 7 w 7 w w w w 7 7 7 7 w 7 7 7 7 w 7 7 7 7 7 7 w 7 w 7 7 e 7 e 7 7 e 7 7 7 7 w 9 q B B B | | | | ..O.+.+.&.%.I.L.L.P.U.U.P.U.P.P.P.B.B.B.P.J.B.P.U.H..XXX7X0X7XyXyXyXyXnXaXmXaXsXMXmXsXsXsXsXsXsXsXnXsXyXyXyXrXnXnX8X0XnXyXyXtX8XnX8X0X0X0X0XqXqXqXoXoXqX0X7X7X0X7X8X8X8XrX9X9XuXgXaXuXeXeXrXeXrXeXaXsXsXuXsXuXsXuXiXiXiXiX4X5XzXpXpXiXiXpXiXiXiXiX4XuXuXsXsXwXeXeXeXeXaXaXaXyXaXyXyXeXaXyXeXaXsXsXsXsXaXsXdXsXsXdXsXdXdXdXdXdXMXdXfXfXfXfXfXfXfXfXdXdXfXfXdXdXsXsXaXdXaXsXdXsXsXdXdXsXdXdXdXdXdXMXdXdXdXMXaXsXsXsXmXsXdXsXmXsXmXmXaXsXsXmXsXnXyXnXnXsXsXnXnXnXnXnXnXnXnXnXnXnXVXtXnXtX0XVXVXtX0X0X0X@X@X+XOXOXOXOXOXOX|..X|.|.P.|.|.P.L.L.%.Q.Q.UXK B q =.Q.Q.Q.{ S Q.hXhXQ.D UX=.6 { { S 6 w w w w w w w w w w w 7 w w w w w w w w 7 w w 7 w 7 7 7 7 7 7 7 e e e e e 7 7 7 w w w w w w q q B |  .O.$.%.L.P.P.P.P.P.P.P.P.P.P.P.P.P.L.P.B.L.B.L.m.L.B.L.L.L.I.I.m.m.n.m.n.m.n.m.m.m.m.l.l.&.n.X.&.&.X.m.",
"..h.h.+.+.h.h.+.l.l.+.n.l.l.n.l.m.m.l.m.m.m.m.M.M.B.M.M.B.B.B.B.B.J.B.P.b.B.J.U.U.U.U.U.U.B.L.M.n.+.+.X.+.+.+.+.....O.| | B w e % % % % % % & e e e e 7 7 w w q w q w w w w w w w w 7 7 7 e e e & & & & & e & & % % % & & & & e e 7 7 9 c B | |  .....X.+.m.M.L.P.P.U..X.X.X+X+X+X+XXX+XOXXX+XoXXXXXqX0X0X0X8X0XtXyXyXaXaXyXaXsXdXaXaXsXsXsXsXsXMXsXeXsXsXsX8XrX8X8X8X7X7X8X8XyXyXyXyXnXyXyXeX9X8X8X0X0X0X7X0X0X8X0X0X8XtXrXuXaXsXsXgXgXgXiXgXgXiXiXiXpXfXpXpXpXpXpXzX5XzXpXpXkXkXlXvXcXcXcXcXZXGXZXcXvXzXzXzXpXgXpXgXgXgXMXgXfXfXfXgXgXgXsXsXsXsXsXsXdXsXsXdXdXdXdXdXdXfXdXfXdXfXfXfXfXfXfXCXfXfXfXfXfXfXfXfXdXfXdXgXdXdXsXaXsXaXsXdXsXsXdXgXdXdXdXdXfXsXdXsXdXsXdXdXsXsXsXsXdXMXdXsXaXsXaXnXmXnXmXnXyXgXnXnXyXgXnXwXnXnXnXnXMXaXyXyXyXnXyXyXyXnXnXtXnXtXtX0X0XVX@X@X@X@X+X+X+X+XOXOXOX|.|.|.P.P.N.Q.Q.Q.K | | K Q.Q.UXD D hXbXQ.UXD UX6 6 UXD =.e 7 7 7 e 7 w 7 w w w w w q w w q q w w w w w w 7 7 7 e e e e & e e e e e w q G G G G | | G | | | O.O.$.%.%.L.P.P.P.P.L.P.P.L.L.P.L.L.L.L.L.B.L.L.L.I.L.M.M.I.M.I.M.M.I.m.m.m.m.m.n.l.m.I.n.&.l.l.&.m.&.j.X.&.",
"......X.h.X.+.l.+.+.l.h.+.h.X.X.l.X.m.h.l.l.l.m.l.m.m.m.M.m.M.M.M.M.m.M.M.M.m.M.L.B.U.B.U.P.P.P.B.P.P.P.B.L.P.L.L.L.N.m.m...B 7 % % % % % & & & e e 7 w w B | | | | | | | | | | G B w w w w w e & % % % % # % * * % & e 7 7 7 w w c B B B G @.@.@.X.l.l.I.B.P.P.U.U.+X@XoX0X@X0X0X0X@X@XoX0X7X0X8X8X8X8XtXrXyXyXeXyXrXyXtXrXyXyX0XyXtXtXrXyXyXyX8XyXyXyXyX8XtX7X7X0X0X7X7X0X0X0X8XyX0X8XyXeX8X8X8X8X8X8X7X8XtX8X0X7X0X7X7X8XrXuXuXwXwXuXsXsXgXiXgXgXgXgXiXpXpXpXpXpX5XpXpX5X5XjX5XkXcXcXGXGXGXHXHXGXGXvXlXzX5XpXpXpXpXgXgXuXgXgXdXgXgXsXdXgXsXaXuXaXaXeXeXuXsXsXsXsXdXdXgXdXdXfXgXgXdXfXfXfXfXgXfXfXdXdXgXaXsXaXaXeXeXaXaXaXaXyXaXyXaXaXaXaXsXaXyXsXaXyXyXeX8XrXrXyXyXyXyXrXyXyX8XyX8XtXtXtX8XtXtXtX8XtX8XVXnXnX0X7XnXVXnXnXwXnXyXtXtXtXtXtXtXtXtXVX0XtXVXtX0XVX0X@X@X@X+XIX@X@X+XOX+XOX+XOXOX|.|.N.Q.Q.{ } o.K UXhXQ.UXS UXhXhXQ.D UXD o D { =.6 e 7 7 w w w q q G | | | | | |  .|  . . .| B G q q q q w w w 7 7 e 7 e e w B  .O.O.O.O.O.O.O.O.O.$.$.$.%.%.%.L.I.I.n.n.n.n.n.$.$.n.n.n.n.$.n.m.m.$.n.$.$.m.m.$.n.$.l.n.l.n.n.o.X.$...X.&.X.+.+.+.$.+.X.X.X.X.X.",
"V H H @.@.@.@...( @.@.@.Q @.@.@.~ @.@.@.@...X.....X.X.X.+.X.X.+.X.X.m.X.X.X.+.m.l.l.m.m.m.m.m.m.I.I.I.I.L.P.L.B.L.P.P.P.I.+.| q 7 e 7 7 7 7 7 w 7 w q | |  . .O.o.o.$.$.O.$.$.O.O.| | | | G G B w 7 w w 7 7 7 7 7 w w q | G | | | |  . . .O.o.+.+.m.m.I.P.U.OX|.+X+X0X@XoX0XoXqX+XqXqXoXoXqX0X8X0XtX8X8XtX8X8X8X8X0X8X0X7XqXoX7X+XoXoX0X7X0X7X7X7X7XqX7X7X7X7X7X0XVXE.0X0X0X7XqXqXqXqX7X7X0X8X8X8X8X0X0X8XeXwXyX9X7XqXqXXX0XqX8X7XqXqXqX-X-X9X9X-X9XuXwX9XwXuXuXiXuXiX4X1X5X5X1X5XjXlXcXcXZXZXGXGXGXcXvXjX5X5X4X4XpX4X4XwX9XwXeXuXgXsXgXsXgXwXeXeX8X8X8X8XyXrX8X8XuXaXsXuXaXuXeXaXeXuXeXaXeXyXeXeXrXrXrX8X8X7X8X0X8X7X7X7X7X8X8X7X8X8X0X8X8X0X0X8X8X0X0X@XqX0XoX@XqX@X0X7X0X0X0X0X0X0X0XoXoX+XoXoX@XoXXXVXU.U.U.IXU.U.@XU.U.VXU.@X@X@X0X@X0X@X0X@X@X@X@X@X@X+X@X+X+XOXOXOX+X+X+XOXIX+XOXOXIXIXOX|.|.Q.Q.UX{ L.*.Q.hXQ.{ D hXhXQ.UX=.{ =.6 { { =.=.B q G G | |  . .O. .O.O.o.o.o.o.$.o.$.O.O. . . .| | | G G G q q q w q q B  .O.O.%.$.$.%.%.%.$.$.$.$.%.%.$.$.%.o.o.O.O.O. . ... . . . .O. .|  . . . .@. . ... . . . .@....... .@. ... .@. ... .@.@. .O... . ...",
"w z z B B v V B B B B c B c q B c q c 0 B B J J J G G J J  . .J  . .|  . . . .........@.O.O...o.o.o.o.+.+.+.$.$.o.&.&.$.$.O.| q q q B G B G G B G G |  .O.O.o.$.%.%.%.%.%.%.%.%.O.O.O.O.O.O. . .| G | G G G G G G | |  .O.O.$.O.o.%.%.%.%.%.%.%.%.I.L.P.P.P.OXOXOXOXOX+XOX+XOXU.OX.X+XOXOXXXoXoXoXqXXXoX0X0XoX7XoX+X+XXXXXH.U.U..X.XU..X.XXXXXXXXXXXXXXXXXXXXX+XoX0X0X@X@X0X@X0X+XXXH.XXXXqX0X8XqXqXqX0X8XtX8X9X8X0XqX+X0XXX0XXXoXXXXXXXK.XXK.K.qX*X*XqX*XqX*X=X-X9X=X,X6X<X<X<X<X1X5X5XpXzXkXzXvXzX5X4X1X1X6X4X1X4X4XgXwXwX9XwXrX9X9X8X9XrX8X8X0X0X7X8X0X0X0X7XqX7X7X0XqX7XqXqXXXqXqXXXXXqXXXXXXXXXXXXX.X.XXXU.+XOX.XXX.XXXXXXXOXOXXX.X.XOX.XOX.XOXOXU.OXP.U..X|.OX|.OX|.OX|.OXOXOX|.OXP.OX|.|.|.OX|.P.|.|.|.|.P.P.P.P.|.|.P.P.OX|.|.OXOXOX|.OX|.|.|.|.|.OX|.OX|.|.P.OX|.OXOXOXOXOX|.OXOX|.OX|. X$XQ.Q.UX*. X XQ.hXQ.D UXbXbXQ.K D { | { { D S  .O. .O.O.O.$.+.$.$.%.%.%.%.$.%.%.%.%.%.%.$.$.o.O.O.O.O.O.O.O. .| | | G |  .O.O.o.$.o.$.$.$.O.O.O.O.O.O. .O. . . . . . .| | G G | | G | G G G G G G G G q G G G G G G G G G G G G G G G G G G G q G G G G G G G ",
"& , , 7 7 7 9 7 3 7 7 2 2 7 e 7 2 7 e 2 7 7 7 9 9 9 w w c q q B q q B q B B B G B B G B B B B G G | | | | | | | |  . .O.| | G B G | | | | | | G G |  . . . .O.O.O.O.O.O.o.$.%.%.$.$.O.O.o.o.O.O.O.O.O.O. .O. . . . .O.O.O.%.%.%.%.%.I.I.%.I.L.%.%.%.%.L.P.P.L.L.P.P.P.P.P.P.P.P.P.L.P.B.B.P.P.P.P.U.B.B.P.P.U.P.P.U.B.P.N.L.B.P.B.L.N.M.L.U.J.P.P.P.P.U.P.U.J.U.U.U.U.U.P.U.U.U.U.J.U.B.B.U.U.U.U.P.U.U.U.qXU.XXXXXXXXU.XXU.XXU.U.F.J.U.U.U.U.J.J.U.K.G.J.H.K.XXK.E.E.=X3X<X<X<X/.^./.^.^.<X<X<X<X<X<X:X<X>X<X3XwXgXuXwXwX9X9X9X8XqXXXXXqXXXqXXXXXXXXXXXqXXXXXH.XXH..XXXH.U.U.J.U.H.U.P.U.P.U.B.U.U.U.U.U.P.P.U.P.P.P.U.U.P.U.P.U.P.P.L.P.P.P.L.P.P.P.P.P.L.L.L.P.L.L.L.L.L.P.L.L.P.P.L.P.L.P.P.P.P.L.L.L.P.P.L.L.L.L.L.L.L.I.L.L.L.L.L.L.L.P.L.P.L.L.%.L.L.L.L.L.P.P.L.L.L.L.P.P.L.L.I.L.L.L.L. XUXhXQ.UX*. X$XhXQ.Q.UXhXhXhXUXD } K { K D =.) I.%.%.$.&.%.%.I.%.%.%.%.%.%.$.%.$.$.&.%.%.&.%.%.&.%.$.O.O.O.O.O.O.O.O.O. . . . .O. . .O. . . . . . . . .|  . . .| | | | | | | G G G G G G G G q G G G q q G G q G B q q q q q q q q w w q G w w q w q q w q w w ",
"& % % % % % % % % % % % % & % % % % % % % & & & & 7 e 7 7 7 7 7 7 7 7 7 9 9 w w w w 7 7 w 7 w w B q q q q q q q q q q q q w q q B G G | | | G G G G G | |  .|  .|  .| | | O. .O. . .O.O.O.O.O. . . . .O.O. . .O. . .O.O.O.O.O.$.$.o.$.$.$.%.%.O.O.O.$.O.$.$.$.$.+.&.%.$.$.$.$.+.O.O.o.$.&.%.&.&.&.&.&.+.O.+.$.%.+.+.+...o.+.+.+.$.$.&.$.n.&.n.m.n.n.m.n.n.&.&.%.n.m.&.+.+.&.n.L.N.N.m.l.+.l.l.+.X.X.l.m.L.m.M.M.M.N.L.L.m.m.n.M.N.M.M.M.m.l.M.M.M.v.M.b.c.M.J.J.C.b.K.E.=XR.:X:X:X:XW.W.d.:X:Xd.<XR.R.R.R.E.E.R.E.=X=XK.G.H.XXqXXX[.J.B.U.P.J.U.J.B.B.J.P.B.U.L.N.m.m.m.L.m.n.m.m.N.I.m.m.n.L.I.n.I.I.L.I.I.L.I.I.%.I.%.I.n.N.n.n.I.I.n.n.%.m.m.%.n.%.n.%.$.%.%.$.$.$.%.%.$.$.$.%.I.%.%.%.%.%.%.%.%.%.%.$.$.%.$.&.&.&.%.%.$.%.$.$.%.%.$.%.%.%.%.%.o.$.$.%.%.%.%.%.I.I.%.%.%.%.%.%.%.%.$.$.$.O.$.O.UXhXQ.UXO.O.Q.hXQ.UXQ.bXbXQ.D D { {  .D D =.$.%.%.&.&.&.&.&.$.$.$.$.O.O.$.O.O. .O.O.$.$.$.O.O.O.O.O.O. .O.O. .O. .O. .O. . . .| | | |  . .| | | G | G | | | | G | G | | | | | G G G G G G q G G G G G G q q G B q q q q q B G G q q q q q q q w w q q w q w q ",
"% % % % * * * * o % % * % % * * * * % % % & & & & & & e e e e e e e e e e e 7 e 7 7 e e 7 7 7 7 w 7 w w w 7 w w w w w w w w w w w q q B q q w w w q w w q q q q q q q q q G G G G | | | | | G G G G B q B G G G G | | | |  . . . . . .| | | | | G | | | | G | | | | | | | | | | | |  .|  . . . .|  .| | | | | |  .| | | | | J | |  . . . . . . . . ...o...O. .O...O. .| | | @.O.o.o. .| | |  .|  .| |  .........X...o.O.@.@.@.............@.@...@.@.@...X.X.X.X.X.X.h.j.t.j.j.t.t.j.7.t.y.Y.R.Y.Z.7.2.4.j.2.j.C.C.b.v.h.h.m.B.B.M.m.&.l.l.m.+.+.........X.X.+.X.......O...................O.+.O.O.O.+.o.X.+.+.O.......O...o.......o.O.O.o.+.h.+.O. . . . . . .| | | |  .O.O. . . . .O.O.O. . . .$.O.O. . .O. . . . .O.O.O.O.O. . .O. . . . . . . . .| |  . .O.O.o.o.+.o.O.O.O. .O. .O. . .O. . .G Q.hXQ.UX .{ hXbXQ.UXhXhXhXUXD S { K K D =.S $.O.O.O.O.O.O.O.O. .O.O. .O. . .|  . .O.O.O. . . . .|  .| | |  . . . .| | | |  .| G G G G G G G G G G G G G G G G G B B G G G G B G G G G G G G G G q G q q q G q q G q q q q q q q q q q q q q q q q w w w w w w ",
"* * * * o X X o o o o o o o X X * o * % * % % % % & & & & & e & & e e & e e e e e e e e e 7 7 7 7 7 7 7 7 7 7 7 7 w 7 7 7 w 7 w 7 w w w q q w w w w w w w w w 7 w 7 w w w w q q B q q q q q q q w w w 7 7 w q q q q q q B q G q q G q w q q q B B q B B B q q w q w w q q B B B B B | | q | B | B B G B B q B B q G B G B B B q B q | q B q B B q B | G G G G G G G B B B B B G B | B B q B B B G G B B B B B B G G B B B B G B B G G G B B B B B B B m B | B V J J Z ~ ~ ~ W W Z Q Z A h.h.j.h./ Q @.Z W V ! ( X.( ~ @.~  ...@.~ @.~ | | J | V G G G B B G G G | B B G G G | G G G B G G | | G G G | | | | | | | | B  .| | | | | | | | |  .X.! | G G G G G G q q q B | B | B B G G | G G G G G G | G q G G G G | G | G | G | | | G G G B G G G G G q G G G G G | | | | | | G | | G | | | | | | K Q.hXQ.UX=.UXhXhXhXhXhXhXQ.D D D K D S S 6 G G |  .| G G | G G G | | | | G q G G | | | | G B B B q q B q B B B G G B q B G B B q B w q q B G q q G G q q q G q q q q q q q q q q q w q q q w q q w q w q w q q q q w w w q q q q w w w w w w w w w w w w e 7 w ",
"o o . . X o o o o . . o . . X X o * o o o * * * * % % % & & & & & & & & % e & e & e e e e e e 7 e 7 e e e e e 7 7 7 w 7 7 7 7 7 7 7 7 w w w w w w w 7 w w w 7 7 7 7 w w w w w w w w w w w w w w w w 7 w w w w w w w w w w w w w q w w w w w w q w w q q w w w w w w w w w q q q q q q q q q q q B q q q B q q q q q q B B B q q q q q q q B q q w q q B B q q q B B B B B w w w 0 w w q B q B B q B q q B B q q q B B B B q q c B B B B B B B B B B B B V G V B G B G G B V V V V | | Z Q Z ( Z Z @.Z | | V ~ V J J J G B V V m B V B B B V B G G B B B B B B B B B B B B B B B B B q B q B q B B B q B q B B q q q q q B B q q B q B B B B ~ B q q q B q q q q q q q q q q q w q q q q q w q w q q q w w q q q B q q q q q q q q q q q w w q q q q q q q q q q q q q B q q q q q w q q q q q q B Q.hXQ.D =.Q.hXQ.Q.hXhXQ.UXD D D D =.D S 6 q G B q q q q B q q w q q w q w q w w q w w q w w 7 w w w w w w w q w w w w q q q q w w w w w w w w w w w w w w w w w 7 w 7 7 w w 7 w w w w w w 7 7 w w w w w w w w w 7 7 7 7 7 7 7 7 w 7 e 7 w 7 7 7 e e e e e % e ",
". o o o o o X o o o   o X X . X o o o o o o . o * * * * * * * * % % % % % & & & & & e e e e e e e & & & e & & & e e e e e e e e 7 7 7 7 w 7 7 w 7 7 7 7 7 7 e e e e 7 7 w 7 7 7 7 7 7 7 7 7 w 7 7 7 7 7 7 7 7 7 w 7 7 7 w 7 7 7 w w w w w w w w w w w w 7 w 9 7 7 7 7 w w w w q w w w w w w w q q q q q q w w w q q w w q q q w w w q q q B q q q q q q q q q q w q q w w w 9 7 9 9 9 w q q q q q q B B q B q q 9 0 q 0 q w 9 9 q q 0 c B c q B B v B B B B G G B m B m v B m m V m V V V V J V W J V V J V V G V B B B V B B B B v B B B B B B B B B B q c B c B w q B q B B q q B q B q q q w w w w w q w w w q q q q q q w q w w q q q w w q q q q q B q q q q q q q q q q q q q w w w w 7 7 w w w w 7 w w q w w w w w w w q q w q w q w w w q q q q q B q q w q q q w w w w w w w w w w w w =.hXQ.Q.D =.hXhXQ.hXhXQ.Q.UXD S D 6 =.K 6 3 w w q w q w w q w w w w w w w w w 7 7 e 7 7 7 e 7 e e 7 7 7 7 7 7 e 7 7 w 7 7 7 7 7 w 7 7 w w w 7 7 w w w w w w w 7 7 7 7 7 7 7 7 7 7 7 e e e 7 e e e 7 e 7 7 e 7 7 e e & e & & e & e % & & & e % e e % % % % * * % ",
". . o . . X X X   o o o o o X X o X o * o o o . o o o * * * * * * * % * * * o % * * % % % % % * * * * * * * * * % % % & % & % & & & & & & & & e & e e & e e & e e e e e e e & & & e & e e e e e e e e e e e e e e e e e e e e e e e 7 e 7 7 7 7 e e e e 7 e e e e 7 7 e 7 7 7 7 7 7 e 7 e 7 7 7 7 w 7 7 7 7 7 7 7 w 7 7 7 7 7 7 7 7 w w w w w 0 w w w w w w w w w 7 9 7 7 7 > , , 3 7 7 7 9 9 9 w q w w w 9 w 9 7 9 9 7 8 7 3 9 8 8 8 9 9 8 0 z c c c v v c v B v v x x x v z v m m B m V m V m V V V m V V m V m m m v c B B c B c c c v c 0 c c c z 9 9 8 9 9 7 8 9 w w w 0 w w w w w q w w 9 w 9 7 w 7 9 9 9 7 w w 7 w w w 9 9 w 7 w w w w w w w q w q q w q q q q q q w w w w w w 7 7 e e e 7 e 7 e 7 7 7 7 7 7 e e 7 7 7 7 w w w w w w w w w q q q q w w w w 7 w 7 w 7 7 7 7 e e 7 7 7 w 7 D hXhXQ.=.UXhXhXbXhXhXQ.Q.{ S D D : K S 6 7 7 7 w 7 e w 7 7 7 7 e 7 e 7 7 e e e e e e e & e e e & e e e e e e e & e & e 7 e e , e e e e e 7 7 e 7 w 7 7 7 7 e 7 7 e e e 7 7 e e e e e e e e e e e e e e e e e e & & % % % % % * % % % % % % % % % * * * * * * * ",
"% % % % * * + + + $ % % % % % % + % # % % & & # % % % % + + + % % % $ + % % % % % % % % % % % % % * * % % % % % % % % % % % % % % % % % % & & & & & & e e e e & , e e e e : , e e e , e 7 & , e 7 e e e , , e & e e e & e e & & e & e e e e e e e e e 7 2 7 e , e e e 7 e , , , , > , > , > 7 2 2 7 2 2 , , > , e , , , > 2 3 > 2 2 2 2 7 7 7 7 7 7 9 7 9 9 7 3 e > 2 3 3 2 : : : > > 2 2 > 2 > 7 3 2 7 7 3 3 2 > 2 3 2 3 2 2 > > 3 3 5 3 3 z 8 z z z z z z z z c z a 8 a 8 x b v m m m v v v v v m m b b b b m b v x x z z x z z 4 z 4 8 8 8 4 z 9 z 3 8 3 > 5 > > 2 3 3 7 4 2 2 4 9 4 7 9 3 > , > 2 2 2 : 2 2 7 7 2 2 2 7 2 7 , 7 7 2 e e 2 7 w 7 7 7 7 7 7 9 w w w w 9 9 7 7 7 7 , & & % % & % e & & , : : , % & , % e e e e e , 7 e 7 e 7 7 7 7 7 7 7 7 7 e 7 7 e & e e & & & & & & & e 7 & UXhXhXQ.=.Q.hXhXbXhXQ.Q.UXD D D 6 6 K =.6 & & e e & & e & e e & & & & & e & % & % % % % % & % % * % % & & % % % * % % % % % * % % % & & e & & & % e e & e e & & & & e & e e & & e % & % % % & & % % e % % & % % % % * * o * * o o * o o o o o o * * o o . o . . ",
"7 3 2 > > > 3 3 3 7 9 3 3 9 3 8 3 9 8 8 0 8 8 z 9 9 7 8 3 3 3 7 2 7 7 3 7 3 7 > 7 7 9 9 9 7 9 9 w w w 0 9 9 9 8 9 9 z 0 9 9 w w 7 w 7 w 7 9 9 9 7 7 7 7 w c w c B B B B B m B B B B B B B V v V B m B V c v c c z z w c z z z z w w 0 w z c B v m m m m B B B m B B B m m m m v m V V V m m v x v m v m m m V M V V m M Z V W V J F v v b b b b b v x b b m m b v v m m m b m F H M F M N m m b N m b v N x x N x a x b N m N N N N M M Z Z P W Z Z W Z M Q Z I Q P P Z W Q ! ! ( ( ( ( ( ( ( Q Z Z Z Z Z Q Z Z Z Z Q Z Z N N N N b s b x N v b x v z x x b d x x v v b N M m b z z z z z z 8 4 z z z 9 4 5 7 5 4 4 3 3 2 3 2 3 3 > : , , 2 : : e e 7 , > 7 3 3 3 7 7 7 7 7 7 7 , , : # & = : : e e 3 7 3 9 7 > 2 > > , > > e 7 & & , > e 7 e 7 7 7 7 7 7 e e 7 7 7 7 e , e 7 e & & & & & & & # UXhXQ.Q.D Q.hXhXhXhXhXQ.UXD D D 6 D D 6 : # & e & e e % e e e , e e 7 3 7 7 7 e e e e , , & & = & & & & & & & & = % * * o % * o * * o o * * * % * * % % * % % % % % % % % % % % * * * * * * * * * * * * * o * * * o o o o o o o o o . o o o X X * * o o o X . o ",
"m B m B v B v m m V m m V V V V m V V H J W J J J H V V J V J m m m B m V M V m m V V J V V J | | @.@.@.| @.@.@.@.@.@.@.@.@.| J | G G G | | | | | | @.@.( ..o.+.X.....+.X.X.X.....X.+.h.+.h.l.+.l.+.+.l.X.....@. .@.@.....@.X.@.@.@.@.X.X.X.X.l.X.h.l.X.l.l.l.l.l.h.l.l.l.h.X.h.l.m.m.M.k.l.h.h.l.l.k.v.v.v.M.v.v.v.z.M.v.c.M.M.M.v.l.l.h.h.l.h.h.k.l.v.k.z.M.v.M.l.h.h.l.3.4.k.k.k.k.v.k.z.k.h.l.l.j.h.h.h.z.k.j.h.j.v.v.l.k.w.v.v.c.b.b.c.x.A.A.A.v.z.v.A.A.x.C.v.v.A.c.c.A.A.A.x.C.C.C.C.C.C.e.t.t.t.t.w.6.6.6.e.C.x.k.3.3.4.4.2.2.h.j.j.h.3.<.X.<.X.h.h.h.h.h.5.h.h.z.k.h.h.X.' X.X.' ' ] X.X.X.h.X.) _ ! ! _ ! ~ H H H m F m m b b x 0 c b B m v v v V m m N x c x c v v v c x 8 4 4 8 x c v v V H V V V V V B V m J J J V m m m B V G V | G V | G V G B V V B B V m V B G G v q B q c 0 6 Q.Q.Q.Q.UXhXhXhXhXhXQ.UXD =.D D D { =.6 c B 0 0 c c q c B c q B q B B B B G B G B J v B B c q B q 0 w 0 w c c w w 9 w 7 9 9 7 8 3 7 7 7 7 e e e e e & e & & & & & e & e e & & % & & % % & e , & e % % % * % % % & % * % % % & & % & & & % # & % * % & & # & & % ",
"@.~ ~ ~ @.~ @.@.~ ~ ~ @.X.@...! ~ ) X.@...X.X.X.X.X.......) ....X.@.@...X.@...X...X.X.X.+.h.h.l.h.l.l.l.l.m.l.l.l.l.m.m.n.m.h.X.o.O.o.O.X.+.l.m.l.l.l.m.m.m.B.P.M.M.M.B.B.B.c.M.M.M.M.B.P.J.U.B.B.B.B.B.m.m.l.M.m.l.m.l.l.M.M.m.M.M.M.M.M.L.B.U.U.J.U.J.G.H..XH.H.H.U.H.U.K.G.H.[.K.{.{.K.H.H.H.[.H.{.{.{.{.*X{.K.XX*X{.*X{.qX*X*X{.{.{.[.K.K.{.{.{.{.{.{.*X*X*X*X*XK.G.K.K.[.[.K.D.*X{.D.{.*X*X*X*XE.E.*X{.*X*X*X{.*X*X*X*X%X{.*X*X*X-X7X*X*X=X=X*X*X*X*X*X=X=X*X*X=X=X=X=X=X=X=X%X=X=X&X=X&X=XE.*X=X=X-X=X=X*X=X=X*X%XE.E.*X%XT.E.D.E.%X*X%X{.K.D.K.E.K.*XE.K.{.{.E.*X{.*X{.K.S.K.D.K.G.K.G.K.{.*XK.K.{.[.G.[.G.S.F.A.b.k.z.v.v.z.k.l.4.3.k.k.h.k.h.h.h.h.h.h.X.X.h.#.l.l.l.h.X.] ) _ ) ] ] ] X.h.h.l.h.l.v.h.l.h.h.X.X.h.l.h.l.h.m.m.l.m.m.M.n.n.m.M.m.m.m.l.l.m.m.#.+.+.l.m.#.#.X.+.$.+...) Q.hXhXQ.Q.Q.hXhXhXQ.Q.UXD =.=.D { D =.S $.o.o.{ X...........O... .O.+.X.+.h.+.+.+.X.+.+.+.X.o...O.@.@.@.@.@.@...@.@.| G V | | | | | | | | V V B q G B B B B B q c c B c B c B q q c c c c c B B q w w w 8 9 9 9 w z 9 9 9 z 8 c z 0 z z w 8 9 w w w 9 c x 9 w w ",
"..X.X.( X.) X.X.X.X.X.X.X.h.X.X.X.X.+.h.X.l.h.l.h.l.l.l.l.l.l.l.h.l.l.l.l.l.m.l.M.M.M.M.m.M.M.M.B.B.F.B.B.B.B.F.B.B.U.U.B.B.m.m.l.m.l.$.m.m.m.m.I.m.M.B.P.J.U.E.U.U.H.XXH.H.U.J.U.U.H.H.H.+XU.U.U.H.H.H.U.B.J.U.B.M.B.B.U.H.U.U.U.J.U.U.U.H.U.K.U.qXXXE.0XqXqXqX7X7XqX*XqXqX9XqXqXqX9X9XqXqX9XqX;XqX-X9X9X9X9X9X9X9X9X-X8X9X9X9X9X9X9X9X9X-X9X-X9X9X9X9XwX,XwXwXwXwX-X9XqX-X9X-X9X,X,XwX,XuXwXuXwX,X,X,XwX,X,X3X,X,X,X3X3X3X,X3X3X4X4X3X4X,X3X3X4X3X4X3X3X3X4X3X6X3X,X,X4X6X4X4X,X6X4X6X4X1X1X6XiX4X4X4X4X4X6X6X3X6X3X4X,X6X4X6X,X,X3X,X,X3X6X,X3X,X3X,XwX,X,XwXwX,X3X,XuXwX9X,X-X-XwX-X,X9X-X9XwXwXwX-X9X-XqX;X9X9X-XqX*X*X*X{.*X*X*X{.{.{.*X{.*X{.*X{.qXK.K.K.[.K.{.[.{.{.{.{.{.G.S.F.b.J.G.S.S.H.G.H.K.H.K.H.H.H.J.H.H.H.F.J.U.J.H.H.K.XXK.XXqXH.qXK.H.E.U.U.[.XX[.H..XH.U.U..XJ.J.U.$XP.B.V.Q.hXQ.Q.Q.hXhXhXhXQ.Q.D S =.S { { S 6 V.P.N.B.N.B.B.B.B.M.B.B.B.B.P.B.J.U.U.B.P.U.B.P.J.B.P.B.b.m.m.m.l.m.m.m.m.m.l.+.l.X.l.l.l.l.l.n.l.l.X.X.X.X.X.X.X...X.X.X...X...X.....@.@.@.W @.@.@...X.@.@.@.Q | H | | J @.| W | W | H J | J @.Z | V J V | V J | V V | B ",
"X.] X.X.X.h.X.X.h.X.X.h.h.l.m.X.l.h.h.l.k.l.l.l.m.m.m.l.m.m.m.m.M.m.m.M.M.M.B.B.B.B.B.b.J.B.J.G.J.J.J.H.H.H.H.H.H.U.H.H.U.U.M.M.l.m.m.m.l.l.l.M.M.M.B.J.U.H.H.H.H.K.H.H.H.XXXXK.K.K.XXXXE.E.IXE.U.qXH.H.H.H.U.H.U.F.J.U.H.H.H.H.H.H.qXU.H.H.qXH.qX7XqX=XqX7X-X9X9X9X9X9X9X9X9X9X9X9X9X9X9XwX9X9X9XqX9X9X9X,X9X-X-X9X-XuXwXuXwXuXuX3XuX,XuX9X3XwXwX3XuX3X3XiX4X3X3X3X3XuX3XuXuX3X3XuX3X4X3X4X4X4XiX4X4X4X4X4X4X4X4X4X1X4X4X4X5X5X5X4X4X5X4X2X4X2X2X5X1X4X4X1X2X1X1X1X2X5X5X5X1X2X1X2X1X1X1X4X4X5XpXpX5X5X1X2X2X2X1X2X5X2X2X5X5X5X5X4X5X4X5X5X4X5X4X4X4X4X4XpX4X4X4X4X4X5X4X4X4X3X4X3X4X4X3XiX3X4XiX4XiX3X3X3X,XuXuX,XuX,X,XuXuX-X9XuXuX3XuX-X-XuXwX9X9X9X8X9X9X8X-XqXqX-X9X9X9X9X-XqX{.*X*XqXqX*X*XqXqXqXqX7XqXqX=XqX=XqX*XqXqX*XqXqXqXqXqXqX8X7X7X7XqX7X8X0X0X8XqXqXqXXX*XXXXXoXoXXXXXoX@X#XXX}.hXQ.hXQ.Q.bXbXQ.Q.Q.UXD S =.D UXD =.K .X.XB.U.U.XXH.U.U.U.U.U.OXU.U.U.U.U.U.H.H.U.XXH.U.U.U.U.U.U.J.P.B.B.M.m.m.M.n.m.m.n.m.I.B.J.B.B.B.B.F.P.B.B.L.M.m.M.L.M.m.m.m.M.l.M.m.m.l.m.n.+.l.m.m.l.m.l.l.+.l.X.l.h.X.+.h.+.X.X.X.X...X.X.X.X.X.X.X...X.X.X.X...X...X.",
"X.X.h.h.h.h.h.h.h.l.h.h.l.l.X.l.l.l.m.l.M.l.l.m.m.M.M.M.M.M.M.M.M.b.M.b.B.B.B.F.B.F.B.F.J.J.F.J.J.J.J.J.U.H.J.H.H.H.H.U.U.U.M.m.m.m.l.l.$.l.m.m.M.B.J.U.J.H.H.H.XXK.XXXXK.XXK.XXqXK.E.XXXXoXH.E.U.H.H.U.H.H.U.H.J.G.J.F.U.H.K.U.H.+XU.7X7XH.qXqXqX7XqXqXqXqX=X9X9XqX9X9XwX8XwX9X,X9XwX9XwX9X9X9X9X9X-X9XwX9X9XwXuX3X3XeXeXuXuXuX3XuXuX3XuX3X3X3X3XuX,X3X3X3X3X3X3X3XiXiX3XiX4X4X4X4X5X4X4X4X5X5X5X4X5X5X5X4X1X1X5X1X5X5X2X5X5X5X5X5X2X5X5X5X5X5X5X5X2X2X2X5X2X5X5X5X5X2X2X5X5XpXzXpXzXxXZXDXDXHXDXDXDXxXzXjXjX2X2X2X2X2X5X5X2X5X5XkX2X5X5X2X5X5X2X5X5X5X5X5X5X5X4XpX4X5X5X5X5X5X5X4X4X4X4X4X4X4X4X4X3XiXuX3X3X3X3X4X3XiX3X3X3X3X3X3X3X3X3XuX3XuX3XuXuXuXuXwXuXuXwX,XuX9X9X9XwX9X9X-X9X9X9X-X9X9X9X9X9X9XwX9X9X9X9X9X9X9X9X9X9X7XqX=XqX9XqX9X9X9X9X7XqX-X7X9XwX7X7X7XqX0XqXoX7XqX7XoX7X0X0X@X#X$XhXhXQ.Q.hXhXhXhXQ.UX} S S =.{ Q.D S V..XU.U..XK.K.OXH.OXH.H.U.U.H.K.H.XXXXH.XXXXXXH.H..XU.U.H..XJ.U.J.P.B.B.M.M.M.B.L.M.m.M.M.B.B.U.B.U.U.U.U.U.U.U.J.U.B.U.B.U.B.U.J.B.B.B.L.B.B.B.B.M.M.B.M.L.I.m.m.m.m.m.m.m.m.l.l.l.m.l.l.l.+.l.n.l.+.X.X.X.l.+.+.h.X.+.X.X.",
"h.X.X.X.h.X.h.h.h.X.l.&.m.h.m.l.m.l.M.l.l.l.M.l.M.M.M.M.M.c.B.M.M.B.B.B.B.F.F.B.F.B.B.J.B.J.U.U.U.J.U.U.U.H.J.U.U.H.U.H.J.B.B.M.l.n.l.m.m.m.M.M.B.U.J.H.H.H.H.H.H.H.XXK.XXXXqX*XXXqXqXU.qXE.+XIX7XH.0XqX+XqXH.H.U.H.H.U.U.K.U.U.H.E.qXH.E.qXH.7XH.7XqXqXqXqXqX7X=X8X9X9X9XwX9XwXwX9X9XuX9XuXuXwXwX9XwXwX9XuXwXuXuXuXuXuX-XwXuXwXuXiX3X3XuX3XiXiX3X3XuXiXiXiX3XiX4X4X4X4XiX5XiXiX4XiX4XiXpX5X5X4X5X5X5X1X5X5X5X5X2X5X5X2X5X5X2X5X2X2X5X5XjX5X2X2X1X2X5X2X2XjX5X2XjXjXkXlXkXkXvXDXHXHXHXLXLXLXPXPXPXLXLXJXGXvXvXkXjXjXjX5XjXkXjX5X5X2X5X5X5X5X2X5X2X5X5XkX5X5X5X5X5X5X5X5X4X5X5X5X5XpX5XiXiX5X4XpXiX4X4X3X3XiXuX3X4X3X4X4XiX3X4X4X3X3X3X3X3X4X3X3X3XuXwXuXuXgXuXwXuXuXwX,X9XuX9XuX,XuX9XeXuX9XwX9X8XwX9X9XwX9X9X9X9X9X9X9X9X9X9X7X9X9X9XqX9X7X7X-X9X7XqX7X9X8X8X8X8X7X0X8X8X0XtX0X0XtX0X0X@XtX@X$XhXQ.hXQ.hXbXhXQ.Q.UX{ D =.S Q.D =.D .XU.U.U.H.[.H.OXK.K.XXU.K.XXXXXXXXH.XXXXXXH.H.H.XXU.H.H.H.U.J.U.J.P.J.P.B.M.M.M.M.M.M.M.B.B.F.F.U.H.U.U.U.U.B.U.U.U.U.U.B.U.U.B.U.U.P.B.B.B.B.B.B.M.M.M.B.B.M.m.M.M.M.m.M.m.m.m.m.m.m.m.n.m.m.m.m.X.l.l.n.l.+.h.l.+.m.l.+.h.",
"h.X.+.h.h.X.l.h.h.l.l.+.h.h.&.l.l.l.m.m.m.M.m.m.v.M.M.m.M.M.B.B.B.B.M.b.B.B.B.B.B.B.B.U.J.B.U.B.U.U.U.U.U.H.U.U.U.H.U.XXH.P.P.M.L.m.B.B.B.B.P.U.U.U.U.U.U.K.XXH.XXXXXXK.E.oXXXqXXXK.XXH.qXXXqX+XU.0XU.qXU.H.U.H.H.U.H.qXH.H.U.U.H.K.H.H.H.K.H.E.qXqXqX7XqXqX7X7X9X9X9X8XwX9X9XwXwXeXeXwXwXwXwXuXuXuX9XuXwXuXuXuXuXuXwXuXuXuXwXuXuXiXiXuXiXiXiXuX3XiXiXiXiX4XiX4XiX4XiX4X4XpX5XiXiX5XpX5X5X4X5X5X5X4X5X5X5X5X5X5X5X5X5X5XjX5X5X5X5X2X5XjX5XjXkX2X2XjX2XjX5XkX2X2XjXjXjXvXzXvXZXJXLXLXLXPXPXPXPXPXPXPXPXLXHXGXcXcXvXkXkXkXkXkXkXkXjX5X5XjX5X5XkX5X5X5XkX5XkX5X5X5X5XpX5XpX5X5X5X5X5X5XpX5XiX4XiX5X4XiXpX4XiXiX4XiX4XiXiX4X4XuX4XuXiXiX3XuX3XiXwXuXuX3XwXuXuXuXuXuXuXuXuXuXwXeXwXuXwXuX,XuXwXeX9XwX9X8X8X9X9X9X9X9X9X9X9X9X9X8X8X7X8X9X9XqX8X9XqX9X8XqX7XhX7X8X9X8XtXyXtXtXtX0X#X#X X XV.V.V.UX{ { UXUXUXUXQ.Q.Q.Q.Q.UXD S =.{ UX=.6 l.+X.X.X.X.XXXH.U.XXH.H.U.XXU.H.H.XXXXH.7XH.H.0XH.H.U.U.H.H.E.U.H.U.U.U.U.U.U.J.M.B.B.P.P.B.U.J.J.K.U.XXU.OXH.P.U.U.U.U.U.P.B.U.U.B.U.B.B.L.B.B.B.B.B.B.M.B.B.B.M.M.M.B.M.B.m.m.m.m.m.m.m.m.m.m.m.l.+.X.m.+.l.X.m.m.X.X.l.X.m.",
"X.+.h.X.X.h.+.+.+.&.X.l.&.&.l.#.l.m.m.l.l.l.M.m.M.m.N.M.M.M.M.B.B.B.B.B.B.B.B.B.B.B.B.P.P.B.U.P.U.U.U.U.U.U.H.U.U.H.U.U.U.U.J.B.B.B.P.B.P.P.U.U.U.H.U.U.+XH.XXXXXXXXXXXXqXU.XXoXXX+XXXXXU.qXK.XXqXU.0XU.7XU.K.U.qXU.H.U.U.U.U.E.H.U.qXH.0XqX7XqXqX7X7X7X7X8X8X8X8X8X8XrXyXwX8X9XrXwXeX9XeXeXeXwXuXeXeXwXaXwX8XuX9XuXuXuXuXuXuXsXuXuXuXiXiXuXiXuXiXuXuXiXuXiXiXiXiXiXiXiXiXiXiX4X5X5XiXiXiX5XiX5X5X5X5X5X5X5X5X5X5X5X5X5X5X5X5X5XkX5X5X5X5XkX5X5X5X5X5XjXjXjXkXjXjX5XkXlXzXvXZXJXLXPXLXPXPXPXPXPXPXPXPXPXLXJXGXcXcXvXvXzXkXkXkX5XjX5XjX5X2XkXkX5XkX5X5X5XkX5XpXkXkX5XpX5X5XpXpXpXpXpX5XpX4XiXiX5XpX5XiXiXiX5XiX4XpXiXpXiXiXiXiXiXiXiXiXiXiXuXuXiXiXuXiXuXuXuXuXuXuXaXwXuXuXuXeXeXeXeXuX9XuXwXwX8X9XeX9X9X9X9X8X9X9X8X9X8X7X8X8X8X0X8X9XqX8XqX9XqX8X8XrX8XrXyXyXtX@XXX X X$X{ { { *.{ { { { *.{ { UXD D UXK K { UXUXUXD =.D UXD 6 6 #X@X+XOXXXXX+X.XXXXX.XU.XXXXK.U.XXXXK.U.qX0XU.0XH.U.0X0XH.U.+XqXU.U.XXU.U.U.U.U.U.U.U.U.U.U.U.U.U.U.H.U.H.U.U.U.U.U.U.U.U.U.P.U.B.U.P.U.B.B.B.B.B.B.L.B.B.B.B.B.B.L.N.m.B.m.B.m.M.m.m.M.m.M.m.m.l.m.m.m.m.l.+.l.+.m.X.m.+.l.+.",
"X.X.l.X.+.l.+.l.X.m.l.+.l.&.m.l.&.m.l.m.m.m.m.m.m.M.M.m.m.M.M.B.M.M.B.M.M.B.M.B.B.P.J.B.B.B.B.B.B.U.H.U.U.K.H.U.U.U.U.U.U.U.P.B.B.B.B.P.B.U.P.U.U.U.U.U.U.U.XXOXXXU.XXXXU.qXoXXXXXXX+XXXXXXXqXqXH.qXE.H.E.U.U.U.H.U.qXU.U.0XH.U.H.0XqX+XqX+X0X7XqX0X8X8X9X8X8X8X8X8XrXrXrXrXyX8X8XrXeXeXrXwXeXeXeX9X9X9X8XrXrX8X8XuXeXuXwXgXuXsXuXuXuXsXuXsXuXuXuXuXiXiXiXuXiXuXuXuXuXiXiXuXiXiXiXiXiXiXiX4X4X5X5X5X5X5X5X5X5X5X5X5X5X5X5X5X5X5X5X2X5X5X5X5X2X5XjX5X5X2XjX5X2X2XjXjXjXjXjXkXcXHXJXLXLXPXPXPXPXPXPXPXPXLXJXJXGXcXvXvXzXkXkXkXkX5X5XkX5X5X5XkX5XkXkX5X5X5X5X5X5X5XpX5XpX5X5XpX5XpXpX5XpX5XpX4XiXpXpX4XiX5XiX4XiXiXiX4XiXiXuXiXuXiXiXiXuXiXuXuXuXiXiXuXiXuXuXeXwXuXuXwXaXwX9XeXeXeX9XuXeXeXaX9XaXwXwX9XeX9X9X9X9X8X9X9X9X9X9X8X8X8X8X8X8X7X8X8X7X9XyXrXnXVX0X#X X*.{ { { { { { { { { { { { { { { O.{ { D UX{ { D {  .{ D S { D =.6 X.@XOX+XXXOX+XXXOXXXXXXXXXXXXXXXK.XXOXH.U.H.H.+XU.U.0XU.U.0X0XU.U.U.U.U.U.U.U.U.U.U.U.U.U.U.U.U.U.XXU.+XoXU.U.U.U.U.U.U.U.U.U.U.U.J.U.J.U.U.P.B.B.P.U.B.B.B.L.M.B.B.M.B.L.M.m.m.M.m.m.m.m.m.m.m.m.+.l.m.m.h.l.+.+.X.m.m.l.+.+.l.",
"X.X.X.+.X.+.h.+.+.+.&.X.$.l.&.m.l.l.&.m.m.m.m.m.m.m.m.m.m.m.m.m.N.N.M.M.M.M.B.B.B.B.F.P.J.L.B.P.B.U.U.U.U.U.U.U.XXH.H.H.H.U.J.J.P.B.B.P.U.U.U.U.U.U.U.U.U.U.U.+XXXXX.XXXqXH.+X+XqXXXXXXXXXqXXXXXqX+X0X0X@X+X0XqX0X0XH.0XE.H.0XU.qX+XU.0X+XqXU.qXqXqX0X8X0X9X8X8XyX8XrXrXyXrX8X8X8XyXrXeX8XrXrXwXeXuXeXeX8X8X8X8X8X9X9XaXaXuXuXuXuXuX9XwXwXeX9XaXuXwXgXgXuXuXaXaXwXuXuXwXwXuXuXuXuXiXiXiXiXiX4XpXiX4X5XiX4X5XpXpX5X5X5X5X5X5X5X5X5X5X5X5X5X5X5X5X5XjXjX5X5XjX2X5X2X2XjXjXjXjXkXcXHXJXJXLXPXPXPXPXPXPXPXJXJXHXGXvXkXkXkXkXkX5XjXkXjX5X5XjXkX5X5X5X5X5X5X5XpXpX5XpX5XiXpX5XpXpX5XpXiX5XiXpXiXpXpX4XiXiXiXiXiXiXiXiXiXiXiXuXuXwXgXgXsXiXiXuXgXuXuXiXuXiXuXuXuXuXeXeXuXuXuXuXuXuXuX9X9XeX8XwX9XuX9X9XrXwXwXeX9XwX9X9X8XwX9X9X9X8X9X9X9X9X9X8X8X8X8XtXtX#X$XV.{ ) { { { { { { ) { { *.{ { { { { { { { D UXD { { { D D K { { { { =.6 6 .X+XOXOX#X.X.XXXXXXXXXXXoX+XoX+X+XoXXX+XqXU.0XU.0XU.U.qXqXH.H.U.U.U.U.U.U.H.U.U.U.J.U.P.U.U.U.OXU.U.H.U.U.U.U.U.U.U.U.U.U.U.U.U.U.U.U.U.B.U.B.U.B.U.B.B.U.B.B.B.L.B.B.B.L.m.M.M.M.M.M.m.m.M.m.m.m.m.l.m.m.+.m.m.m.l.l.+.+.l.X.+.",
"o.X.o.X...+.X.X.X.+.h.+.$.#.m.#.&.l.m.&.m.&.m.m.m.l.m.m.m.m.&.m.m.m.M.N.N.M.B.B.B.B.B.P.B.B.B.B.P.U.P.J.U.U.U.U.U.U.U.U.U.U.U.P.P.U.P.U.P.OXU.U.XXU.+XU.OXU.OXU.U.OXOXXXXXH.H.qX+X@X0XU.oX+XXXqXIXH.0XU.U.@XU.0X0XU.@X@XU.IX0X0X0X0X0XU.U.0X0X0X0XqX0X0X0X0X8X8X8X8XyXrXrX8X8X8X8XyX8XrXrXwX8XwXaX9XeXeXrXrXrXrXrXrXrXuXuXeXuXwXuXuX9X9XwXrXeXwXwXaXwXuXaXeXeX9XwX9XuXuXuXuXiXiXuXiXuXiXuXiXiX4XpXiX3XiXiXiXiX5X5XpX5X5X5X5XpX4X5XpXiX4X4X5X5X5X5X5XkX5XjX5XjX2X5XjXlXkXjXlXvXcXGXHXJXJXLXPXPXLXLXPXLXHXHXGXZXvXlXkXkXkXjXkXkX2XkX5X5XkX5X5XpX5XpX5X5X5XpX5XpXiXiXiXiX5XiXiXgX4XuXiXpXiXpXiXiXiXpXpXiXiXiXiXiXiXiXiXgXuXwXuXgXiXuXgXiXiXuXgXsXuXsXgXsXuXuXuXuXeXwXuXsXgXuXsXeXwXaX9XeX9XaXwXwXeXwXwX9XeXwX8X9X9X9XwX9XwX9X9X9X9X9X9XrXrXrXyX0XXX X{ { K { { { { { { { { { { K { { { { { { { { K { { { { {  .UXK D { K { { D 6  X@XOXOX.X.X.X+XXXXX+XXXXXXXoXXXoXoXXXoXXX+XXXU.qXU.U.0XU.U.U.0XU.OXP.U.U.U.U.P.U.U.U.U.P.U.U.U.U.OXU.U.U.U.U.+XU.U.U.OXU.U.U.U.U.U.U.U.U.U.U.U.B.U.U.B.P.B.B.B.B.B.L.M.B.N.M.M.m.m.m.m.m.m.m.m.m.l.m.m.m.m.l.+.l.+.l.+.l.m.l.+.l.",
"O.......X.+.+.+.+.+.+.+.#.$.X.$.+.+.+.l.&.+.h.&.$.&.$.m.&.%.m.&.&.m.m.m.N.N.N.M.B.L.B.B.B.P.L.U.U.B.P.U.U.B.U.U.U.U.U.U.U.J.P.B.B.P.U.P.U.P.U.U.+XU.U.OXU.OXU.OX.X+XXXOX+X+X+X+XU.qXU.qXXXXXqXU.E.0XU.0X0X@XE.0X0XH.E.IX+XE.U.0XU.IX0X0X0XU.U.0X0XqXqXqXqX0X8X8XyX8X8X8XtX8XyX8X8XrXeXyX8XeXyXyXaXaXeXwXaXeXeXeX9XeXeX9X9XaX9XaXuXuXsXaXeXsXeXwXaX9XeXuXuXeXwX9XeXuXuXuXgXuXgXgXgXwXuXwXuXuXuX3XiXiXuXwX,XiX4XiX5XiXpX5X5X5XpX5X5X5X5X4X4XiX4X5X5X5X5X5XkX5X5XkXkXlXlXkXjXvXcXZXHXLXJXLXLXLXPXPXPXLXLXHXHXHXGXGXcXlXvXlXkXkX5X5X5X5X5X5X5X5X5XpX5XpXpXpX5XpX5X4X5X5XpXpXiXiXiXuXiXpXiXpXiXpXpXiXpXiXiXiXiXiXiXgXiXgXiXuXsXuXuXuXuXiXuXuXgXuXsXuXuXuXuXaXaXeXuXeXsXuXwXuXuXuXuXgXuXuXeXwXeXeXaX9XeXrXeXwX9X8X8X9X8X8X9X8X8X9X9X7X9XrXyXtX0X X{ { { { { { { { { { { { { *.{ *.{ { *.{ { { { { { { { D { K { D D D { { D { D { K  X0X0XoXXXXX+XXXXXXXXXXXXXXXXXXX+X+XXXoXH.XXXX+XqX0X0XU.@X0XU.@XU.U.OXU.U.U.U.U.OXU.U.U.P.U.U.P.OXU.U.U.U.U.U.U.U.U.P.U.U.U.U.U.U.U.U.U.U.U.U.B.U.B.U.B.B.B.B.B.B.B.B.M.M.M.N.N.M.M.m.m.m.m.m.l.m.m.m.m.l.+.m.m.l.l.X.n.l.m.X.+.+.",
"....O.@.......o.o.X.X.+.X.+.#.o.+.+.$.+.+.l.+.X.$.$.&.&.m.%.&.%.n.m.m.m.m.n.m.n.m.I.m.I.I.N.B.L.P.B.B.B.P.P.L.P.P.B.U.P.P.P.P.P.P.B.L.P.P.P.P.P.P.U.U.OXU.U.U.U..XOXOX+XOX+X+XOX0XU.+X+XU.+XU.qX0XU.0XU.U.qXU.U.H.H.0XU.+X+XU.0X0XU.U.0X0X0X0X+X0X0X0XqXqXqX0X7X8X0X0X0X8X8X8X8XyX8XrX8X8X8X8X8XeXyX9XeXeXeXwXeXaXaX9XaXuX9XaXaXuXaXwXaXgXwXsXsXaXeXaXeXaXaXeXuXwXuXsXuXsXuXuXgXuXiXiXuXuXuXuXuXuXuX,XuX3XiX4XiXiX4X4X5XpXpX5XiXpXpXiXpX5X4X4X4X5X5X2X5X5X5X5XjX2XjXkXkXjXlXvXGXHXLXLXLXLXLXLXPXPXLXLXJXJXHXGXGXZXvXlXjXjXkXjX5X5X5XkXpX5XzXpX5XpX5XpXpXpXpXpXpXpXpXpXpXiXpXiX5XiX4XpXpXpXpXiXiXgXiXpXgXiXiXiXiXgXgXgXuXwXsXsXgXuXuXuXuXuXuXeXeX9XeXeXeXeX8XeXeXeXeXeXeXeXeXyXwXeXuXeXeXeX9XaXwX9XwXeX9X8X7XqXqX7X7X8X7X8X9X0XrXyX0X#X X{ { { { { { { { { *.*.{ { { *.{ *.{ { *.*.{ *.{ { { { { { K K { { K { K D D K D K K { K )  X@X0X0X+X+XoXXXXXXXXXXX+XXXXXXXOXXX+X+XH.qXU.U.0XOXU.U.OXOXOXOXU.OXU.OXU.OXP.P.U.P.P.P.U.U.U.U.OXU.U.OXU.U.U.U.U.U.U.U.U.P.P.P.U.U.U.P.B.P.B.B.B.B.B.P.B.B.B.B.L.M.m.M.M.M.m.M.m.m.m.m.m.m.m.m.m.m.m.m.+.l.+.X.X.l.+.+.+.+.l.",
"@.@.............O.......o...O.o...+.+.+.&.+.+.o.+.$.&.$.$.&.&.&.&.$.$.&.$.m.&.%.m.+.n.+.n.I.n.I.I.L.I.I.I.m.L.L.L.L.L.L.P.L.L.L.I.L.I.I.I.L.L.P.P.P.P.P.P.P.P.P.U..XU.U.U.U.OXOXU.OX+XU.@XOX+XU.U.0XU.U.0XU.0XU.U.0XOXU.+X+XIXU.U.0XU.0X0XU.0X0XqX0X@X@XqX0X0X0X0X@X0X0X0X8XtX0X8X8XtX8XtX8X8X8X8X8XyXyXrXrXyXeXaX9XaXrXrXeX8X8XyXrXrXwXaXaXsXwXuX8X8XuXwXeXuXuXsXsXgXuXuXuXwXwXgXgXgXuXuXuXwXuX3XiX4XiXiXiXpX4XiX4XiXiX5XpXiXiX4X4X4X5XiX4X4X3X6X4X5X5X2X5X2X2X5X2X2XjXjXjXlXcXZXHXJXJXLXLXLXLXLXLXLXJXHXGXGXZXcXcXkX5X5XjX5XkX5XjX5XkX5X5XpXpX5XpX5X5XpX4X4XpXpXpXpXpXiXpXpXpXiXpXiXgXpXiXpXgXpXiXiXpXgXiXgXgXuXuXsXuXuXuXsXwXaXaXeXeXuXaXeXeXrX8XrXrXrXyXrXrXrXyX8X8X0X8X8XwXeXeXrX8X8X9X9X8X8X7X0X7X0X7X7X7XqXqX8X0X7X8XtX@X$XV.{ ) { { *.{ { *.UX*.{ { { { K { { { { *.{ { { { { { { K D S =.=.=.S =.=.D =.S S D D D D D { { K ..M.+X0X@X@X+XoX+X+X+XoXoX+X+X+XOXOX+X+X+X+X@XU.OXOX+XOXU.U.OXU.OXOXOXOXOXP.U.P.OXP.U.U.OXU.U.U.OXU.U.U.OXU.U.U.U.P.U.P.P.P.B.P.P.P.B.P.B.P.B.P.L.P.L.B.P.L.B.m.m.I.N.N.M.M.m.N.m.m.m.l.m.m.l.+.+.m.l.m.+.m.m.+.+.X.+.X.o.o.",
" . . . . .@.......O.......O.O.O...o.O.o.o.o.O.O.O.+.O.+.+.+.$.$.+.+.$.$.$.%.$.$.$.%.&.$.$.%.%.%.I.I.I.n.n.I.I.I.I.n.I.L.L.L.L.L.P.I.I.I.I.I.I.I.L.L.P.P.P.L.P.P.P.P.P.P.P.OXU.P.OXP.|.OXP.OXP.OXU.+XOX+XOXOXOXOXOXOXOXOXOXOX+X+XVXU.+XOX+XIXU.VX@X0X@X@X@X0X0X@X0X+X@X@X0X0X0X0X8X0X0XVX0X0X0X0X0X7X7X0X8XrXyX8XeX9XrX8X8X8X8X0X0X8X8X8X8X8X8XrXyX8X8X9X8XwXeXwXuXaXuXsXwX9XuXuXuXsXwXuX9XwXuXuXiXiXiXiXiX4XiXiXiX4X4X4XiX5X4X4XiX4XpX4X4X4XiX4X5X4X1X5X1X5X1X1X1X5X2XkXkXkXlXcXcXGXGXHXHXHXJXJXJXJXHXHXHXZXZXcXcXlXjX5X1X2X5X2X5X5X5X5XpXiX4XiXiXpXiX5XpXiX5XpXpXpX5XpXpXgXpXpXpXiXiXiXgXpXgXgXiXgXgXgXuXgXgXuXsXuXuXeXuXeXsXaXsXeXeXsXeXgXuXeXyXeX8XrXrXrX8X8X8XwXtX8X0X7X0X8X8X8X0X7X7X7X8X7X8X0XqXqXqXqXoXqX7XoXqX0X0X@X X{ { { *.{ { UX*.{ *.UX{ *.{ { K { { { K K { { D D D D S =.6 6 6 6 6 6 6 - 6 6 6 6 =.6 =.=.D D D D K { K D )  X@X+XOXOX+XOXOXOXOXOXOXOXOXOXOXOXOXOXOXOXOXOXU.P.U.OXOX|.OXOX|.P.|.OX.XP.|.P..X|..X.XU.U.P.U.P.P.P.P.P.P.P.P.P.P.L.P.P.P.L.L.L.L.L.L.P.L.L.m.I.L.m.m.I.m.m.m.m.m.n.m.M.n.m.m.m.+.m.+.l.X.l.+.m.m.+.+.+.+.+.+...o.....",
"| | |  . . .| |  . . . ... . .O... . . ...O.........O...O.O.O.O.o.o.+.+.+.$.$.$.&.$.$.$.$.&.$.%.+.n.+.%.+.I.n.n.%.n.n.I.L.I.L.L.L.L.L.I.L.L.I.L.I.I.L.P.L.P.L.P.P.P.P.P.P.P.P.P.|.P.L.P.P.P.P.P.P.P.P.U.OXP.OXP.OXOXOXOXOXOXOX+XU.IXOXOXOX+XIXE.+XOX+X@X+X+X0X@X+XXXoXoX@X0XqX0XVXU.0XE.0X0X0XIX0X0X7X0X0X0X8X8X8XyX8X7X0X7XqXqXE.7X0X7X7X8X7X8X8X8X0X8XrXrXeXrX9X9XwXwXeXeX8XuXuXuXwX8XeX9XeXwXuXuXuX3XiXiXiXiXiX4XiXiX4XiXiX4XiX4X4X4X5X4XpX5X4X5X5X5X5X1X2X2X1X2X2XjXjXjXkXcXcXcXcXcXcXZXZXGXcXcXvXvXvXvXjXkX2X2X2X1X1X5X5X4X5X5X4X4X3X3XiX3X3XiX3XiXiXiXgXiXiXgXgXgXgXuXuXgXuXgXuXgXwXsXuXwXwXsXuXsXuXuXuXuXaXaXaXeXeXuXeXsXaXyXwXeXsXeXaXeXeXaXaXyXyXyX8XyXyXrX8XtX8X8X7X0X8X8X8X0X0X0X7X7X7X0X0XqXoXqX0X0XqXoX0XoX$X{ { { { { { { { { { { K D K D D D D K D D D K =.=.=.=.=.=.=.: : & 6 = $ $ & & X # & - e e 6 =.=.S D D D D { K D D *.#X@XOXOXOXOX.X.XOXOXOXOXOXOXOX|.OXU.OXOX|.|.OX|..X|.|.P.P.OXP.P.P.P.P.P.P.P.P.P.P.P.P.P.P.P.L.P.P.P.P.P.P.L.L.L.I.I.L.L.L.I.I.I.I.I.n.m.I.I.n.m.n.n.n.n.n.+.n.+.+.+.+.+.+.+.+.+.+.o.+.+.o.+.+.+.+.X.+.+.o...O.o...",
"G G G G | G | G | G | | | G | | | | | | |  .| |  . . . . .|  ... .O.O...O.O.O.o.O.o.O.o.o.o.+.+.+.+.+.+.+.+.+.+.+.%.&.%.n.I.n.n.I.L.I.I.I.I.I.I.I.%.I.L.L.I.L.L.L.L.L.L.P.L.L.L.P.L.L.L.L.L.P.P.P.L.L.P.P.P.P.P.P.|.|.|.P.|.OXU.@XOXP.OXOX+XOXOXOXOXOXOXOX+X+X+X+X+X+XoX+X0X+X+X@XIXU.0X0X0XE.IXqX+X@X0X0X7X0X7X0X7X7X0X0X0XqXXX7X7XqX0X7X0X8XtX0X7X8X8XyX8X8X8X8X8X8X8X8X8X9XwXeX8X9X9X8X9X8XwXwXwXwXwXuXwXwXuXuXwXiXuXiX4XiX4X4XiX4XiX4XpXpX4X5X4X5X4X5X2X2X1X2X2X2X5X2X2XjXkXvXvXlXlXvXlXvXvXlXjXjXjX2X`.`.`._.2X`.1X1X1X1X1X6X4X3X3X3XiXuXiXiXiXiXiXsXuXgXsXgXuXwXwXwX9XeX9X9XuXwX9XeX9X8X8XeXrXeXrXeX8X8XyXeXwXyXwXeX8X8X8X8X8X8XrXrXrXrXyXrXyXeXyXyX8X0X8XrXyX8XtXtX0X8X8X0X0X0X0X0X7X0X8X0X0X0X0X7X0X+XqXoX7X|.{ { { { { { K *.{ } { K D D D D D D D S S S =.=.=.6 6 6 6 6 6 % $ = = # % K N.|.M.0 . $ # % % 6 $ 6 =.D D D S D D { K S K P.#X#X|.|.|.|.|.P.|.|.OX|.|.|.|.|.OX|.|.|.|.P.P.P.P.P.P.L.P.P.P.P.P.P.L.L.L.L.L.L.I.I.L.L.%.%.I.L.L.I.I.%.%.%.%.n.n.n.n.%.%.I.%.%.%.%.&.%.&.&.%.+.+.+.+.+.O.+.+.o.O.O.O.+.O.+.O.o.o.........O.O.o.............@.",
"B q B q q B B q q q q q B G G q B B G G G G G G | G | | | | | | | | | | | | |  . .O. . .| O. . .O...O. .O. .O...O.O.O.o.+.O.o.+.+.+.$.$.$.$.$.&.&.&.+.+.%.%.I.n.%.I.%.I.I.I.n.I.L.I.L.I.I.I.L.L.I.I.I.I.I.L.I.L.L.L.L.P.L.P.P.P.U.P.P.P.P.P.P.P..XP.U..X.X.XOX.XOXOX+X+XU.OXOX+XOXOX@XIXU.IX+X+X+X+X0X+X@XqXoX@XoX+XqX@XXXoXoXoX0XVXU.0X0XU.qXU.qX0X0X0X0X8XqX0X7X0X0X7X7X8X7X8X8X7XqX9X8X9X9X8X9X7XqX9X9X9X9X-X;X9X9XwXuXwXuXwXwXwXwXiX4X4X4X4X4X4X1X1X4X1X2X5X1X2X2X2X2X2X_.2XjXlXlXkXjXlXkXkXjXjXjXjX`.'.'.).'.2X2XjX2X2X4X1X4X4X4XiX4XpX4XiXiXwXgXgXuXuXwXuXuXuXuXeX8X8X9X8XrX8X8X8X9XtX8X8X8X8XyXrXrX0X8XrXyXrXeXyX0X8X0X8X8X0X0X8X0X0X0X8XrXyX8X8X8X8X0X8X7X0X8XVX7X0X7X0X0X7XqX0XqX0X0X0XqXoXXXoX+X+X+X+X7X XK { ) K D { D K K D D D D S D D D D =.=.S 6 =.6 6 6 6 6 # 6 $ $ $ $ # $ 8 #X.X] N b J 8 $ $ & 6 o 6 6 6 =.=.S S D D K K K D K *.#X|.P.|.|.|.P.P.P.P.|.|.|.P.|.P.P.P.P.P.P.P.P.L.%.I.L.L.P.P.L.P.L.I.L.L.I.I.I.%.I.I.%.%.%.%.%.%.%.%.%.$.%.%.$.&.+.+.$.$.$.&.$.%.+.+.$.$.+.+.o.o.+.+.+.O.O.O.o. . .O.O...O...O.O...O. . . . . . . .|  . . . .",
"7 e 7 7 w w 7 w 7 9 7 9 w w w w w w w w w w q q q q q q w q B B B B q B B B B B B G G G | B G | B | | G G G G | G |  . .| | |  . . . .|  . .O. . . . .o...o.o.O.O.O.O.O.O.o.+.o.o.$.o.$.%.$.$.%.$.$.&.$.$.n.n.n.I.I.I.I.I.I.L.L.L.I.I.I.L.L.P.L.I.L.L.L.P.P.P.U.P.P.P.P.U.P.U.OXU.P.U.P.OXOXU.U.U.P.U.+XU.+XU.U.OXU.U.U.U.OXOX.XU.0XU.@XU.+X+XU.U.+X0X0X0X0XqX0XqX0XqX0XoXXXXXqXqXqXqXqX7X7X7XqXqXqX*XqXqX7XqXqX*XqX;X7X9X9X9X-X-X9X-XwXwX,X,X6X6X,X>X>X1X4X1X1X1X_._._.1X_._./.`.'.`.`._.'.`.2X`.`.jX`.`.`.`.`._.2X2X2X2X1X1X4X4X4X4XiX4X4X4XpXuXgXgXwXwXeXwXwXwXaXwX9X8X9XrX8X0X8X8X8X8XtX8X8X0X7X8X8X8X0X8X0X8XnX8X0X7X7X0X0XqXqX0XoX0XXX0X0X7X7XqX0X@XoXoXXXIXE.@X@XU.0XU.IX0X+X+X+X+X@X+X+X+X.XOX.XU.U.U.IX$XK K } D D S D S S S S D S D S S D 6 6 6 =.6 =.6 6 6 6 * # 6 % o o + # # S VXl.# > @.@.> 5 G = + # $ % 6 6 6 6 6 =.6 6 D D K D D S  . X|. XP.P.P.P.L.P.P.P.P.P.P.L.P.L.L.I.L.L.L.I.I.L.L.L.L.L.L.P.%.%.%.I.I.I.I.%.%.%.%.%.%.$.%.%.%.$.$.$.$.$.$.$.$.$.$.$.$.$.o.$.+.o.$.o.o.o.o.O.O.O.O...O.O.O. .O. . .O... . . . . . .|  . .| | | | |  . .| ",
"& & % % % & % & & & e & & & e & e e 7 2 7 2 2 7 7 7 7 7 7 7 7 7 9 7 7 7 7 7 7 9 9 7 w 7 7 9 7 w w w w 0 w w w w q B B q q q B B B B B B B B B G B B G G G | G G  .| G | G | | | | | |  . . . . .O. .O. .O. . .O.O.O.o.O.o.o.$.+.$.$.+.$.$.n.$.$.+.O.&.&.&.%.&.+.I.n.I.%.I.I.L.L.I.I.L.P.L.P.P.L.P.P.P.P.L.L.P.L.L.L.P.L.P.P.P.P.P.P.U.U.U.P.U.U.P.U.U.P.U.U.U.U.U.U.U.H.U.XX.XJ.U.H.U..XXXXX{.XXXX[.XXXXXXXXqX*X{.qX*X*X*X{.*XqX*X*XqX=X=X-XwX3X>X&X%X&X:X>X>X>X&X>X<X/./././.>X_.)._.!./././././._._._.`._.1X_./.1X2X1X2X5X4X4X4X4XwX,X,XuXuXwXwX-X-X9X7X9X8X9X8X9X7XqX8X8X7X7X7X0X0X7X8X0X0X0X7X0X0X0X@XqX7X7X0X0X0XH.0X0X0X0X+XoX+X+X+X+XOXXX+X+XXXXX+XOXOX+XU.U.OXU.U.U.@XOXU.U.OXU.|..XOXP.U.U.P.U.P.P.U.P.K D D S =.6 6 6 6 =.6 6 6 =.6 6 =.6 6 6 6 =.6 6 6 6 6 6 # $ # $ $ o $ $ e @XX.- 8 x ..| z s m G : % 6 6 6 6 6 6 6 6 6 6 S S S K K D D K N. XP.L.L.L.L.I.L.I.I.I.L.L.I.I.I.I.I.I.%.%.%.%.%.L.%.%.I.%.%.%.&.%.%.%.%.%.$.%.%.$.o.O.$.$.$.$.O.$.$.O.$.+.o.o.$.$.o.o.o.o.O.o.O.O.O.O.O.O.......O. .@. .O. . . . . .| | |  . .| | | | | | | G | G G | ",
"* * * * * * * * % * * * % % % % * % * % % % % % & $ % % & & & & & & & & & & & & & & & & : : & & e , , , , & , e e 7 7 7 7 7 7 7 w 7 7 7 7 7 7 7 3 7 w w q q w q q B q q c q w B q q q B B q q B B B G G B B B B G G G G G G G | G G G G |  . .| | | |  . .|  .| |  . . . . .O.O.X...O.o.o.+...X.+.+.+.+.+.X.+.+.%.+.+.n.+.m.m.+.+.m.l.l.n.+.m.n.n.m.m.m.m.X.l.m.B.B.B.N.N.M.B.N.m.M.B.M.B.B.B.J.J.J.J.J.H.[.H.J.J.K.XXK.H.G.U.H.H.K.{.*X*X*X*X=X-X%XD.E.=X%X&XE.E.R.:X>X>X<X~.~././././.^./.<X/./._././.<X/.:X:XW.<X<X6X>X&X&X=X-X=XE.*X*X=X*X*XK.K.XXXXXXXXqXXXXXXXXXXXXXH.XXXXXX+XXXXXXXXXXXH.XXU..XH.U.U.U.XXU.U.U.U.U.U.U.U.U.U.U.U.U.U.U.P.U.U.U.P.P.U.U.P.P.P.P.P.P.OXP.P.P.P.P.P.P.P.P.P.L.P.P.L.P.N.P.) S S =.6 6 > 1 - : - - - 6 6 : > e 6 6 6 6 6 6 6 6 & % o # % # # o X $ X +.V.@ - 8 3  .0 @ b m | S % $ 6 6 # 6 6 6 6 6 6 6 K S S D S D S J %.I.$.%.%.I.%.$.o.$.O.$.$.o.o.o.o.$.o.O.$.$.o.%.O.O.o.o.o.$.$.o.o.O.O.O.O.O.O. . . .O. .O. . .O. .O. . .O. .O.O.O. . . .| | | | G | | | | | | | | | | G G | G | G G G G G G G G G G G G G G B B B G B ",
"o o * * * * * * o * * o o * o o * o o * o * + * * * * * o * % + % % % # % + + * % + * * % % % % % % * * * % % & & , & , e e e & & : : , e e e , & , e e 2 7 7 7 7 7 9 7 9 7 7 7 7 7 7 w w 7 w 7 9 7 w w w w 9 w w w w w w w w w q w w w w q B q q w B q B w w 0 B B B q B B B G G G B G G V G J | J G G B G | |  .|  .V @.| | | | J | | | @.@.@. .@.....J 8 z V X...@.@.X.X.X.X.X...X.X...X.X.X.#.#.X.#.l.l.k.X.X.h.v.v.h.h.j.v.l.h.v.b.F.c.v.C.A.C.z.t.C.D.Z.C.Z.Z.Y.&X%XR.T.T.R.&X:X~.:X:XW.:XW.&XR.R.R.T.s.Y.T.T.=XE.Y.Z.C.D.D.S.v.F.G.F.F.b.F.J.P.B.J.B.B.B.B.M.c.M.M.m.M.B.B.B.M.m.M.M.M.m.M.B.M.n.m.l.m.n.m.l.m.I.m.L.m.l.m.m.m.m.m.+.m.m.m.m.%.%.m.X.n.l.m.n.n.n.%.%.%.I.%.&.&.%.&.&.$.+.+.%.%.&.+.&.V.K =.6 6 - = < - - = = - = < - < - : : # 6 6 # $ # e 6 & 6 6 % : # $ $ X : &.J 0 > = H  .> @ # 5 S K : % 6 % 6 6 6 # 6 : 6 - S S S S K K D c G O.O.O.O. .O.O. . . . .| |  . . . . . . . . .|  .| |  . .| | G | G | G G G G G G G | G G G G B B G G G B B G G B B B B q B B B q q q q B q 0 w w w w q w c q q q w w w w w w w w q q q w w 9 7 w w w ",
"# & = & & & = & = & % : = & % = % & & % % & % < & % = % & % % & % & & & & # & % # # % # # % % % % % % % % O $ & : % , % , , , , e : : : , , : : # & & & : : , , > & & , e , : , % : , & e , e , , , 3 2 7 , 7 , 7 7 7 e 2 , 7 7 2 7 7 7 7 7 9 w 7 9 w 9 9 7 2 7 7 w 9 9 9 9 9 c 9 0 0 q 0 8 0 8 0 B q 0 8 0 q 0 c B x 3 8 8 0 q 0 x 0 0 c c c v B B m m 0 = = z V V m m v V m m J V m G V V V V H H V W ~ W J V H H Q ) W Z ~ W W Q W ! / ^ ( ( ( ( ( ( ( ( / / <.<.<.8.7.8.8.8.0.7.9.y.9.0.s.0.0.0.0.0.7.8.0.,.8.8.7.<.<.<.2.' / h.( ' X.h.2.' ' X.X.X.] X.( X.( X.X.@.! @.( @.....~ @.@.@.~ @.@.@.@.~ | | @.@.| ~ |  .@.@.@.~ V J @.@.~ @.J | @. .@.@.| | | J @.@.| | | @.| | | | | ~ | | V V | | | | V @.V.s 6 - - - - < - - = = = < $ # # # - # = - # = 6 # # # : 6 # : 6 # # # O 8 J v @...$.+.x v J J ~ ~ F # % 6 6 : 6 6 # : # : % 6 D K D =.D { D S K ) | B | G G q G B B q q B B B q B q B B B q B q 0 c q B q q q q 0 w 9 9 9 7 9 9 9 7 9 9 9 7 9 7 9 9 9 9 9 9 7 7 2 & 2 9 7 7 7 7 7 7 7 7 7 , , 7 , 2 e e e 2 e 2 & e 7 e e & 7 e 7 & 2 & $ & & 2 e ",
"z z 0 z z z z 0 0 c c c c 0 8 c z 9 8 z z z w z 0 9 c z z z z z z z z z z z c 0 0 8 z z 8 8 9 0 8 z 8 8 4 9 8 z 8 9 9 7 8 9 9 0 9 9 8 9 9 9 9 9 7 3 7 3 2 7 9 7 , O + , 9 9 7 7 , > , 3 , 7 e > 2 > , 7 3 3 > 2 3 2 , , , e , , 7 2 > , 2 7 3 2 7 2 3 2 > > > , 7 , 2 > > , 7 2 7 3 3 9 8 3 : # - 9 4 7 3 7 > 3 8 9 > # O # 2 2 7 3 9 3 , 3 7 5 7 3 z 4 3 # # 3 z z 9 8 7 9 8 8 8 8 z z 8 z x x z 8 8 8 x x z z z x x b c c b x c x x b b b x b g m N f n j j C C Z A k k k >.,.>.0.i.0.0.0.0.0.0.0.0.0.0.>.>.>.A ,.A A Q M Z M M M M V M M V M M Z m M m m b b m m m m v c m v N m v v m c c c B v c c x c w c x z c c B c x c 8 z c B c z z z z B c c 8 8 z x c c 8 z x x x c 8 z 0 8 8 z 8 9 9 w 0 w 9 J { 6 1 - - - - = < @ @ @ X . X O O X O $ @ $ $ # $ # : : # # 6 6 : # : = O J N N J m v v 8 J $.+.o.) x $ # 6 : 6 : # # 6 : $ # $ # D D =.S D K D D K K 0 7 w 9 w 9 7 7 e e 9 7 8 7 7 w 7 7 9 7 7 2 7 7 7 7 7 , 7 2 , e 7 2 > : , , e e e e , e e , e & & & & : & & % o X & & & & & & & & & & % % % % + % % & % * o o * % % % % % % % % % o . X % * % ",
"| V J @.~ | ~ | ~ J @.@.| @. .@.@.@.@.@.| @.@.@.@. .@.@.@. ...@.@...@.@.......O.....@.@.@.....! @.@.@.@.) @.@.@...J z 3 c | @.................@..... . . .| J B 3 X = b H J | J J J J V V | B m V | V | V B G V B V B 0 q B B v B m B v B m B B B c c c v c z z z z z z c z z z v c c c c 4 $ . = z z z 8 8 4 z 8 7 7 O $ 3 8 x z z 8 4 3 4 3 4 z 8 3 3 = @ > c c c 8 4 3 3 3 3 3 3 4 8 8 8 4 8 8 5 8 8 5 4 4 4 8 3 8 4 4 4 a z z a a a a a a a s g g d d g g j C j j k k >.8.8.i.0.p.0.0.p.g.p.0.p.p.0.:.>.8.,.>.k A Z Z N d d v d N d d v b s b x z x z 8 z z z z z z c z z z z z 9 8 8 8 9 8 8 8 7 8 9 8 8 7 9 2 3 7 7 8 2 3 3 3 3 2 7 3 3 2 7 7 3 3 > > > 7 > 2 > 3 2 , > , , > 7 3 , , : > > > 2 > : b ' 1 ; - < < - = @ @ X . . . . . X X X X X O $ $ $ $ - # # : : # # $ $ # $ J N 4 V @.J z 3 a W ..~ c 8 O O : 6 6 # $ # 6 : # $ $ + 6 D D S D D { D D K  .2 2 , , : 2 : : & , , , , : & : : & & & % % # & % % # & & # & & % & & % % # % % & & & & % % % % % # & # % % . . * % & & % % % % % % # % $ + o * + % % o . . X o * o * * * * o * . . X X * * ",
"X...X.....X...X.+.X...W M ~ +.X.X.+.h.+.h.+.h.+.+.h.X.n.X.n.l.+.l.h.m.m.l.m.m.l.m.m.m.m.m.m.l.m.m.m.m.m.l.m.m.N.n.@.: O z X.N.L.m.m.m.M.N.M.M.B.M.m.m.n.m.X. .B > = x @.X.X.l.l.X.l.m.X.X.l.l.m.&.X.l.+.&.l.#.X.m.X.@.v c ..$.#.X.+.h.+.#.X.+.X.X.+.X...@.X.X...@.X.@...( ....X.X.X.X.W V 8 = < m W ~ ~ ~ X.+.) v 3 # O 5 H X.X.X...) H ~ @.! X.X.W 8 & O O 3 m J m z v V H H H W W H H W W M W P M M M H Z M Z M P P M P H M Z P M Z Z M C M C Z C Z A E Y >.E >.,.,.,.,.8.0.0.0.s.g.s.s.g.s.s.g.g.p.g.p.0.:.8.,.,.>.A A Z Z Z Z Z Z M m Z M N N m x v v v x x c c v v v v v c c v c c z x x v x c x x z x z x x x z v x z x z x x z 8 c x 8 c z z a z 8 z z z 8 9 8 z 8 8 8 8 7 8 9 8 4 8 9 8 8 9 9 8 3 b ! < - ; - < = # @ @ @ .         X   . . . . X O O O $ $ $ : : # : # 2 # + J H ; = = z m 3 4 H b x a 4 X X = # # 6 6 # # : $ + X $ # 6 S K K D K K K D K ) 0 7 9 9 9 9 9 9 7 9 7 8 7 7 9 9 9 9 7 2 2 7 3 % X + & 7 7 7 7 7 5 7 7 7 7 7 7 7 7 2 7 3 e 7 2 7 3 3 7 7 3 $ . . X + & & 2 7 7 3 7 7 7 7 7 2 & # & 3 2 % X . X $ & & 2 & : & % o .   X % & ",
"X.X.X...X.X.X.X.X.X.J 4 - z ~ X.l.+.X.$.h.l.h.m.l.l.l.l.l.m.l.l.m.m.M.N.M.m.m.X.X.m.M.M.M.B.B.B.b.B.B.B.B.B.J.P.N.W X . a +.B.B.L.B.B.B.U.P.B.P.B.J.J.P.m.H 8 & + z ..X.' M.U.J.J.B.F.B.J.B.B.B.B.M.B.M.B.B.B.B.M.m.~ < > ..B.P.P.B.B.B.B.U.P.B.B.P.B.M.B.B.B.B.B.F.B.B.B.B.B.b.b.M.X.H 4 > = C z.j.] ' v.F.M.] z = @ @ z ! l.h.h.' 2.h.z.c.S.A.c.h.d @ X X = 4 b g s Z X.j.z.z.v.v.x.w.w.z.x.6.z.z.j.x.j.C.v.j.x.x.6.x.x.6.C.6.4.6.6.7.5.1.1.,.7.7.6.9.9.t.t.9.9.t.y.y.y.g.u.g.d.~.:X>X<X<X>X<X<X:X^.].a.s.0.s.0.y.9.7.8.8.8.,.<.5.<.<.<.1.<.R ( A Z Z ( ! U I Z A Z ( ( Z M m M M V V M V M M V M W M V V V V m V V V V V ~ V V V M V W ~ ~ V V V V M J Z ~ J J V ~ V V @.@.V ~ | | ~ @.@.| @.| @.@.@.) ..] ; < < < < @ @ O @ . . .             . . X X X X O X O $ $ $ # # # # # # F H b O @ v N v 3 . @ ; b 6 . * & : : : # # $ $ + + X $ $ # # =.K { D K { ) K ) o.O... ... . . .@. .@. .@.| | |  .J G B J | B : . = c |  . .@. .J @.|  .| | | | | J G | | J J | G | J | B 2 O . . . % 9 G | J G J J J G | B v c 4 v c 3 +   X & 9 q G G B G 3 $ .   X e w ",
"~ ~ ( @.@.Q @.@.X.@.x O   # v @.X...X.( ....o.+.h.X.X.h.X.X.X.h.l.l.h.l.M.h.Z z 4 ~ l.M.M.M.M.M.M.M.M.M.M.M.M.M.m.V X . a X.M.l.m.m.m.m.M.v.M.M.M.M.B.m.~ > X . @ v @.E Z l.U.H.H.H.J.H.H.J.J.M.B.M.c.c.M.m.h.X.X.X.v @ = ~ B.B.B.B.B.P.B.M.F.b.B.F.b.F.F.F.A.F.J.F.H.G.H.D.S.S.S.v.I - @ @ > / C.6.2.x.K.{.C.Z # O . @ ; Z / 1.6.7.7.C.Z.E.E.T.T.j.d @ O X X ; j 5.7.C.Z.T.E.R.T.E.T.E.T.E.%XT.E.T.T.R.E.R.&XR.R.&XR.&XR.&XR.R.s.&X&X&X~.&X~.].&Xd.~.~.~.<X~./.~.^.(.!././.!.!.1XpXZXCXDXHXDXKXGXDXCXpX1X).!._./.^./.~.d.d.d.&XR.R.R.Y.s.&XR.T.s.t.y.Z.Y.Y.Z.y.y.C.Z.Z.C.9.5.<.<.<.5.<.5.2.j.2.j.2.j.2.<.2.<.2./ 2.2.2.j.2.( ( / X.X.( X.( ( ( ( / X.X.2.X.2.X.] ) X.) X.X.@.! ( ..X.X.X.X.X...X...X.X.X.#.l.n < < < < = < @ @ O . .   X     o O O O + $ $ $ O + $ $ $ $ $ $ # # : $ 8 ~ b 5 ..x x b 8 X 2 v v :   + $ $ # * # $ + + o + + X $ $ + $ 6 D K K K { ) { K &.m.+.+.#.*.X.+.+.+.X.+.X.o.O.o.o.J G  . .B : . : B @.+.+.+.+.X.X.+.X.X.X.X.+.....X.X.o.#.o.o.X.#.+.+.@.0 $   . . + 7 | o.o.X.X.o.X.o.O..... .H J B 3 *     + 9 G  . ...G 8 %       & q ",
"M ~ Z Z Z W W W W V 8 X   @ a W @.( ( @.( ( @.( ( X.@.X.X.X.h.X.X.X./ X.h.) z @ . a ( h.h.h.h.h.X.2.' 2.X.' ( ~ J 3 X X 3 ~ X.X.( X.( X.X.X.2.X.h.l.h.' s O X . O 8 m a Z j.v.v.x.c.c.x.x.v.z.j.3.2./ ' ( ! m 4 9 2 = # 3 W h.h.h.h.h.h.h.h.h.h.4.j.z.x.x.C.C.C.C.C.S.S.Z.Z.S.Z.C.1.a @ O O < L j.5.,.Z.%XT.C.a @ . . @ < r k 9.T.E.T.E.&X&X:X&XE.Z.f @ @ @ ; k 7.Y.E.:X:X:X:X:X:X:X>X:X>X>X>X>X/.:X/.:X<X<X/././.<X/././././././.).!.!.!.!.).!.!.!.).).).).).).).).).).).'.`.2XcXLXPXPXPXPXPXPXPXPXLXLXDXjX`.`.`.`.'.'.).).).).).!.!._.!././.!./.^.^.<X/.~.^./.:X:X:X:X:XR.R.Y.Y.R.T.Y.Y.Y.Y.Y.Y.T.Y.Z.Z.T.Z.C.Z.C.Z.Y.Z.Z.t.t.t.t.j.C.j.7.j.7.v.x.C.C.C.A.C.C.z.j.j.j.j.h.' X.] X.( h.h.X.( ( ( ~ X.] X.h.X.h.f < < < < < @ @ X X X + # # # # # : : - - : # % # # # # # # # # 6 # # 2 J a x J M ~ m 4 3 8 m c X . o $ $ # O $ + o o o O O O + X O $ $ : S D D S K K K ~ #.+.h.X.#.#.l.h.X.X.+.X.....) @.m x c B 3 O X $ z ~ X.X.X.X.X.X.X.+.&.X.+.X.X.+.l.X.+.X.+.X.X.X.X.+.) c # .   . . : V ..X.......+.X.X.o.~ J H m 8 = .       # 8 J J J J 8 o       X 9 ",
"Z Z Z @.Q Z W V x 4 = . @ 1 M Q ( Q ( Q ( Q ( ( Q ( A X.A ( A h.( ( ( ( @.Q 5 X X ; Z h.2.2.2.' ! ( ( 2./ Z a 5 : X .   $ 3 g m z a N M Z Q ( ( / 3.' n : X X X X # 5 d A h.h.j.5.5.3.2.4.5.2.2.( Q T Q M z # X . . O 3 b Z Q Q ! ^ ( ( ( / ' ' ' 2.4.6.C.9.x.e.t.t.t.C.t.C.C.t.5.n < @ X O O ; j k 7.Z.R.T.7.p @ @ @ @ p >.9.R.&X:X&X:X:X:X:X~.R.9.p @ @ < E y.R.R.~.:X~.:X:X~.~./.:X<X~./.^././.<X^.<X^./.^././.(./.!.!.!.).!.!.!.).).!.).).).).).).).).).).).).'.`.`.`.2XjXvXJXPXPXPXPXPXPXPXPXPXPXPXPXZXlXkXjXjX`.`.`.`.'.'.'.).).).).!.).!.!.!.!.!.).!.!.!.!.!./.(./.^.d.d.:X:X:X:X:XR.:X:XW.R.&XR.R.R.R.T.T.T.T.T.T.Z.Y.Z.Z.Z.Z.Z.Z.t.Z.C.Z.Z.D.Z.Z.T.Z.Z.Z.C.C.C.C.j.6.2.<.<.5.2.<.<.2./ / / / / / ' ' ' h.A r < < < < < . . . + & 2 6 =.S =.=.=.=.6 6 6 6 6 6 6 : 6 : 6 % : : # 4 J 1 m ~ v 3 v a M J O   X o + $ $ X X o o o o X O X X O O $ o X $ & e 6 6 6 S 6 F ~ W W _ ! ! ~ Q ~ W V m b m b 5 # $ = X .   X # 4 m H H W Q ~ ~ ( ( @.@.! ( ) @.@.~ ! J ~ ~ W H H J 8 # .       X 3 m V J V F H W H H x 3 2 3 # X . X     . : 3 s 8 4 2 .         # ",
"! U ! ( ( Q M 4 = O X X 1 n ( <./ / 2.2.2.2.2.<.( <./ <.h./ h./ 2./ Q N N x > O - N ( 2.2.2.h.A A ( h.<.2.a @ .         . @ ; a a d M Q ( ( / 2.2.4.j.M = X X X   @ a Z / / E / ,.<.<.<.,.,./ ( ( I Z n b : . . . . # 8 M Q Z Q Q ( I T ^ ^ ( ' h.h.j.9.C.C.C.C.t.t.C.t.Z.t.Z.C.j.d @ O X . . @ r ,.Y.R.R.R.9.k ; @ @ ; k Z.%X:X&X~.&X:X:X~.:X:XR.9.i @ @ i 9.R.:X:X^.<X^.<X<X/./.<X/.<X<X/./.!./.!./././.!.!./.!.!.!.).).).!.).).).).).).).).).'.'.'.'.`.`.`.`.`.`.jXjXlXvXcXGXLXPXPXPXPXPXPXPXPXPXPXPXPXLXcXlXjXjXjXjX`.`.`.`.`.'.'.).).).).).).).!.).).).).!.!.!.!.!./.!.!././.!././.^.^.^.~.:X:X<X~.d.:X:XW.:Xd.W.:XW.W.R.W.R.R.R.T.T.R.R.E.T.R.E.R.R.R.E.R.T.T.%XT.T.D.D.Z.C.Z.Z.Z.Z.Z.C.C.C.C.C.C.x.x.C.C.C.S.t.E p r < < @ @ O O O + $ : 3 a S D D S K D =.D S =.S 6 6 6 6 6 $ # $ 8 F b z @ a J J J $       X o X o X X X X X X X X X O X O O X O X X O o % = - : N Z M Z Z Q Z M Z M V s 5 2 3 5 - @ # @ X .   . . > z d N N N Z Z Q ( Q W W W P M W V M M m M M m N N z 3 $ .     @ 3 v m N m v m V V z < o < 3 5 # X .   . . + > - < # X .         X ",
"T T / / ( N 1 = . .   @ x ( 2.2.2.2.2.2.2.2.2.2.<.h.h.h.j./ j.h.2.( a < = # o @ z ( j.6.4.2.( A A 5.j.9.<.a . X       X 5 N Z x s N Q ( ( ( / <.2.4.<.N = X X X X = M 2.5.7.7.6.7.7.6.7.7.7.7.6.2.<.I a < X X . . . @ 3 b V n M M Z M M W Z M Z Z A h.j.t.t.t.t.C.t.C.t.t.t.Z.t.<.a @ O X . @ i k 9.R.&Xs.R.Z.8.i @ @ ; 8.Y.:X:X~.&X~.~.:X:XW.:XR.t.h @ @ r 9.R.:X^.:X/.<X^././././.^./.^././././.!./.(.!.!._.!.!.).!.).).!.).).).).).).).'.'.'.'.'.'.'.`.`.`.`.jXjXjXkXlXcXGXHXPXPXPXPXPXPXPXPXPXPXPXPXPXJXcXlXjXjX`.`.`.`.`.`.'.).'.).).).).!.).).).!.).!.).!.!.!.!.!.!./.!./.!././.^.^./.^./.^.^.^.:X~.~.^.~.:X<X^.:X:Xd.:X:X:X:X:X:X:X:X:X:X&X:X:X:X&X&X&X&XR.&X&X&X&X&XR.E.R.T.E.E.E.E.T.T.T.E.E.T.T.T.T.D.D.Z.T.E.D.C.8.R n < = $ : & 7 2 , , 2 : 9 S S D K D K K S K =.6 6 6 : : : $ 4 b V H ~ V 8 .       . . . X X X X X X X X O X X X O O X O O $ X O @ $ # % = M ( ( / h.h.<.A Z Z V b 4 2 1 4 5 > > = X . . . @ z Z ( ' ( ' 2.2.2.h.2.2.2.2.<.' ( ( ( ^ ( ! Q Z Z Z M N > @   . > v M W M Z Q Q Q Q v > @ % 3 3 : X .     + 3 z a 5 3 = X       O = ",
"( ( / ( W 1 X . .   X O z Q / 2./ 2./ 2.2.2.h.2.h.<.h.<.<.j.j.<.' b # . . . . O x 2.j.6./ C A h.j.9.9.j.Z ; . X   .   = N Q ! a 5 s M Z W W Q Q / 2.( a @ O O X @ a A 5.6.6.4.7.j.7.7.7.j.6.7.7.8.5.j 1 O X X       X # > 5 3 4 z x x a a g a s d Z / 7.j.t.e.t.Z.t.t.Z.Z.Z.Z.t.<.i @ X . . a ,.t.Y.R.R.&XR.Y.7.p @ @ ; ,.Z.R.R.R.&X&Xd.R.:XW.R.R.T.7.h @ ; 9.R.~.~.^.<X^.(././././././.^./.!./.!._._.).).!.).!.).!.).!.!.).!.).).).).).'.'.).).'.'.`.`.`.`.`.`.`.jXjXlXvXcXZXHXPXPXPXPXPXPXPXPXPXPXPXPXPXHXvXlXlXlXjXjX`.`.`.`.'.`.'.'.'.).).'.'.'.).).).).).)._.!.!.!.!.!./.!.!././././.!./././././.^.^.<X:X/.^.<X/.:X<X^.^.<X/.<X<X~.~.:X<X~.:X~.:X:X:X:X~.R.&X&X&X:X&X&XE.&X&X%X&X&X&X&X&X=X&X&XE.R.&XR.%XR.E.R.T.T.T.R.E.D.j r ; @ @ @ # 7 B | | | | B c 0 6 9 S =.S K 6 B 6 6 6 2 6 : X $ > > # X     .   . X X X . X X X X X X X X O O X O O O O O O O O O X @ @ N ! ( / j.j.j.h.h.( Z Z N 4 > > > > 3 > # X . . X > M 2.j.6.w.6.x.j.j.x.6.e.z.6.z.z.j.5.3.4.h.h.2.2.' / <.Z 5 O   O a ! ] / X.' ( / / / Z z & @ : : % X     X > m Z Z Z s 2 X   . O : 4 ",
"E / ( ( N @     .     . < z m a a d Z Z Z A 2.2.h.j.h.<.j.<.j.h.Z < .       . X 5 Z / Z r h 2.7.j.9.j.2.N @ X .   . . = v Z N ; 5 8 s a a b a N N Z d > # X O O ; d ( h.<.<.<.5.5.7.<.<.<.<.<.5.5./ f - O X X     . . . O @ # = < 3 4 a 5 5 a a a Z <.j.e.Z.Z.Z.Z.Z.Z.Z.Z.Z.Z.Z.j.,.a @ . @ d 9.T.s.&Xd.~.R.R.Z.j < @ @ h 9.&X:X&X~.W.:X:X~.:X:X:X:XY.,.r ; 9.d.:X^././.<X/././././././.^.^././._.!.!._._.).).!.).).).).).).).).).).).).'.).'.'.'.'.`.`.`.`.`.jXjXjXkXlXvXcXZXJXPXPXPXPXPXPXPXPXPXPXPXPXPXHXcXcXlXlXlXlXlXjXjXjXjX`.`.`.`.`.`.`.'.`.'.'.).'.).).).)._.)._.!._._.!._./._./././.1X/./.<X/././././.<X^.<X/.^.<X<X^.~.<X/./.:X/.~.<X:X>X~.:X:X:X&X:XW.:X&XR.R.&XR.&X&X&XR.&X&XR.E.&XE.&X%X&XE.%XR.E.R.T.E.T.T.T.T.E.y.y y u t ; @ @ @ : 7 | O.&. XP.%.$.| B w 6 : : = & # 2 : 6 6 % X       . . . o o X o o X . X X X X O X X X X O X O $ O + $ X X X o < m Q Z M ( A j.j.j.h.Z Z M x 5 < = = : - : @ X . X @ 4 Q h.x.e.x.x.C.x.v.C.C.x.x.x.x.j.z.z.z.j.6.j.j.h.j.h.2.Q 3 X   $ v ( 2.h.2.<.2.<.h.h.Z a # X O X X .   X # c Z / X.Q c : X . . O 5 M ",
"( ( / Z a X           . X @ @ @ < g g d g Z ( <.<.<.2.2.<.X.<.A 5 . .   . .     @ 5 a < ; Q 6.e.j.e.7.<.r @ X . . . . O - ; ; ; 5 5 1 a a a a i i g d ; < X X @ a Z / A A <.<.A / ,.A ,.>./ ,.E E A a < O X .   . X O O O $ $ = = - > 7 4 z z z g Z j.9.Z.Z.D.T.E.Y.D.Z.T.T.T.T.T.Z.<.; . @ g t.R.:X:X:X&X:X:X%X7.; @ @ ; ,.R.:X~.~.:X~.:X:X~.~.~.:XW.9.r r Z.W.^.<X/./././././././././.(././.!./._.).).).).).).).).).).).).).).).).'.'.'.'.'.'.'.`.`.`.`.`.jXjXjXjXkXlXvXcXZXJXPXPXPXPXPXPXPXPXPXPXPXPXLXGXcXvXvXlXlXvXlXlXjXjXjXjXjX`.`.`.`.`.`.`.`.`.`.`.'.`.'.`._._._.)._._._._._.!._.)././././././.<X/.<X/././.<X/./.<X^.<X<X/.~.<X/.:X<X~.:X<X>X:X:X:X:X:X:X:X=X=X&X&X&X&X&X:X&XR.&X&X&XR.E.R.E.R.%X&XE.R.%XR.E.R.T.%XT.&X0.p.p.:.:.k y t r < @ @ @ < 3 v J ..&.+.%.%.o.o.B B 8 2 : , % # % O + + % # & & & # $ O o X X X X X X X . X + X O O @ O O $ O # > z d b s a N M ( / h./ ( Z n g a < = = @ = = @ O X X X - z ( h.x.j.x.C.6.C.x.x.x.x.e.e.6.x.x.6.e.x.6.z.j.j.4.h.2.M - .   $ b ( 2.2.2.2.2.2.h.Z n 5 @   X   .     . : x ! X.A V 5 @ . .   @ a W ",
"( ( ( Z ; . . . .       . . . > M ( / / A ( h.h.<.h.2.2.h.<.h.f < X .             @ @ < i ( j.9.9.t.j.<.a @ X X X . O > 1 ; a x a a z a x d x d b n Z N 1 @ O = N <.8.8.7.<.5.7.5.7.8.<.<.<.<.<./ Z g > O X X . + - : - # = = 2 : < > 3 3 5 4 5 4 Z h.7.t.9.t.t.t.t.t.Z.t.y.Z.Y.Y.Z.j.a . . i 7.T.&X&Xd.:X:X:X=X9.r r j ; h Y.:X~.<X~.>X/.:X/.<X<X:XR.7.r p s.<X/.<X/././././.~.<X^.<X^.^.^./././.).!.!.!.).).).).).).).).).).).).).'.'.'.'.'.'.'.'.`.`.`.`.`.`.`.jXjXkXlXlXcXHXPXPXPXPXPXPXPXPXPXPXPXPXLXGXlXlXlXlXlXlXjX`.jX`.'.`.`.`.`.'.'.`.).).'.'.'.'.).'.).).).).)._._.!.!._./._.!./.!./././.(./././.^.<X<X^.:X^.:X^.:X<X~.:X~.:X:X~.:X:X~.:X:X:X:X:X:X>X:X:X:X:X:X:X&X:X&X&X&X&X&X&X&X=X&X=X=X&X=X&X=X%X%X%X&X%XR.&X%X=X0.g.g.g.p.g.0.i.;.-.u u t r ; @ @ @ O < , 7 0 G B ..B B B 7 7 e % + O o . X o * $ # & % & % o X . .   . .   . . X X O O O # 5 s V V M f M M Z A h.<.j.<.2.E C f g 5 1 < - < - = O X O @ - d ( 5.6.C.6.6.x.6.x.t.e.e.e.e.x.6.6.x.e.6.z.j.j.4.3.j.2.N = .   @ 4 ! / h.2.2.2.2.A f 5 @ X   X     .   X > d Z Q Z x # X $ = O @ 5 W ",
"Q ( Q N <   . .     .   $ = ; d ( h.<.h.j.j.j.<./ / 2.j.<.h.h.g @ .   .     . X @ = a n C ,.9.j.9.j.7.6.I a < @ X X # N ( <.( Z a a a N M Z Z Z Z ( <.] n < @ < Z 7.7.j.7.7.j.7.7.5.7.8.<.<.<.,.E C a ; # O X X # 3 4 2 = = = - = @ = > < < < > ; g k <.7.7.8.7.7.j.j.j.7.9.9.y.C.Z.6.a .   = k y.R.R.R.R.:X&XR.9.t >.9.k t 9.&X&X~.~.:X:X~.~.:XW.R.9.l r k T.~./././././.:XR.y.9.s.s.W.d.d.d.f.(.(.!.!.!.!.!.!.!.!.!.!.!.).).).).!.).).'.'.).).'.'.'.'.'.'.'.'.`.`.`.`.jXlXvXKXLXPXPXPXPXPXPXPXPXPXPXPXLXcXjXjX`.`.`.`.`.'.'.`.'.'.).).).).'.).).).!.).!.).!.!.!.!.!.!.!.!.!.!.!.!./.!./.(././.!.(././.(.(./.^.^.d.^.~.:Xd.:Xd.~.:X:X:X&Xd.:Xd.:X:XR.:Xd.&X:X&X:X&X:X&X&X:X&XR.&X&X&X&XR.&XR.E.E.R.E.T.T.R.T.T.T.T.T.T.T.T.E.&XW.f.a.f.a.f.f.d.s.g.0.i.;.;.;.h u r < < @ . X @ . @ @ @ o & % & + % + O o X X       . o X o o o o o X   X     X X X + O # 3 a F ( ( A X.A X.( h.j.t.t.t.C.5.5.2./ ( Z N Z M M a = . @ - 5 N ( j.e.6.6.x.j.e.6.6.z.z.x.x.6.j.z.j.6.k.j.4.j.6.j.3.2.M = . X @ = b ( h.2.h.h.h.<.b < X . .   .       $ a M Z Z N ; @ ; b m 4 @ - M ",
"( ( Q d < X           X 3 b n Q 2./ h./ j./ <.h.j.j.j.<.j.j.A a O X .       . < d Z <.5.5.7.j.7.e.e.j.7.7.Q a @ X X O N j.C.j.Z s x d n M A Z ( ( / 5.5./ a @ < Z j.t.9.t.j.9.9.j.9.j.7.7.<.,.<.,.Y f g 1 # O X # 2 5 - # @ = = < @ # - ; 5 > r a f >.j.t.t.t.t.9.t.y.9.y.y.Z.Z.Y.Z.7.p @ < @ r 9.R.R.d.R.d.:XT.,.p 9.R.8.t 7.R.d.~.&X~.d.~.:X:XR.s.k r r 8.W.~.<X^.~./.~.~.9.>.;.>.y.R.s.s.g.s.^.!./.!.!.).!.!.).!.).!.).!.).).).).).).).).).'.).'.'.'.'.'.'.`.`.`.jXjXkXlXZXJXPXPXPXPXPXPXPXPXPXPXPXPXLXHXvXjXlXjXjXjX`.`.`.`.'.'.'.'.'.'.).).).).).).).!.).).).).!.).!.).!.!.!./.!.!./.!.!.!./././.(./././././.<X/././.<X^.<X<X~.:X~.~.:X:X:X:X:X:X:X:X&X:XR.R.&XR.&XR.&X&X&XR.R.%XR.E.R.E.E.R.E.R.E.E.T.E.R.R.E.%XR.E.E.%XD.0.0.s.f.d.(.f.f.^.d.:XW.Y.s.0.i.:.-.-.l u t t r r ; < @ @ @ X   .       .   . . . .   . .   . .     X         X X X O O 3 1 1 N Z Z Q Z ( A h.j.v.b.Z.C.C.j.x.6.4.3./ ( E ( ( x < . X : a N ( j.7.x.6.6.x.6.6.x.6.6.6.6.6.6.6.4.j.4.j.3.5.4.4.3.2.W ; @ > > < - M ' h.5.2.2./ s < @ .   X         = v ! ( C 5 @ : m ( ( M - ; N ",
"( ( A Z v z # .       . > M ( / h.h./ h.j.<.j.h.j.2.5.6.6.5./ a @ X     .   X g ( j.j.7.7.j.j.9.j.9.9.j.9.j.A a @ . . r ' x.j.Z a a g N n M A Z Q <.<.5.<.g @ < C 7.C.Z.t.C.C.C.Z.C.C.C.t.t.e.t.7.7.<.,.n ; @ X O = ; ; = < < ; 1 1 5 a z d g n A <.C.T.E.%X&XE.T.R.R.E.E.E.R.R.R.E.9.p r a ; r 9.:X~.~.:X:X:XT.k k T.&X0.h y.:X~.~.:X~./.~.<X~.>XR.7.p p s.:X/.<X^.^.^.<X:Xs.y.0.y.R.d.d.d.~.~././.!.)._._.!.).).).).).).).'.).).'.'.'.).'.'.'.'.'.`.`.`.`.`.jXjXjXlXlXvXcXGXLXPXPXPXPXPXPXPXPXPXPXPXPXPXLXHXZXcXvXlXlXjXjXjX`.`.`.`.`.`.`.`.`.`.'.'.'.'.'.'.'.).).).'.).).)._.).!._.)./._.!./.!././._./.1X<X!./.<X/.1X/./.<X/././.<X/.<X<X:X<X:X<X>X:X:X:X>X:XW.:X:X:X&X&XW.W.=XR.W.&X&X&XW.W.E.:XR.&X&XE.E.&XR.=XE.&X%X=XZ.h h l 7.R.~.(.^.(.^.~.~.:X:XW.d.R.s.g.0.9.i.>.;.;.l y u u t r < < @ @ . . . . . . . . . . . . . . X                 . X O 3 - < i N g d f N j A / 5.j.C.t.e.5.5.<.5./ Z A Z Q I x @ . @ : a N / 4.t.w.e.6.6.e.x.6.j.6.6.6.w.6.6.j.4.j.4.4.4.j.j.4.h.Q 1 = x m a < a Z h.j.j.h.Z a ; > O         .   O b / ( C ; = z ^ 3.2.Z 3 < a ",
"/ / / ( Z Z 8 X         O 4 Z / / / <.h.<.h./ <.5.5.h.5.2.j.2.n i @ .       @ s / <.7.7.5.7.7.j.j.j.9.j.j.9.2.b @ . . @ N 5.j.Z d f n Z A ( ( / ( <.<.7.<.s @ ; R C.Z.D.Z.Z.Z.Z.Z.D.Y.Z.Z.Z.Z.D.Z.Z.Z.e.( 5 X     < 4 s d s m Z Z Z A A A h.A <.<.7.Z.R.&X=X&X&X-XR.:X=X>XW.:XwX-X%X8.p A R r p Y.:X<X<X:X<X,XZ.l 0.:X:X>.k R.^.<X/.:X/.<X/.<X/./.:Xs.j k T.<X_.<X/.<X~.^.<X~.:X:X~.~.~.R.R.^././._.)._.).).).).!.).).).).'.).'.'.'.'.'.'.'.'.'.`.`.`.jXjXjXlXlXlXlXvXcXcXGXGXJXPXPXPXPXPXPXPXPXPXPXPXPXPXLXHXZXGXcXvXvXlXjXjX`.`.`.`.`.`.`.`.`.`.`.`.'.'.'.'.'.'.'.'.).'.)._.'._._.).!.).!._._._._._./._././.1X/._./././.1X/.<X<X<X/.<X<X/.<X<X<X<X<X<X6X<X>X<X>X,X>X>X>X,X-X>X,X,X-X,X-X,X-X,X,X-X-X-X=X>X&X&X=X&X&X=X&X&X>.k h t >.>.s.6X<X/././.~.^././.:X:X:X:X:XW.R.Y.s.y.0.:.:.;.;.y u u t t ; ; < < @ @ @ . @ @ . . . .   X X X . . X X o % % & q c ; n A R ( Q ( Z I <.<.7.j.7.6.R R ( / A f i p g g ; @ . . = 5 N ( 4.x.x.x.x.z.6.6.x.6.x.6.6.x.6.z.6.w.6.j.j.j.4.4.z.3.( a < N ( ( s ; a <.h.h./ d g n s =         .   @ a ( ' H ; = N ( 2.2.( a < 2 ",
"/ ( / / / Z a @         . # a T / j.<.h.h.<.h.<.h.2.5.5.2.5.2.2.U 1 X         ; A h.7.7.j.j.t.j.9.j.e.e.j.t.j.A < . . . a / 7.<.( / / / j.7.5.8.6.6.6.C.2.i X a 7.Z.D.Z.T.D.T.T.D.Z.Z.Z.Z.Z.D.Z.Z.Z.Z.9.( ; . X   = x Z ( ( A / 2./ h.h.( h.h.<./ 7.Z.T.R.R.E.R.R.R.E.R.W.&X&X:X&XY.j l 9.7.t >.R.:X>X:X~.>X:X9.l Y.:X:X>.l T.:X~.~.<X<X<X/./.<X>X~.s.>.>.s./.<X<X<X/.:XW.^././.!.^.^.d.p.i.R.(.!.).!.!.).!.).!.).).).).).).).).).).'.'.'.`.'.'.`.`.jXjXjXkXkXlXlXlXvXcXcXcXGXJXPXPXPXPXPXPXPXPXPXPXPXPXPXJXGXZXcXcXvXvXlXjXjXjXjX`.jX`.`.`.jX`.`.`.'.'.'.'.'.'.).'.).).).)._._._.)._./._._./._._./.!./.!././././././.<X<X/.<X/./.<X<X<X/.<X<X<X:X<X:X<X<X<X:X<X>X>X>X>X>X>X>X>X-X>X:X-X=X:X:X-X:X=X&X=X:X&X=X=X=X&X=X=X=X&X0.g.i.h u p 8.E.iX<X/._.!././././.<X<X<X>X,XwX-XW.W.Z.s.s.i.:.;.;.l u u u u u t r r r < @ @ @ @ @ . .         . . X X % % & 2 4 s ( h.j.x.6.6.j.j.6.t.C.Z.C.e.q.5.5.5.E C n n Z g = . . @ 3 N Z ' 6.e.x.t.x.x.e.x.x.x.x.6.x.e.w.w.e.w.6.k.j.z.e.w.6.5.Q ; ; M 3.4.Q a i Z j.<.Z d Z Q N -       . = > < 5 ^ 3.Q 5 < a I / / Q n ; - ",
"( ( / / / ( a X     @ .   . < n @.<.h.<.<.j.<.h.5.4.4.5.5.j.7.7.' N @ .       O a 2.6.j.9.9.j.t.e.t.t.t.t.e.<.d @ . @ . ; 2.j.5.<.2.5.7.7.j.9.j.t.9.C.6.Q < @ Z 9.Z.Z.D.D.Z.D.Z.Z.Z.Z.Z.Z.Z.Z.Z.Z.Z.7.5.g @ X X @ : d ! ( Z Q Z A ( Z Z Z Q A A k ,.9.Y.E.T.T.T.E.R.R.E.R.R.W.&XT.7.t 8.Z.8.h 9.=X:X:X<X<X:X&X>.l Y.>X&X>.t 7.R.:X/.~./.:X:X/././.~.s.k h y.:X/./._.<X/.:X<X/.!././.(.~.s.s.d./.).!.).).).).).).).).).).).'.'.'.'.'.'.`.`.`.`.`.jXjXjXjXjXjXlXjXlXlXvXcXcXGXHXJXPXPXPXPXPXPXPXPXPXPXPXPXPXLXGXZXcXcXvXvXlXlXjXjXjXjXjXjXjXjX`.`.`.`.`.'.'.'.'.'.'.'.'.).'.).'.).).)._._.)._.)._._._.1X_._._._./.<X_././.1X/././././.:X/.:X<X~.:X<X:X<X~.:X:X:X:X>X:XW.:X:XW.W.=X:X&X&XW.=XW.&XW.&XR.&XR.E.=XR.E.R.E.&XR.E.R.f.g.p.p.;.-.-.>.9.s./.!.!.!./.(././.:X>X6X,X,X,XwX>X:X&XR.p.p.p.:.:.;.;.-.y u u u u t u t t r ; @ @ @ @ O X @ . . @ .   . . . = s I 5.6.6.6.6.j.x.x.C.S.D.S.S.C.e.e.x.h.2./ ' / N - < < = z Z / 3.e.A.x.C.C.x.x.t.C.C.e.x.6.x.w.x.e.e.x.4.4.6.x.w.w.2.n < - Z 4.j.2.N 5 Z h.A Z Z <.' N #       . 4 N ; ; P 3.2.f ; 5 Q _ ' / Q a # ",
"( ( / <.( Q N @   O a z @ . @ a ( 2.h.5.h.j.h.<.4.6.4.4.4.4.6.3.2.N @ .   X     = C 2.7.7.C.6.9.9.C.C.t.t.<.d < @ @ = . ; ( 6.<./ / 2.5.5.6.5.7.6.7.7.<.a @ < ( C.Z.C.Z.Z.Z.Z.C.y.C.C.Z.C.C.C.t.C.6.<.g < = O X X < a d g a a i a g i i d M j j j E 9.Z.T.E.T.T.R.R.E.R.E.R.R.&XE.A p t.R.8.r 9.&X>X>X>X>X:X&X>.p s.>X&X>.; k Y.:X^.<X/././.<X/.<X<XR.E t 8.:X/._.1X<X_.<X!./._._.<X/./.<X:X/.!.).!._._.).'.'._.'.`.'.'.`.`.`.`.`.`.`.`.`.jX`.`.jXjX`.jX`.jXjXkXlXlXvXcXGXZXHXLXPXPXPXPXPXPXPXPXPXPXPXPXPXLXHXZXcXcXvXlXkXkXjXjXjXjXjX`.`.`.`.`.`.`.'.`.'.'.'.'.'.'.'.'.'.'.'.'.)._._.)._.)._.!._._./._._./._./._._.<X/./._.<X/.<X<X/.<X<X<X<X<X<X>X<X>X>X>X:X>X:X:X>XW.:X:X:XW.:X&XW.=XW.&XR.=X&X&X&XR.=XR.=X&X%X&X&XE.E.R.s.p.p.:.p.:.-.-.;.p.f.].!.!.(.!.!.!./.4X4XgXgXgXgXwX,X=XR.s.s.g.p.p.:.:.:.:.;.;.l l u u u t t t r ; < ; < < @ @ @ @ @ @ @ @ 5 3 a C ( / R / ' / 5.6.e.C.C.C.x.e.w.w.j.h.2.<.3.' N ; 2 5 < d ( k.z.A.S.C.S.C.C.S.C.C.C.C.C.x.x.x.x.e.x.x.6.4.z.w.x.x.h.Z ; - I q.j.' d a Z h.<.( 2.2.' N @       X x H a ; N ` 3.I 5 a Z ' 2.2.( v @ ",
"/ ( / A / ( M :   = m ) N @ . 1 Q h.5.5.<.j.j.j.w.4.6.k.6.j.6.6.4.N @ . : 4 < . . 1 / 7.6.6.t.e.x.j.9.C.j.N @ @ a N 5 @ 5 ( 5.2.<./ <.5.5.7.6.7.7.6.5.Z = . > ' e.t.t.t.C.C.C.C.S.Z.C.C.C.t.t.t.7.1.g < - z - . = a d a a g a N n N n M A A ( <.T 8.C.Y.R.R.&X%X=X=XE.E.R.-X:X-XY.k j T.>X8.; k y.&X>X>X>X<X:X8.h y.>X:X,.t 7.E.<X<X<X/.<X/./.1X<X6XR.k t 7.:X/.1X1X1X1X1X1X1X1X1X_._.1X_._._._._.2X`.`._.`.2X`.2X`.`.`.`.`.`.`.`.`.`.`.`.`.`.`.`.`.`.`.`.jXjXjXjXlXlXvXcXGXHXLXPXPXPXPXPXPXPXPXPXPXPXPXPXLXGXZXcXcXvXlXkXjXjXjXjXjX`.`.`.`.`.`.`.`.`.`.'.`.`.'.'.'.`.'._.)._._.'._._._._._._._.!._._./.<X_._.1X/.1X1X1X<X1X1X1X<X1X1X1X1X<X<X1X<X6X>X<X<X6X<X6X6X6X6X6X,X,X6X>X,X>X>X>X>X-X>X:X-X:X:X-X:X&X&X&X&X=X=X=X=X&Xg.:.i.:.:.:.p.:.:.:.a.a.].].f.(.^.^.:X:X,X9X-X*XZ.Z.C.t.9.0.0.i.p.p.p.p.i.i.i.:.;.;.-.l y u t t t r r ; ; ; ; r ; < < - ; 1 W N g Z / 5.5.4.5.5.5.6.w.w.e.t.t.e.w.w.6.2.2./ 2.( a < 4 3 < 5 ^ 4.x.A.S.D.S.S.S.S.C.S.A.x.A.A.C.A.A.C.C.C.e.w.w.e.C.x.z.U a ; P 2.3.Z a N X.j.h.3.h.2.Q 5 . X $ X . 5 N 1 < N ' 2.W a ; Z / ` ' ( z # ",
"( / / X./ ( N < . - Q 2.! > @ > ! 5.4.4.2.j.j.j.k.q.w.z.j.5.3.4.' a . @ b Q M -   @ C 4.C.7.e.e.C.j.x.j.( ; ; Z 3./ s @ n j.x.x.j.v.x.C.v.C.C.C.C.C.j.n @ . = Q x.C.Z.S.D.S.K.D.K.D.D.u.Z.Z.C.Z.C.5.d < a W 5 @ N ] ' ' 2.2.3.j.h.j.j.j.j.x.e.C.x.C.S.%X=X=X=X=XwX-XwXW.wX=XwX=XT.R A T.=X7.r r 7.R.>X>X>X:X:XZ.l 7.&X&X>.h Z.>X<X<X<X<X<X<X<X<X<X:Xy.j t 0.:X1X1X_.1X_.1X1X1X_.1X1X_.1X1X_._.2X1X`.`._._.`._.`._._.`.`.`.`.`.`.`.`.`.`.`.`.`.`.`.`.`.`.jX`.`.`.jX`.jXkXlXcXGXJXPXPXPXPXPXPXPXPXPXPXPXPXPXLXGXZXvXvXlXlXlXlXlXjXjXjXjXjXjX`.`.`.`.`.`.`.`.jX`.`.`.`.`.'./.:X~.<X1X1X_._.1X1X1X_.1X_._.1X_.1X_.1X1X_.1X_._.1X1X_.1X1X1X1X1X1X1X1X1X4X6X6X6X1X4X6X6X6X6X6X4X3X6X3X6X,X3X,XwX,XwX6X6X3XwX,X>X-X:X,X>X,X-X-X=X,Xg.p.:.:.;.:.:.:.:.p.g.a.].a.a.a.a.0.8.>.>.k k l u h t p t h h l >.p.g.p.p.i.:.:.i.;.;.;.;.l l u t t t r r ; r ; r ; r ; ; ; n ! ( ' w.S.D.S.S.S.S.A.S.S.C.D.S.t.A.t.C.x.j.j.w.2.N - 5 - # i Q 3.w.C.C.S.S.C.Z.A.x.c.z.k.v.c.C.A.C.x.C.x.x.x.x.x.e.x.j.Q 5 ; N I Q d d Z <.h.2.2.2./ M - . # 3 : . < 3 ; 1 n ( ( N ; 5 Z / ' ' Q z # ",
"/ / ' / ( ( v @ X 5 Q 2.! 1 @ a / 3.3.j.j.j.5.h.j.6.6.j.j.h.4.3.M > . = ! h.h.v X @ N 4.x.C.x.C.C.C.C.j.a < Q F.F.k.d ; _ b.S.F.F.F.F.G.F.F.G.F.F.A.z.^ ; @ @ d 6.S.E.K.{.{.*X*X%X{.*X{.{.D.D.D.D.C.^ i 5 Z 5 - ) v.x.c.C.A.S.F.F.C.S.F.S.G.D.S.C.S.D.E.%X%X=X*XE.-XwXW.-X-X-XwXE.<.h 7.Y.8.t A Z.&X>X>X>X>X>XT.,.k Z.Z.k h Z.>X<X<X<X1X<X<X<X1X<X&Xy.k t ,.&X<X1X1X1X1X_.1X_.1X_.1X_.1X_./.1X_._.1X_.1X2X2X_.`.2X`.2X`.`.`.2X`.`.`.`.`.`.`.`.jX`.`.jXjXjX`.'.`.`.`.jXjXlXlXcXHXLXPXPXPXPXPXPXPXPXPXPXPXPXJXGXvXlXkXlXlXlXlXlXkXjXjXjXkXjXjXjX`.`.`.jX`.jX`.`.`._.2X`.).:X,.,.&X2X5X2X2X2X2X2X1X1X2X1X1X1X1X1X_.1X1X1X1X1X1X1X1X1X1X1X<X1X1X1X6X1X6X6X6X6X6X6X6X6X6X3X6X6X6X3X6X3X6X6X6X3X6X6X,X,X,X>X,X,X>XwX,X=X-X-XwX,X>Xf.a.p.:.-.:.-.:.:.p.p.a.a.].a.a.a.i.-.y y y u u u u h u t t t r u l p.p.p.p.p.i.i.:.:.;.;.;.-.l l h u t t t r ; ; r r r r r f h.2.4.A.K.K.E.K.*X*X*X{.*X*XK.{.{.{.{.G.K.S.F.C.z.! a < # < N ' 4.z.C.C.C.x.C.x.x.z.4.] ' ' 4.z.z.z.x.e.x.x.x.z.x.x.x.h.Z ; @ 5 s g n A h.<.j.h.3.3./ Z < . > x a @ X @ - s Q ! Z 5 @ 5 Q ' 2.^ n - < ",
"/ / ' _ / ! 5 X @ b ^ ' ! 5 @ N ' j.h.h.h.j.h.6.4.4.z.6.j.q.4.' N @ @ z h.v.h.M @ @ P z.x.C.x.x.x.x.x.' ; a h.G.G.j.a i 4.F.S.A.A.F.A.A.A.F.F.F.S.F.A.z.M = @ ; R A.D.K.K.K.%X*X{.D.*XK.K.T.K.D.D.S.j.M ; 1 @ < Z k.v.C.F.A.S.S.S.A.S.A.K.D.K.K.D.D.{.E.%X%X*X=X9X=X=XwX=X-X-X=XE.t.A ,.5.C p j.E.-X-X,X,X-XwXE.7.k <.e.E 8.T.:X>X<X6X6X6X6X<X6X<X>XT.7.k >.T.6X1X1X1X1X1X1X1X1X1X1X1X1X_.1X1X1X2X2X1X2X2X_.2X2X2X2X`.`.`.2X`.`.jX`.`.jX2XjX`.2XjXjXjXjXjX`.`.`.`.`.jXkXlXvXZXGXHXLXPXPXPXPXPXPXPXPXPXPXPXJXZXcXlXkXlXkXlXkXkXkXjXkXjXkXjXjXjX2XjX`.`.jX`.`.jX`.2X2X2X2X:Xt.t.=X1X5X5X2X2X1X2X1X2X1X1X1X2X1X1X1X1X1X1X1X1X1X1X1X1X1X1X1X1X1X6X6X6X1X6X6X6X>X6X6X<X6X6X6X6X>X,X>X,X>X>X>X;X>X>X;X,X>X>X,X,X,X&X;X=X=X&X&X;X>Xa.a.g.:.:.;.:.;.:.:.p.a.a.a.a.a.a.p.:.:.:.:.;.:.:.:.:.;.;.-.y u t u u i.p.:.p.:.p.:.:.-.;.-.;.y l -.h t t t t r t ; r ; r ; p h.h.j.j.C.A.C.S.D.D.{.{.{.K.*X*XK.K.K.K.S.S.S.G.A.2.n ; @ ; I j.v.A.S.A.S.C.A.C.x.z.h.] ! ' k.v.v.v.z.v.v.v.z.v.v.v.x.j.I 5 @ # 5 n ( j.j.j.k.k.j.j.h.Q 5 @ 5 W N = . O - N ( ^ C ; @ 1 ^ h.<.W a - 3 ",
"X.<.' ' ' W - X 5 ~ ' X.~ ; < N h.h.h.j.k.h.k.k.k.k.k.k.z.l.h.( 5 @ 5 ~ v.v.l.W < - ~ v.c.v.x.v.v.c.M.' ; a l.J.H.j.a 5 h.F.G.A.b.b.F.F.F.F.S.G.H.H.H.b.] 8 @ z ' A.K.K.K.K.K.{.K.*X{.{.{.K.K.K.K.K.c.^ 1 # @ @ 1 Z ( h.z.b.F.A.G.G.G.G.G.G.K.K.{.{.*XqXqX*XqX*XqXqXqXqXqX9X-XqX9XK.j.X.( Z Z C.*X-X-XwX-X9X=X=XS.h.h.j.j.S.=XwX,X3X3X3X3XuXiXiXwXwX=XD.e.C.E.6X4X5X4X5X1X4X5X2X2X5X1X2X1X1X2X1X1X2X1X2X2X1X2X2X2X2X2X5X2X2XjX2XjXjXjX`.jXjXjXjXjXjXjXjXjXjXjXjXjXjXjXlXvXcXcXZXHXJXLXPXPXPXPXPXPXPXPXPXLXJXZXcXlXlXkXjXkXkXjXjXjXkXkXkXjXjXjXjXjXjXjX`.jXjXjXjX2X5X2X5X5X-X-XiXiX5X5X5X5X5X5X4X1X5X5X4X5X4X1X5X4X4X5X4X4X4X4X4X6X4X1X6X4X1X4X1X1X4X6X4X4X3X3X6X3X,X,X3X3X,X6X,X,X,X,X,X,X,X,X,X,X=X=X,X=X&X-X&X=X=X=X;X>X~.].].g.0.g ; h >.-.:.p.g.g.a.a.g.g.p.:.:.:.:.-.-.-.-.;.:.:.:.;.-.-.-.t u :.p.:.p.:.:.:.:.:.;.;.;.y l y u u t t r r r r r r ; p j.j.j.j.x.x.x.x.A.F.S.K.K.K.K.K.K.K.D.G.A.S.A.F.A.3.Z > @ 5 ^ z.b.F.F.S.G.F.S.F.F.A.c.v.v.v.v.v.c.c.v.x.v.v.x.x.v.v.v.3.Z 1 @ < a I 3.j.M.j.l.v.h.h.h.' N = 5 ! Z - . @ 5 W ' ' ! x - a Q ' ! M 4 3 v ",
"' ' X.2.' H = $ b ) X.X.) 3 # F X.h.l.h.l.k.l.k.k.h.l.l.l.k.X.F # - V h.M.M.l.J = 5 ..l.z.v.l.M.m.v.M.X.z 1 ] m.M.h.a > ! k.M.B.F.F.J.J.H.J.J.U.H.H.J.B.X.c 2 V ] v.A.J.G.H.G.H.K.[.{.K.{.[.H.G.H.B.l.! z > - = 5 x Q h.M.b.F.J.J.U.U.H.H.XXXXH.{.XXXXXXXXXXXXXXXXXXE.qXqXK.H.qXXXH.b.h.X.@.X.z.H.K.*X*XE.*X*XH.F.M.M.v.b.G.XX=X=X9XwXwXwXwXwXuXwX9X9X*X{.K.=XwXwXuX4X4XiX3XiX4X4X4X4X1X4X5X4X4X5X5X5X5X5X5X5X4X2X5X2X2X2X5X5X5X2X2XjXjX2X2XjX2XjX2XjX2XjX2XjXjXjXjXjXjXlXvXvXcXZXGXJXLXPXPXPXPXPXPXPXLXHXZXvXvXlXkXkXjX`.`.`.jXjXjXjXjXjXjX2XjXjXjXjXjXjX2XjXjX2XkX5X5X5X4X4XpXpX5X5XpX5X5X5X5X5X4X5X4XiX4X4X4XpXiXiXiX5XiX4XiXiX4XiXiX4XiXiX3XuXiXiXiX3XiXiX3XuXiX3XuXwXiXwXiXwXiXwX,X,XwXwXwX-X=X,X-X-XwX,X,X;X;X-X=XT./.(.a.p.Y.a W X./ ;.:.p.a.a.a.a.a.p.p.:.:.-.-.-.-.-.-.-.-.:.;.:.:.-.-.y t -.i.:.:.:.:.:.;.;.;.;.;.l y h u t t t r r r ; r ; r C H.F.b.G.F.A.F.b.G.G.K.K.G.{.K.K.H.K.H.G.H.F.A.F.B.k.~ z > 8 W h.M.F.H.G.H.G.G.K.G.H.G.F.F.H.G.F.b.b.B.c.B.A.c.v.c.c.v.h.Q 5 > > b ! 3.l.l.v.l.l.h.l.h.X.P 1 1 ! W 8 O $ 4 W ' 3.] m 4 4 M W H b 3 z W ",
") X.@.) @.m # # m ~ X.X.~ 3 O 4 ~ ~ X...~ X.X.X.X.X.X.X.X.X.~ 4 @ 3 @.X.X.+.X.m @ 3 W X.X.X.X.X.X...X.@.c 8 V X...) 3 @ ; M X.l.m.m.m.m.m.m.M.M.N.m.m.&.~ m v V ..l.l.m.M.M.M.M.B.B.B.b.M.B.B.M.m.h.o.W v z 8 4 z V ~ X.m.m.m.m.M.M.L.B.M.B.B.M.B.B.B.B.B.B.J.b.B.B.M.B.M.M.B.C.c.m.m.m.X.X.X.h.v.z.M.c.M.c.M.k.h.+.l.l.m.M.A.A.F.G.S.D.K.K.K.K.K.K.K.H.H.H.K.*X=X-X-X=X=X-X-X-X,X,X,X,X,X,X,X,X,X3X6X6X6X6X6X4X4X1X1X4X4X1X1X1X1X1X2X`.2X1X1X_.1X2X_.`._.2X`.`.`.`.`.`.`.jXjX`.jXlXvXcXZXGXGXHXGXZXZXcXlXkXjX2XjXjX`.`.'.`.`.`.jX`.`.`.2X`.2X2XjX`.jXjX5X5X2X5X2X5X5X5X4X5X5X4XiX5X4X4X4XiXiXuXiXiXuXgXiXwXwXuXwXuXuXuXgXwXuXwXwXgXuXuXuXuXuXuXwXgXwXwXuXuXgXwXuXwXuXwXwXwXwXwXwXwX9X9X9XwX9X9X9X9X9X9X9X=XC.e.t.K.XXC.Z.~.f.f.~.*X5 b J M y.p.a.a.(.!.a.a.p.:.:.:.-.-.-.y y y -.-.-.-.;.;.:.;.;.y y ;.:.:.:.:.;.:.-.;.y y y l h u u t t r r r t r t ; E @XU.U.U.H.U.U.U.U.U.U.U.H.U.H.H..XU.U.J.B.J.B.B.m.h.X.| m m W X.h.l.M.M.M.M.B.b.B.F.B.B.B.B.B.B.M.B.B.M.v.M.M.m.v.m.k.X.W m c v H ..h.l.l.l.h.h.h.X.h.) m # - V V : X $ 4 H ~ ~ ~ m v z c m m c B v J ",
"V V | V V 8 O # c H ~ J J > . O > c m H J J J J J H J J W J b > + 8 V H W @.J z $ : v H J H H V V m c c 3 3 z c m c , = < 8 V W ~ @.@.@.@.@.@.@.~ @.| ~ V B B V J W ~ ..] X...X...] X...X.~ @.@.~ V H V B v c v c m V H ~ ~ ~ ~ @.@.@...@.] X.......X...X.....) ..@...X.@.@...@.( @.@.@...X.....@.X.X.( ) ) X.! @.X...X.X.<.X.h.h.h.h.j.h.h.j.h.z.j.j.k.z.z.j.v.C.C.C.C.C.C.C.Z.S.Z.Z.Z.S.D.Y.E.T.T.E.E.E.E.E.E.&X&X&X=XR.=X&X:X>X&X:X:X>X~.:X<X/./.:X/.~.<X/./.'.)./._._.).!.).'.).)._._.1X1X1X1X`.)._.).).).).).)._._./._._./._._.1X/./.1X/.1X<X<X<X<X<X<X>X>X,X>X6X>X,X,X,X-X=X-X-X-X-X=X-X=X=X=X=X*X*X{.*X{.*X*XXX*X*X*XXX*XqX*XqXqX*XXX*XXXqX*XqXqXqXE.qXqXqXqX*XqXXXqX*XXXXXXXXXXXXXXXXXXX{.{.[.XXA.p r ; ; r N ] G.,X:X:X>X{.i O @ X.E.g.a.f.(.!.(.a.a.p.:.-.-.-.y u u y u u -.-.-.-.-.:.-.:.;.-.:.:.:.:.;.;.-.-.y y y y u u t t t t r r r r r r h.U.P.L.B.L.B.N.B.L.B.M.B.N.M.B.M.M.B.m.m.m.m.l.&.X.+... .| | | @.X...X.X.X.X.X.X.X.X.X.h.X.X.X.X.X.#.+.X.X.#.+.X.X.X.X.@.@.| | | | ....X.@...@...@.@.~ J 8 # $ 3 3 $ X X 2 b m B m b b c c c c q c q B ",
"8 z 8 c 8 , X + 3 z c c 8 > X . X : 8 z z 9 z x 8 c z 0 x z 2 $ + = 8 c c c c > O X > 3 8 8 c z 8 8 8 3 2 3 3 5 3 3 > > 7 8 z x v v v v B V m m B m m m V B V B B m B V m V V m B m B B B m m v v v c v v v v v c B b B B v B m V V V ~ ~ M J ~ H W J W H H J J J H V J Z Z @.W J W W M ~ W ~ J Q M J W M W V ~ Q Z ( @.~ ! ! ( ( ( ( @.X.( ( ] ' ' ' X.' h.2.h.2.2.2.2.h.5.2.h.5.2.6.5.4.6.j.5.7.6.7.j.9.9.j.9.9.e.t.t.t.Z.y.C.y.Z.Z.Z.Y.Y.Y.Y.Y.Y.s.Y.s.T.Y.s.T.s.R.s.s.d.d.f.f.^.f.f.^.^.^.~.~.~.^.f.~.~.~.d.~.~.&Xd.R.s.R.W.s.&XR.R.R.R.R.R.R.R.T.T.T.Y.T.T.Y.Z.Y.Y.Z.S.Z.Z.Z.Z.C.C.S.C.Z.C.C.A.x.C.C.v.v.c.c.x.c.v.v.v.v.z.v.z.v.j.v.v.M.v.l.l.z.j.v.M.M.M.M.v.v.l.z.M.v.M.v.M.v.z.v.M.v.l.M.l.M.h.r ; ; < < = @ @ r A K.uX,XC.g @ ; U.-Xd.a.(.(.].a.a.g.p.p.:.:.-.y u p t y u u y -.-.-.-.-.-.-.:.-.:.:.-.:.;.;.;.;.y l u u t t t r t ; t r r t r X.X.X.o.o.+.+.X.X.X...+...X.+.....X.......@.@.@.@.~ ~  .| J J J J J J J J J J J J J | J | J J J H J J J J J ~ J J J G J H J G G G B V B m B m B m v v c 8 - o O # & $ X $ : 5 9 9 w 9 9 9 8 9 9 9 9 w w ",
"7 > 2 2 , # X O # : : 2 > : # & & , 3 3 3 7 3 7 3 3 3 2 2 2 # + @ = > 3 2 8 3 : O X X # : 2 3 3 9 3 4 4 8 4 5 3 3 3 8 8 z z z z z z x c x x b z v v v c v c v v b B v m B v c B v v B c v B v c B v c v c v v c v v v v B v m m m V V B V V V V H H H G V B c c v B V V V Z J W W V W J V V V V V B V V V ~ V ~ W Q W Z Z Q W ~ W ~ Q ( Q ! ( ! ! ( ( ( ( @./ ( ' ' / X.2./ ] / 2.2.' 2.2.2.2.2.5.3.5.5.5.5.5.6.6.5.6.6.6.7.7.7.6.9.t.t.9.t.t.t.9.9.y.y.t.y.y.y.y.u.u.s.s.s.s.s.s.s.s.s.s.R.s.s.s.s.s.s.s.R.Y.Y.u.s.Z.Z.s.y.Z.y.y.y.y.y.y.t.y.C.C.y.C.9.C.9.e.9.7.9.9.e.7.6.7.7.6.6.6.6.5.5.j.5.h.j.j.3.h.5.h.3.h.2.2.h.h.X.h.h.2.X.X.' h.X.X.X.X.h.X.X.X.h.( X.( X.X.X.X.( X.( ( ) @.( ( @.X.) _ ] ] r < 1 < @ = # # - a r p R *X-XC.e.K.yX>X:X(.(.f.f.a.a.a.p.p.:.:.-.u r 5 c < h k y -.-.-.-.-.-.-.-.-.:.:.-.;.-.;.-.;.l y y u u u r t ; r r r r r g @.@.| J J V J V V | J | | | V | V J | V B J V m B m m B B V m V m B B B m B m m c v B B v B v B v B m v v v v b c c c c c x c q c c c z 8 x 8 8 8 8 8 7 2 # O O % : % $ # : 2 2 2 2 7 3 7 7 7 2 2 2 7 > ",
": & = % % @ % $ + $ # : : : , 2 : 2 : : 2 > > : 2 > : , : $ # - : : , > > > > : $ O O # : 2 3 3 2 3 3 3 3 7 3 7 3 3 3 8 8 8 4 z z 8 z 8 z x z x z v x c c B c c c v c c c c c c c 0 c x c c c x z c c v z v v v v v v v v m B m B m m m V m B V m G B m c c x c v m V V V V V V V V V V V B v V V V V V W V Z ~ V Z V ~ W M W W W Q Q Q Q Q ~ ( ! @.Q ( ! ! ( ( ! ( ( ( ( ( ( ( ( ( ( ( ( / / <.2.<.2.2.2.h.2.<.2.5.5.7.7.5.7.6.6.7.7.7.7.6.7.7.7.9.9.9.9.t.t.y.y.y.y.y.0.y.t.y.u.s.Y.s.s.s.s.s.u.s.s.u.u.u.y.y.y.y.y.y.t.t.y.9.t.9.9.9.9.9.9.9.t.7.9.j.7.j.6.6.6.7.6.5.7.6.4.6.3.3.3.2.h.2.2.2.h.2.3.3.2.X.2.2.' ] / ] ( / ) ( ' ( ] ( ! ! ( ( ( ( ( ( ( @.Q ( ~ ( Q ! Q ~ ~ ! ~ ~ ~ ~ ~ Q Z ~ ! l.C < = $ $ $ # # # - r p p t h u.R.>XW.E.=X,X6X:X^.f.a.a.a.g.p.:.;.u k g = n.# < k >.-.:.-.:.-.:.-.;.:.:.:.:.:.:.-.-.y y u u t t t t r t ; r r r r d V V B V m V B m B B m B m m m B B B B m m B B m m m B m v v B c B v c v B c c c c x x x x c x c 0 c 9 c 8 0 0 0 0 w 0 0 9 8 0 9 9 8 8 7 9 8 8 3 4 7 3 5 2 2 # # : : 2 = : : & : : & : , : , , : e & : : ",
"$ & & % $ $ # # & # : # & : : : : : : : : : & : : : : : & & : , > > , < , < < , , , > > > > 3 3 3 3 3 3 3 3 3 7 4 3 4 4 4 8 8 4 8 8 8 z z 8 0 8 z 0 x v z c B c c c c c 0 c z z z z c c c x x v v c c v c v v c v v v v v m V v v m V V m V m V m B m B c B v v V B V V V V V V V V V V v v v m V V V Q V Q V Q Q V Q V Q V V Q Q Q Q Q Q Q Q Q Q Q Q Q Q Q Q Q Q Q Q Q Q ( Q Q Q ( Q Q Q ( ( >./ / / ( <.2.( 2.2.2.2.2.2.<.2.<.7.7.7.<.<.7.<.7.7.7.7.7.7.9.9.9.0.9.9.9.y.y.0.y.y.y.y.y.Y.Y.Y.y.y.y.y.y.y.y.y.y.y.y.y.9.9.9.9.9.9.9.7.9.9.9.j.9.7.7.j.j.<.7.j.<.<.2.7.2.j.2.2.2.2.2.2.2.( 2.2.( ( 2.( ( O.( ( ( ( ( ( ( ( ( @.( ( ( ( @.Q ( ( ( ( Q Q Q Q  .Q Q Q Q H H Q | Q H | Q H H Q V Q Q Q OXN @ + + @ # $ $ = ; i r r t p l u.g.<X4X&Xf.s.s.R.:X>X~.f.p.p.:.:.0.*Xi @ . . < F.C.;.:.:.:.:.:.;.:.:.:.;.:.:.;.:.:.:.-.u u t t t t r ; r r t r r m V V m m V v v B v v B v v B v v B v v v q v v q v v v c v v v v c v c c v c c c c q c c w z z z 9 z 8 z w z z w z 4 4 4 8 4 4 4 4 9 4 4 3 4 3 3 3 3 > 3 > , & & < , : & < : & & , & & : & , 2 # & # & & ",
"% $ % & & # : : = # : = = : # = : : , & & # : : & : : : > : > > > , > , 2 > 7 > > 3 > 3 3 3 3 3 3 4 3 3 3 3 3 3 3 4 3 3 4 4 4 8 8 8 z 8 8 z 8 s z z x z c z z x z z w z 8 c z c c c x v v c v v v v v v v v v v v v m m v B v m m m B m m m v B v v v v m v m B B V V V V m B V V v B v V m m V V Q V M V V Q M Q V V Q Q Q Q Q V M Q Q Q Q Q M Q Q Q Q Q Q Q Q Q ( Q Q Q Q ( Q Q ( Q Q Q ( ( ( / ( / <.( 2.( ( 2.<./ <.<.<.<.<.<.<.<.<.<.>.7.7.>.7.<.7.7.7.9.9.9.9.9.9.0.9.y.y.0.y.y.y.y.y.0.y.y.y.y.y.9.y.9.9.9.9.9.9.9.9.9.9.7.9.7.7.7.7.j.j.<.7.j.<.<.<.<.<.2.<.<.( ( 2.2.( ( 2.2.( >.( ( ( ( ( ( ( ( ( O.( ( Q @.Q ( @.( ( @.( ( Q ( Q Q @.( Q Q Q Q Q Q Q Q H H H Q M M H Q V H H V V V H m Q N @ # @ @ % $ $ < a i r p r p t >.0.u.6X~.f././.:XY.t.D.=XR.d.g.:.0.qX; @ < @ g XX0X0.:.p.:.:.:.:.:.:.;.:.:.:.:.;.-.;.;.-.l u t r r ; ; ; ; < r r m B B v B B v v c c v v B v c v v v v v v v v v v c v q v c z q v c c c c c 9 c c c z z z z z 8 8 z 9 8 8 4 8 4 4 9 4 4 4 3 4 3 3 3 3 3 7 3 7 3 3 3 7 3 > 3 > > > , > : > & , < : : & : # & : # & & & & # ",
"& # : # : : : : : : : & 2 & : & # , # : : : : : : : : : = , : > , 3 , > 2 2 , 3 3 > 3 3 3 3 3 3 3 4 4 3 4 3 4 4 4 3 4 4 4 4 8 4 8 8 8 z z 8 0 x z x z z z z 8 9 w z 8 8 z c x x c c x x x v v c x c c c v v v m v V v v m v v v v m v v v v v v v v v v v M m m m m m V B m v V q v V v V V V M V V V M M Q V M V V Q V V V V Q Q Q M Q M Q Q Q Q Q Q Q Q Q Q V Q Q Q Q Q Q Q ( ( ( ( ( ( ( ( ( / <.( / ( 2.>.( 2.<.<.2.2.<.<.2.<.<.<.7.7.<.<.7.7.7.7.7.7.7.7.7.7.9.9.9.9.9.9.9.y.9.9.y.0.9.9.9.y.9.9.9.y.0.9.9.9.9.9.9.9.9.9.7.7.8.7.7.j.8.7.<.7.<.<.<.2.<.<.<.2.( <.( ( ( ( >.( ( ( ( ( Q Q ( ..( Q ( Q ( ( ( ( Q Q ( Q @.Q Q Q Q Q Q Q Q Q Q Q Q Q Q Q H | Q Q H Q M V H V H M V V V V V V M M Z ; # # % # # # $ - a i r i i r r h 8.0.u.p.s.1X:X0.h t t p k 8.t.=XeXmX_ < < ; 1.MXnXs.p.p.p.p.p.:.:.:.-.-.:.-.;.;.-.-.-.y y y u t < < r a r r r i V v B v c c z v c x x c x x v v c x x v v x v x x x x v z 3 3 3 z c c z 3 : : 3 0 z z z z z 9 z z 8 8 9 8 4 4 4 4 3 3 3 3 3 4 7 4 3 3 3 3 3 3 > > 3 3 > 3 > , > , > > , , - , , , , : : # & & = & % # % # ",
": : , # : & # & : : : & : = & : & : : , : : , : , : : < , > , > > > > 3 3 3 3 3 3 3 3 4 3 4 7 4 3 3 3 4 4 4 4 4 4 4 8 4 4 8 8 8 8 8 8 8 8 z 8 8 0 8 0 z 9 z z 9 w z w c z c x v c c c v c x x x x x c v v v v v v v v v v m m v v v v v c v v x c m V v m v V m V V V v m v V v v m v V V V V M M V V M V V Q V Q V M M M M M V Q V M Q M Q Q M Q V V Q Q Q Q Q Q Q Q Q Q ( Q Q ( Q Q ( ( >.( ( ( ( ( ( ( ( Q Q ( ( 2.2.( 2.2.( 2.<.2.7.2.7.7.7.7.7.7.7.<.7.7.7.7.7.9.>.9.9.9.9.9.9.9.9.9.0.0.9.9.9.0.9.9.9.9.7.7.>.7.>.7.7.>.7.7.7.8.,.8.<.<.<.<.<.j.<.<.<.<./ <.( ( ( ( ( ( Q Q ( ( ( Q ( ( Q ( ( ( @.Q Q ( ( ( Q Q Q Q Q Q Q Q Q Q Q Q V Q V | Q V Q H Q Q H H Q H H M Q H H M V V V M Q V V M M < % # @ # # # @ - r r r r r r r t 0.y.s.&X>Xu.l t t t i t t p t p E XXNXXXj k tXyXY.0.p.p.p.i.i.:.:.:.:.:.-.:.-.;.-.-.y y u i p p g @.c < > t r g v v v v c v c z z z x x c x v c v v v x x x x v x x z x 4 , < & 3 x 0 9 < @ + < 9 z z z 4 z 8 z z 7 8 8 8 4 4 7 4 3 3 3 3 4 3 3 3 3 3 3 3 3 3 3 3 3 3 > 3 3 > 3 > > 2 > > > > > , : : : : : & : & & % & # ",
": : : : : : : : : : & : : : : : : : : , , , > , : > > , > , 3 2 3 > 3 3 3 3 3 3 4 3 3 3 3 3 4 4 4 3 3 4 4 4 4 4 4 8 z 8 z z 8 z z z 8 z 8 8 8 8 8 4 8 8 z 8 z 8 z x c z c c c c x c x c x c x x c x v v v v v v v v v v v v v v v v c v x v m v m v m m m V m m v V v v v v v v m V v V V V V V V V M M M M M V M V M M V V M Q M V V Q M Q M Q Q M Q M Q Q Q Q Q Q Q Q Q Q Q Q Q Q Q Q Q >.Q ( ( Q Q ( ( Q Q >.( ( ( ( ( ( ( >.( ( / <.<.2.<.<.<.<.<.<.<.>.<.>.>.>.<.<.7.7.>.<.9.>.9.9.9.9.>.9.0.9.9.0.9.>.9.7.7.>.7.7.7.7.7.7.8.8.7.<.<.<.<.<.<.2.<.<.<.2.2./ 2.( / ( ( Q Q ( ( ( ( ( Q ( Q ( ( Q Q Q Q Q Q | Q Q Q Q Q Q Q Q Q Q M M M Q V M Q V M Q H V Q V Q H M H H Q Q H Q H V M V V M M V M < @ $ $ @ $ $ @ 5 r ; r r r r < p t.i.p.p.f.>.t t r p p p h p r p t r g J.qXK.=XY.y.:.g.g.p.p.p.:.:.:.:.-.:.;.-.-.-.y u u p j g r r f f @ @ < t b v v v x x v z c v c c x v c c v v x c x v x v q x x x x 8 3 , > 4 z z 4 2 : < > 4 z z z 4 8 4 4 z 8 8 8 8 4 4 4 4 3 4 3 4 3 3 3 4 3 3 3 3 > 3 3 3 , 3 3 > > 3 3 2 > > 2 > > > , > > > : : : : : : : : % : ",
": # # : # : & : # & : : : : : 2 : : : : > , > > , > > 2 > > > 3 3 3 3 > ; 3 3 3 3 3 3 4 4 3 4 3 4 4 4 3 4 4 8 4 8 8 z z z z 8 8 8 8 4 4 4 8 8 9 9 4 8 9 9 9 x z z x x c c x x x x c v v v c v v v v c v v v v v v c v v v v v v v c v B B v m m B M m m V M v m m v B V V v m V V V V M m V M V V M V V V Q Q V V M V Q Q V Q V V Q V M Q M Q M M Q Q Q Q Q Q Q Q Q Q Q Q Q Z Q Q Q Q Q Q Q Q Q ( ( ( Q ( ( Q Q ( ( ( ( ( ( Q Q ( ( ( ( / <./ <.<.>.<.<.<./ / / >.( <.<.<.>.7.7.>.9.7.9.0.7.9.9.9.9.9.9.9.9.9.>.7.7.7.7.>.7.7.<.5.7.7.<.<.<.<.h.<.<./ <./ / 2./ / <./ ( ( ( >.( >.( >.( ( ( ( ( ( ( Q Q Q Q M Q Q M V V M Z Q M V Q Q Q M Q Q M M V Q M Q V V Q M M M Q H M V H V H Q H V Z M V M W < . # $ O $ $ = i i r r ; r ; r E 0.d.].].^.0.y r t r t p l h p r ; r r ; i ,.8.0.;.p.g.g.p.p.:.:.:.:.-.-.-.-.-.-.y p l A p t r r r k 9.<.Z a < b v v v v v v x v z c v x v c c c v v x c c v x v c x v x x z 4 z z z z z 8 4 9 9 z 9 4 z 4 4 4 z 8 4 8 8 8 4 4 4 4 8 4 4 3 9 4 4 3 3 3 3 3 3 3 > 3 3 > 3 > > 3 > 2 3 , 2 > > , > > > , > , : : : : 2 : : : ",
": & : & : & : : : 2 , : : : : : : 2 2 > > > > , > > 2 2 2 3 > 3 3 > 3 3 3 3 3 3 3 3 3 4 4 3 4 8 4 4 4 4 8 4 z 4 z z 4 4 4 8 4 z 8 8 8 8 8 8 0 8 8 8 z x z x z c x z x c c x c v v x c v v v v c v z z z x x c v c v v v v v v c v v v v v v v v v m v v v v v m v v M v m V v m V m V V V V M M M V M M M M M M V M V M M V M M V Q Q V V Q M Z M M M M H V M Z V Q V V Q Z M Q Q Q Q Q Q ( ( Q Q Q Q >.( ( ( / ( ( ( >.( ( ( ( ( / / <.<.( 2.<.2.<.<.<.>.<.<.<.<.<.7.<.7.7.>.9.7.7.7.7.7.7.7.9.9.9.>.9.9.7.7.7.<.7.7.7.7.7.7.7.7.7.<.5.<.<.j.<.2.<./ ( / / / 2./ / <./ / ( ( ( ( ( ( ( Q ( ( Q Q ( Q Q Q Q Q Q Q Q Q Q Q A Q Q Q Q V Q Q Z Q Q Q M Q M Q M V V M V M V M M Z H M Q V M V V V V V V a @ $ # # $ # < i r r r ; r p h l >./.1X_.1X0.l k p t t p p h h p r ; ; < < ; k k 0.a.g.g.p.p.:.:.p.:.:.:.:.-.y h h A h t t t l t t j.t.Z.h.<.a z v v v c v v c c v v v x v v x c c x v x v x x x x x x x x z v x z z z z z z z z z z z 4 4 4 4 8 4 8 4 3 8 4 4 4 4 4 4 4 3 4 4 3 3 4 4 3 3 3 3 > > 3 , > 3 , > 2 > > 2 2 , > > , , > > > > : 2 2 : : : : : ",
": # : : : : : & : : & 2 : : 2 > , : 2 : e 2 > > > 2 3 > > 3 > > 3 3 3 > 3 > 3 3 4 3 3 4 4 3 4 4 4 4 8 4 4 4 4 8 4 4 8 4 4 4 4 4 8 8 8 8 4 8 8 8 8 x z z z x x x x x c z x x x x x v v x c x x x z 9 4 4 4 z x v v v v v v v B c B v v v m m v v v x v v v B v v v m v m v V V m V V v M m V V M V V Q M V V Q M V M M Q M Q M M M V Q M V Q M M M M M M V u M v M M M V M Q Q Q Q Q Q Q Q ( Q Q ( ( ( ( / ( / ( ( ( ( ( ( >.( <./ ( <.( 2.<.<.<.<.<.<.7.7.<.<.<.7.>.7.9.<.7.9.7.7.9.>.7.7.9.>.7.7.9.>.9.7.7.7.7.7.7.<.>.<.<.<.7.<.8.<.8.j.<.<.<.2.2.2.2./ / / ( / / ( / / / ( ( Q ( Q ( ( Q Q ( ( Q Q Q Q Q Q Q Q Q Q Q Q V Q M Q Q Q Q Q Q Q M Q Q Q Q M M V Q V Q H Q M H H M M M H V V V m m M m N = O $ # # @ - i r r r 1 h l l 0.~._._.1X_.u.y ;.k p p p t p p p p t r r r ; r k 0.g.p.g.p.:.p.p.:.:.:.:.-.k k l h u u u t >.E.>.t 7.y.Z.9.<.Z a x v v v v v v x x c x x x v x x x x x x x x x x x x z x x v q z z z z z z z z z z z 4 z 4 4 4 8 3 4 8 3 3 3 4 4 3 7 4 4 4 3 4 4 4 3 3 3 3 3 3 3 3 3 3 > 3 3 > 2 3 2 2 > 2 7 > > , : , : , : : : : : : : : ",
": : : & : : : 2 : : , , : : : , > 2 > > : > 2 2 > > 3 > 3 > 3 3 2 3 3 3 3 4 3 3 3 3 4 4 4 z 4 4 4 4 4 8 4 4 4 z z 4 4 4 9 8 4 4 3 8 4 8 8 8 8 z 9 z x x x x x x x x z x x x v v v v x x v x x x x z 4 4 z z x x v v x v q v v v v m v v m v v x v x v x v v c v m m m m m v V V v M V m V V v M M Q M M M M V M M M Q M M M V M V M V V Q M Q V M V M M M M M M M Z M Z Q M Q Q Q Q Q Q Q ( >.Q Q ( ( Q >.( ( Q ( ( ( ( ( ( / / / / 2.2.<.<./ <.<.<.<.<.<.7.<.7.7.<.7.7.<.<.7.<.7.>.7.7.>.7.<.7.>.7.7.7.>.<.7.<.>.<.( ( <.>.>.<.<.>.<.<.<.<.<.<.( / ( / 2./ / / ( ( / ( ( >.( ( >.( ( Q ( Q ( Q Q ( Q ( Q Q Q Q Q Q Q Q Q Q Q Q Q M Q Q Z Q Z Q Q Q Q M Q Q M M Z Q V Q V V Z H Z V V V M V V m V m M x @ O @ O @ ; i r r r t l 0.~._.).!.!.!.!.g.y u p h j i r r r t r t p p p p r h k p.p.p.p.p.p.:.:.:.:.>.>.l l y y u u u t Z.-X%X>.>.Z.E.E.7.<.d a c v c v x v x x x x v x c z v x x x x x x z x z z z x z z z z z z z z z z 8 8 z z z 4 8 z 4 4 4 4 4 4 4 4 4 3 4 7 4 3 4 4 3 3 4 3 3 3 3 3 > 3 3 3 > 3 3 , > 3 > > 2 , 2 : 2 : : : = : : : : : : : : : : ",
"& 6 2 : : : : : : , > : , > > 2 > > 2 > 2 3 2 3 3 3 3 3 3 3 3 3 3 3 3 3 3 3 4 3 7 4 4 4 4 4 4 4 3 4 3 4 9 3 3 3 4 9 4 4 4 8 9 8 9 8 8 8 8 z x z z x x x z x z x x c v x c x v v v x c x c v x v v x v v v v v v v v v v m v v v v m m m m v m v v v v v v v m v v m v m M V V M V M V M M v M V M M M M V V V Q M V V V M v M M V Q Q V V V M Q M Q Q Q Q Q M Q Q Q Q Q Q Q Q Q Q Q Q Q >.Q Q Q Q ( ( Q ( Q >.Q ( Q ( >./ ( ( 2.2./ / / 2.<./ 2.<.<.2.<.<.<.<.7.<.7.<.7.7.7.7.7.7.<.7.<.<.7.7.7.7.<.<.7.<.7.7.>.7.<.>.( ( <.<.<.<.<.<.<.2.<.<./ <./ <.( ( / ( / ( >./ / ( ( >.( Q Q ( ( ( ( Q ( ( Q Q Q Q Q Q Q Q Q V Q Q Q Q Q Q Q Q Q Q Q Q Q Q M Q Q Q M Q V V Q Q V H Z H V J Z Z V M M M M V m N h.b . $ O @ 5 r ; ; h 0.&X!.!.!.!.!.!.!.a.g.u t t h p r ; r r r r i t r t p t r p i.p.:.i.p.:.:.:.>.;.;.;.-.-.-.y y u u t >.T.-X9X8.Z.-X=XD.C.( a z c z c v v v v x v x x x x x x x x x x x x x z z z x z z z x z z z z z z z 8 z z z z 4 4 8 z z 4 9 4 4 8 4 4 4 4 3 4 3 4 3 4 3 4 3 3 3 > 3 > > > 3 3 > > 3 > , > , > > : : = - & : : : : : : : : : & : ",
"& : : : : : 2 2 > > : : : > : > 2 2 3 > 3 > 3 3 3 3 3 3 3 3 3 3 3 3 3 3 3 4 3 3 4 4 4 3 3 4 3 4 4 3 3 4 3 4 8 4 4 4 4 4 8 8 4 4 8 8 z z c 8 c x x x z x x x c v x v c v v v v v c c v v v v v v v v v v v m m v B m v v v v m m V m m V m m m v m v v v m v m m m v m v V v v M V V V V M M V V V M M M M M M M M Q M V M v M M V Q V V M Q Q M Z M M Q Z Q M Q Q Q M Q Q Q Q Z Q Z Q Q H Q Q Q Q Q Q >.( Q Q Q ( >.( ( ( ( >.( / 2./ <.2.2.<./ / 2./ <.2.<.<.7.<.7.7.7.7.9.>.7.>.7.7.7.7.9.7.7.7.7.<.>.7.>.7.7.<.>.<.<.<.<.<.<.<.7.j.<.<.<.<.<.<.<./ 2./ / ( <.( ( ( ( ( / / ( ( ( Q ( Q ( Q ( Q Q Q Q Q Q Q Q Q M Q Q Q Q Q Q Q Q Z Q Q Q Q Q M V Q Q V Q M Q Q M Z M Q Z Q H Z W V Z M M H M M Z V m m.z X @ @ < r j u.~.!.!.!.!.!.].!.a.a.a.g.;.r r t r ; ; ; ; ; r r r r r r r r t >.p.p.p.i.:.:.;.;.;.-.:.-.-.y y y u t t y T.=XwX%XZ.-X9X=XC.j.n a x c x v v v v v x x x v z x x v x x x x x c z z z z z z z z z z z z z z 8 4 z z 4 z 4 z 4 3 4 4 4 4 z 4 4 4 4 4 4 4 4 3 4 3 4 3 4 3 4 3 3 3 3 > 3 3 > 3 3 3 > > 2 > > 2 2 : : : : , > : : : : : & : : ",
": 6 : & : : : : : : : : = : > 2 2 2 2 3 2 3 3 3 3 3 3 3 3 3 3 4 3 3 3 4 3 3 4 4 3 4 3 4 4 3 4 3 4 4 4 4 4 3 8 8 8 4 4 4 4 8 z z z x x x x x c x x x v x c c c v v v v v x v c v v v c v c v v v v V v v v v B v v v v v v v v m v v v v v v m v m v m m m m m m v m m M V M V V M m V V V V M V V V V V V M M M M M M M M M M Q Q M M Q V V V Q Q M Q Q Q Q Q Z Q Z Q Q M Q Z Q Q Z Z Z Q V Q Q Q Q Q Q Q Q ( Q Q ( ( ( ( ( ( ( / ( / 2.<.( ( / / / 2.<.<.<.<.<.<.>.>.7.7.<.>.7.7.<.7.7.7.7.7.>.>.7.<.7.7.7.<.<.7.<.<.<.<.<.<.<.<.7.7.7.<.2.<.<.( 2./ <./ / / ( ( ( ( >.( / ( ( ( ( >.( ( Q Q ( Q Q Q Q Q Q M Q Q Q Q Q Z Q Z Q Q M Q Q M M M Q M Q V V V M V M H M V M V V V H V H M ~ Z M H M M M M N n X.a < i ,.s./.).!.!.!.].(.].a.].a.a.g.p.:.t ; ; < < < < < < ; ; ; ; r ; ; ; r >.0.0.i.0.>.>.:.-.:.:.-.-.-.y y u u u u u >.=X9XwX%XT.9X9XZ.5.' a z x x z x v z x x v x x x v x x x x x x x c z z z z z z z z z z z z z z z z z 8 z 4 4 4 4 4 4 8 4 4 4 3 4 4 3 3 3 > 3 3 3 3 3 3 3 3 3 3 3 3 3 3 3 3 3 > > 3 3 3 > 3 3 2 2 2 3 2 2 2 , : 2 2 2 2 6 : : ",
": 2 : # : : : : > > , > > - > > 5 > 3 2 3 5 3 2 3 > 3 3 3 3 3 4 4 3 4 4 4 4 4 4 4 3 4 3 4 3 4 4 8 4 8 4 8 8 4 8 8 z 8 z 8 z z x z z z z z x z x z 8 8 z c x c c x x c x x c x x x x z x x x x x v x q x x v v v v q v x v v x v v v q v v v v v v v v v v m v v v M m v v v V v V m m m M v V V V v V V V M M V V M M M M M V V M M M M M M M Q M M M V M M Q M Z M Z Q A Q Z Q M Q Q Q Q Q Q Q Q Q Q >.>.( Q ( Q Q ( >.Q ( ( ( ( ( ( / ( ( ( ( / / 2./ / <./ <.<.>./ <.<.>.<.<.<.7.<.<.7.>.7.>.>.<.7.<.<.<.<.<.<.<.<.<.<.<./ <.( A A A >.( ( ( ( ( ( ( ( ( ( ( >.Q Q ( >.Q Q Q ( >.Q Q Q Q Q Q Q Q Q M Q Q Q Z Q Q A M Q Z M M M M Q M Q M M M V M M M Q M M M m M M Z M M M V V M M M M M M M M Z n f g j 7.u.~./.).].!.!.(.a.a.a.a.a.a.a.g.p.p.:.y < < < @ < < < < < ; ; ; r ; ; @ p XX5.,.>.;.;.:.;.-.-.-.-.-.-.-.u u y t t t t >.-XwXwXD.T.9XD.k / N z v c x v v v x v x c v x v z v x x z x x z v z z z z z z z z z x z x 8 z z z 8 z z 8 4 4 4 4 4 4 4 4 4 3 3 3 3 3 > 3 3 3 3 > 3 3 > 3 > 3 > 3 > 3 3 > > > > 2 2 > 3 , 2 2 > > 2 2 > 2 2 > > 2 : : 2 : ",
"2 - 2 2 : 2 2 6 > 2 3 3 3 3 3 3 2 5 2 2 3 2 3 3 3 3 3 3 4 3 4 4 4 4 4 3 4 4 3 4 4 3 4 4 3 4 4 4 4 4 8 4 8 4 z z z 8 z 8 z z 8 z z z z z z z 8 8 2 : # = 4 z x 8 z z x z z z z z x z x c x x x x z x v v x v v x x v v v v v v x v v v v v v v v v v v m m v V V M v V V M M V M v V V m V V m V m V V M V V M M V M M M M M M V M M M V M M M V Q M M Q Z Q M M Q Z Q Q V Q Z Q Q Q Q M Q Q Q Q Q V Q Q Q Q ( Q ( ( ( Q ( ( ( ( ( / ( ( ( ( ( >./ ( / ( <.2./ <.<./ <.<./ <./ / <.7.7.>.2.7.<.<.<.<.<.<.<.<.<.<./ <.<.<.<.<.<.<.>.M u Z Q ( ( / ( ( >.( ( ( ( Q Q Q ( Q Q ( Q >.Q Q Q Q Q Z Q Z M Q Q Q Q Q Q Q M M M M M Q Q M Z M Q M M M M M M Q M M M M M V M M N m M V V M V Z V M P F P n j f k 8.s././.!.!.(.].].a.a.].a.a.a.a.a.p.p.p.:.:.:.-.; @ @ @ @ @ < < < < @ < < ; < < g j.,.l >.:.:.:.:.-.;.-.-.y y y y u u u u u t u T.9X-XZ.7.%X%XR f m z v v v v v x v v v v v v v v x x x v x x x c z v c z z z x z z z z x x x z z z z 8 z z z z z 8 8 8 4 4 4 4 4 3 4 3 3 3 3 3 3 3 3 3 3 > 3 3 3 3 > > > > > > > , 3 > 3 > 2 2 > > > > > : 2 > - 2 : : : ",
"2 : 2 2 2 2 2 2 3 > > 3 2 2 3 3 3 3 5 3 3 3 5 3 > 3 3 3 3 3 3 3 3 3 3 3 3 4 3 3 3 4 3 4 3 4 3 4 4 8 4 z 4 z z 4 z z z x z z z x z c z z z 8 3 3 > @ X o < 3 4 4 4 4 z z x x c x x x x v v v v v v v v v v v v v v v m v v v v V V v V v v m m m m m m V V m m m M V M V M M v M V V V M M M M V V M M V V V M M M Z M V M M M Q V Q V Q Q V Q Q Q M M Q Q Q Q Q Q Q M Q Q M Q Z Z Z Q Z Q Q Q M M Z Q Q Q Q Q >.( ( ( >.>.Q ( <./ / ( <.( ( ( ( ( / ( <.2./ / <.<.2./ / / <.<.<.7.<.<.>.<.<.7.<.<.<.>.<.<.<.<.>.<.<./ / ( <.<.2.A Z Z Z ( ( <./ ( >.( ( ( ( >.( Q ( ( ( Q Q ( Q Q Q Q Q Q Q Q Q Q Q Q Q Q M Q Q A Q M Q Q Q Q Q A Q Z M M M Z Z Q M V Q V V M v v M M M M M M M M M Z M L f C E 8.u.>X_.!.!.!.].a.].a.a.a.a.a.a.g.g.p.i.p.p.:.:.:.;.;.l @ @ @ @ @ < @ < < < < < < < < t ;.:.:.:.:.:.:.:.:.-.-.-.y y y u y u u t t u t >.=X-XD.,.C.*X,.r d x v c x v v v x v x v v v v v x v v x c x v c z v z z z z 4 3 4 3 4 3 4 4 4 3 2 4 4 z z z z z z 4 8 8 z 4 4 8 z 8 8 4 4 4 4 4 4 4 3 4 4 3 3 3 3 3 3 3 3 3 2 > 3 3 > > > > 2 2 > 1 2 > 2 > : 2 > > : 2 ",
"2 2 > > 2 - 2 2 > 5 > 2 2 > > 5 2 2 3 3 4 3 4 : % @ < 3 4 3 > 3 3 3 2 3 > > 3 2 3 3 3 3 4 3 9 4 4 4 4 z 8 4 8 z z z z z z z x z z c x z z 8 3 3 3 > , < & 3 4 4 4 8 z x c x c v v v v m v v m v m v v m m v v m m v m v m V v m m V v m V V v V m m V V V M M V V M M V V V V M M V M M V M M Q V M V Q M Q M M M V M Q V Q H H Q V M Q Q Q Q V Q Q Q Q Q Q Q Q M Q Q Q Q Q Q Q Q Q Z Q Z Z M Q Q Z M Q Q Q ( ( ( ( ( ( ( ( ( <./ / ( ( 2.<.( ( 2./ / / 2.<.2.<.<.<.<.<.<.2.>.<.<.7.<.<.7.<.<.<.<.7.7.<.<.<.<.2./ ( <.<.( <.( ( ( A A ( ( / ( ( ( ( ( ( >.( ( ( ( Q >.( ( ( ( ( / ( Q ( Q ( Q Z Q Q Q Q Q Q Q Q Q Q Q Q Q Q Q Q Q Q Q M M M Q Q Q Q Q Q Q Q V t a M Z M M M M M M M j A E 7.s./.1X_.!.!.!.].].a.a.a.a.a.a.g.p.p.p.:.p.:.:.:.:.:.:.;.-.-.C @ @ @ @ < < @ < @ < @ < @ ; u :.p.:.:.:.:.:.:.:.:.:.;.-.-.u y u u u u u t t k -X9X*X,.8.D.,.i s b v x v v v v v v v v v x c v v v v x c v z x c c v z z z z 4 4 7 3 3 7 > # < < : > 3 z 4 4 z z z z z z z 8 z 8 8 4 8 4 8 4 4 4 4 4 4 3 4 4 3 3 4 3 3 3 3 3 3 3 > 3 > 3 3 2 3 > 2 2 2 > 2 2 : 6 > > : ",
"2 2 2 > ; > > > > > 2 2 2 > > 2 > > 3 > 3 3 3 < % + < 3 3 > 3 3 > 3 3 > 3 3 3 3 3 4 4 4 4 4 8 8 8 8 8 z z z z z z z z z z z z z z z z v z z z z z 8 a 8 8 z z x x x v v v v b v v v v m m v B m v m v m m m v v m B m v m M v m v m m m m v m m B V V V M V M V V M V M M V M V Q V V V V V Q M M H Q M M H M Q M M M M M M H Q M M V Q Q Z Q Q Z Q Q Q Q Q Q Q Q Q Q Q Q Q Q Q Q Q Q Q Q Q Q Q M Q Q Q ( ( Q ( ( ( / ( ( / ( / / / / / / / / / <.<./ <.<.2.<.<.<.<.<.<.<.<.<.<.<.<.<.<.<.<.<.<.<.9.j.<.<.<./ <.( / <.( <./ / ( ( ( ( ( >.( ( A ( >.( ( / ( ( ( >.( ( ( ( ( >.( ( Q / Q >.Q Q ( Q ( ( Q Q Q Q Q Q Q M Q Q Q Q Q V Q Q M Q Z Q Q Q Q Q Q M Q V z s Z W Z M Z n f j 1.u.:X_.!._.!.!.!.!.].a.a.a.g.a.p.p.p.:.p.p.:.:.:.:.:.:.:.-.:.-.-.-.u k a @ @ < # @ < @ < @ @ @ < t >.:.:.:.:.:.:.:.-.:.-.-.-.-.-.y y u u t t t t < k 9X8X*X7.h D.,.i d b v b v v v v b b v v v v v v v v v v v v v v c v x x x x x z z z 4 z 3 > > < < = > 3 4 z z z 4 4 z 4 z z z 4 4 z 4 4 4 4 4 3 4 3 4 3 3 3 3 3 > 3 3 3 > 3 3 > 3 3 > 3 3 > 3 > 3 > > > 2 3 3 > > > > 2 ",
"& - - > 2 > 2 2 > 3 > 2 5 5 2 3 3 > 3 3 3 3 3 , > > 7 3 3 3 3 3 4 3 4 4 4 4 4 4 4 8 z 8 z z z z z 8 z z z z z z z z z z z z z z z z z c z z z c c z x c c x c v v v b v v v v b v m v v v m m v v m m v v m v m m m v m m B v V V V V m m V m V V V V m V V V V v M V V V V V V M V V V Q V V M M M V M Q M M M M M M M M V M M M M V M M M M M M M M A Z M Q M Q M Z M M Q Q Z Q M Q Q Q Q Q Q Q >.Q Q Q ( A ( A ( ( A / / ( ( ( ( ( A / ( ( ( ( / / / / <.( / ( / / <.<.2.<.2.<.<./ / <.<./ / <.<.( ( ( <.<.( / ( ( <./ / >.( ( / ( ( ( ( ( ( ( ( ( ( / ( ( ( ( ( ( ( ( ( ( Q ( Q ( ( Q Q Q Q Q Q Q Q Q Q Q Q Q A Q Q Q Q M Q Q Q Q M M Q M M M M M M M M V y Q j f n f A 1.Z.>X1X).).!.].].].].a.a.a.a.g.p.p.p.p.:.:.:.:.:.:.:.:.-.-.:.-.-.-.-.-.-.y u >.g @ @ < < @ @ @ @ @ @ @ h ;.;.:.:.:.-.:.-.:.-.-.-.-.y y -.y y y u t t t r l =X9X*X5.p C.,.i d m b b b v b v v v v v b v v v v b v v v x v v x v v x v v x v c c x x z z 8 4 9 4 4 4 z 4 z z 4 z 4 z 4 4 z 8 4 4 4 4 9 4 3 4 4 4 3 3 3 3 3 3 3 3 > > 3 3 3 3 > 3 3 3 3 3 3 3 > 3 3 3 > > > 2 3 , > > ",
"2 2 2 2 2 > 3 > 2 2 2 3 3 2 3 5 3 > > 3 , > 3 3 3 3 3 3 3 3 4 4 4 4 4 4 4 4 8 8 4 z z z z z 8 z z z z z z z z z z x z z x x x x z c z v c z z c c c x x x c x v v v x v v v v v m v v v v v v v m v m v B m V m v m m V M v V v V m m V m v V m V V m m v M M v V V v V V M M V V M M M M V V m v M V M M M M V V M M M M M M m M M M M M M M Q M Z M M M M M Q M Q Z Q Z Q Q Q Z Q Q Z Q Q Q Q ( Q ( ( Q ( A ( / >.( Q ( ( / ( ( Q ( ( ( >.( ( >.( / ( / / ( / <.( ( <.>.( ( Q Q Q ( ( >.( ( ( ( >.( ( ( ( ( ( / / / / / / / ( / / / ( / ( / / ( ( ( ( Q Q A A Q Q Q Q Q Z M Q Z Z Z Z Q M M M M M M Q Z M Z Z V M Q A Z M M Q Q M M M M M M M M M M M M M V oX,Xs.s.Y.u.~.1X_.!.].].].a.a.a.g.a.g.g.p.p.p.:.p.:.:.:.:.:.:.-.;.-.-.;.:.-.:.-.-.-.-.u y y -.>.Z < X @ @ @ @ < @ @ g ;.;.;.-.:.-.-.-.-.-.-.-.y -.y y -.y y y u t u t r h 9X9X*X8.p C.<.g d b b b b b b v m m v v b b v b b v b b v v v x b v b v c c x x x x z x x z x z x z x z z z z z z z z 4 z z 4 4 4 4 8 4 4 4 4 4 4 4 7 3 3 3 3 3 3 3 3 3 3 > > 3 3 3 > 3 2 3 3 3 3 2 3 > 2 > 2 2 2 > 2 > ",
"- 2 2 5 3 2 2 3 3 2 5 > 3 2 5 2 3 3 3 3 > > > 3 3 3 3 4 3 3 3 3 4 3 4 4 4 4 4 4 8 4 4 z z z 4 4 z z z z 4 z z z z z z z x x x x v v z c v z v z x v v x x c v v x v b c x v x v v v v v m v v v v v m v v v v m v M v m m V v m v m v v m V V m V m m m V v V V m V v V V V V V M M M M M V V V M M m V m M M V M M M M M M M Q Q M M Q Q M Q Z Q Q Q Q A Z Q Q Q Q Q Q Q Q Z Q Q Q M Q ( Q Q Q Q Q Q V M H Z <.Z.j.M M M Z Q A M Q Q Q Q Q ( ( Q Q Q ( Q A Q ( ( Q / 7.2.( >.( / >.>.( ( A ( / / ( ( <.<.<./ <./ / / / ( / <.( / ( >.( ( >.( ( >.Q Q Q Z Z Z M d N f f d d f v M g x g v M g d g z q u M M M M M M M M M M Q M Z M Q Q Q Z Q M M M M M M v d Z.T.d.^.:X(.].].a.a.a.a.g.g.p.p.p.p.p.p.:.:.:.:.:.:.:.:.-.-.-.-.-.-.-.-.-.-.-.-.-.y y y -.-.;.-.>.j.~ < @ @ @ @ @ p >.;.;.;.:.:.-.-.:.-.-.-.-.-.y y y y y y y u t t t t A 9X9X*Xj.h j.e.h C b m b b b b b v b b b b v v v v v v b v v v x c x x v x x x c x x x c x z x z z x z z z z z 4 z z z z z z z 4 z z 4 8 4 4 4 4 3 4 3 4 3 4 3 3 3 3 3 3 3 3 3 3 > 3 3 3 3 3 3 > 3 > > > > > > > > 2 > > ",
"2 2 2 2 3 3 3 > 3 > 3 > 2 3 3 3 4 3 3 3 3 3 3 3 3 3 3 4 3 3 4 3 4 7 3 4 4 4 4 4 8 8 8 8 4 8 z z z z z z z x z x c z x x x c c v x v x v v c c b c v v v v v v v v v c c v v b v m v m v m v m v V v v v V v m v v V B v B V M v v m m V V m V v m V m V m v v V v v v v V M V M M V V M V M M M V M M H V V V M Q M M Q V M M H Q Q Q Q Q Q Q Q Q Q Q Q Q Q Q Q Z Q Q Q Q Q Q Q Q M M >.<.( V m B V z t z 4 a <.Z.j.g i 5 z d d v m d u V y Z M M M M M f M M Z Q Z A <.<.( / / / / ( / ( <.( / <.( ( 2.<.<./ / <./ ( ( / ( ( ( Q >.( A ( Q Q Q Q ( Z M Z Z Z M M M Z M M f M M M z d m d m f v m t x v v M m M M v u V M M Z Q Q M Z Q Z Q M Q Q M M m v 4 r t l >.0.0.g.p.g.p.p.p.p.p.i.i.p.i.:.i.p.:.:.:.:.:.:.-.:.-.:.;.:.:.:.:.:.-.-.-.u y u u -.-.:.:.:.-.-.7.B.n.n s h j y y -.-.-.-.-.-.-.-.-.-.-.y -.y -.y y y y u u u u t u E.eXwX*XZ.h 8.K.E C d c v x x b b v v x v v v z v z v x x x x x x x x x x x x x x z z z z z z 8 8 z 4 x z 4 z z z z z z 8 8 4 8 8 4 4 4 4 4 3 4 4 4 3 3 3 4 4 3 3 3 3 > 3 > 2 3 > 3 3 > 2 > 3 > 2 > 2 > > > > > > : > > > ",
"2 2 2 2 3 2 2 3 > 3 3 3 5 3 3 3 3 3 3 4 4 4 4 9 4 4 4 4 4 4 3 4 4 4 4 4 z 4 z 4 8 z z z z z z z z z z z x x x x x c c x c x v x c v c c x v b b v v v x v v v v v v v v v v m v v m v m v m m m v m v V m m m v V v M m M v m v v V m m m v V m V v m m V V V V v x v v V M V V V V Q V M M V Q Q M V M Z Q Z M M V V Q V Q H Q Q Z Z Q V Q Q Q Q Q M Q Q Q Q M Q Z Q Z Q Z M Q M M M M Q Q v u x z 4 z 4 3 4 t A Z a z z g b d B u N M V M M V Z Z Z M Z Z Z Z Z f A Q ( Q ( / / / ( ( ( ( / ( ( ( ( <.<.( ( ( ( ( ( >.( >.( >.( Q ( ( ( ( Q >.A Q >.Q Q Q ( A A Q Q Q Q Q Q Z V M Z Q Q Z Q Q Q Z Z Q M Q Z Z Z M V Q M Q A Q Q Q Q Q Q Q Q Q Q Q Z V M v 8 9 z u h h k >.;.>.:.i.i.:.i.:.:.;.:.i.;.:.:.;.0.g.p.p.p.p.a.a.a.f.a.g.p.:.-.-.u u y y -.;.:.:.:.:.;.y y -.;.l y y y -.-.y -.-.-.-.-.-.-.-.y -.y y y y y y y u u t t t t.wXyX=XE.7.r A A.E / b x x d b v x x x v v x x v v x x x z x x x x x x x x x z z z z z z z z z z z 8 z z 4 z z 8 z 4 z z z 4 4 4 4 4 8 4 3 4 4 3 3 3 3 4 3 3 3 3 4 3 3 3 2 3 > 3 > > > > > > > 3 > > 3 3 3 3 2 > > , 2 2 > ",
"5 2 2 2 - 2 3 2 3 3 2 3 3 3 3 5 3 3 3 4 4 3 4 4 4 8 z z 8 z 8 4 z z z z z 4 z z z z z 8 4 z 4 z z z z x z x x x x x x x x x c x z v z v x x v x x x c v v v v v v v v v v v v c v m v m v v m v V m v v v v v m v V m m M B V m m V V V m V V V V m V V V V V V M V V m V V M Q V Q M M M M V V M V V M V H M M M Q V V v v x v M >./ ( Z V M M M M Q Q Q M Q Q Q Q Q M Q Z Q V M Z Q M M M v v u v m v v M v v M M M M M Q Q Q Q Q Q Q Q ( ( ( ( >.( ( A ( ( ( ( 2.7.<./ ( / / / >.( <./ ( / / ( <.( <.2.( / <./ / ( / ( ( ( ( ( ( ( / / A ( ( ( ( >./ / / / / ( ( Q Q Q Q Q ( ( ( Q Q Q Q Q Q Q Q Q Q Q Q Q Q Q Q Q Q Q Q Q Q Q Q Q Q Q Q Q Z Z Q Q Q Q H V V M V M M V M M u L f j j f f j j C j j j j l R.a.a.a.a.a.a.].].a.f.a.p.-.y u u y y y ;.:.i.p.:.:.:.-.-.u u u y y y y y y -.-.y -.-.y -.-.y -.-.y y y y y y u u t t y 7XwXwXE.t.C r f / r n N x x x b b b v m v v v v m v b b v v v v v x x x x x x z z z z z z z z z z z z z z 4 z z z z z z z z z z z 4 z z 8 8 8 4 8 4 8 4 4 4 4 4 4 3 4 3 3 4 3 3 3 3 3 3 3 3 3 > 3 3 3 3 3 3 3 3 > 3 3 > 2 2 ",
"2 2 2 - > 2 2 1 > 3 3 3 3 3 3 3 4 3 3 4 3 4 4 4 4 z 4 z 4 8 z z z 4 z z z z z 4 4 8 z z z z z z z z z z z z z x x x x x x x x c v c c z x b x x x v v c v v v v z 8 3 x v m v c v v m v c z v m m v V m m m m V v V m m V m m V m v V m V V V V M M V M V V M H M M V Q V M M M V V M V V m V V v m m m v V v m v v c 4 4 , < < z Q j.2.Q Q M m m M M M M Q Q M Z M Q Q Q M Z H Q Z M M M M M Z @.Q Q M Z Q Q Z Z Z Q Q ( ( Q ( Q ( ( ( ( ( / ( ( ( ( / <.( <.( >.t.t.7.>./ <.<.<.2.<./ 2.<./ <./ 2./ ( <.<.<./ <.( / ( ( Q ( ( / ( ( ( / ( ( ( Q ( ( ( ( ( ( Q A M v t x Z Q Q Q ( Q Q Q ( Q Q Q Q Q Q Q Q M Q Q Q V Q Q M Z M M M M M V M v M M V H M V M H Z Q M M H M M Q M F M M M n M n M M M W V Z k d.a.a.a.g.a.a.f.].f.a.a.p.-.y y y y -.-.:.:.p.p.p.p.:.;.-.-.-.y y y y y y y y -.y -.-.-.-.-.-.y y y y y y y u u t u t t.MXgXE.Z.8.t ; r r < a s b b b M v v m v v m m v v v v b b v v v v x x v v x c x z z x x x z z z x 4 z z x x z z c x x z z x x x x z 8 z 4 z z z z z 8 8 4 4 4 4 4 4 4 8 4 4 4 4 3 4 3 3 3 4 3 5 3 4 3 3 3 3 3 3 3 3 3 3 2 3 ",
"> > > > > > 3 > 3 5 > 3 3 8 3 3 3 4 3 3 4 3 4 4 4 4 4 8 z 4 4 4 4 z 8 8 z z z z z z z z z z z z z z c x x z x x v c x z c x c v v v v c x c v v b v v v v v v v z - # > c v c 8 3 > 3 8 3 > 3 z v m v m V V m V M V m V V V V V V M V V M H V M M M V V M M V V Q M M V M M V V V V V V V V v v B b b b b b v x v v 4 > < @ + @ < r f A ( Q M V M Q Q Q Q Q Q Q Q Q Q Q Q Q Q Q Q Q Q Q ( Q Q Q Q ( Q Q Q ( ( ( ( ( ( ( ( ( ( ( ( ( ( ( <.( ( ( / ( ( ( <.( ( ( 2.2.<.<./ ( ( <.( / / ( / / / / ( ( / / ( >.( ( ( ( ( / ( Q ( ( A Q >.Q A Q ( A ( Q A ( Z A Q Q Q d i ; 4 g Z Z Q Z Q Q Q Q Q Q Q M Q Q M Z Z M M M M M M M V M M M M M M M v M M M M H M M M H V M M V V Q V M V V M M M V Z V M Z V Z Z >.d.a.a.a.a.a.].].(.f.d.a.:.-.y y y y -.;.:.i.p.p.g.p.i.:.:.-.-.-.y y u y y y y y y y y y y y y -.y y y y y u u u u t >.eXdXeX{.9.k r r ; < < r b N m N v M v v m v v v v v v v v c x x v x v x x x x x x v x v v x v x x x x x x v x v x x x x x x z x z z z 8 4 3 3 4 3 4 4 4 3 4 4 3 3 4 3 3 3 3 3 4 3 3 4 3 3 3 3 3 3 3 3 3 3 3 3 2 3 3 3 > 3 2 2 ",
"3 > > > > 2 3 3 > 5 3 3 3 3 3 3 3 4 3 4 3 4 4 4 3 4 3 4 4 9 4 4 8 4 4 4 4 4 4 8 4 z z z z z z z z x x z z x z z z z v v x x z x x x x v v v v v v v c v b z 8 8 > # X # : > > # + @ # = @ @ X $ > > 3 8 c v v m V v V M v V v V V V V M M V V V V m V m V b m V v V V V V V V V M V V V M M M V V V M M M N V m N a 4 9 3 3 4 3 2 > a M Q M M Q ( ( ( Q Q Q Q Q Q Q ( ( ( Q Q Q Q Q ( ( ( ( ( ( / ( / ( / ( ( / h./ ( / ( ( / ( ( ( 2.( <.( ( ( ( ( 2.2.2.( <.2.<.( >.( / <./ / <./ / / <.( / / / ( / / ( ( ( ( ( ( <./ / ( A A Q ( ( Q ( A Z ( Q ( ( Q Q ( ( ( Q m g x d Z Q Q Q Q M Q Q Q Q Z Q Q Q Q Q Q Q Q Q Q Q Q Q A Q Q Q Q Z Z Z M Q M M M Z Q Q M Q M M Z M Q Q V V V M Q Z M Q Z V V M M Z V Z <.f.a.a.a.a.a.].!.(.(.d.g.:.:.-.-.-.-.;.:.i.p.p.p.g.p.p.:.:.:.:.-.y y y y y u y y y y y -.y -.y y y y y y y u t t t u %XsXdXqXZ.7.h r r ; < ; 5 M b m v m v v v m v m v v v v c v v c c x v v x v x c v x x v v v x x x c c c c x z x x z z z x z z x z 8 z 8 4 3 3 3 3 3 3 3 3 3 3 3 3 3 3 3 3 3 3 3 3 3 3 > 3 > > 2 > 3 3 > > 3 > > > > > 3 > > > > ",
"> 3 > 3 3 3 > 3 3 3 3 3 3 3 3 3 3 3 4 3 3 4 3 3 3 4 3 4 4 3 4 4 4 9 4 4 4 4 4 4 4 4 z 4 z 4 z z z z z z z z x x c z z x z v c z x x x x x x c c c v v v x > = @ = o X O @ @ $ @ @ $ % # o X + @ % < 3 3 8 z z v v v v v v v v B v m m m V V m V V V V m m v m V B M v V M V V V V V M V H V M Q J Z V Q V W J H M V V V V V J V m m V V V V M Q Q ( Q M Q Q Q Q Z Q Q Q Q Q Q Q ( Q Q ( ( ( Q ( ( ( ( ( ( ( ( ( A ( ( A / / A ( >.( ( ( ( 2.( >./ / <.2.2.( 2.2.2./ 2./ <.( ( / ( / 2.2.2./ <./ ( / ( <.<.2.2./ / / <./ / / ( / >.( ( / ( ( X.A ( ( ( ( / 2./ / / Z Z Z Q / ( Q ( Q ( Q Q Q Q Q Q Q ( Q ( Q Q ( ( Q Q Q Q ( Q Q Q Q Q Q Q Q Q Q Q Z Q Z Q M V m M v V M M V Q Q Q M H Q Z Q Z Q V V Z J j 8.].a.a.a.a.a.].].!.^.f.g.:.-.-.-.-.;.:.i.p.p.g.a.g.p.p.p.:.:.-.-.-.-.y y u y u y y y y y -.y y y y y y y u t u u t 8.eXaXeX*XZ.7.f r ; ; ; ; z m m m m v m v m m v m m v v v m v v m v v v x v v v v v v v x x z z z z z x z z z z z 8 8 z z z 4 4 z z 4 4 4 4 4 4 4 4 4 4 3 4 4 4 4 4 4 4 4 3 4 3 3 3 4 3 3 3 3 3 3 3 3 > 3 3 3 > 3 3 3 > > 3 > > > ",
"> 3 3 3 > 3 3 3 3 > 3 3 3 3 4 3 3 4 3 3 3 3 4 3 4 3 3 4 4 3 3 4 4 4 4 4 4 4 4 8 z 8 4 4 z z z z z z x x x c c x c v c x v v c v v v v v v m v v v v b v x 8 > - > 2 > 2 > 3 8 8 4 7 8 4 3 3 , 3 4 8 z z z v v v v v v v m m v m M v m V V m m V M V V V V V V V Q M Q V V Q Q V Q V Q Q Q Q V Q Q Q Q Q Z Z Z Q Z Z Q W Q Q H Q Z V Q Q Q Z M Z V V v v v v M V M Q Q Z V H Q Q Q H H Q Q Q Q Q Q Q Q ( Q Q Q Q ( Q ( ( Q ( ( ( ( ( Q ( ( ( ( ( ( ( / ( ( ( / ( 2.2.2./ 2.( / ( / 2.2.<.2.2.<.2.2.<./ <./ / / 2.2.<./ / / / / / ( ( ( ( ( A A / ( ( <.( / / / ( ( ( ( ( ( / / ( ( ( ( Q Q Q ( Q Q ( Q ( Q ( ( Q ( Q ( Q Q Q ( Q Q Q Q Q Q Q Q Q Q Q Q Q M M M v g v M M M M V M M H Q M H V V V V Z V Z j y.].a.a.a.a.a.a.a.a.a.a.p.p.:.;.;.:.0.i.i.p.p.p.g.g.p.p.:.p.:.:.-.-.-.y y u y y y -.y y y -.-.-.y y y y u u u t t t E.aXyX7X%Xt.,.p ; r ; ; ; M m b b v v v v m v m v m v m v m v v v m x v x x x x x x x z z z 8 z 4 8 z a 8 4 z z z z z 8 z 4 z z z z z z z z 8 z z z z z 4 4 8 z z 8 4 4 4 8 8 4 4 8 4 8 4 4 4 4 4 4 3 4 8 3 3 3 3 3 3 3 3 3 2 3 3 ",
"3 3 3 3 5 3 3 3 3 3 3 4 3 3 4 4 4 4 4 4 4 4 4 4 4 8 4 8 z 4 8 z z 4 z z z z z z z z z z z v z z c c x c c v v c x v v v c v b v v v v v m m v m m m v m v v v c v v v v m m m m m v v m v m m m m m V m V V V V V V V V M m m m V V V V V V V V V V V V H V V V V M V M V V Q V V Q V Q V Q V Q H W H V | Z W Z @.Z Q Z Z Q W Q Q W W W Z Q H M Z v g x x V Q V M M Q M V Q Q Z Q Q Q Q Q Z Q Q Q Q Z Q Q Q Q Q ( Q Q Q ( ( ( ( Q ( Q >.( ( ( >.>.( 2.( ( ( ( >.( ( / / ( / ( >./ ( <.( / / <.( / ( / ( ( ( ( ( ( ( ( / ( ( / ( ( Q Z m d b Z Z ( A Q Q A ( Q ( Q Q Q Q Q ( Q Q Q Q Q Q M Z Q Q M Q Q Q Q Q Q Q Q Q Q Q M Q Q Z Q Q Z Q Q Q Z Q Q Q Q Z Q Q V M V M Z V V Q V Q Q M Q V V Z Z W M M M M j y.a.a.a.a.!.a.g.p.p.:.:.:.:.:.:.:.0.0.p.0.p.p.g.p.p.g.p.p.:.:.:.:.-.-.-.y y u u y u y y y y -.-.y y y y u u t u t ,.9X9XyX*XD.6.k p r r ; ; v V m m v M v m m m m m v m m v m c v v c v v z x x x x x x z z x z z 8 z z z z z z c z z z x x x z x x x z z z z x z z z z 8 4 z z 4 z 4 4 z z z z 4 z 8 8 4 z z 4 z 4 4 z 8 4 4 8 3 8 8 4 8 4 3 3 3 3 3 ",
"3 > > 3 3 3 3 3 3 4 3 3 3 4 4 3 4 4 4 4 4 4 z 9 8 z 8 z 8 z z z z z z z z z z z z z z z z z z z z z z x c z z v c z z c v v v v v v v m v v v v v v m m m m m m V v v m m m m v b v m m v m m m V V V V V V V V V V V V V Q V V V H V H V V V V V M V M H V V V V m V V V V V V M V V V V V V V Z V J V Z H V Z V V V J V M W V V V V H M Z V v z z z z u G Q V M Z M V M M M M V M M V Z H Q Q Q Q Q Q Q Q Q Q Q Q Q Q ( Q ( Q ( Q Q ( Q Q ( ( ( ( 2.( ( ( / ( ( ( ( ( ( Q ( ( ( ( ( ( ( ( ( ( ( Q ( ( Q A Q Q Q Q Q >.( A ( Z m z 3 = = ; a x M Q Q Q Q Q Z Q Q Q M Q Q Q Q Q Q Q Q Q Z Q Q Z Q Q Q Q Q Q Z Q Q Q Z M Q Q M Q M Q Q M Q Q M Q Q Q Z M Q M V Q Q V Q V M M M H M M M M V Z V V M M V n j s.a.a.a.a.!.!.a.(.(.f.p.:.-.-.-.:.:.p.0.g.p.p.p.g.p.p.p.p.p.p.:.:.:.-.-.y y y y u y u u y y y y y y y u u u u t t D.9XuX9X*XZ.<.h r r ; ; 1 m v v v v v m v m v m v m v v v v m c v m x v x c x v v x x v v v v x c v v v c v v v v v v v v v v v v v c c v c c x c z z z z 8 z z 8 z 4 8 4 4 z 4 4 4 3 4 4 4 4 4 4 8 4 3 4 3 4 4 3 3 3 5 3 3 3 9 3 3 ",
"> 2 3 > > 3 2 3 3 3 3 3 3 4 3 3 4 4 4 4 4 4 4 4 4 4 4 4 4 4 4 8 z z z z z z z z 8 z 4 8 4 8 4 8 z z z z z z z z z z z v x x x c x v v v c c v v v v m v m v m v m m m v m m m m m m m m m V V m V m V V V V V V V V V H V V V Q V Z V V W W Z W Z V V Z Z H Z V V V M V V V V Q M V V H V G V Q Z W V W V V Z V V M V Z V m V V m m m m m v v z 5 4 4 4 4 v V V m M v M M M M m M M M Q Z Q Z M M Q Q Z Z Q Q Q Q Q Q Q Q Q Z Q Q Q Q Q Q V V M Q Q ( Q Q Q Q Q Q Q ( >.( ( ( ( ( Q ( ( ( ( Q Q ( Q ( Q Q Q Q Q Q Z Q M Q ( M a > @ @ @ @ @ @ # 3 m Z Q Q Z Q Q Q Q Q Q M Q Z Z Q Z Z Q Q Z M Q M M M V Z M M M M Z Q M M M M M M V M M V V M M M M Q M V V M M M Z M V H H M M M M M M V M Z M M M F N j s.].a.a.].!.!.a.a.].(.d.f.:.:.-.-.-.-.:.i.p.p.p.g.p.g.p.p.p.:.:.:.:.:.-.-.y y y y y y y y y u u y y y u u t t t l =X9X9X;XD.t.,.h r ; i 1 N m b v v v v v m v m v m v v m v m v m v m m b v m v m v v v m v v v v v v v v v v v c v v v v x v v x v x z c c z v z z x z z 8 z z 4 z z z z z 4 4 8 4 4 4 4 4 4 4 4 4 4 4 3 3 3 3 3 4 3 3 4 3 2 3 3 3 2 ",
"2 > 3 3 3 3 > 3 5 > 3 3 3 3 3 3 3 3 7 4 4 4 4 4 4 4 4 4 4 4 3 3 4 4 4 4 4 z 8 8 8 z z z z z z z z z c c z z z z v c c v v v v c v v v v v m v v v v v v m m m m v m m B m m m m B m m m v m m v V V V V M V V V V V V V V Q V V J H Q W J H J | Q | Q H J Z @.J | Q H Q Q Q V | Q Q Q Q Q Q Q Q Z @.Q Z @.Z @.Q Z @.Q Z Z M Z M M M V V M M b z t 4 z w t z m V M M Q Q M Q Q M Q Q Q Q Q Q Q Z Q ( Q Q Q Q Q Q Z Q Q Q Q Z Z Q Q Q M Q Q Q Q Q Q Q Q Q ( >.( ( ( ( ( ( 2.7.j.2.( >./ <.( / / <.<./ / / ( >.( ( ( ( Q ( / Z d < + o o X o X o X + a Z Q V V Q Z Q Q Z Q Z Q Q Q M Q Q Q Q Q Z Z Z Q Q Q Z M Q M M M Z Q M M M Z M M V M V Z M V Z M M Q M Q Q Q Z Q M Q H Q M H Q M M Q ~ Z V M M V P F k g.].a.f.].(.(.f.a.p.g.g.g.g.p.0.i.:.-.-.:.:.p.p.p.g.g.p.p.p.:.p.:.:.-.-.-.y y y y y y y y y y y y u u u t u u u y.=X9X;X{.D.6.E d r r ; a V m m V m m m m V V v M m m m m v m m m m v m m v m m v v m m v m v v v v v v c c c v c x x x x x x x z z z z z z z z z c z z z z z z 8 z 4 z 4 8 4 4 8 4 4 9 4 4 4 4 4 3 3 4 4 3 4 4 3 3 5 3 2 3 3 3 2 > 5 ",
"2 3 > 3 2 > 3 3 3 3 3 3 3 3 3 3 3 4 3 3 3 4 4 4 3 4 4 3 3 3 3 4 8 4 4 4 8 8 z z z z z z z z x x z z z x c x x x c v v x v x c v v v v m v m v m m v m m m v m v V B m m B m m m m m m m V V m m m m m m V V M m m M V V V M V V V ~ Z | V Z J W @.V V Z W J J W Q V H H Q H H Q H W ! W ~ W ~ ~ ~ Q ~ ! ! ! ( ! ~ ! ! ( ! @./ ( ( ! ! ( ! ! Z Z Z Z M M V Z Q Q @.( ( @.( A X.A X.h.<.( / ( @.h.( ( ( ( ( ( ( ( ( ( ( ( Q Q ( X.( ( X.( / 2.2.2.2./ 2.2./ 2.2./ h.2./ / j.e.9.j.( / h.2.h.<.2.2.2.j.<.2.2.2.<.2./ ( ( 2.h.( d < . @ . X O O X o @ 4 V W H W ( ( ( ( A ( Q ( A ( ( ( ( A X.A A ( Q ( Q Q Q Q Q ( ( Q Q ( Q Q Q Q @.Q Q W Q Z Q Q Q Q Q Q Q Q Q @.A @.A Q @.A Z @.A @.A @.Q W W W W W W Z / f.a.a.a.].].!.].a.p.:.:.:.:.:.:.p.p.p.:.-.-.:.:.:.p.p.g.p.p.:.:.:.:.:.;.-.-.y y y u -.y y y y y y u u u u t t >.E.E.wX*XK.t.,.j a ; i 1 N W m V V V V V V V V V V m m m m m m m m m v b m v v m v v v v v x v v x x v v v v c x v c x x x x x z z z z z z z z 4 z 8 8 z 4 8 4 4 3 3 8 4 4 4 4 4 4 3 4 4 4 4 4 3 3 4 3 3 4 3 3 3 3 3 3 3 3 3 > 3 3 > > ",
"3 > 3 3 3 3 3 3 3 3 4 3 3 3 3 4 4 3 3 4 3 4 3 8 4 8 8 3 3 3 3 8 8 8 8 8 4 z z c z z z z z x z x x z z z x v x v v v b c v v v v v v v v v v B m m m v m m m v m m m m V m m V V J m m m m m v m m m m J V J J G J m V V V W V W V M V V V Z | Z V J V Z H Z H Z V Q Q V H H V Q P P W W W Q W W Q W ~ Q ~ ~ ~ ~ ~ Q Q ~ ! ! ( ! @.( @./ ] @.Q ( @.( / @.Q ( X.A ( ( ( ( ( X.A X.A h.( ( ( ( ( ( / / ( ( 2.( X.( ( / ( h./ ( / ( / / / <.<.<./ 2.2./ ( 2./ ( ( ( ( / ( Q ( ( ( ( Q Q ( Z Z ( Q ( ( ( ( Z ( ( ( ( A Z A / 2.2.Z 3 - > - > > > > < > c Q ( ( ( ( / h.( ( ( X.A X.X.( ( ( / A / @.@.( ( ( Q Q Q Q ( ( ( ( @.Q ( ( Q ( Q Q Q @.( ( Q Q ( ( ( ( ( ( ( / @...A Q Q Z Z V Z A Z W Q W M W W Z Z 8.^.a.a.a.].].].].].a.p.:.:.-.:.:.-.;.:.:.p.:.-.-.:.:.p.p.p.p.p.:.:.:.:.;.-.-.y y y y u u y u y y u y u u t u u Y.T.-XE.D.9.8.k j p r r 1 H H V V V V M V V V V m V m m m m V m m B v m m B v v v v m c x b v z v v v v c z x v v v v x v v x x c x x z x z z x x z z z 4 z z z z z z z 8 4 4 8 4 4 4 4 4 4 4 3 4 4 3 4 4 3 4 3 4 3 3 3 3 3 3 3 3 > 3 3 ",
"> 3 2 3 3 3 3 4 4 3 8 3 3 4 3 3 3 4 4 4 4 4 8 4 8 8 4 z z z z z z z x z z v z v c x z v x x x x c v x v x c v v v v b v b m v m m m m m m m m m m m m m m v m m m V V V m m m m m m V m V V B J B m v c 0 0 8 3 > x H H M V W V V V V Z J H Z V V Z V V H Z | J Q V Q J H | | Q W ~ ~ W W W ~ Q ~ Q W W ! W W W Q Q Q Q Q Q ~ Q Q Q @.( ( Q ( @.A @.( Q ( Q ( Q @.( Q @.( @.X.A X.A Q ( ( ( @.( ( ( ( ( ( ( Q ( @.( Q ( ( ( ( ( ( ( Q ( ( ( ( ( ( ( Q Q Q Q Q H M Z Z Z M Z M Z Z Z M M M Z Z M M Z Z Z M Q Q Q M M Z Q Q ( Q V b b m v v m B c v M ( ( ( ( ( ( ( Q @.( Z ( A Z V Z A X.@.A Q Q Q V Q Q M Q V Q Z Z Z Q Q Q Q Q Q Q Q Q Q Q Q Q Q Q Q Q Q Q Q Q ( Z A A A <.5.j.j.2.h.A M N M Z V M W C 0.(.a.a.a.].].].!.a.a.a.p.:.-.-.-.-.-.-.:.:.:.p.:.:.p.p.p.p.p.p.p.:.:.:.;.-.-.-.y y y u u y u y u u u u t t t >.T.Z.E.T.Z.7.7.7.8.1.p ; N W J W ~ V V ~ Z V V V V V V V B V m m m V V m m m m v m m v c v v v v v m v 9 2 > < 3 c v v v v v b v v v v v x x x c x x x z z x x z z z z z z z z z 8 z 8 8 z z z z 8 8 8 4 4 4 4 4 4 9 4 4 3 4 4 3 3 3 3 3 ",
"2 > > : = > > 3 3 3 4 3 4 4 8 4 8 4 8 8 z 8 4 z 8 z z z z z z z x z x x z z z z z x x x x c x c c x x v v v v v c v v v m v v v m v m v v m m m B m V F m m V B v m v v v v m m B m B z 0 4 7 3 : : # + O O O X . 2 W M V V H H V ~ ~ V V H H W Z V @.~ @.V Z Q V Q | Q Q Q J Q ~ ! W ~ ~ Q Q ~ W ~ Q ~ ~ Q ! Q Q ~ ~ Q ~ ~ Q ~ Q ! Q Q Q ( ! Q @.! ( Q ( @.Q ( ( Z Q Q ( ( Q Q A ( @.( ( Q ( ( ( Q @.( Q Q ( Q ( Q ( Q ( Q ( A A ( Q ( Q ( Q ( ( ( Q ( Q Q Q M V Q Z Z V M M H H M M Z M H Z V m M N M Q Q Q Q Q Q Q Q Q Q ( Q W Z Z | Z Z W W V Z Z @.Q Q ( Q ( Q Q Q Q Q Z b a c V V Q Q Q Z Q Q Q Z Q M M Q V J Z Q Q Q Q W Q Q Q Q Z Q Q Q H H Q V Q Q Z Z A v.H.7XnXgXsXgXsXgXwX9XE.C.<.C n M W C u.].].a.a.].].].].!.].a.g.g.p.:.-.:.:.:.:.:.p.p.g.f.g.p.p.:.:.p.:.p.:.:.:.:.-.-.y y y y y u u y u u u u t u t 0.E.t.y.y.t.C.D.{.%XK.,.r m J W H V V V V V V V V V M V V V V V V V m m V m m m V m v m m m m v v v v v 3 > < > 4 x v v c v v b b v v v v v m v v v v v x c c c x c c c x z x x z z x z z z z z z 8 z z z z z 8 z 4 z 8 z 4 4 4 4 z 4 4 4 ",
"> > > , : = > 3 5 3 8 4 4 3 4 4 4 4 8 9 4 z 4 4 4 z 4 z 4 z z 4 4 4 8 z 4 x x 8 z z z z z z x x x x x x x x x v b x b b v c v b c v v m m m m v m m m m v b c c c x c 0 8 8 9 2 2 2 & # $ + + X O .             . 5 ~ H H J H H Z | V | Q Z W H ~ V ~ V Z @.@.Z H Q | Q H H | Q W ~ ! ! ~ Q ! Q ~ ~ ~ Q ~ Q ! ~ ~ ~ ! ~ ! ! ! ~ ( Q @.! @.Q ! W ( A @.Z Q ( Z Q Q Q Q Q Q Q Q Q Q Q @.@.Q ! Q ( Q ( Q ( ( ( @.Q Q ( ( ( h.X.( ( ( 2./ ( / 2.( ( ( ( ( ( ( ( ( ( Q Q Q Q Q Q Q Q Q Q Z Q Z H H V m m m M M Z Q Q Q Q M Z M Z Q H Q W W W V Z H V Z H W Z Q H H Q Q Q Q H V M z > < > 3 i x C Z A Q Q Q Q Q Q Q Q Z Q Q Z @.Z @.A Q Q Q Q Q Q Q Q ( Z Z Z Q Z h.H.wXBXgXgXgX3XwXwXwX>X,X,X,XwXwXE.7.Y P j u.].a.a.a.].].].].a.f.a.a.g.g.p.p.:.:.:.p.p.p.p.p.g.g.p.:.p.:.p.p.:.:.:.:.;.;.-.-.u y u u u u u u u u t u t t 7.E.9.9.9.Z.=X8XaX9X=X*X<.M Z W J V M V V V V V m m B v m m m b v B v b b m v m m b x c m m v m m m m m v z x x v v v v v v v v x v v v v x v x v v x c c x x x x x z x z z z 4 z 8 8 z z z z z z z z z z z 8 8 z 4 4 4 4 4 4 3 9 4 8 4 4 ",
"> 3 , > 2 > 2 3 3 3 2 3 3 2 2 > > : > > 3 3 3 3 3 4 3 4 3 3 3 3 3 3 3 8 s 4 x x z z z z z z c z z x z x x x x x x c x x c c b v b v v v m v m m x x 0 q 0 8 4 3 , : : # # % + . o X . . .       . .   X o o o O + 2 c J J W W J J Z Q H H | W H V V V ~ | Z V V H H Q H Q V H Q W W H W W H W ~ ~ Q ~ ~ ! ~ W ~ ! W ~ ~ ~ ~ ~ ! Q ~ Q Q Z ~ Q ( A ..Q Q Q Q ( A Q Q Q Q Q Q Q Q Q Q ( A Q Q Q ! ( Q Q Q Q Q Q Q Q Z Q H Z Z Z Q Q ( ( ( ( 2.<./ ( 2.( ( / <.2.( / / ( ( ( ( Q ( ( Q Q Q Q Q Q Q Z M Q Q Q Q Q Q ( Q Q M Q Q Q ( ( Q Q Q Q Q Q H Z W W W Q Q Z Q Q Q Q M Z M a a 8 z z 4 d Z A @.Q Q ( @.Q ( ( Q Q ( @.( ( Q ( / @.Q ( X.( Q Q Q Q @.A Z A K.gXMXgXwXwXwXwXwX6X,X,X>X>X,X:Xd.:X>X;X{.,.h s.a.a.a.].a.].a.a.a.a.a.a.g.s.d.s.g.g.p.p.p.p.p.p.p.p.p.p.:.p.:.:.:.:.:.;.-.;.-.-.y y y y u u u u u u t u t u k Z.9.9.y.E.9XsXuX9X=X*XK.T m V V ~ V V V V V V v v x z z z z a 8 4 a z a 8 a 8 z 4 > > 8 v m v N m v m m v m m m v v v v v v v v v v x v v x x v x c x x x v x x x z x z z z z z z z 4 z 4 z 8 8 z 8 z 4 4 4 8 4 4 4 4 4 4 4 4 4 3 3 3 3 ",
"> > > > 2 , > > : 2 : : : = # = @ # : = : 2 5 3 3 4 3 3 3 3 5 3 5 8 8 8 8 8 8 8 z z z z z z z z z x z x x v x x c c v v v b b m v m m B B x c B w # 2 & : $ + + O o X X X . .     X + $ $ $ # % # & & & & & & & , # = x ~ W H W W W W H | H H | M ~ W W Z ~ V ~ J H Q J H J V Q W J W W P H H J W W W W W W ~ ~ W W H H H W Q Z Z ~ Z N N m Z ! @.Z Q Q @.@.( X.@.X.X.A @.Q Q @.( Q @.Q @.( ~ Q Q M M Z Q V V m V M Z V M Z V Z Q ( ( ( ( ( ( ( ( 2.2./ / 2.2.2./ h.2./ X.( ( / ( / / ( / ( / ( ( ( / 2.2./ <./ / / / ( / ( ( ( ( ( ! ( Z ( ( A Q A Q @.( Q @.( ( ( ( ( ( Q Z V V W Z Z Z @.( ! ( ( ( ( @.( Q ( @.( ( @.( Z Q @.Q Q Q Q Q Q Q Q Q Z C v.uXgXwXwXwXwXgXwXwXgXwXgXwX3XwX:X<X:X:Xd.d.&X=X9.f.].a.].a.].a.a.a.].a.a.a.g.g.g.f.g.g.p.p.p.p.p.p.p.p.:.p.:.:.:.:.:.:.:.:.;.-.-.y y y y y u u u u t t u t t t u j.t.Z.Z.Z.=XwXsXwX=X=X*XS.Z M W V Z V V V V B V v z x z c x z z 4 4 7 ; > - - - = @ O = 8 c x c v v v v v m v v v m v b v c v v x v x v v x v c x x x x x x x z z z z z z z z z z 4 z 4 8 z z 4 4 z z 8 z 8 4 4 4 4 9 4 4 4 3 4 3 4 3 4 ",
"2 > > > > > > , 2 > 2 > > : > > > > 3 3 3 4 3 8 z 4 4 4 z 8 z z x x z z 8 8 8 s z x z z 8 z c c x v v m v v v v v v c 0 c c 0 8 z 4 3 9 3 > & e 2 + X o o . . . X     . . . . o o + # & & & # & % % % + + + + + o X X 4 W J J W | H W V Z H H Z J W J J @.V V V H H H Q H Q H H W ~ J J H W ~ W W J W ~ W W ~ ~ ! ! W W W W H W M M m b z b V M Z V Z W Z Z Z @.A Z A @.<.( ( ( / / 2.( ( ( ( ( ( Q Q Q Q Q Q M Q ( Q A Z Z ( A ( ( / ( ( / ( ( ( / 2./ 2.2./ ( <.h./ / h.<.2.2.h./ h.h.2./ 2.( <./ 2.2.2.2./ / ( 2.2./ h./ / ( ' / ' ( ( X.h.( h.h./ h.( 2./ ( X.A X.( ( <.@.Z Z Z Q Z Q ~ ! ( ( @.Q ( ( Q Q Q Q ( Z A Z @.~ Z Q Q Q Q Q Q Q @.Z A K.gXuXwX3XwXgXwXgXgXgXgXgXwXwXwX3X6X>X:X:X:X:Xd.s.^.].a.a.a.a.a.].a.].a.a.g.g.g.p.g.g.p.p.g.p.p.p.p.p.p.p.p.:.p.:.:.:.:.-.:.-.-.-.-.-.y u u u u u u u t u t t t t t u j.Y.T.E.E.;XsX9X=X-X=X-Xc.M M V V ~ V V V M V V V V V m m N m b z z 3 - - # @ = @ @ # 2 4 4 z x x z x c x v v v v m m v v v v v v v c c v v x x x v c x z x z z z z z z z z z z z z z 8 z z z z 4 z 3 4 4 4 4 4 4 4 4 4 4 4 3 4 3 3 3 ",
"3 > 2 3 2 3 > > 2 3 8 3 4 4 4 4 4 8 8 8 z z 8 8 8 z z z z z x z c 8 x c x s x c c B v v 0 c c 4 8 z c c 0 8 8 9 3 3 3 2 : : & & & # % o $ + O O X X X                 .   . X X . X o o . . . .               . . X O m J H H J V Z V V V V Z Z Q Q | Z Z | Z ~ @.Q Q Q @.@.Z Q ~ ~ W ~ ~ Q Q Q ~ ~ H W W W Q ~ ~ W ! ! ~ ~ ~ ! ~ M M V m v v v N b N x a a d N m N M Z Q ( ! ( ( ! ] / ( ( ^ ] ( ( ( ( h./ ( ( h./ 2./ h.X.<./ 2.( 2.( ( ( 2.( ( ( ( 2./ / 2./ / / 2.2.2.2./ 2.2.2.2.2.2.2.2.2.2./ 2.<./ 2.2./ ( / 2.2.2./ / 2.2.2.2./ 2.<.h./ h./ h.<.2.( ( 2./ / / / ( / ( ( Q Q ( ( ( ~ ( Q Q ( ( ( Z @.A Z A A Q Q Z Q Q ~ @.A Q Q Q ~ ( Q ( *XgXwXuXuXuXgXgXBXBXMXMXgXgXgXwXwXwX>X3X:X<X:Xd.d.d.~.a.a.a.a.a.a.a.a.a.a.g.a.g.g.p.p.p.p.p.p.p.p.p.p.p.p.p.:.p.:.:.:.:.:.:.:.:.-.-.-.y y u y u u u u u u t u t t t t d p j.T.E.D.%XuXuX9X=X9X-X*Xw.M H H H H H H W V W Q J H M W V Z V V V B c 4 3 2 2 2 2 2 2 3 8 8 z z 8 z x x v v v v v v v v m v v v v v v v v c v v x v x x x x x x z z x x z x z x z z z z z z 8 z z z z 4 z 4 4 4 4 9 4 4 4 4 4 4 4 3 ",
"4 3 4 3 4 3 4 4 8 8 8 8 8 8 8 z z 8 8 8 z 8 z 8 8 z z z z x x x 4 8 c 8 c G B 0 0 0 0 9 0 2 2 e : e : e , : % # % % % * + o X X X . . .                   X     . . .   .                   . . X O # # : > > 2 5 8 v M W m F F V V V V V M W J V V | Z Z M ~ M V H V J W Z V @.W J W W ~ ~ ~ Q ~ ~ W W W M Q ! ~ ~ ! ! ~ ! ~ ! Q Z Z W M V N m N s d b z s a x v N M M W ( ( @.! ( ! ( ! ( ( ( ( ( ( 2./ h./ h./ 2./ 2.A h./ h.2.2./ 2./ <.2.2.( <.2.2.( 2.2.2./ h.j.2.h./ <.2.2.2.2.2.2.2.2.2.2.2.2.( ( 2.2.2.2.2.2.2./ h.2./ 2.4.2.h./ h./ h.2.2.<.h.2.2./ 2.<.h.( ( h./ h./ ( ( ' / / ] ] ( ( ( ( ( ( / X.( X.@.A X.! ) ( ( A ( @.Q ( ( ! E E.MXwXgXuXgXgXMXMXBXNXBXMXBXMXgXgXwXwXwX>X>Xd.d.~.s.&X^.a.a.a.a.a.a.a.a.g.a.p.p.p.p.p.p.p.p.p.:.p.p.:.p.p.:.p.:.:.p.:.:.:.:.:.:.-.-.-.-.y y y y u u u u u t u t t t t f Z b A Z.E.T.T.*XaXaX9X9X9X;X{.1.M H H H H H H V J V V Z W M ~ V J Z Z V m m m m m m m v v v c c v v v v v v v v v v v v x x c v v v v v v v x c x v x c c c c x z x x x x x x x x x x x x z z z x z z z z z z z z z z z 8 8 8 4 4 4 4 4 ",
"3 3 3 8 4 4 4 4 8 4 3 z 4 4 8 8 z a 8 4 8 3 3 3 9 8 z 9 9 8 9 9 3 2 8 3 2 3 7 # % : 2 % & & # 2 % & o o o X X . .             . X * $ # > , > : # , % # # # # & $ $ + $ $ $ & # & & 2 2 7 7 3 0 B B B G m V | @.W @.J J J H J J W | @.H @.@.@.@.@.@.@.@.@.@.@.@.@.@...Q Q ....@.@.! ..@.( ) ! ! ! ! ( ! ~ Q ! ) ! ! ! ! Q Q Q ! Z @.Z @.Q ~ M W M m M V W M M W Z ( Z Z Q Q ! ! Q ~ Q Q Q Z Q I H Q ( ( X.A ( h.2.2./ 2.h.( <.h.<.2.( ( 2.2.2.2.2.2.2.2.2.2.2.2.j.( ( h.<.2.h.2.2.2./ 2.2.2.2.2.2.2.2.2.2.2.2.h.2.2.2.2.j./ 2.2.2.h.2./ / / <.h.h./ h.h.2.2./ 2./ h.( ( ( h./ / / / X./ / ( ) ( ( ( ( ( @./ <.X.( ( X.( ( ( ! ( @.X./ ( ! ( A G.sXuXsXuXuXgXgXMXBXNXNXNXNXBXwXgXgXgXwX6XwX6X>X>X>X>X/./.a.a.a.a.a.a.a.a.f.f.g.p.p.p.p.p.:.p.:.p.p.:.:.p.:.p.:.p.:.:.:.:.:.:.-.-.-.;.-.y y y u u u u u u u t t t t t r Z W V Z 5.D.*XT.%X9XdXaX9X-X=X=XK.R n H H V J Q J V V | V V V V W J J V V m J V V m V V m m V V V V V B m m v v v v v v v x z z x z z z x x x z z z z x x x x x c x x x v x q x x x x x x z z z z z z z z z z z z z z 4 z z 8 4 8 4 4 4 4 ",
"8 3 8 3 3 4 8 8 3 8 3 8 0 8 8 8 8 9 8 8 0 7 2 7 7 , , , = : : % % % e % O $ 2 o X + + o X o o o   o           . X % # : 5 9 0 B B V G V B B B 0 8 8 9 8 0 c B B G G G | | | | | | | | | | |  . . . . .| | |  .|  . .| | | J G G G G G G B G B q B B B B B m B B V J J | J | @.|  . ...@.....+.X.X.$.&.X.&.#.X.X.l.X.X.h.] X.X.] ( X.Z Z Q W Q Q Q ( ! Q ! ! Q W Q @.Q ( Q Q Q Q Q Z P W W Q Z W H Q h.h.Z Q Z ( Q ( Q ( ( ( Z ( ( ( ( ( ( ( / ( 2./ ( ( / / 2.2.2.Z Z h.( / ( ( / ( / ( / 2./ h.2.2.( / 2./ / ( <.2.2./ h./ ( h./ / / ( X.h.h.A / A <./ ( ( ( ( ( ( Q ( Q ( ( ( ( / ( ( ( ( ( ! @.( ( @.A X.Z A @.( ( ( ( @.( ! ( A @.Q Q Z x.gXuXgXgXuXgXgXgXgXBXMXMXgXgXwXuXgXgXgXgXgX3XgX3X6X6X6X<X^.a.g.a.a.a.a.a.a.a.(.<X:Xg.p.:.:.p.:.p.:.:.:.p.:.p.:.:.:.:.:.:.:.:.-.-.:.-.-.-.-.-.y y y u u u t u t t t t r a V J V Z E 7.%X*XD.*XeXdXsXwX=X=X%XK.U s J V V Z V V V H Z J Z V V V Z V V m V V m m V V m m m m V V m m V m m m m m m m v v x z x z 4 4 x x x 4 4 z z 4 z z z z z x z z z z z z z z z z z z z z z z z z z z z 4 z z z z 4 4 4 4 4 4 7 4 4 ",
"4 4 3 8 8 8 8 9 8 8 8 9 4 3 3 7 7 : : , , , & % * + + + * * + $ * o X X X o o     X X       X       O , 7 c B v J J J G G G m c c 9 3 > , : : , 2 7 w 9 w w w w 9 w 7 w 9 w 7 7 7 7 7 7 7 7 7 7 7 7 w 7 7 7 7 7 e e e e e & & & % & % % & * % % * * * % % * % % & % % & & & & , e e e , 7 8 w 9 0 q B B V | J @. ...X.+.#.X.X.X.l.m.m.j.X.( @.A Z Z Z Z Z Z Q Q @.A ! ~ Z @.Q Q Q Q Q W P W Q W M M Z Z N N V Z Q Q Q W Q Q Q @.Q Q Q Q Q ( Q @.Q ( ( @.( Q ( ( Q Z Q Z Q Q ( ( ( @.( ( ( ( ( ( ( ( ( ( Q ( ( ( Q ( ( ( ( ( Q Q @.Q Z Q A Q ( Q ( ( Q X.@.( @.A A / / @.Q Q Q Q ( ! @.Q Q ! ( ! ( ( Q ( Q X.A X.( ( ! ( ! ! ( ( Z Z ( Z j 6.sXgXuXsXgXgXgXuXgXwXwXgXwX-XE.wXgXgXgXgXiXwX3X3X3X<X6X>X<X^.g.a.a.a.a.a.a.g.g.a.a.f.d.d.d.g.:.:.:.:.:.:.:.:.:.:.:.:.:.:.:.:.-.-.:.-.-.y -.-.-.y y y u u u u u t t t t r W W V V V Z 8.C.%X%X{.*XsXMXaX9X&XE.*XK.I N V V V M V V V V V V V V V V V V m V m m m V m m V J m m m V m m m B m m v m m v v v v v x x z x x x z x x x 8 z z z z z z z z z z z z z z z z z z z z z z z z z z z 4 z z 4 4 4 4 4 4 4 4 3 4 3 ",
"3 3 3 9 7 2 3 , : : : & & % % * + + % o X o X X X X X X X . X . . .     . . .                   X   % 9 8 9 9 3 2 : : # # @ + O O O * % % & & & & & & & & % % % % % % % % % % % % % * % % % * % * * * % % * % % % + * * * * * * * * * * * * % % * * * * % * * % * % * * * * % % * % % % * + % % & & & & % e e 7 7 e 8 q 0 9 8 m  .+.m.L.B.J.J.P.P.c.M.M.h.1.2./ ( A A Z ( A Q ! ( Q Q Q Q Q Q W Z m M v x m W Z Z H W Q Q W Q Z @.Q Q Q ( Q Q Q @.Q Q ( ( Q Q @.Z V Q V @.Q Q Q ( Q Q Q Q @.Q Q Q Q @.Q Q Q H Q Q Q Q Q @.Q Q Q Z Q Q Z Q ( A X.A @.@.A A X.A / ..@.Z Z Q Q Q Q ! ! ( ( ( ( ) ~ Q @.( Z Q Q @.@.~ ( ( ! Q Z Z I / ' <.2.C.gXwXwXgXgXgXgXwX-X=X-X=XR.E.T.-XgXgXgXgXwXiX3XwX3XwX6X6X6X<X~.g.a.a.a.a.a.a.a.g.g.g.g.f.s.d.d.a.p.:.:.:.:.:.:.:.:.:.:.:.:.-.:.:.-.-.-.-.-.y y y y u u u u u u u t t t r d ~ J W ~ ~ M R 7.Z.=XE.E.;XsXNXaX=X=X%X%XK.E b M V V V V Z V V V V V V V m V V m V m V m H V m m J m m m m m v m m m m m B m m m V v v m v v v v x x m v c c v c x c v x x z x z x x z z x z z z z z 8 z z z z z z z z z z z 4 4 4 4 4 4 4 4 ",
"& & : % = # % * * % + o o X . . .                   . . . . X . . o & % & .           .           X   X X . X X o X * % % % % & % & e % % % % % % % * * * % % % % % % * % % % % % % % % % % % * * % % % % % % % % % & % % % % % % % % % % & % % & & & & & % & % % & % % & % % % % % % % % * % % & % % % & & & & & 7 7 e & & 7 7 w w c B B V J @.X.+.m.I.B.J..XXXXXH.S.j.j.( ( ( ^ ( ] ! ^ ! ! ^ Q ( X.Q Z H Q ( Q ( Q Q Q Z Q Q Q Q Q Q @.Q ( @.( ( ( ( ( Q ( ( Q ( ( Q ( ( Q ( Q Q Q Q Q Q Z Z Q Q Q Q Q V V H Q Q Q Q Q @.Q Q ( Q @.A @.A X.A @.Q @...X.A ( @.X.A Z @.@.Q Q @.~ Q Q Q ~ ! ~ ! Q Q Q V V M Z Z W ( W Z 2.C.*X8XaXuXsXsXgXgXwX3XwXuXgXgXgX-XR.T.T.Y.y.R.wX3XwXiXwXgXgXwXwX3X3X3X3X6X6X<Xg.a.a.a.a.a.a.a.a.a.a.a.p.g.g.g.g.g.p.p.:.:.:.:.-.:.:.:.-.:.-.-.-.:.-.-.-.-.y y y y y u u u t t t t t t r Q J ~ @.V V V P 5.7.E.&XT.%XqXsXNXyX-X*X%XE.[.<.b V V Z J H W Z V V Z Z Z V V V V V V V J H V H M m m V V V V V V V V V m Z V M m V V V V M M V m m m M m m m m v c z x x x c m m v x v v x d x x x z z z x x z x z z z z z z z z 8 z 4 z 8 z ",
"o o . o . X . . X                   . X + O + # : , 3 3 2 : & O O % 2 # % o X .       % * X * X o X X X % + % & & & % % & % % % % % * * * % * * * * * * * % % * % % % % & % % % % % % % % % & % & & & & & & & & e e e e e e e e 7 e 7 7 7 7 7 7 7 7 7 w 7 7 9 9 w 7 7 7 7 7 e e e e e e e e e & & & & , & % & % e & & & & & e e 7 e 7 7 7 7 w 9 9 c w c B J ~ ) h.M.H.qXXXc.( I Z Y Z n I ] _ _ / 2./ ( A ( Q @.Q @.( ( Q @.X.( ( ( @.( ( ( ( ( ( ( ( ( ..( ( ( A X.( ( ( ( ( @.( ( ( ( ( Q Q Q Q Q Q Q Q H Q Q Q Q @.( Q Q ( Q Z @.@.Z Z N M M Q Z A Q Q Q ( @.Q ( @.Q ( Q ( Q ~ ( @.Q ~ ~ Q ! @.( @.M V V V Z Z Z 3.qXaXMXdXgXuXuXuXwXwXuXuXwX>X6XwXwXgXwXT.Y.y.9.Y.wX6XwXgXiXgXwXiXgXiXgXwX3X3X,X6X6Xf.g.g.a.a.a.a.a.a.a.f.f.f.g.p.g.p.p.:.p.:.:.:.:.:.-.-.:.-.-.:.-.-.-.-.-.y y -.y y y y u u u t u u t t r d ~ W ~ W ~ V W P E 7.9.%X*XT.*X9XdXMX9X*X&XD.E.K.j.M V V Z | H H W | Z J V V V H J M M W H W H W M H M H M M H V V V Z M V V V n m m V V V m m m v m m b v m m N a 4 a 5 a z c v v v v v v v v v v v v v v v x x x x z z z z z z z z z z z 8 z ",
"                . X O O # # : > > 3 8 8 x b v c 0 4 2 # = & : 2 2 e e e & & % * o   * * % % o * * o o o * * % * % * * * * * * * * * * * * * * % % % % % % % % & % % e & & e & & e e e e e e e 7 7 7 e 7 7 7 7 w w w w w w q w q q B q G B B G G G G | | | | G | | G | G G G B q B q w q w w w w w w 7 7 7 7 & & 7 % 7 e & & & & & & e e e e e e 7 7 7 7 7 w 7 3 4 V ! Q d a a M Z n g ; < p L P f I ' ! Q ! Q ! Q ! ( ( ! Q ! ^ Q ( @.( Q ( X.@.<.( X.A h.( ( h./ ( / X.<./ ( <.( ( / h.A / h.( 2./ / / ( / ' / ^ Q ! ( ! I ( Q X.Z Z Z Z M n N M Z Z P Q ! ^ ! ! Q ^ ! ( ~ Q ! ( ( ! ) ! _ ] _ _ ] _ ( ! ^ ! Z T E.MXBXgXgXuXuXwXwXwXwXwXwXwX3X,X,X-X>X-XwX=XY.9.0.Y.=XwXwXgXgXgXwXgXwXwXgXwXgXwX6X6X6X^.a.g.a.a.g.g.a.a.g.g.a.f.f.f.p.p.p.p.:.p.:.:.:.:.:.:.:.-.-.-.:.-.-.y -.y -.y y -.y y y u u u t t t t r P ~ H ~ H J W J W F ,.9.Z.*X%XE.=X9XMXMXeX;X*XZ.T.H.j.Z M M M W H H W H W H W H H M W V W H M M M M M W H M M M M M M N N M m N b b m N b b b b b b x b s z m v x a z z 8 8 z c x x x x x x x c v c c x x x x c x x x x z z z z z 8 z z z z z z ",
"    X O # : 2 > 2 3 8 8 0 8 z 8 z z x c z z 3 : - > 3 7 0 w 0 w q 0 w 7 e e & % o o * * * * * o o o X X X X * * * * * * * o X o + o o o * o * * * % % & & % & % e e e & e e e 7 7 7 7 7 w 7 w w w w w q q q B q B B B | G | | | G | |  .O.O.O. .O.O.O.O.O.$.o.O.O.O.O.O.O. .O. . .| | | | | G G G B G B q 9 7 w 2 7 q & % % & % % & & & & e e & e e e e 2 & & 0 ....c 3 B ..l.M.B.B.J.I @ < ; i ; ; Z T Q Z Q ! ! Q ^ ! ^ ! ( ! Q ( ( ( ( ( A ( A ( ( A ( ( A / / 2.h.<.<.h.h.h.<.h.h.<.h./ 2.h.h.2.h.h.h.h.5.2.3.2.2.2.<.' / 2.<.h.h.h.h.A / ( / X.( ( ( ] ' ] ' ( ' ' / ' ! ' ] ] ] ( ] _ ! ] _ _ ] ] ' _ Z 6.eXgXwXuXsXwXuXuXgXgXgXgXgXgXuXwXwX>X>X-X:X&X&XR.9.0.T.wXwXiXwXgXgXgXgXgXgXgXgXwX3XwX6X6X6Xf.g.g.a.a.a.a.g.g.g.g.g.p.g.g.p.p.:.p.p.:.:.:.:.:.:.:.:.;.-.-.-.-.-.-.y y -.y y y y u u u u t t t ; i W V H V m m H H H M C 5.t.E.%XT.E.=XwXMXMXeX=X%XT.E.XXM.M M V V M H V H H H H M V H M m m M M W H P ! W W M m V V m N d N N m x v b b z c c x a x c x x z v x z x z z x z a z z a z z x x x z z z z z 8 a z z 8 z x z z z z z z 4 z z 4 8 z 4 3 ",
": > 3 8 8 8 8 4 9 5 4 4 8 z 8 4 3 4 8 4 3 : 7 0 q B G B G G B q q q w 9 7 & & % * * * * o o o X X X X X * * * * o o * o o X o X o o o * * * * * * % % % & % & e & e e 7 7 7 w 7 7 w 7 w q q q q q B q G G G G | | | | | |  . . .O. .O.O.o.$.$.$.O.$.%.%.&.%.%.%.%.%.%.&.O.$.%.$.$.$.$.$.O.o.O. . . .| G G q q q e | G * * & % & & % & & % & % & % e e e % & c $.| 3 9 |  ...o.X.) 2.c.5.j t.e.Y r ; f / ( ( ( ^ ' / / / ' 2./ / 2.2.2.2.h.( h.h.h.<.<.( h.<.h.2.2.2.2.<.h.<.h.h.2.2.h.2.h.j.h.h.2.2.2.2.2.h.2.3.2.2.h.2.<.2.h.3./ h.j.h.h.h.<.h.h.h.2.X.' h.h.2.' 2.' ] h.2.' ( / ' ' X.] _ ( ( ] ' 2.3.^ E K.dXgX,XwXwXwXgXuXgXgXgXgXgXuXwX,X,X-X:X=XW.E.&XR.E.y.7.&X,XwX3XgXgXgXgXgXgXgXwXwXgXgXwX3X6X3X<Xg.g.p.a.g.a.a.g.g.p.g.p.p.p.p.:.:.p.:.:.:.:.:.:.-.:.:.-.-.-.-.-.-.-.-.y y y y y y u u u u t t t t n M V m b a x m J m F N Y e.u.%XE.E.%X9XsXMXdX9X=XE.Y.K.*Xv.n M Z M H H V M V H M M V M N N H ! Q M N n n H V m m V a z b N m c c v b v x z v c x v v v v c c c x x z z z z z z z x z a z z x s z z 8 4 4 8 8 4 4 4 4 4 z 4 4 4 z z 8 4 4 3 > , < ",
"3 3 3 8 3 3 3 3 3 3 4 4 4 4 3 3 5 > > 2 9 B | | | | G J B G q q G q w 9 7 e & % % % % * o o * X o * X X * X X X X X o X X o X o X o + * o o * * * * % % & & % & & e e e e 7 7 w 7 w w w w q q q q G q q G B B G q G G | G | | | | | | O.O.O.o.O.o.$.%.$.%.%.$.%.%.%.%.&.O.$.%.L.%.$.%.&.&.$.$.O.O. . .| G q | w w $.w * & & % % % & % % & % % & % % & % & q %.F = 7 B B | @.@...#.2.3.E =XzXcXZXrXc.A T ( ( ( ( ' / ( / 2.' ` ] 2.2.2./ A <.h.h.h.X.Q h./ X.( ( ' / ' ' / h.A ( ( ( ( ( A X.A X./ / ( ( ( ( ^ / ( ' ( ( ! ( _ ( ( ( h.A A X.A X./ / ( ( ' ( ' ' 3.2.' 2.' 2./ ( Q I T E ( ( ' / _ ' ( T x.8XgXuXuXuXgXgXgXMXMXdXsXgXgXwX,X=X&X&XR.&XW.=XE.R.T.Y.9.0.,X,XwXgXgXgXgXgXgXwXgXgXgXwXgX3XwX6X3XwXf.g.a.g.a.g.g.a.a.p.p.p.p.p.p.:.p.:.:.:.:.:.-.:.:.-.-.;.-.-.-.-.y y y y y y y y y y u u t t t r n Z H V H F m m m m m m M d E t.C.%XE.E.=X9XsXNXeX-X=XE.Z.E.*Xc.Z m b b N b m N V V W M N m N H ~ M s 1 ; 5 s N x x v z x z x x x c c c v v b v v b v v v v b v v v x v v x b x v b d x x x x x x z s z 4 8 8 8 8 4 4 9 4 4 4 4 4 z z 4 4 4 2 > < < ",
"3 > 3 4 3 4 3 8 4 8 4 3 3 3 4 4 > : 2 q | | J J  .@.@.J G G v 0 9 9 9 7 7 e % & % % * * * * o * X X X o o . X o o o o X o o   o X X o o o * o o * * * * % % % % & % % & e e & 7 7 7 7 7 w 9 w 7 w w w w w q w w q q w q B B G B G G B G G J |  .|  . .O... .O. . .O. .O.O. .O.o.O. .O.O. .O. . . .| | | q q  .7 | O.% * & & % % % % & % % % % % & % & % 0 &.G # 9 q B B B |  .l.M.M.' k R.6X5XZXZXGXFXR j I P W Q Q Q ! ( ! _ ! ( ( Q Q ( Q ( Z ( @.Q ( Z Q ( Q Q ( ! Q ( Q W W M Z Z Q Q Q Q W W Q Q M Q Q Q W Q ( ! W Q ! ! ! Q Q X.A Z @.@.( Q ( ! ! ( ) ( ] _ ] ] ^ E <.j.j.S.S.H.G.t.h.<./ R ` x.8XfXgXuXuXgXdXBXNXNXSXBXgXgXuXwXwXE.R.R.=X&X&X%XR.R.R.Z.9.>.Z.,XwXwXgXwXgXgXgXsXgXgXsXgXgXgXgXwXwXwXiX6Xf.p.a.a.a.g.g.g.g.g.p.p.:.p.:.p.:.:.:.:.-.:.-.-.:.-.-.-.-.y y -.-.y y y y y y u u u u u t t t ~ V W H ~ ~ ! W H H H H F M C 7.C.T.%XE.%X-X9XMXMXeX9X=XD.Z.K.XXc.N 5 5 a c m m V M m m m m N N m x z a a 8 z s s x x v x v v x c v x v v v v v m v v v v v m v v m N v v B N c b x v v v v x x v v z x x c x x 8 z z z z 4 z z z 4 4 4 3 3 3 > < > ",
"3 3 3 3 3 5 3 2 > > 3 > 3 8 4 : > 9 q | G J @.J J @.J J J J G v 0 7 7 7 7 e % % % % * * * o o X X X X X X X X . X   X     X X   X   X X X o o o * * * * * * * * % % % % % % & & % & & & & & & 7 e e e e & 2 2 e 7 e 7 7 7 w 7 7 7 9 w w q q q q B B q B B G B G G G G G G G G G | B B | | G G G q | B q q q q e  .B * * % % & % % % % % % & % % & & % , O. .% 2 9 9 q B | @...X.m.l.2.7.T.E.%X3X;X8.Z.7.7.,.A j Z Z Z I ( ! _ ! Q Q Q Q Q @.Z V Z Z Q Z Z Q Q Z Q W W Q W Q W W M M M Z M M W Z W Q W W W W W W W ! Q W M W W W Q Q @.A A / A X.W ! ) Q ~ Q ) ( ( T R z.XX8XMXBXfXBXgXgXwX9XqXK.*XeXfXdXsXsXgXBXBXAXSXSXNXMXgXaXwXwX,XE.E.&X=XR.T.T.T.Z.Y.y.9.>.;.R.,XwXwXwXgXgXsXgXgXgXgXgXsXgXgXgXgXgXgXwXgXd.g.g.a.p.a.g.a.p.g.p.p.p.p.:.:.:.:.:.:.:.-.:.-.-.-.-.-.-.-.y y y -.y y y u y u u t t t t ; Z @.~ ! ) ! ~ _ ) ~ ) ! ~ ~ ~ F Y C.Z.%X*X&X%X9XdXMXsX9X=X*XD.Z.D.*XF.n a c m b m m m N m F V J N m N m m v v c z v v v m B v b m m m m v v m v m v v v v v b m v v v v m m v c c v b v c v c c v v x c x v b b b x x x x x x z z z z 4 4 4 8 4 4 9 8 ",
"5 > : > 2 3 = @ @ < > 9 8 4 : 7 0 B B | G | | J ~ ..@.v m  .J c x 9 7 7 e e & % * * * o X o X o o . o . X . . .   X X     X X   . X X   X     X   o   o o o . * * * o o * * * * % + % % * % + % * % % % * % % % % % & % % & # & & & & & e e 7 e 7 e 7 7 2 9 9 7 w 9 7 9 w 7 w w w w w w w w w 9 w w w 7 2 w 7 e | & * * * * % % * * * * % % % % % % * | +.> & 7 7 9 q | | +.X.X.h.X.h.A.*XE.Y.E.7.l 8.8.7.7.Z.8.Z ( ! Q ^ U ` _ @.( ( Q h.h.Z Q ( ( A @.X.A Q Q Q Q ! Q Q ( ( ( ( A @.X.( Z X.Z ! ( ! ) ! ! Q ! ! Q ( ( Q W W ( @.A ( Z X.A X.A ( ) ' ' ' ^ ( T j.XXeXBXBXfXgXgXwXwXwX-X-X-X&X=X=X-XuXgXgXgXBXNXSXKXKXSXMXsX9X-XE.-X=XR.R.E.R.T.Y.y.y.y.u.0.>.;.>.wX6XwXwXwXgXgXgXgXsXsXsXgXgXgXgXgXwXgXgXgXgXwXa.g.p.g.g.a.a.p.p.p.p.:.:.:.:.:.:.:.:.:.:.:.:.-.-.-.-.y y y -.y y y y y y y u u u t r r h X.( ! ~ W ) ~ ! ~ H ~ ) ! ~ H W L 8.S.%X=X*XR.-XeXMXmXeX9X=X*XD.Z.D.K.A.L m H M M M M H H H H H M V H H M V V m M m F M V V V M V V V V m m V m N m V m m m m m v v b m v v v x x x z x x x z x x x x x b v b c c c c v v z x x x g x x x z z z z z z ",
"> - - - - - - = = > 2 4 4 = 7 q q B q q q B B J J ~ ~ J b ~ ~ m x 0 9 2 & & e % * * * o o o   X X X . . . . . . X .   X   X   o .   X   X   X X X X o   . X X . o   . o o . o o X o o o o * X * * o o o o * o * * * * * o o + * % * * * * % % % * & % & % & & & & & & & & & & & & & e e e 2 & e & 7 & % * & * % 7 * * * * * * * * * o o * * * * * * 7 $.v + : 7 7 9 B G ~ X.X.l.l.k.h.2.( z.K.A.w.<.j A Z E 9.E.8.E ' 2.2.2./ ^ 2.2.h.h.h./ / h.2.h.<.X.<.@./ X.' ' ' _ / ' 3.' / h.h.A h.h.h.<.' h.2.' ( ' ' ' ' _ ' X.h./ ] / j.h.X.h.h.j.h.h.2.2.3.2.T 2.G.rXdXfXgXgXsXgXgXwXuXwXwX:X&X&XR.T.Y.T.sXgXgXBXSXSXKXSXMXuXwX-X=XR.=XR.T.T.T.T.T.Z.y.y.9.0.0.8.;.y s.wXwXwXwXwXgXwXsXgXsXsXMXsXmXgXgXgXMXgXgXBXgXgX>Xg.g.p.p.g.p.p.p.p.:.p.p.:.:.:.:.:.:.-.-.-.:.-.-.-.-.-.y -.y -.y y y u u u u t t t r r ' X.! ~ ~ ~ ! H ~ ~ W H ~ ~ W H H m L t.Y.=XwX=X=X9XsXNXdX9X=X=XE.Z.C.D.[.c.P P H W W ~ H W W H P H H W H ~ ! J H M W W Z Q W V M W W J H H H H H W V V H H V H V V m N V m m m m m m m b v v N v m N b v b v v b b b b v v v v v v x v x x z 8 a z z a ",
"5 3 2 3 4 3 4 4 3 3 8 3 2 2 w w w 7 w w q q B G G |  .~ @.~ ..@.J x 4 2 e % & % * X o X o X . . X X . o   . . . .   . .   o .   . .   X . . . . . . . o   . . o X     X . . . . . . X   o X   o . . . . . . X X o o   o X . o o o o * * o * X * * * * * * * * * o o * * * + * * * * % % * % % % % % * * * & o % % X X o * * * o * o o o o o * * + O J +.> # e 7 7 9 m W ] l.M.F.M.l.@.~ V Z Q X.` l.X.! ! I E 7.7.k ' / / 2./ ( ^ ` U P U U ( 2.2.2.2./ / ' ^ 2.3.k.3.` 1.2.3.2.2.1.( I Y 2.k.4.2.' 2.3.3.3.h.z.4.3.2.<.h.2.3.2.2.3.<.2.h.h.2.h.j.3.,.5.{.dXfXgXiXwXgXgXgXwXwXgXwX-X-X&X%XT.u.t.9.y.uXdXgXBXBXNXBXsX9X=X=X%XR.E.T.T.Z.u.y.t.u.0.9.7.8.>.:.;.l l =XwX,XwXwXwXgXgXgXgXgXMXMXMXMXMXMXgXMXgXgXgXsXgXgX~.p.g.g.p.p.p.:.p.p.i.:.:.:.:.:.:.:.;.-.;.-.-.-.-.-.-.y -.y y y u u u u t t ; < < ; j @.A Q A @.Z Z @.W W ~ H W V v V H m n 8.D.*XwX-X=X-XaXMXmXeX=X=X%X%XC.t.S.{.z.I Q ! ~ ) ~ ) ! ~ W ~ ~ W W W ! ~ ! ~ ~ ! W ! ~ W ~ ~ W W P H H W ~ H W H P H H W H W H H H H M V V V H V M m m F V M m m V b m m m b b m N b v v v b x v v x z z z z z z ",
"3 3 3 5 3 z z z 8 3 7 > , 7 7 & e 7 7 7 w w w q q B B J  .@.J B 8 4 4 3 & & % % * o X o   . X . . . . .   . . . .     .     .   . .   X   . . .     .   .   .     X     .   . . . . .     X X   .   . o . .   X X X   X . . . . . X X X . X X . X . . X X . X X X X o . X X . X * o X o o o * * o o o o X + o * o o o X X o o o o o o X o X X * o = @.H $ # # > 3 W h.B.B.B.N.l.X. .J J G G c x c F ) ....~ ! Z <.5.<.( / j.3.` ^ I Z n C P N Z P P n Z ^ ! I Z ( ' ( L ^ U ( 1.z.v.2.1.' 2.k.4./ / 3.' 2.2.<.2.3.^ Q / / 2.' <.<.h.2.' ' ( <.<.T <.{.MXBXgXuXuXgXwXgXwXgXwXwXwX=X&X&XT.s.u.u.0.>.>.wXfXuXuXuXwXwX=X=X=X&XT.T.Y.u.Z.y.0.9.0.7.8.i.>.>.;.k l u >.wX-X>XwXwXgXgXgXgXgXMXgXMXMXBXMXMXMXMXgXgXsXgXuXwX:Xg.p.g.p.p.p.p.p.:.:.:.:.:.:.-.-.-.;.-.-.-.-.y -.y y y u u u u t u t ; r < r r r t >.<.<.<.@.<.Z Z Z n H H H H F m J H M M E S.T.-XuX-XqX9XsXMXdX8X*X*X%XD.t.t.S.S.w.! ! ! ! W ! ! ~ ! ) ! ~ ! W ! W W W P W W W P W P W H W ~ H F M M F P H M M W H P H W H M W M F M W M V N N n H M m b b F m m m m V m m m M b v d v m m v d c v v v c d ",
"3 > 3 > 4 4 4 4 3 3 & & & & & & e e e 7 e w w w w q B B G 2 . X % & 2 2 9 e + o o o X X X   . . . . . . . .                     .                                     o               . X                 o           .   o . . . . . . . . . . . o .         X   . . . . . . . . X . . X X . X o . . . . X . X     o X X X X X X X X X X X X . . 3 ~ 2 @ < z ) P.+X.X.XP.h...@.| G G q B q 9 0 9 9 v ~ ~ ~ ~ ~ ( / ( T ' 3._ ^ P ! ( ) ( W M F Z Z Q ! I Q Q Z f n L P I f s C R 5./ U ' / T E Z ( I f I P P ^ T ^ / ' 2.2.( 2.' ' / 2./ / A <.H.MXBXgXgXwXgXuXwXwXwXwX,XwXwXW.E.T.y.y.t.9.0.>.>.>.,XuX-XwX-X-X&X=X&X%XT.Y.Z.Z.9.9.0.7.8.8.>.>.k l l -.l l t 0.wX>X,XwXwXgXwXwXgXsXMXMXMXMXMXNXNXMXMXgXgXBXgX9X&XR.Y.p.p.p.p.:.:.:.p.:.:.:.i.>.:.:.;.;.-.-.-.-.y y y y u u u u u u u p u l >.>.8.9.t.t.y.Z.Z.E.D.Z.t.7./ I M M H W ~ W ~ W W Z e.%XqXwXeX9X9XaXMXmX9X-X*XT.E.Z.t.C.K.S.3.I W W W ~ W W ~ ! ! W W ) ~ W ! Q ! ) ! ~ ! W H ! H W Q W H F N M P H M M W M W m H H M M m N M H N M M M N m m N s b N m N x b b m N d x b m v z x v a g x x x x z z ",
"8 z z z z x z 3 3 2 & % % % & & & & & e e e 7 7 7 w 9 q q +   o   X % & # 2 e $ X       X   . . . .   .                                                                                                                     .   .   . . .   . .   .       X X     . . . . . . .   .   . .       . . . o . . . . X X X X X o X X X o X X           a W m @.m.P.U.P.B.m.X... .| B B B q w w w 9 7 7 2 7 q V | @.~ ~ ~ Z Z ] ' ' ^ P Q ! W ( ( ( ) ! ! Q ' ( ' 2._ U I ^ ^ I P C f C ! E Z I Z L ^ Q I U U I n d C / X.2.<.h./ Q / ' / / / T R S.mXBXgXgXuXgXgXgXwXwXwX>X-XW.W.E.T.Y.y.t.0.8.8.>.>.l ;.&X-X&X&XR.E.E.T.E.Z.Z.C.9.9.0.8.8.>.>.;.;.l l l y l y t t y.wX:X>X,XgXwXgXgXgXmXMXMXMXBXMXNXNXNXNXMXgXgXwXE.R.R.R.R.g.s.s.s.R.R.R.nXW.W.W.W.d.W.E.R.R.T.T.Y.y.y.0.y.0.9.7.9.8.9.9.t.y.y.Y.T.Y.T.T.T.E.T.E.W.R.E.T.E.E.C.6.( F M ~ J ~ ! ~ P 1.K.=X9XaXwX9X9XaXMXyX-X*XE.*XD.C.7.S.D.A.` M W W W P W P P W H H ! P P W W W W W W W ! W N P ~ W P H W H W P ! ~ W V M F M N m M m m M V b m m N V b b m m x x N N x a a a x s 4 z z d z z a z z x x g z a z a ",
"8 z z x v v 8 > e & % * % % & % % & & e e e e e 7 7 7 w q &   o 9 9 e e     7 | G 9 & # o                                                                                                                                       .   .   . . . . .     o . . . o   X X   .     .                 .               . . X X   X         . X X : 7 m @.m.B.N.n.m.X.....| | | B B q q w w 7 w 7 w 7 7 7 e e e w | | H J J M Z Q h.3.` ' ' ^ _ T ] ' 3.3.' ' ' ^ I Y ^ ( ( ^ ^ _ ! _ Q Q ^ ( _ ^ ^ ( ^ I L L ^ ^ ! W W Q ! I ^ 2.2.' / ( R 5.q.K.sXBXfXgXwXgXgXwX,X=X-X=X&X=X&X&XT.Z.s.Y.y.9.0.>.>.;.;.y >.T.T.T.T.T.E.D.u.t.t.0.7.8.>.,.>.k l l l l l l l l u p t t u.>X:X,XwXwXgXgXgXgXsXMXNXNXNXNXNXNXNXMXMXgXwXwXR.R.R.wX,X:X:Xd.gXMXMXgXgXgXwXwXwXgXE.wXW.-XE.=XW.=XW.W.E.E.E.T.T.Y.T.Y.Y.E.R.E.E.R.R.R.E.=X=XE.E.=X%XR.E.R.E.T.Z.5.I M ~ ~ ~ H F j S.%X9XeXsX9X9XwXsXaX9X*XE.%X%XD.t.7.D.S.x.^ W ~ H P H H W P F W ! ~ H F P P W H n H P H N n M P M M H H F M P H M N M H H M N M M N H F M m V N N m N m m m x b s z x a a z z 5 a 4 z z z x x a z z z z z s s ",
"z 8 c v z z : > & * * * * * % % % & % % & & e & e e e 7 7 %   X & & 7 %     o w B B G | | q w 7 2 & o X                                                                                                                                   . .       .           X       . .       + X . o *               .           . o # : 9 c J ~ ..+.&.&.$.&.o.~ | | B G G B B q q B w w w w 7 7 e 7 e 7 e e e e e e q | V V V V v d ' h.h.h.2.h.3.] ' 3.h.k.' ( ' ' ^ I ' ^ ^ Z Q _ ( ^ ! Q Q ! _ ^ U F n n M n Q U I I ! Q I I ! ! T E 5.S.0XdXBXBXgXwXwXwXwX-XR.R.T.T.Y.Y.Y.T.T.T.Z.Z.y.9.9.9.8.>.>.l l h 8.Z.Y.Y.Y.Z.Y.u.9.7.8.8.>.>.>.l l l l l l l l l l h t t t t Z.&X:X-X,X,XwXwXgXgXMXMXNXNXAXNXNXNXNXBXMXgXwXE.R.R.E.wXwX6X6XwXwXMXwXMXwXMXwXwXwXwXwXwXwXwXR.&X-X&XW.&X=XR.W.R.R.R.T.R.R.E.R.W.=X=X=X=XE.wX-XwXE.=X-X=XE.E.R.E.T.D.C.2.Q M W W H n e.%X;XeXdXuX9X9XeXaXeX=X=X%X%X%XC.6.e.S.S.k.! P H P ~ ~ ~ ! W H P H P H W H P P F H M M F N F M H P M N N m n M m s b M F N m H M s M W m m N b b N m N m N m m m b d z d x b x x a z z x b x s z v v b b v z ",
"4 8 a x z 3 # & * * * * * * * % % % & % % & & & & & & & % % + o . X o % X     & % * & w w q q B q | G G B q 0 7 7 , # % X                                                                                                               X     . .     . o                 X , 7 7 9 7 7 7 3 7 X       % B | V 3 2 c J  .o.&.+.+.O.O. .| B q w 9 9 w 9 w w w q w w w w w w 7 7 7 7 7 e e e e e & & e & e e e w B V V b v 4 N 3.' ' ' ' Q W P _ 2.3.] ^ 2.' ' 2.' ] ^ ( ! Q P I Q ^ ^ ) ^ P P P I I ! ] ] _ ^ ' ' ^ _ ' ^ I w.8XMXCXCXdXuX9XwXwXwX=XW.T.Y.y.t.9.9.9.Z.Z.C.t.9.9.8.8.,.>.>.;.k l l l 9.Z.Z.0.9.t.9.8.,.,.k l l l l l l l l l l l l y p t t t r h y.R.:XW.wXwXwXwXgXgXMXMXNXKXSXNXMXMXMXMXMXgX-XW.R.T.R.wX6X6XwXwXgXgXwXwXgXwXwXwXwXwXwX>XW.-X=XwXW.=X=XW.&X&X&XE.&XE.W.R.R.R.W.R.wXwX=XwXwXwXwX9XwX-X-X=X=X-X=XE.E.T.Z.S.6.! ! ! P C 1.D.*X9XsXaXeX9XwX9X9XqX=XE.%X%XD.t.8.C.S.e.3.W ~ W ~ ~ ! ~ P W W ~ W ~ ~ P ~ ~ ~ H W W W H ~ W W W W F H H H F V M M M M N m H N N H M N N s s m F m N M F M V m N m m m M m m m m b b N m m v v c c c z 8 4 ",
"8 z x z 4 # % + * * * * * * % % % % % % & % % % % & & & & % * % % * * X o * o % % o & & & & e e e e 7 w 9 q q B B B | G G B B B 0 9 9 2 & & % * X X                                                                                                                 X X o % G q +           . 7 c G G G c 0  .#.m.+.G G G q w w w 7 7 7 e 7 e e e & & & e 7 e e e 7 7 7 e e 7 e 7 e e e & & & & & & & & & & e q B v v z 3 5 Q ( ! P P Q P P ( ' ' ' ' ' h.' h.h.4.' ] 3.' ' ^ ] ' ] _ ] _ _ 3.4.X.3.' ' 3.] ' / ' ' _ R S.BXBXgXgXgXwXwXwXwXwX=XE.Y.9.8.8.i.>.8.0.7.8.8.8.,.k >.l -.l l l k ;.;.8.T.9X=XZ.8.>.k k l l h h h l l l l l l l l l u p t t t r r p Z.T.W.,X>X-X,XwXwXgXMXMXBXAXAXAXMXsXuXgXwX=XR.T.Y.R.>X:X<XwXwXwXgXMXnXgXgXMXwXgXwXwXwXwXwXwXwX-XwX=X-X-X:X-X=X:X-X:X=X-X-XwXE.wXW.wX-XwXwXwXwXwXwXwXwXwX=X=XR.R.T.T.Y.E.*X*X{.[.S.q.5.D.%X=XrXaXeX9X9X8X9X-X*XE.E.%XD.S.7.7.S.C.q._ ~ ! ~ ~ W ~ ! ~ ! ! ~ W W P ~ ~ P P ! W ~ ~ H W H ~ W W H H P W W H Z H H H W M M H H H H m m N F m N m m m m N N N d x d m v d N m v x v v v v x z 3 4 3 4 4 ",
"a z 4 8 2 O $ * o + * * * + * * * * + * * % * * % & % % & * * * * * * * & & * % * * % % % & % % % & & & e e e e e e e 7 7 w w w q q B B q G G G G q G q q q q G q q q q q w 0 9 w w 9 7 7 e 7 e e e & , e % & % % % % % % % * % * % % % % & & e & 2 7 9 w w q G G G | | w . * % & 3 9 9 9 %     B | q q w e 2 | X.#.c 2 7 e 2 e e e e e e e & & & % & % & & % % & & e e e e e e & e e e & & % & % & % & & & & 7 q q c 9 2 < F ] ( ! _ 3.h.h.' ' ( _ ' _ 4.h.h.2.h.3.h.z.3.h.h.h.2.2.2.h.h.2.3.3.' _ I 3.k.h.3.<.' U <.{.gXgXgXgXwXuXwXwXwXwX-XT.u.>.k l >.k k >.k k k k k l l l l l l l ;.k >.i.t.D.=X=XD.7.l h h h h h h h l l l l l l l h h u p t t r r r ,.y.s.&X>X=X,XwXwXwXwXgXmXMXMXNXNXNXMXwX=XE.T.Y.Y.T.wX,X>X>XwXwXgXMXMXgXsXsXgXgXwXgXwXwXwXwXW.wXwXnXW.wXW.W.nXW.wXwXW.-X-XwX-XwXwXwXwXwXwXwXwXeXeX9XwX-X&XE.&XR.R.E.-XwXwXsXsXgXeXwX9XK.Z.T.T.9XaXaX8X9X9X8X9X*X{.%X*XE.Z.j.<.t.S.j.2.W ~ ~ ~ ~ W W W W I ~ P H W W W ! H F W W F N F M P H M H H P H W M H M M M N m N N b V m x N m m N m b b m F m N b b s s b N N v m m v c z 8 0 8 0 8 0 8 8 3 ",
"x z 8 z : + * * * * * % * * * * * * * * * * * * % * * % o * o * % * * * & % % * % % * * * * % % % * % % % % % % % % e % & & e % % e e e e e e e e w 7 w w w w q q q q q q G G G q G G | G G G G G G | G G G | | | | | | | | | |  .|  . . ...O. . ....... . . . .J G q G &   * w q G q w 2 &     * w 7 e e 7 7 & ~ &.X.2 & & % % & & % & % % % % % % % % * * % % % & & % & e & & & & % & % & & % & % & % & % % e w 0 8 5 2 - d h.3.4.' ' 5.h.j.h.h.3.3.2.k.v.h.h.h.h.v.z.z.k.z.v.h.k.l.j.3.h.j.2./ L U 1.4.3.R R z.*XsXgXwXgXgXgXwXwXwX9X-XE.Y.9.>.l l l l l l l l l l l k l l l l l l l k >.8.e.t.u.t.0.0.,.l h p p h h h l l l l h h h u h u p p t p r p 1.7.8.y.E.&X-X,X-X,XwXwXgXMXMXBXNXMXMXgXwX=XR.y.y.y.R.,X>X>XwXgXgXgXgXsXgXmXgXgXsXgXwXwXwXwXwXwXnXwXW.nXW.wXW.W.wXwXE.wX-XwXW.wXE.E.wXE.-X9XwXwXwX-X=XE.E.T.T.E.wXwXgXgXgXsXuXwXwXwX9X-X;XZ.Z.E.*X9XaX9X9X;X9X9X;X%X%XE.E.Z.C.8.7.t.e.h.^ W ! ] ] ~ W ~ ~ ~ W W I W H P H P W ~ W F m W W H F N F W H W M M W M m b N M N s s s i s d n M H N d N m N b N M b N x m V m m v c x x c c c 0 9 3 2 $ $ o ",
"b x v z + X X o * * * + + * * * * * o * * * * * * * X X X o X * * o * 7 e e % * % % % % % * % % * % * % % % % % % % % % % % % % % & & % & % & & & & % & e % & % & & & & & e % & & & & & & & & e e e e e e e e e e e 7 e e 7 7 e e 7 7 e 7 7 e e 7 7 e e e e 7 7 & e e & * X % * o o   X X         % * * & e & % 3 #.m.J $ & & % % & & % % % % & % % % % % % % % % * % % & % % % % & % % & % % % & & % % % % % % & 9 3 3 2 = 1 3.k.k.k.' 2.2.h.h.h.' 2.( h.2./ <.2.2.h.4.z.z.h.h.' h.z.3.3.j.h.3.z.k.j.4.1.z.XXeXfXBXgXuXiXgXwXwXwX-XE.W.E.Y.0.l l l k l l l l l l l l l l l l l l l l k ,.8.9.9.0.7.>.l h h p t p h h h h h h h h h h h p h h h p t r A h.h./ ,.Y.&X&X&X&X-XwXwXwXwXgXsXMXBXMXmXuXwXE.R.y.9.Y.,X>X,XwXgXgXgXmXMXMXMXgXsXsXgXyXgXnXwXwXwXMXW.E.wXW.nXW.nXwXW.W.wXwX=XwX-XwXwXE.wXwXE.=X=XE.E.E.T.Y.Y.y.R.wXuXgXwXwXgXgXgXsXsXeXwXwX=XE.Z.Z.T.=X8XaX8X9X-XqX;X%XD.E.%XD.t.j.8.9.C.6.<.W v x v N V F ) ~ ~ ~ W ~ ! ~ W W ~ ! ~ W ~ ~ ~ P H P W ~ W Z H H N m M H W H H H H b s F N M M Z N N d s m M H V m V m m v v z c c x c 0 3 : # O O X X X X ",
"s z v 3 X o o . o o o o * * o * * * * * * + * * + * * * o o X . X X * e w % % % & % % & % * % % % & & % % % % % % % % & & % % * % % % % % & % % % % & % % % % % % % % % * % % % % % & & e % % % % % & % e % e % & & & & e & & % & % % e & % & & & & & e & e e & & % e & w w & * * o % + * % % % * * * * % e e e & G m.&.9 % % % % % % & & % & % & % % % % % * * * % * % % % % % & % % & % & % % % % % % * % % * & 2 2 : : # ; ` c.w.3.` 2.h.5.h.2.2.z.2.3.h.3.2.4.4.h.4.j.z.3.2.3.4.4.j.j.3.j.3.1./ 5.A.7XBXCXfXgXwXiXuXwXwXwXwX=XR.T.E.T.0.l l l k l l l h l h h h l k h l l l j k k } ,.8.0.8.>.,.l l p t p h h h t p u h h h h h h h h u h p h j 4.l.l.h.5.6.Y.T.R.&X=X:X&X=XwXwXwXwXwXwXgXwXwX=XT.T.y.s.=X,X>X>XiXgXmXMXMXMXMXmXsXsXsXuXgXwXgXgXwXwXW.wXnXwXnXW.wXW.E.wXwXE.-X=X-X-XR.wXwXE.=XR.E.T.T.T.Z.t.0.8.T.gXwXwXuXgXsXgXsXdXdXMXsXwXwX-X%Xy.Z.E.%X-X9X9X9X9X-X*X%XD.E.D.D.Z.9.7.j.t.C.2.~ a . O > 3 - 3 W ) ~ ! ~ ! W ] ! ) ~ ! W ) ~ Q ! ~ H P ! ) F F W H ~ H M W W W W P W W ! H H H H M M M N H J V m m v c z c c v c 9 > : $ X . X . . . X .   ",
"z z 8 # O o X o . * o X o * o o * o * * * + * * * * * * * * * * * * * & * * % % % & & % & % % & & & & & % & % e & e & % e e % e e e e e e 7 e e e e e e e e e & & & e % & e e & e & % e e & & e e & & & & e e e e & % & & & % & e * % e & & & % % & % & & & e e e w 2 & & 7 & % & % & & % & * % & % % & & * e & & 3 o.*.J + & % % e % e e & e % % % % % % * o * * * * * * % % + % % % % & % % % % % % % % + * % * # = # # = < j A.z.3.j.z.h.z.z.z.k.z.z.k.k.z.j.j.c.v.h.v.z.z.z.4.3.q.k.k.5.1.2.A.K.9XBXBXfXgXgXgXwXwXwX>X-XwXE.E.R.%XR.9.-.l k l k l l l l j l k l l j l l l h h j k k k k >.k l l l h h p p t r t p h p h p p p h h p h h k ` q.v.l.k.k.l.4.4.t.Y.T.T.R.&X&X-XwXwX-XwXwX-X=X=XE.E.Y.Y.y.T.wX>X,XwXwXgXMXmXMXmXMXMXgXsXnXwXgXwXwXwXwXwXwXwXnXW.-XE.wXwXwXE.wXE.=X9X=X-X=X=X*X%XE.T.Z.Y.y.9.8.,.l T.wXwXwXwXuXgXaXsXdXMXNXNXBXMX9X-X=Xy.Z.Z.E.=X-X9X-X=X=X*X%XD.Z.T.K.D.t.<.7.t.C.6.A B . . . @ X X b ! ! ) ~ ~ ) ) ~ ) ( ~ ~ ~ ! P W ~ ~ W ! W N N H P P W M n d F F C P P f M n n M ~ J J H m m m v v B v c z 9 > # O X X . X X X .   .   X : ",
"m c > O   X   o X X   o . o X o o X X o o o * + o * X * * * o * * * * * * * % % % % % & % & & % & & e & & & e e e e e e e e 7 7 w 7 w 7 w w w w w w w w w w w w w w 7 7 7 7 7 7 7 w 7 7 7 w 7 7 w 7 w 7 7 7 7 7 7 7 7 7 7 e 7 7 7 e 7 e e e 7 e e & & % & % % e e 7 G q e & & & & e e e & % % & & & & * * & & & & & F %.o.: % & % % & % % & & & e % % % % * * o * * * * * * * * * % % * % % % % % * * * * * o * + + + $ $ = - s / v.v.k.z.j.z.z.4.h.4.z.z.z.z.v.z.v.v.z.j.c.c.z.k.z.z.q.k.3.S.eXfXBXfXgXgXuXgXwXwXwXwXwX,X=X:XE.&X=X&XT.>.>.k k k l l l j h l h j h l j h h h h h h h h l l l l l l h h t h h j j k j k A j Y E E T ` ] q.q.3.3.k.k.l.l.l.h.` R 7.y.Y.R.R.=XE.W.:X-X=XwX-X=X=XR.T.Y.y.0.Y.wX,X,XwXwXgXgXgXMXMXMXMXwXgXsXgXsXsXgXwXwXwXwXwXW.W.wXE.wXR.E.E.wXW.wX=X=X=X%X%XT.E.Z.Y.Z.t.9.8.>.l u t.gXwX,XwXwXwXwXwXsXdXMXBXNXSXSXMXaX-XZ.9.D.E.E.*X9X=X=X%X%X%XD.D.T.D.D.y.j.7.7.C.7./ Z :   . . . X 3 W W W W ! ! ! P P W n I W P F L P ) ! ) W ! _ ! ! _ I P W n U W d n P N H H H J H H m b b v m B c 8 3 : $ @ X X X X X X . . .     . 2 c B ",
"x a : O   . . .   X . o X o X o o X X . o o o o o . X o o * * o X * * * * * % * % & % % & % & & % % e % e e e e e 7 7 w w w w q B B B G B B B G G G G G G q G G q G B G B B B B q B B B B B B G | B B G G G G B B q B B q B q B G q q q q q q w w w e e e e & % e 7 w q w e e & & e % & % % % % * % % % & & % & & # 2 o.) 4 o % e e & & % e % % % % % % * * o o * o * * * * * * * * * % * * % * + % + + * + X X O O + $ $ $ 3 ~ Q 4.v.z.v.z.h.2.k.k.4.z.4.k.k.z.z.M.4.z.M.v.4.v.v.c.z.z.6.S.fXsXgXgXfXgXgXuX-XgXgXuXwX-XR.=XR.E.%X%XT.Z.,.h p h p p h h h h h h h h j h h h h l h h l h l l l l l h u j 5.w.j.z.z.l.h.l.z.' ! h.' ' ] q.l.l.q.] ] k.] 3.h.] ] / >.7.y.Y.T.E.R.E.&X-X=X=X=XW.E.T.Y.y.9.9.E.wX>X,XwXgXgXmXMXMXgXMXMXMXgXMXgXwXsXwXgXE.wXwXwXE.wXwXwXR.-X-XwXR.E.wX=X&X%XE.T.T.Y.Z.t.7.7.>.k h t <.wX-X&X,X-XwXwXwXwXeXaXeXMXmXNXSXNXMXwXE.9.Z.D.E.*X=X*X*X%X{.E.Z.S.Z.D.D.t.j.7.j.t.j.2.A z X       . @ g P L F j ^ ! I F U ! ^ ) ] ' _ ' q.X.3._ ^ _ _ ] ] _ _ _ _ _ _ ! W ~ ~ H J H m b c c v B x z 3 : # O X O X O X X X . .       o 2 x B x 3 ",
"N 4 : O   X   .   X . X   . . . . X . . X . o X X X X X X * o X o o * * * * * % * % % * & % % % & & % e & & e e e 7 w w w q G |  . . .O.O.| | O.O. .O.O.O.O.O. . . .O. .O. . .O.O. . .O. .O.O.J G G B G G  .O.O. . . . . . .|  . .O. .|  .|  .| | q w w w e 7 e 7 7 7 w e e % * % % % % % & % & & & e & & % & % % % $ J X. .+ & % % & % & % * * % * % * * o o o * o * o * * * * % % % * * * * * * o + + X X o X X X O $ O : | J ) v.k.z.z.z.j.h.j.v.k.4.v.z.4.k.j.v.z.z.v.c.v.v.c.c.v.z.6.8XgXwXwX-XgXuXwXwXfXBXgX,XT.T.E.E.E.T.Y.T.T.Z.k t ; r r i p p h p h h h h h h j j h S h h h l h h h h p h R w.M.v.3.X.h.3.] l.k.h.' l.4.] ] l.q.q.l.l.3.' U _ ' _ ( E A >.7.9.Y.Y.T.R.R.E.R.E.R.E.T.Y.y.9.8.0.-X:X,XwXgXgXgXMXMXMXMXMXMXmXgXyXgXgXwXwXwXwXwXE.E.wXE.E.=X-X=XE.E.E.E.R.T.T.E.T.T.Z.9.9.7.>.A h h r l E.W.=X=XR.=X-X=X-X9XwXwXwXwXeXsXmXMXMXeX=Xy.9.Z.Y.E.E.*XE.%XE.D.S.Z.Z.Z.D.y.7.7.7.j.9.j.( N - $ = = 5 a N ] _ _ l.l.3.h.h.l.3.3.q.k.l.] _ k.' 3.' ' ^ ] _ ! L P _ ^ _ ) ! ) W H J m b B b m b 8 2 $ $ O O O O X . X X . . .       + 3 c v x 5 - > ",
"F s $ o . .         X       X   X   X X   o o   X X o X o . o o X X * o * * * * * * * o * * * % & & % % & & & 7 e 7 7 w q G | |  .O.o.$.$.O.O.$.%.$.$.$.%.%.$.%.%.$.%.$.$.$.%.&.$.$.$.$.o.o. . . .$.%.O...G  .&.$.$.O.$.$.O.$.$.$.$.$.o.O.$.o.O. .G B q 9 7 7 e 7 e 7 w e 7 e e e e e e e e e % e e % & % % % * + * X 9 +.m.: o * % * * % + * + * + o + * X o * o o o o * + * o % % * o * o o o X X O X X X X X X X X . & | B m l.v.3.z.z.k.k.z.z.v.z.4.c.z.k.z.k.v.z.c.z.v.v.z.v.v.v.k.S.BXwXuX-X=XwXR.T.R.gXBXwXT.Z.y.9.9.C.t.t.Z.%XC.k z.z.3.E f t r r p p p h p p h h h h h h l l j h h p h E 4.v.z.k.k.h.h.M.k.3.' ' h.h.k.l.3.l.h._ ' 3.k.k.j.k.h.h.h.h.5.E.k k 8.0.9.y.s.Z.Y.T.Y.Y.Z.y.0.0.>.,.Y.wX:X,XwXgXgXMXMXMXMXMXMXMXgXmXgXgXeXwXwX-XwX-X-X=X=X=X=XE.W.=XE.E.T.E.E.T.T.T.Z.C.9.9.,.k k t p r t t.*XT.%XR.&X*X&X%X;X=X=X9XwX=X9XwX-X8XyX9X=XC.9.Z.S.D.E.%X%X{.T.D.D.C.Z.S.S.C.t.<.j.j.t.7.<.Z m X.h.] ) ' ' ' P _ l.' ] k.h.l.3.] ! ] ] ^ ! ] ' ' ` ' U ^ U L d L I P ! ) ~ H J m v B m V 0 4 : O X X O $ X X X X X             % 8 B v z 4 5 3 8 4 ",
"b x @ o * .       X   X X   . X   o   X   X . X           .   . X X X o . X * o X * o * o * * % % % % % % & % & e e e 7 q B B |  .O.$.o.$.%.$.$.%.%.$.&.%.%.%.%.$.%.I.%.%.&.$.%.%.%. X%.O.O.o. .o...O...+.%.G  .%.%.%.%.$.%.%.%.%.%.%.%.$.%.%.$.O.| G q w 7 7 7 7 e e 7 e & e e e & & % & % % % % % % % % % * o * % X 2 X...8 o * * * * * * o o + + o X o X X X o o X X X o o o * * * o o o X o X o X X X X . . X . o , | c - ] l.j.3.z.v.v.v.k.k.k.k.z.4.q.b.v.v.z.z.v.k.h.4.v.v.w.z.4.8XxXuXwXR.wXwXR.T.=XgXwXY.9.7.>.>.,.7.,.6.*X=X9.k M.B.B.B.J.b.<.j r t r p p p h p h j h j l l h h h } q.l.h.v.k.l.4.3.3.k.k.h.h.l.3.h.h.l.z.3.3.h.k.h.2.z.h.k.k.k.h.2.K.-Xy.y k >.8.9.9.y.y.y.Z.y.0.7.,.k l 8.R.:X:X,XwXwXuXsXmXsXmXMXdXmXsXwXwXwXwXwX9X-X=X=X=X=X&X%XR.E.E.E.R.E.T.Y.Y.Z.Z.Z.t.9.7.,.k h t t r ; h D.T.Z.Z.Z.Y.T.D.T.E.*XE.E.*XE.E.*XE.=X=XE.E.Z.7.7.Z.D.D.D.%XT.D.D.Z.Z.C.C.Z.t.j.7.7.e.7.j.<.Z Z k.k.' ] h.h.U 3.] U _ _ I ^ h.I P ! I L I P I ) U d f U ! F f W W ~ J J B m v c m G J x 3 # $ O O X X O O X . .           X , z m v 8 4 8 8 8 8 8 # ",
"a b 4 $ * % + o           .     .   .       X     X   X .     o X . X . X X X o X * X o o o * o * * * o % % % % & e e 7 w q B |  .O.O.o.$.$.o.$.$.$.$.O.$.&.$.$.O.$.%.%.$.o.$.+.o.%.$.$.O.O. .$. .G  .B  . .| q %.o.%.%.$.%.$.%.%.%.%.$.$.%.$.O.O.| G q w 7 e e e e & & e e & & & % % % % * * * * % * * % o o o o * o + H H 8 X * * * * o o X o + o X + o o X o X X X X o X o o *   o o X o o X X X X X X . . o % & 2 9 2 $ 1 k.z.k.z.c.k.c.b.z.k.k.k.j.4.k.v.k.k.h.z.4.v.M.q.z.k.k.4.{.BXdXgXwX=XwX=Xy.y.wXwXR.y.8.l l k k k k D.8X9X9.A M.P.B.b.A.b.F.H.z.R f p i i p p h p h h h h j R w.b.z.h.h.k.k.4.3.z.k.k.v.l.k.k.k.k.v.k.z.j.4.k.v.M.4.h.v.v.l.v.j.6.9X:X&Xy.>.>.>.>.,.8.0.9.7.0.,.>.k l l 9.T.&X-X,XwXwXwXsXsXsXsXuXsXsXeX8XwX9XwXwXwXE.=X=XE.E.%XE.E.E.T.E.T.T.Z.Z.Z.Z.9.e.j.,.E h t i r r < r >.C.y.y.0.9.0.C.Z.Z.Z.T.D.D.T.D.D.E.Z.Y.D.T.Y.Z.9.8.t.C.Z.D.E.D.D.S.Z.Z.t.t.t.t.9.j.7.7.j.7.7./ f ] h.k.h.^ 3.^ l.h.I _ ] n L _ I f P ^ L P ! U ] ] L N ( ( ) ~ W ~ J m m b m m B V 0 : $ O X + O X X X   .             # 7 c m c 8 8 z 8 z z 2 # o . ",
"4 a m 4 . o % + % *           .   .   . X             X   X .   . X . . . . . . . . . . o . . o * o o o * * * % % % % e 7 w w q B | | | |  .O. . .O. .O. .O. . .O.O.O.O. . .O.O.O. .O. .| O.O.G B  . .G q J | 0  .O.O.O.O.o.O.$.$.$.o. .O.O.O. . .G G 9 e e e & & % % % % % % & * * % * * * * * * * * o * * o o o . o . F ) c @ o   o * o X . o X X X X X X X X X X X X X X X X o o   o X X X X X X X . o % & 2 , & O O < @ b M.v.k.k.v.h.k.z.4.k.k.c.v.k.k.k.k.k.4.z.z.q.c.v.z.z.z.c.dXfXgXgX-X9XgXW.y.Z.wX=XT.0.l h l h p h 7.wXsX-XC.k r Y k.b.F.c.b.[.S.H.F.c.q.1.[ E k A E } w.w.b.b.c.v.v.k.3.z.k.z.b.c.v.c.z.v.v.k.c.M.v.k.h.4.z.z.z.M.l.] l.v.k.v.6.K.wX&X&X>X;XE.Z.0.i.>.>.>.>.>.l l h -.8.y.T.:X:X-XwXwXwXwXwXwXeXgXwXwXwXwXwXwXE.E.-X=X=X&XE.=XR.E.T.T.E.Y.T.D.Z.Z.t.9.j.<.>.k h p r t ; < ; p ,.<.8.8.>.,.8.7.7.9.C.Z.C.t.C.Z.Z.Z.Z.y.t.C.t.Z.D.<.7.t.C.D.D.D.D.Z.Z.C.t.t.t.t.j.j.9.j.9.9.j.<.Z I X.! X.] ! _ _ ] ( ' ) P _ _ ] U C 3.l.' ] ^ I ) _ W ~ ) @.) J J b m V G b c 4 = O O O O X X X X . .           X : c B m c 8 3 8 z x 4 2 $ X . X X ",
"5 a a x O . X X * % * % *                   X         X     . . . . .   . . . . . . . . . . o . . o o . o o * o o * * * & e 7 w q B q B B B G G | B B G G G B G G G | G | G G G | B G B q G G 2 e G 9 q 2 G | 2 B  .|  . . . . .| | | | | | | G B w 7 7 , & % % * * * * % % * * * o * o o * o o o o o X X X o X X X X . 8 J m $ o o X X X X X . X . . . . o X X X X X X o X X X X X X X X X X . X o % & 7 2 & $ O O O # = < ) l.h.v.h.k.k.c.v.1.z.q.c.z.k.z.v.z.z.4.z.z.w.F.c.v.A.j.*XBXgXgXuX=XgXuXR.9.=XgX-Xy.k l h p p h >.qXsXdX*X7.k r t p j 1.z.c.A.F.XXJ.b.b.XXJ.[.{.F.G.c.c.z.4.q.c.q._ ' v.4.3.v.c.k.4.v.v.z.4.k.k.v.k.z.h.4.3.3.k.k.h.h.h.h.l.1.<.*X,X&X>X>X6XuX,X,X-Xs.t.7.8.>.;.k >.9.T.T.Y.R.R.=X=XwX-XwXwXwXwXwX9XwXwX=XwX-X=X=XE.E.E.R.E.E.T.D.E.Z.Z.Z.Z.Z.t.t.7.8.>.A h p t t r t ; < ; p k k >.,.,.>.>.>.,.,.7.7.7.7.7.6.7.7.7.7.7.7.9.Z.wXK.>.7.e.C.Z.Z.Z.C.t.C.t.e.j.9.7.7.7.7.j.t.j.7.<.Q m.#.X.X.X.X.~ X.X.X.! ! X.h.' ] ! ! 3.^ Z ) ] ~ ) ~ @.~ H J J H V G b 8 : O O O O O X X . . .   . X . O : 7 8 m B m m 8 8 3 8 z 4 > + X . X X X . ",
"d b d x $ . X X . . . o * % o X                         .         . . X   . . . . . . . . . . .   . X   .   . . o o * * % % & e 7 7 7 7 w 9 7 9 w w w w q w w w q w q q q w q w w w q 7 9 q 0 : : # 9 q # w w % w q w q q q q B B G B G G B q w w e : & % % * * * * * * * o o o X X X o o o o . X X X X X X X X . X X . > V m $     X X X X X X . X o X . . X X X X X X X X X X X . X . X . o % & 2 2 % * X O O O O @ < < a 4.k.x.3.1.4.z.5.T 1.v.q.v.c.c.z.z.q.c.x.z.b.z.c.4.z.b.z.-XwXsXfXwXwXBXwXY.Z.wXgXR.7.l p ; < t u C.sXdXuXZ.,.h h k k E >.,.5.x.v.R A f C L L U ` ` ' ^ U U U T T f a s _ l.h.h.h.3.` 2.M.M.4.v.v.l.k.3.3.z.k.h.] T 2.z.h.v.l.R e.-X,X&X:X,XwX3X3XiXwXuXuXsXwX9XqX*X-X-X=XR.Y.T.T.R.=XR.-XE.wXwX9X-XwXwX-X=XE.R.E.=X=XE.R.E.T.T.Y.Y.Z.Z.Z.y.t.9.9.<.>.A l p p r i r r < < ; r p j k 8.7.7.7.,.k k k E ,.A ,.>.,.,.>.A ,.>.9.Z.=XgXwX8.,.7.9.C.C.t.C.t.t.9.t.j.7.j.7.7.7.9.t.t.j.7.P ] $.#.l.+...X.X.X.X.X.X.+.X.X.X.+.X.X.! ! X...@.J H J J J J J m z 2 = O O O O O X X .     .   @ = 3 b J J J m m x z 8 8 8 c 4 : O X X X X X O X . ",
"M m F F 5 . X X X . . .   X o o * o X                           .         . .   .   . . . . . .       X   o o . o . * * o * % % % % & & & & : , e e e e e e 2 7 7 e e e e e e e e 7 7 & # e 7 + 7 e : ,   % * * 7 7 7 7 7 7 w w 7 w w w 7 7 7 7 , & & % o o o o * X o X X X o o X X o   X . . . X X X X o X X . X X X . : m v # X X X X X X X . . . X X . X . . X X X X X X . . X . . o % & 7 & % + O X X O $ O $ O = - - f 3.' 4.R 2.3.1._ 4.q.v.G.1.` c.k.2.v.v.k.z.v.k.3.v.4.v.x.D.=XgXgXwXsXgXR.y.E.gXwXy.>.h < @ @ < l E.gXgXE.8.k p j k <.7.9.9.9.9.9.7.,.Y I U _ j d d j d L f g g g g a a g ! ' h.h.' c.h.M.B.k.k.l.k.k.c.v.j.v.z.k.( 3.z.h.3.3.1.=X=X&X&X;X,X,XwXwXwXuXgXFXSXMXMXaXwX9XwXwX,XY.T.R.W.=XR.=X-X=X-X-XE.=X=X=X&X=X=XE.E.E.E.T.Y.T.Y.D.Z.Z.t.9.9.9.7.<.>.k h i t r i r ; ; < ; ; r p j <.7.C.Z.C.Z.9.,.k l l k j j k l k k ,.9.T.E.uXwXwXK.k 8.8.7.t.C.t.e.9.j.7.7.5.7.8.7.7.9.t.C.Z.j.' g b m m J H m H J J ~ ~ @.) @.@.~ o.X.$.X.~ ~ W V J H J V v 5 = $ O O O O X X X X           . 4 m H J m v x z z 4 8 z z 8 - O X X X X . X X X X X ",
"N N N b x O X . X X X . .   .   X o * % o .                             .           . .   .     X o     .       o . o *   o * * * * * * * * * * % % % % % % & % % & & % % % % * * % % % X % % *   7 w o o % * * & & & & & & & & & e e e & e & % * * % X o * X X X X X X X X X   o X X . . o . .   X X X . X . X X X X . : m v >   X   X X   . . . . . . . . . X X X X X   . . X o % & & : $ o . . X O $ O O @ O O = - - ; ] l.4.Y f ^ ' k.] X.' h.z.k.' k.3.' 3.k.4.v.' j R 4.2.z.7.Z.E.-X-X-XgXwXY.y.gXwXE.8.l r @ @ @ < 8.wXgX=X9.,.h r k <.7.t.y.y.s.Y.Z.Z.D.t.C.B.b..Xl.U L n Y _ 3.l._ d d d f f 1.h.1.l.v.4.' 3.3.` k.c.q.z.F.k.3.b.J.X.k.l.l.] T S.,X&XT.Z.R.&X=X:X,X,X,XuXdXsXaXuX,XwXgXgXgXwXR.Y.R.E.E.R.E.R.E.R.R.=XE.E.=XR.E.E.W.R.E.D.T.Y.Z.Z.y.C.t.t.9.j.>.>.j h i t i r r r r ; ; ; ; ; ; r h A 8.7.Z.D.Z.Z.9.7.,.,.k k k k k ,.7.t.E.*X9X9XwX=XwX7.l ,.<.6.t.6.7.7.7.<.8.<.7.7.7.7.9.Z.Z.Z.C.6.Z x m m m m H G m J H m x x v H ) ] ....H v V J V V b 4 > $ O O O O O X X X               & m ~ J J F x 5 3 3 8 z 8 4 : O X X X . X X X X . . X X ",
"n n N N m - . X . X . . . @ . . .   . * + % o o * X                                                   X     . . o   o . X   X o o . * o o . * * o o * * % * * * * o * % * o o * * o o *   o o o % e *   * +   . + * o o % * * + * + * % % o * o * o X X X X X X .   X     . . .   X   X   o X . X X o X . . . X X X . . # x x >   . . X   X X X   X   . X   . . . X X X X % % & , & % O X . . O O $ O O O + O O $ = - ; P k.h.] U ( T _ h.3.' U I ^ / ` ] ] ' ' ` _ k.T T 3.4.z.z.x.D.E.y.y.R.wX=X9.T.gXwXy.>.h < @ < < r Z.wXgXE.8.l r i j ,.7.e.Z.Z.Y.T.T.T.T.%X%XC.E B.0XP.M.z.j.v.v.3.' ' h.k.k.l.c.c.q.4.M.z.v.b.F.v.v.c.k.q.J.v.q.b.4.( 4.h.h.k.5.;X-X&XT.9.y.Y.T.R.R.E.R.R.E.=XE.E.=XwXuXgXgXgX,XY.Z.Y.T.T.R.T.E.R.E.R.E.R.E.R.T.T.E.E.T.Y.Y.Z.Z.y.t.9.7.7.5.,.k l p r r r t t t r ; ; r ; ; < ; r t t k ,.<.7.C.9.Z.Z.C.C.t.t.t.t.t.C.C.Y.E.E.=X-X=X=X9X9X>.h A ,.,.7.7.7.8.<.8.8.<.<.7.7.t.Z.Z.Z.D.j.<.a 3 a 8 4 4 5 1 5 > 3 3 v ..X.~ ) @.H J m m v 8 2 : O O O $ O O X . .     o : 9 9 , = 8 J H V c m b > z 3 z c 3 : O O . X X X X X . X X X . X X ",
"b s s x b x X X @ . . . . . . . . .         . X + o % * o % o o o   .                                         . .   .     X X     o . . . X o X . X . X X o X X o X X o o   X o X X X X X . . o   . . . X .   * o X o o o o X X o X X X o X o X o X X . X .       X X   X   . . . . X     X     . . . . . . . .   X X X # 5 z : . X     .           X X X o o * + % : % : , % O X X X O @ O O O O O O @ $ @ $ O $ < - a l.h.' ] I _ _ _ h.^ _ ] _ 3.4.k.3.k.q.4._ ` z.l.k.3.3.z.z.C.D.=Xy.8.y.y.9.8.y.-XT.8.k r < < ; ; k wXBXwXZ.>.r ; r g E 6.e.Z.D.D.T.T.T.T.T.T.%X{.A.0XOXl.b.k.z.k.2.z.c.v.c.b.c.z.q.k.z.k.h.v.XXb.c.z.k.v.[.A.k.q.q.M.k.k.v.k.' S.wX>Xs.T.y.y.y.Z.Z.y.y.y.Z.Z.Z.s.R.wXwXgXBXMXgXwXT.y.y.Y.Y.Y.Y.Y.T.T.T.T.T.T.T.T.T.Y.Y.Y.Z.D.Z.t.9.9.7.,.,.k j p r r r t r r ; ; ; ; ; ; ; ; ; ; ; r r r h h k ,.7.9.Z.T.E.E.=XE.=XE.E.Y.D.D.Z.Y.R.E.=X=X9X*Xk h k E ,.5.7.5.5.,.,.,.,.8.7.9.Z.D.T.D.t.h.n < = < < < @ = < 5 m @...@.) ~ J ~ J V 8 3 > # O O O O O O X X .   . # 7 m m J V m J J H V V H z > > 4 z 4 : O X X X X X X X X X X X X X X X . ",
"> 3 5 5 i 4 > . X X X . X X . .   . .                 . X X o o % % % & % % * o o                           .       . . X     X   .   . . o * X X X   X X     X X X X X X X X     X .     .   o .     . . . o X X X X X X X X X X   X X . . X X * . . .   X   X X X X X . . o . X X . . X X X X . . . . . . X . . . X X # z b - . . o * + + $ % & & & & & & # : & # % $ O X X X O O O $ $ O O O O $ O O O O $ $ $ = > I _ ! I ^ ] l.l.] 3.h.h.l.q.l.c.k.z.v.k.v.c.k.z.z.v.4.v.c.c.j.D.*XZ.7.,.,.>.-.0.t.,.k k r ; ; < t E.gXwXE.j.j ; ; r g Y 8.j.y.Z.Z.T.T.T.R.T.R.T.T.%X{.nXm.X.M.A.F.F.F.c.z.q.4.k.v.z.k.v.b.v.c.v.c.v.v.A.c.c.c.q.z.z.v.z.c.l.k.R D.,X&X:XR.-X,X,XW.R.E.Y.y.9.9.9.9.R.wXwXgXNXBXgXwXwXZ.9.9.9.y.y.y.Z.Y.Y.Z.y.Y.Z.T.T.Z.y.y.y.y.t.9.7.8.,.E l h p p r r r r r ; ; ; < < < < < < ; ; < ; ; r r r p l 8.9.Z.E.=X-X=XwX9X=XE.E.T.Z.Z.9.Z.Y.T.E.=XwX*Xk p h k R R ,.,.,.,.<.,.<.8.t.Z.D.E.E.C.<.n ; = : # # - c J O.o.) J ~ J @.J b 5 : : # O O O O X O X           # 4 v m v x m J m x m m m 4 1 8 8 x 2 O O O X X . . X X X X X X X O X X X X ",
"< ; 1 1 4 a 4 < X X . X X . . . . . . .                               . . X X . o o % % X X X . X                         X       o . . . .         X     X   X     X X         X     o         .   . . . . X X o       X   X X X X X X . . X   . . . . X   X   .     X . X . . . . . .   X     .   . . . . X o O + O % # ..X.3 & , , & & # $ + # + o o O X . . X . . . . X X O O O O O O O O $ O O @ @ O $ O @ O < - 5 1 a f I W I U ( P I k.z.q.q.c.v.v.z.v.F.v.C.z.4.j.z.A.c.v.v.C.T.y.9.0.7.,.>.8.9.>.k l ; < r ; A sXsX-Xt.A r ; ; r j Y <.j.e.C.Z.Z.T.E.T.%X%XR.%XR.D.0XOX) [ M.H.A.k.z.c.c.` k.A.F.c.c.b.k.z.4.c.J.v.b.B.M.M.z.v.c.z.c.c.4.k.6.=X&X&X&X,XwXwXwX3XwXgXwX=XZ.0.8.Z.R.R.wXuXMXMXsXwXwXR.9.>.>.8.9.0.9.9.t.y.t.y.y.Z.9.7.0.8.>.8.7.8.,.>.k h p r r t r r r r ; < r < @ < ; < ; ; ; r r ; < ; ; r h A 7.C.T.T.E.=XwX-X9XwX-XT.E.E.T.Z.9.9.9.Z.T.E.*XE.E p h j k A ,.k A A ,.8.6.t.D.T.E.D.e.A p < < > 4 J ..o.o.@.~ J J J V z 3 - - $ O O O O O X . .           . O @ : : : m ~ v 4 3 m x 8 a x x : @ O O O X X X X X X X X X X X X X . X X X ",
"a 5 < - 4 5 5 3 @ . X X X . . . . . . . .                                           o & & & + % % % % % % o o o o X                                                         .               . o . . . . . X X X X   X X X X     X   . . . X . .   . . . X X X . . X .     .   . . .   . . O X O + o % # % # & & # & & % $ m X.J O X X . . . . .         . . . . . X . . . X X O $ O O O O O O O O O O X X X X @ @ = @ < < < 1 a a a f n n g ` 4.` ` c.z.c.q.v.G.A.G.A.b.F.c.x.A.C.F.C.t.t.y.7.9.7.>.>.t.7.E j r r r r t.fX,X8.k h ; ; r r f k ,.7.7.9.t.y.Z.Z.T.T.T.%XR.T.D.qX0X#.) F B.J.J.b.q.l.3.v.b.[.c.k.z.z.k.4.3.v.v.l.k.q./ x.q.v.5.z.v.3.R t.%XZ.R.&X6X6X6X,XwX3XgXgXgXwXY.t.Z.R.R.T.,XgXMXuXwX-X-XR.9.>.>.>.,.8.8.7.9.9.9.9.0.>.k 0.>.l A ,.,.k h p p r r i r t ; ; ; < < < < < < < < r ; ; r ; ; r < ; r h ,.7.C.Z.T.E.=X=XwX9XwXwX=X%XE.*XE.D.9.8.0.7.C.Z.K.K.7.l h l j j k A ,.,.<.7.C.Z.Z.Z.C.,.p ; a V ..+.&.X.X.~ ~ J m c 3 2 = # # O O X X X X X X                 X X O X @ J m x v x x 4 z m 5 = X X X X X X X X X X X O X X . X . X . . . X ",
"a s s N N 5 ; a 2 X . X . X . @ . . . . .                                                     o o o o % % % 7 7 9 7 9 w 7 7 7 2 2 , & & & + * % o + o   X o   X o X X X     X o X     X . .     . .                                                           X . X X o o % % * & # # & & % & & , e , % % o X X . . .     < > > X . .   . . . . . . .   . . . . . . . @ X X X O O O O @ @ $ O $ @ X X X . . . . < ; < = < ; 1 1 ; 1 1 a a a j I T U 3.1.c.q.v.C.F.x.w.w.c.z.A.x.v.S.D.D.9.y.7.9.9.,.k C.7.;.l t r t r Z.fXZ.,.l r ; ; r r h j k ,.7.7.j.9.Z.C.Z.Z.D.Y.E.D.T.D.0Xh.) N s M.[.b.R 4.b.4.k.[.z.b.v.3.k.k.F.k.k.k.b.w.1.b.c.c.x.F.c.4.w.D.R.s.R.&X>X6XwXwX6XwXgXwXwXE.T.Z.s.y.Y.T.R.,XgXwXwXwXE.wXE.7.k l l k >.>.<.8.8.7.8.k h r t t l h j p p p r r r r r r ; ; < < < < < < ; r ; ; r r ; r ; ; ; ; < r k 7.t.Z.Z.T.T.%X=X-X-X-X9X*XT.T.%X%XD.9.8.>.8.7.9.t.C.7.E j j j h k R ,.<.7.C.Z.C.9.E p r r ) m.+.@...@.~ J J x - : = : # $ X X O . X X O X .               X X X O O > H c 0 4 x z > x 3 $ X O X X X X X X X X X O X X X @ . X X X     @ ",
"d n H b m H d a v 3 . . @ X . . . . . .   .                                                             . . * o o * & e e 7 w 9 q q q q B B B q G G G G G G G G G G G G G G G G G G G G G B | B G B G B B G G G G B G B B q q B q B 0 0 0 0 9 9 9 7 7 e , 7 7 7 , e 7 e & , & : # % % + O o . . X . X     . . .   . .     = = # . X . . . . . . . . X . . . . . . . @ X @ X X O O O @ O @ X X X X . . . . . . # ; a 1 1 ; 1 1 r a ; s a g a g f U ' ` E j R 6.w.q.A.b.F.z.c.1.5.v.j.=X=X0.t.8.0.8.>.>.y.0.k l r t r t *XgX=X7.p r ; r r r p l A A <.8.7.7.9.t.y.y.Z.Z.D.T.Y.D.0Xh.W ) 3 m B.b.q.b.[.b.b.c.c.v.c.F.c.[.H.z.c.G.A.F.F.J.c.A.z.4.v.C.S.%X&XY.T.&X:X:XwX6XwXwXwX-XR.T.Y.R.=XT.y.y.T.E.wXwXwXwXW.wXE.%X9.k l l h l k k k k k k h p i p p p p t r r r r r r ; r ; < < < @ < ; < ; r ; r r ; r ; ; ; < < h a p ,.9.C.Z.D.E.T.E.E.-X;X7X;X%XD.Z.D.D.T.Z.9.8.8.8.7.x.7.7.,.k j k k ,.,.7.6.7.6.,.k t r ; a X.X...W W J m 8 : # # # @ O X . X X O @ @ $ O X .               X X O $ O : m 5 4 s x m 3 4 = X X X X X X X X X @ X X X X X X X . X . X > 2 5 ",
"a a g a s N a s g > < @ . . . X @ . X . . X                                                                                     X o * * * % % % & e & & % & & & & & & e 2 & & e 2 & & e & & e e e 7 3 7 7 7 9 9 9 9 w 9 q w q q G q q q q q q w 0 9 7 7 e 2 , & % + + X X X     .       .   . .     . . . X . . X . . . X > - O . X . . @ . . . X X . X . . @ . X . . . X O @ O O O X X X X X X . .     . . : ; < < ; 1 ; 5 a a d N j Y L L P U U ' / 3.R 1.k.4.z.b.F.q.v.G.R 1.j.Y.wX=XZ.t.7.8.0.8.k y.7.,.k t r r t 9.E.t.k r r r r r r p j l k k >.<.8.7.5.7.t.t.t.Z.C.Z.A.0X#.H H 8 2 ! B.F.A.c.G.G.1.k.{.x.F.J.F.G.4.w.S.A.F.b.q.S.H.A.v.c.A.*X&X:XR.Z.&X&X:X:X,XwXwXR.E.Y.Y.E.,XwXgXE.y.Z.R.E.-XwXE.wXE.9X-X=XD.<.h u p p h h h h h h h t p r i t i i i r r r r ; ; ; < < < < ; ; ; r r r r r r ; r ; ; r l.U.c.j p 5.7.C.Z.Z.D.E.E.E.%X=X*X*XZ.Z.t.Z.Z.D.D.Z.Z.7.7.9.9.j.8.,.k j A A ,.5.8.,.E p r r r i ..X.~ ~ V c 4 - - = O @ O X X X O @ + $ $ # + O X X               X X O O O # 5 < < 5 a 3 a > # X X X X X X X X X X X X X X X X X . . O z ~ W N ",
"s d s s b a a a ; > > - X X X . . . . . . X . .                                                                                                                                                                                                         .               . . .   . . . X . . . . X .   . . . @ . . . . . O 1 = O . X . . . . . . . @ . . . . . . . @ X X X X X X O X . X X . . .       . @ @ @ @ @ @ @ @ @ < < ; ; s j n U h.I F F _ _ l._ 3.3.3.j 3.x.c.x.4.2.4.e.wX&X&XZ.>.,.,.7.8.k 8.7.>.k t r r p h >.k h r r r i r p p p h j k k E ,.8.8.5.7.9.7.t.t.t.C.tX#.P F 0 2 F ] v.J.A.z.c.e.A.c.c.S.[.v.S.XXC.x.v.F.c.x.G.F.A.G.v.8.=XR.=XR.9.Y.T.E.=X=X=XR.T.T.y.T.wXwXwXBXgXR.y.Y.T.R.E.=X=X&XE.&X=X=X=XC.k h p t p p p p p r r r r r t r r r t r ; ; ; < < < < < < r r r r r r r ; r r ; ; i B.U.b.c.b.A h 8.7.t.C.Z.Z.S.Z.D.T.K.E.D.C.7.8.7.e.C.Z.C.D.C.C.e.t.5.8.,.E E E >.k k h i r r r i ) X.W M x 5 - < = @ @ . X O X @ $ $ @ $ $ + $ O O X X .           X . O O @ $ = 4 2 < - 1 4 8 3 @ . X X @ X X X X X X X X X X . . . @ 4 m N N d s ",
"M M a ; g s a 2 = # O + X       . . . @ . . . . . .                                                                                         .                                                           .                                               . .       X X X . . .   . . . . . . . . X X X . . . . . . . . . + - = O . . @ . . @ . . . . . . @ . . . X X . X X X X X . . . .         . . . @ # # @ X X @ @ @ < - > < < ; a s L f g f k.T ' k._ 3.3.A.4.` b.w.x.H.A.b.D.-X&XE.T.8.t h >.k k k l k k p t p t t p t p r r t r i r p p h j j k j k k R ,.<.5.8.7.6.7.z.@X#.K F 0 3 c W l.b.z.x.G.S.[.{.G.F.A.b.A.c.x.A.c.` q.A.c.F.4.c.4.Z.uXR.&X&X9.9.y.Y.R.E.R.T.Y.y.y.W.6X,XwXBXMXwXT.0.Z.T.T.T.E.T.T.E.T.%X=X=XZ.8.h p r r t i r r t r r r r r r ; ; r ; r ; < < < < ; ; r r r r r r r t ; r r ; l.[.v.F.b.H.b.f p R 8.7.7.j.t.C.C.C.Z.Z.D.Z.9.,.,.8.8.5.7.7.7.7.6.7.<.,.k E k j j p r r r ; r a W J b 4 2 < < = O O O . X O $ $ $ $ $ $ $ $ # O O O O X   . .       . X O O $ + : 4 1 = > 1 > 2 2 # X X X X X X X X O X X X X X . X = x H P s s b s ",
"x F a ; s 1 < = - O O .           . . . . . . .                                                                                                                                           .                           .           .       . .   .       . . .     X     . . . . . . . . . . . . . . . X . @ . . . . . . + : = . . . . . @ . . @ . . X X . . . @ . . X X . .     X               . @ < < - # @ = - = @ < - ; - ; a ; a g f j j n T U _ ` k./ 3.q.w.c.A.5.v.A.E 5.-X%XE.R.Y.Z.k h >.h h p >.k l t p t p t p r r p t r t r r p p p h h h h k k k k ,.>.,.5.8.5.x.@XX.H F S 6 3 ~ q.1.A.K.qXqXq.w.G.H.G.w.c.4.A.B.1.1.` c.b.v.b.z.G.uX3XR.R.>X&Xy.9.9.0.Z.y.y.y.9.Y.:XwXwXgXMXsXwXE.t.9.y.y.Z.Y.Z.Z.Z.Z.Z.y.y.y.8.>.h t r r r ; r r ; ; r r ; r ; r ; ; ; ; < < ; ; r r p i p p r r r r r ; ; E q.R 2.v.B.M.J.c.h i j E ,.,.8.5.7.7.6.7.7.7.7.,.k l j l k k k ,.k k k l j p p i i r ; r r a b m 8 3 : < = # @ $ O X X $ @ < @ @ + $ $ $ # $ O O O O O X . .       . . X O O $ O # 3 = = = - : 2 2 O X X X X X X X X X X X X . X $ = 8 4 ; 4 5 ; z 5 ",
"1 a a 5 a - < = # O X .     .             . . X .                                                                                                                                   . . .           X     . X   X     .     X X   .         . . .   . . . . . . X X   X . . . @ . . . . . @ . . . X X . . . . . . . . . @ - @   . . . . . . . . . X . X . . . . X . . . .               . X . O . @ @ @ X . . @ @ = < @ @ 1 i 5 ! U T / C C Y ` h.4.q.x.4.c.[.K.e.e.[.[.A.K.6.Z.=X=X&XE.T.Y.8.t j >.h t k k p r r r r p p t r p r r r t i i p i p p p h h j h j k k k E ,.,.v.@X~ a F | 9 2 F ] R C.7X[.G.z.b.[.XXx.k.H.XXJ.z.b.[.G.c.z.A.c.e.wX4X,X:X6X,XwX>XR.y.8.>.9.7.8.9.R.,X>XwXgXgXgXwXR.Y.0.8.9.y.C.9.y.t.t.9.9.8.8.,.k k l p r r ; ; < ; ; ; ; ; ; ; r ; ; ; ; ; ; ; r r r p g p r r r r r r r j XXx.` <.j.XXH.v.F.k.g r p h j j l A k Y k E k E E j p p p p t p p p p t i r i r r r i i g s x 5 - # # $ O O @ O O O 5 @.~ x m 8 < # $ $ O $ @ O + O X X X . . . . . . X + O O @ O $ # $ = = 2 > 1 - O X X X X X X X O X X X O O = # # = @ @ @ $ # @ = ",
"g a b s d x 4 - - $ O X X     .                   .                                                                                                                                     .       X           X     X     X     X .     . . .   . .     . .   . . X . . . . @ . . . . . . @ . . @ . . . . . . . . @ . . X = = @ . . . .   . . . . . . X   . .     . .                   . . . X . @ @ @ @ @ . . O @ @ - ; 1 d d L C I ` R 4.z.b.c.1.` x.G.$X[.F.C.{.5.F.w.F.A.C.9X=X&X&XE.T.D.9.k l h p r t p t r t p r t p r r t r p r p r p p p p p p p p p h h j j j l k k b..X~ m x J 9 2 3 ~ q.` q.m.l.m.B.v.[.A.v.q.F.z.k.J.F.K.v.k.c.w.wX3X3X,X:XwXwX6X>XwXwXR.9.>.>.>.y.&X>X-XwXwXgXwX-X&XT.Y.>.,.8.0.9.9.t.9.9.t.y.y.t.Z.t.7.,.k g r r ; r ; ; ; ; ; ; < ; ; ; ; ; < r t p p p p t r r r ; r ; p XXA.c.[.[.4.F.4.c.v.M.2.g r ; r p r p p p p h p p p p p i p r t t r t i r r r r r i g s b x 5 = @ O X . X O @ = $ = : x 5 3 a 5 z = - $ # 2 $ O O O + O . . . . . . . . . X . X O O @ = = # : 3 ; 3 > X X X X X X X X X X X $ # # @ O O O X O O . . . @ ",
"M N M s s 4 4 3 3 # O X X X                                                                                                                                                                         X     X     .   X     X     . . . . . . X X . . . . . . . . . . . . . . . . . . . . . . . . . . . . . . . . . .   O < # X . .       . . . .     . . .       .                 . . @ . . . . . . @ < > a - < - ; > ; s n d T T [ 1.Y k.x.1.A.5.1.XXG.e.q.x.x.F.G.[.G.[.t.*X,X=XR.R.%XT.Z.C.8.k p i i r t r r p r p t r p p r r r r r r t p i p t p p h p g p p p h p h g .XN.K F s 0 3 2 # b X.` L V. XV.*.M.[.z.3.1.b.z.3.h.b.j.h.I.J.*X,X,XiX:X-X,XwXwXwXwXgXwXwXZ.>.0.T.&X-X:X=XwXwXwX-X=XE.T.0.>.l >.8.9.y.Z.T.&XE.%X%X%XE.D.C.<.k h p i t r r t ; r r r r ; r ; r t t r h p i p t r ; r r r t b.XXS.G.[.J.oXH.c.F.F.B.! d d i r r r ; r i r i i r t p i r r r r r r i r r r i g d N m 4 > @ @ X X .   O $ # 3 4 @ O $ $ @ @ @ @ @ @ # @ 8 s - - - 5 N > 3 - : 4 > @ $ @ # @ > 5 = # @ - 5 > ; 1 3 3 - X X X X X X X X X O # = O . X X . @ # @ @ @ = = > ",
"s x m a 4 ; 3 2 - = @ $ @ X . .                                                                                                                                                                 X                                 . . . . . X . . X X .     X . . . X . . . . . . . . . . . . . . . . . . . .   . .   O $ O .                                                 . . X . X @ . @ . @ @ @ < @ ; 1 a x a s a N P I L z.q.4.q.c.S.S.C.S.x.1.e.{.[.A h x.G.w.e.e.*X-X;X=X&XR.E.D.Z.C.8.k h p i i r r p r p p p p p p p p t i r r r r p r p p p p p p p p p p p p g #X) m 8 6 4 6 : : 3 ! _ L W  XV.*.) M.z.J.@XXXH.F.j.J.b.IXKXNXNXuX-X,XR.:XwX>XwXwXgXgXgXgX-XY.y.T.R.E.=X=X-XE.wX-X=XR.T.Z.7.k >.8.9.Z.D.%X*X*X=X%XE.Z.C.9.5.k k j k k j t t p r r r r r ; r r p p g f p p r r r r ; ; r j.c.z.x.6.c.[.J.XXXXz.b.B.n 5 s d Z n g a i 1 r r r r ; r r i p f g N N N n N s d s 8 1 = $ @ X X . . O $ # $ @ X X X O @ X @ @ # > a g a 5 F N F N I I d P W m N n C n n H M s ! X.N H 1 5 5 5 > 5 ; > # X X X X O @ X X X O O O X . X O @ > - 4 x x 5 a m ",
"1 ; < > 5 5 3 - > : - $ X . X . .                                                                                                                                                                     X X   X     X   X X . X X . . . .   .   .   . . . . . . X X . X . . . . . . . . . . . . . . . .               . @ $ .                                                       . X O . @ @ < < 4 4 1 1 ; ; a g N P ! ( ' f d c.v.z.b.b.S.t.e.e.S.w.e.{.{.1.q.A.C.w.8.{.3X9X&X=XE.E.T.D.Z.7.<.E h p p p p r r p t p r t t p t p p t r i r r r r t p i i i i p t p i i r L .XJ ) 8 4 0 9 & # : b ) P F *. X#.N ] B..XB..Xl.M.U.P.NXKXKXKXKXNXmX=XE.W.:XwXwXgXgXgXwXwXR.-XR.Y.y.E.R.R.E.=XW.=X&X%XR.T.y.9.8.0.9.Z.T.%XT.E.D.Z.C.t.7.,.k h j ,.k R E j j h p t t r r r r p p h j h p p r r r r r ; ( F.j.e.R 4.c.oXF.G.c.k.A.J.T F P H W P 3.P b N b s b s a f _ l.#.X.X.) M b H N 1 - = # @ O X X O X O O O O . . . . . X @ @ @ ; 5 g Z ! X.n n U ] X.` L f ; C I n F Z Z Z ! L j s d P f f n ) N 1 4 3 1 2 = O X X X X X . X X X O X O - 5 4 m x n V N ! N n a ",
"s 1 ; a s 1 @ < - = @ < = @ $ O @ X O X                                                                                                                                               .         .   . .   .       X .   . . .   X     . .     . . . . . . . X X . .     . .                                         X O X                                           X . X O . . O X @ @ . > 5 ; < 1 d F C g L f U q.] ] q.' q.k.z.b.b.A.w.{.S.S.A.[.S.K.{.K.[.[.K.b.S.D.wXwXwX=X=XR.T.Y.Y.9.8.>.k h p p p r r r r p p r p t t p p p p r p r r r r i i i i p i r i r r r ; k.V.N s 8 0 8 8 : % : 6 H P F *. Xm.b K X.N. X#XV.[ V.KXHXKXKXKXKXKXKXVXOXE.E.wXwXnXnX-X=XT.W.wXwX=Xy.y.Y.T.R.E.R.E.R.R.Y.Y.Z.Z.C.9.Z.Z.Z.Z.Z.t.9.7.<.>.k h p p h l k E E k h h p p i i r p p p h j h g p i i r ; ; ; E H.5.b.A.b.XXF.H.[.v.A.A.A.b.T n n N s F Y b m v m J ~ ] m.B.M.l.X.) ~ x 1 - ; - - # O O X O O O O X . . .         . @ @ < s n U ' _ U U 3.X.] L U ! ! I ^ _ P _ U f L P n C C ^ n N n f f F H s a 4 3 5 5 # $ @ O X     X O @ x x 5 4 s m s N W W m n P F N a ",
"d 1 a s a 5 a b b ; s a ; a > 1 - > = $ O O                                                                                                                                             . . .   .   .   .   X       .       . . . .   . . . . . . X   . . . .   .   X                                             . O .                                     . @ . # - @ # @ O $ = = - 1 i 1 a N W d f ` 5.w.q.k.v.q.E 5.XXD.b.F.q.b.A.A.q.1.q.[.*X{.D.t.C.7.e.D.K.qXC.9XwXwX&XR.E.T.T.Y.9.8.>.>.k j p p p i r r t p t t r p t p r t p t r p p p p p p p p p p p r r r r i .XX.N 6 6 6 8 0 & & # 2 J F s *.|.N.b F s *.#X X X*.] L.#XNXKXKXKXNXKXKXmXE.E.R.E.wXW.E.T.E.sXwXsXgX,Xy.0.y.Y.T.T.T.E.Y.y.Z.Z.Z.y.Z.y.9.9.7.7.,.A k h p p t p t p h h h h p p p i r i r i p h j h h h p i r r r r ; j H.G.v.4.J.v.G.[.c.1.F.c.q.b.k.T L F n a W m F m m B @.@.#.l.l.X.X.@.x 1 ; - - < = $ X O X O O O O X             @ = 5 Z n P X.Y I I U ` ] J.3.] d i Y r F I ] ^ _ L F _ ] P ^ ] d _ ] n f a g F a < 1 ; > - @ O . .   @ @ X 4 5 5 H #.N s s d N Z n g d W n N s ",
"F N ~ L n M s P N a a d s N b a s b 5 - = @ O O X .                                                                                     .                                                                 .       .     .         .   .   .                                                                                                         X   @ - > 5 5 - @ 1 2 1 1 1 ; a d F P U / ` q.k.c.x.e.z.w.b.F.b.c.x.5.6.E b.q.A.b.w.q.q.C.x.A.{.8.,.{.A.5.e.S.E.=XuXwX=X=X=XE.R.Y.y.7.>.>.>.8.>.k h p r r r i r t r r r t t p p p p p p p p h h h h j h h p i p t r I P.~ ) S S 6 9 8 : & & 3 N s s *.#X XF N b K  X$X X*.)  .O.%.IXKXKXKXKXNXKXAX0XZ.T.R.E.E.R.wXgXgXgXgXBXE.9.9.Z.Z.Y.Y.Z.Z.y.y.9.9.y.Z.9.8.8.,.k l h p t r r r p p p p p r r r r r r r r i i p j h f p p p i r r r < f c.F.j.A <.[.G.F.A.F.z.J.z.w.c.q._ C P F d N b m c m m X.X.] k.] ^ N 1 ; > : < # # O O O O X @ X     X       > @ 3 m m ) ] C Y h.^ ! L ^ _ ' _ F j L d g s H N ] F ~ W a j _ _ U g n ' L ) ) P ! I H N ; a s 1 5 2 # 2 a M H m n b a N W n 1 g s a s H d 5 s a 1 i ",
"M ] W f ! P f C n T C f W P d d a s a ; a 5 a 4 - @ @ @ O   .                                                                                                                                                                                                                                                               . X   .   . . . X X @ O @ - 5 5 n / A I Q N n L ^ I U ^ U 4.4.3.z.z.` A.G.c.q.q.q.q.z.[.G.A.w.1.c.w.5.w.c.A.[.e.w.c.z.v.6.c.{.F.A.e.A.D.wXwX,X=X&XT.T.Y.y.8.8.0.y.Z.Z.t.7.k h p r r r r ; j j r r r r p t t p p p h p h j k k k k k k j h p B.m.~ K x 0 2 4 0 2 = # 4 F S s l.$X XF F F K N. XV.#XVXNXNXNXVXVXKXKXKXNXNXKXNXE.Z.Y.R.wXwXgXwXgXfXgXgXgXE.0.>.9.9.Z.y.9.0.7.8.9.T.E.T.s.9.,.>.l h h h h k k A k j l l h h i r r ; r r i p h h j h p p i r r r ; i c.F.F.v.k.H.J.[.G.F.[.q.oXF.x.b.q.F f C d b b c m c c m ~ ! ] ~ W s ; - 2 - # $ O X X X X X . X X X # @ O # 8 X.! ! ) ] L g i ; g P L P ` T g I I q.U U _ P ) I _ ! X.#.H ! I f P d Y f ! _ H ] U I F ] Z P ^ Q X.! N ! ~ F s P M i d W d 1 5 n ! n ! N a a = < s H ",
"L L n n n L P f ! _ _ d I P N F d f P ! H d F b s N s ; ; = @ @ X . . .         .                                                                                                                                                                                                                                         X @ @ 1 < a > - 5 - 1 a n F n P P U z.4.` q.4.4.` F.c.q.j 4.F.z.1.q.q.q.w.R q.5.Y b.1.b.S.[.[.c.b.b.C.S.{.e.q.x.x.{.F.z.v.G.b.A.F.b.x.K.9XwX-X-X&XR.T.Y.y.9.8.t.Y.E.E.*XT.t.1.k p i r r r r 1.qXf r t r p t p p p p p j j j k k R ,.8.,.,.E R U.) F H 8 3 2 4 q 2 # 2 b N N b V.@X Xf b ~ =. XL.VXJXNXVXVXmXNXNXKXKXKXKXKXNXNXNXOXZ.Z.E.gXwXgXgXgXgXgXwX-XT.8.>.9.9.7.8.8.8.,.t.E.wXwX=XE.Z.t.e.j.9.j.e.6.x.8.k k <.9.7.,.k f p p i r p p j f p p p i r r r ; t b.A.G.c.v.A.b.c.[.b.H.XXb.b.v.5.w.1.L n n f c b v x c b H W W H ~ b > > = # @ O @ . . .     . . . @ ; ) P a ! _ _ U I ] ^ U L Y g f ] U l.^ g L _ I ! 1.l.! U f d U ! ] ) W ! U P ~ I U P L n W W L I ~ ! P n ' d C P d d n C C a ; 1 d W M g ~ M P N a N N N x n N F ",
"g C f n ) L I C I f f U C T L ! C ^ ! P W g i F P n g N s 5 a @ < @ = # X . $ @ X X .                                                                                                                                                                                                                   .         X . X - 1 a g P ] f L ( W C _ ! 3.' v.' J.1.R 4.v.G.F.e.e.1.w.q.4.q.R v.z.[.F.w.x.q.5.1.Y G.A.w.F.[.q.A.F.b.[.{.S.5.E e.A.A.{.A.A.A.z.XXK.H.D.E.wX-X-XE.R.T.Y.t.9.0.9.T.-XwXwX-XT.C.5.,.h p r r ; ; v.qXc.r r t r p t r t p h h h l k k ,.8.5.7.7.,.b.M.F F x 9 3 6 4 q 2 3 c F s s F  X#X Xs ~ S =. X XNXKXVXP..XIX+XOXVXVXKXKXKXNXKXKXmXH.Z.T.R.wXwXgXgXwXwX-X=XR.Y.>.>.>.>.>.k ;.>.t.=XwXwX=XT.E.Z.Z.t.C.9.7.5.8.k l j 8.x.6.8.k k h g p p p h h h h p i r r r ; r z.c.R z.c.5.c.A.x.v.b.G.[.b.4.z.q.1.] U P C d b c c b x x N F M F v - - # O @ O X     . . X . @ ; n L ` 3.U _ T C ' I I L g U _ ! l.' I q.) U q._ I _ _ _ I L _ ! F U f f N ^ n I ! ) n P ! a i P F P a j L P P P I d g ! F P f i n F P P n s s s W b ; N ! ~ ~ n b b g ",
"! I L n N n ! P s f f g f L n U I i g U F L P n g I d 5 n N d a N Z a 5 s 5 a 1 > - - @ @ O @ :   .   .                                                                                                                                                                                                 . . $ 3 a i a a F C I [ 4.3.g 4.B.4.k.k.Y k.4.b.z.R j 1.z.3.5.e.v.c.E 1.v.J.1.4.,.b.b.c.w.c.e.C.F.A.[.w.A.{.w.{.F.q.b.{.S.5.G.G.$Xt.{.{.G.A.G.x.x.z.j.S.wX-XwXR.R.T.y.y.9.9.9.T.=XwXwXwX=XD.t.8.E l p r r ; r A.A.{.R r i r r r p p p p p h k j k k ,.,.,.,.,.XX) F ~ 3 2 3 6 3 ) ) K S s s s ) |.#XB.d ) 8 6 %.#Xm.%.VXNXKXKXKXKXNXNXNXVXKXKXNXVXKXNXOX=X=XwXwXgXgXwXwX=X&X=XE.0.>.l k l l l k t.R.=XE.E.Z.Z.t.t.9.<.,.,.k j p r g ,.8.E k l h p p p r p j h p p i r r r ; r 5.4.j C 4.x.F.z.z.G.[.z.w.c.z.XXJ.5.[ ] n f L N m c x x x b N s 8 b - # $ O O X .     X . @ = a N ^ ' ` 1.f j Y j C ] ! ] I L _ _ _ U U I P L F 3.l._ C ^ Y C ' _ P ] T a n U d a a f I n W ) n n W P P a s _ I f ] ! U L P P n i s P I P W L a a N H s a F N H P W n N a ",
"L j L U L ' ! < - N U ] U P L P n s P P ! _ C n n P s i _ f C ] _ C n N a a Q n n n 5 - a x 5 5 : = # # O X . X                                                 .                                         . O O @ X . . .                                     .   .   . X X X . X .   . . . . . X   O @ < 1 n d I E h.h.l.q.q.E 4.5.5.[ E 1.c.4.Y k.F.5.E [ 4.[ c.v.1.q.F.v.1.R A.[.A.b.R R g 5.w.[ {.oXe.qX{.A.S.[.S.S.w.j R e.[.A.{.C.w.[.qXe.e.F.S.A.4.S.j.=XwX,X-XE.Y.y.y.y.y.y.T.=XwXgXuXwX*XZ.9.8.R l p r t ; r x.XX{.XXh r r r p p p p h h h h j k k k ,.,.E q.P.N b S 2 2 : : c { ..F s a a s *.$X#XM.F F 6 K  X#XB.H a m | | O.|.mXAXmXVXNXVXVXP.NXNXKX7X-XwXwXwXwX-XE.E.=X&XE.T.9.k l h p h l 7.Y.Y.Y.Z.t.e.9.<.8.A k h p r r r t h p p p r p r r r i p p p p i i r r ; r 6.4.b..X[.XXx.A.G.c.c.G.z.q.4.c.x.R b.b.[.l.a d a 5 x x d s N b 5 8 2 $ O $ . . .     . @ 1 ! ( _ k.2.` ] l.C ; ; L ' Y C ' U U ! _ ] _ n n n 1 L _ L U d _ X.) U U T P U n i g s < ; < f W M P n s N M n W F P g a P g P f ; i ~ L ! P ! N s F F s a a ; 5 a 5 < ; s a n P ",
"f L L a F I _ f ! U L _ _ d g L L P L n U _ P _ I d a s P P ! F I _ L I P U _ L U W F L P I s F s a d n 1 1 1 < @ O = @ . .     .               . .     . - c c J m N *.4 2 o                         X @ = 4 a a 1 a a 5 1 @ 2 c v # @ X       X   . X . X + @ 5 5 : 4 ; 5 - > 5 > = @ - < - < ; - 1 s I ` 5.R 3.1.Y 5.w.A 1.q.p 1.e.w.z.J.q.w.q.q.w.5.q.5.c.[.w.x.q.b.XXA.F.1.w.w.F.S.A.e.q.c.e.5.e.w.w.{.{.5.w.q.C.,.w.c.[.[.w.x.A.q.e.t.S.C.F.R e.5.` x.D.-XR.=XR.Y.Y.y.y.Y.y.Y.=XwXgXuXwX*XE.Z.7.<.,.j p r r ; t J.H.S.qX6.r r r i i p p p h h j k k k k k k E G.X.s N s 2 2 2 8 J o.) D a 1 1 s  X$X#X] F a J )  X X$X XF 4 b l.mXKXKXnXOXP.VXIXmXKXmXNXKXNXqX=X-XwXwX-X&XR.E.T.T.T.Z.j.>.h p h k 9.t.y.9.7.7.8.,.k k h r r r r ; r ; ; r r r r ; r ; r t p p p i r r r r i 4.G.3.G.4.1.{.e.C.S.v.q.c.v.1.z.[.c.w.q.E [.J.U P n 1 - 5 s s s 5 ; = @ X . . .   . : # a W _ ' ' [ ` ^ U 3.T Y s ; r U _ f U _ _ U d ^ L P f P d _ ! d _ L d ! I F ^ U U ^ T L n P f f a < ; a d W s N P F M ! ! d d g F C C g H ! U n s n d n n a s d 5 x m b P F a 5 d d a ",
"! L ^ W F T _ n L U _ _ [ ] n P ! ) N ~ ^ f P ) Y U L U _ ! s a d ( ! ^ I g g _ _ P I T l.3.T U I ! ] C n f L s ; s 5 1 < @ - 5 : @ . . $ # @ .   . . X s N F S - - F F 6 ~ F 4 & @ $ O : : $ = = < 5 N a i n p g f Y Y C ; @ a b < a n g s z 1 ; 1 ; > < ; 5 a ~ Q i n X.n a L P P n a N d n F P C ` z.v.5.5.1.` E E j p h A 5.E ,.5.w.{.S.j w.c.x.c.q.e.G.x.A.5.E [ w.F.e.c.q.j 6.A.w.x.5.E q.[.C.5.1.A.e.x.5.w.5.A.w.F.qXc.XXF.v.{.t.e.,.6.w.w.v.b.F.w.x.-XwX-XR.T.Y.Z.y.Z.y.Z.R.-XwXwXwXwXE.D.9.8.,.k l p r r ; f K.K.G.F.C.h r r r r t p p p j h l j k k k k ,.B.N b b s 8 6 3 s K ) K N 4 ; 1 K  XV.0X*.a F *.)  X#X#X|.%.P.NXHXAXIXO.M a P.KXmXKXmXKXNXNXNXnXE.E.R.E.E.E.T.T.Y.Y.Z.Z.Z.t.>.k >.9.Y.Y.8.>.>.k l h h p r r r r ; r r t ; ; ; ; r ; r r r r p p i r r r r r v.{.3.z.E 1.A.w.8.,.5.c.c.v.M.b.[.b.c.q.j 1.x.z.B.M.v.] L ! W F P F 5 s z 1 N m 4 m a N W l.' T ^ ' 4.#.] k.^ g g N W ! _ f f f a L U f L f n W ) a a N P L L P P n n P n ] F f n ! l.I ] L a N N n P N M M F ~ F H s ~ P a ) ^ a N P n f f n d n d 5 1 ) P N s a L W s ; s g a ",
"n U n N a F j F _ P U P f g Z ! n d - ; d f f f f C Y ` L P B.F C F L Y _ L U _ L _ L n ] n d f Y k.' [ ^ F ^ g I ] ^ d n N N n s < - = a N a 2 < 5 g N M K =.6 6 D D O S { S ) I F a F ) s F P l.] I L U X.^ T 1.' Y q._ g a s s N ( ` ` 3.^ l.] ! X._ M P _ _ T E R U _ Y k L L T U Y n P _ ! T c.x.5.8.1.6.,.5.R 1.j h 8.j j j ,.C.A.x.e.R 3.b.5.j w.e.w.e.e.w.x.b.w.w.w.G.x.e.u.e.q.c.q.q.w.C.w.G.oXA.L h 3.[.tX[.x.S.S.x.8X{.H.w.w.C.e.A 4.c.c.[.F.S.T.,X=X=XT.Y.y.Y.Y.Y.y.T.=X,XwXwX=X=XE.Z.9.8.R k j p r r < ` F.j.K.K.XXT r r r i r p p h h h j k k k k j c.] F N 8 8 x 3 1 6 ) *.J s 3 - - H  X X+X~ 1 *. XV. X X X#XNXJXKX+XX.5 - ; M KXKXIXNXmXKXmXVXnXKXmXS.Y.T.Y.Y.Y.Z.y.9.t.t.j.9.7.9.y.E.E.T.9.>.l h p p t t r r r ; i p t p r t r r r r r r r t p r t r i r r z.A.x.z.G.b.[.[.8.k E p q.q.c.q.q.z.c.c.q.q.c.k.k.v.F.A.q.b.b.q.M.z.M.h.l.X.l.X.2.#.l.f U X._ ' ` j f ' k.] L _ l.L ] l.P ] ' I U a H #.! N ) _ ! ) n C ! ! n I ) F L ! U U _ n i d I _ I L d P F W M a a N s N H N d M W H W ~ a m W i d U P N g n M N b ~ W d d d W n b 4 1 b N ",
"' d 5 ] ^ U j I ' I U g 1 n n i L ! M W I F I ' L Y E g d j X.Y L _ ] _ P h.L L U U _ ] U Y f ! U 4.E T ' ' ^ ! _ ^ U T T j n Z f F ; 1 N M a N ! T ` B.) S S S D S =.# s S $ K l.V.] I { 6 1 U j Y 4.3.4.4.Y ` 1.q.[ 1.R k.X.M.v.v.T 4.c.4.4.` ` [ x.z.C g 3.1.j E 4.1.1.4.z.q.k.k.j L v.3.l.J.3.6.5.8.5.E 1.5.k R 1.c.6.A j h j j R q.w.e.e.,.[.G.[ e.r.1.q.1.v.b.S.S.c.[.F.C.w.w.c.4.F.{.' q.c.A.[.w.e.1.r.4.] q.L c.{.S.{.{.w.w.7.$XyXA.5.F.[.c.A.w.S.-X=X=XE.T.y.Y.Y.Y.y.y.T.=XwXwXwX=XE.D.C.7.,.,.k p p r r ; z.v.H.K.qXb.Y i r r i t i p p h j j j k k k E B.) J H F x 4 1 3 F ) ) F x > < 2 K %.#XV.s K  X[.$X*. XmXJXAX@X~ 2 # : a m IXJXU.%.KXIXKXVXIXNXKXAXnXt.t.Z.9.y.t.9.7.7.<.>.>.8.t.Y.R.=X=XY.t.,.k l h p p p p p t i t p p r r r r r r r r r r i r r r r g v.x.G.[.H.[.z.4.1.j p g a v.v.q.E B.k.[ v.` I j ` B.3.Y Y q.q.` e.3.` [ l.X.( l.g f T _ I j ^ / T ` U j ` E I ' _ ! j j ] L I ] U P f ^ ~ N N P ! L C n Q P P I P P N ] ' I f L n f d L C f n f I N a F b n W N H P F f H s n P N a n n b n n d H P I W d M < x H a H P 1 m P a P f ",
"P n I _ U l.I P Y U ] ! U l.n W a M f ^ h.W _ _ T U R f ` v.E _ ` ] _ L ^ l.^ ' ] d U n ^ k.U L f R A < L k.] B.` U _ 1.` E ` f T 3.L L ' k.^ Y h.' M._ =.=.D 6 6 =.=.K D 6 > 6 S K ] ) S 6 ] l.f f k.q.q.` 4.4.q.x.q.R q.1.4.c.` 3.` q.z.' _ T Y E f Y 3.l.v.1.4.z.[ 5.c.b.v.q.[.z.3.M.c.w.[ b.1.1.E p j j 1.8.8.5.k 8.5.,.h j Y j f 1.<.x.e.A.q.[.b.e.5.w.w.R z.{.c.Y 5.c.x.C.e.F.G.e.{.[.w.F.R [ e.t.S.q.[.[.z.} h [.w.e.{.{.S.[.{.[.XXS.x.R w.q.q.[.u.;X%XR.Y.Y.Y.Y.Y.Y.y.Y.&X=X=X-X=XE.D.Z.9.8.8.E j h r r r r G.S.5.5.c.k.d 5 i r r r r p p p h j j k k l v.#.H F 8 s m 4 6 5 0 K K F 8 - = 4 ) V.#X) a ) $X#X X#XJXKXOX~ 1 - 3 ~ $.%.OXJXKX@.M.KX.XNXmXmXNXNXmXNX0X7.7.0.8.8.,.>.k k k >.,.9.R.=X*X%XT.T.u.9.5.,.E k j j p p r r r r r t r r r r r p r r r r r r j J.G.G.e.4.z.G.v.q.M.z.4.k.l.M.Y E q.w.k.v.k._ L U 3.l.' P 3.k.1.4.l._ ' ] ] 3._ _ L _ _ I ] ] _ _ ' L ' ] U [ L C r d ! U ] U ] _ U N _ U n f ! s n F P P F M ! ^ P M P P U L F L P d _ ! P ! F n n N ! W P U ) n ~ P N s g a N a a N N s H ) d N ! N N ) ~ s 1 a a s s d N n P ~ n a ",
"L L P n L U n Y U C Y I _ ) ] l.n s d U ! L C U _ _ ` q.1.3.Y j _ ` l.^ ` _ L d F f ( C d s ^ f C E j C ] k.l.q.I _ L f j A k._ E Y Y 3.J.k.l.m.M < N F D S 6 6 6 S D D 6 D =.6 S 6 6 6 = 4 ] _ _ U _ g E 4.` c.J.x.q.q.v.z.` ` f j ' 1.` ' .X' Y _ ` 1.x.q.J.3.` c.4.q.c.5.w.z.[.[.c.F.q.1.x.q.E F.Y g [ [ 6.5.6.E ,.k ,.,.g g j f ; j A.c.c.XXE ,.A.w.{.S.1.q.Y A.w.4.F.z.3.w.[.v.q.C.e.XXK.$XE [ q.1.q.oXXXx.[.S.,.<.{.{.XX{.S.e.S.A.e.4.x.K.[.[.5.q.;X&X&XT.Z.Z.T.R.Y.y.Y.T.&X=X=X&X%XT.Z.C.7.8.,.k h p r i ; j G.A.w.Y G.] x 5 i r r r r p p p h h h l h E .XF F F 6 F b 5 3 2 6  .) b 3 # # s {  X|.s s *.+X#X X X+X+.a 4 F $. X X%.P.NXKXL.9 +XKX#.VXKXVXKXmXNXmXmXU.<.,.>.>.>.l l l k ,.y.T.T.T.T.s.C.t.9.7.8.,.k k l p p r r r r ; ; r r ; r r r r r i r r ; Y [.A.3.c.q.T b.z.g j b.M.q.[.v.q.k.q.q.R E q.] U k.1.3.1.4.l.M.T 1.Y d l.l.h._ ' h.] _ U I _ ' ! I f I I ] _ I _ g ( W U f _ ] ] ! F n P i a n L N f P d d g P n F N a i _ f n L _ M d P L ! C f a P a 5 ] n a L n d n d n n N N f P F a N ~ P L F a s b H N 5 s H f s d F b a s n N F N ",
"Y E L C F ] L i f ^ f M ! ) P d f N n d ! ' g ; I f I j R 1./ ' ` h Y I I F a @ - @ = 4 5 m a > N f g Y _ X.n g d ] d f 1.E 1.z.c.x.1.R k.l.] ! 5 - W { D =.- 6 : @ # - - - 6 S S K K 6 S S a X.M.B.` n l.c.` c.q.q.Y Y k.[.5.4.[ U q.` E ` B.! 3.! B.A C 4.R v.5.w.x.z.q.5.c.` } e.w.q.1.g 5.j R Y j 1.E E R 1.w.5.8.7.k j g r g a < a 1.x.w.4.q.x.b.w.w.w.q.x.` h j j p v.e.A 1.1.A.5.c.{.K.z.A.S.F.[.C.S.x.7X{.e.c.e.{.F.S.[.w.q.v.A.S.qXA.{.{.XX{.u.=X&XT.Z.Z.Y.T.T.Z.y.Y.E.=X&X&X=XT.Z.Z.9.8.,.>.k p i i r ; 5.{.{.{.[.XXW 4 5 ; 1 ; r i i p p p h h h p c.X.5 4 5 > c 6 2 6 > 3  .K b - $ = G ) #X*.6 )  X#X+X X XH s ..N.N. X X$X%.VXKXU.V V NXNXJ nXKXOXNXmXmXmXmXmX{.7.,.>.k l k 8.0.R.=X=XT.Y.y.7.8.,.,.k k h p p p r r r r ; r r r ; ; r r ; r r p r r r ` A.v.q.c.c.G.G.q.b.z.z.b.q.v.1.' M.l.k.' ` ] M.q.[ ` q.4.k.4.i f l.] ] U ' T 3.' a _ h._ d ! C a P ! L n P F ! ! I n n P ' i a f I L f Y P F P ^ n P ) n M b f a n N N s N C a < n n b P n L s a I F H s g ; 5 g C I d s f n a 1 W W N n ! P a g f n W a ; N M a Z m s n W s < a s b ! s < ",
"g j q.] 3.h.U F ! f d W < < M f f 1 - ..] [ f f ] _ F U ` d C v.' f U Y L N 1 = = > : 3 c J 8 8 s W M.n ] _ f < s q.k.b.{.{.G.[.{.G.G.v.` ) s n N F x 6 =.6 : J x 5 F ! F 1 < - - 6 S { { ] S - N ] M.B.b.1.Y M.[.q.,.1.q.1.e.E U z.3.j R 5.s g ! ' ( < g T r 4.F.q.[ [.b.l.j h 5.c.w.,.q.j q.w.' q.j R 5.E 1.q.w.R Y j p i r ; 1 < 1 [ [ 6.q.[ c.oXq.[.[.q.w.{.q.Y 5.c.6.$Xb.v.c.5.H.[.A.H.v.C.XX{.{.{.7.E p q.[.{.[.{.S.b.c.{.XXyX{.{.{.e.A.R e.{.t.*X=X%XT.u.Y.T.T.Y.t.Z.T.R.R.E.T.T.Z.Z.9.0.,.k k j p t i r i [.{.{.qXoXv.P 8 2 - ; i ; i i p p p h h p Y M.x : : = > + $ : > 2 6 | K s # $ - S *.#X) K V.#X#X#X{ ) V. XN.%.#X$XV.*. XKXnXn.V o.AXIXG AXAXX.VXKXVXNXmXnXnXS.9.0.8.0.y.E.=XwX-XwX-XT.y.8.E l h p g t p r r r r r r r r r ; r r r r r r r r r i k.v.3.A.x.G.z.k.v.` b.q.c.z.q.k.1._ M.b.] ` l.' l.] d g ] M.l.] ! I 3.] h._ l.l.L _ C U d g n F d a P H F P n a < a F N n P P P L f g F C _ P f ~ ) P I F s M W s 1 s N W M P m d N a P ~ J ! P N n N W W n ~ J i N ~ P N n d M d a Z W F P P g N H W P M N P ~ ~ d Z ! P N N N N ~ P N P a a ",
"_ Y g f ( _ U U P g P s < H P C U P 5 < P ! C ! ] B.X.' ^ d a J l.X.C g P ] X.X.s G 4 2 # 2 3 @ 4 a m N g 1 f ] b.XX[.{.{.[.{.[.A.A.C.x.q.1 N F 5 @ @ $ 6 # S X.N m.B.M.M.B.) # : # = 6 S K } 6 = 5 ^ B.J.k.3.B._ b.b.v.v.F.4.f X.w.5.[ R R f M.! j f f ' q.q.4.q.z.q.c.F.q.` 3.x.b.q.v.R z.v.v.q.B.[ R E j R Y f j g ; ; ; = @ F ) _ A.b.e.x.[.5.[ Y x.F.` 4.w.1.q.c.q.[.{.A.F.b.A.{.S.G.q.E K.qX{.x.w.e.j i 5.[.v.S.{.w.E q.{.8X{.w.e.K.C.K.w.K.C.9.-X&XT.Y.Z.T.R.E.Z.9.Z.T.E.T.T.T.Y.Z.y.7.,.>.k k p p i r r Y {.A.{.{.K.H.W 4 : - # ; r r r r t p p p p m.~ : = = # # $ X # 6 : 6 ) K 4 O $ 6 F V.#X~ {  X@XV.D c *.%.*.{ |.#X X X*. XHXN.I.m |.KX.X~ KXmX4 I.NXmXNXmXmXmXVXK.=X=X9XwXwXwXwXwXgXwX=XT.7.>.l h p i i r r r ; r ; r r ; r ; r r r ; r r r ; j z.J.z.h.x.v.F.j.4.z.E 1.c.c.v.g ! k.M.v.U 4.3.U ' _ ] U ' _ h.' ` _ ^ ] 3.] ' ] ' U U _ ] _ d _ ! ) ) P W J n a a ; 5 1 < N ~ P M d n N Q d 5 F M f n n F M N M N s N s W ~ M P N N M n N N a s n M s s H F F H n n P n F ! F g N L H n L L ! d P L W ] n W P P f n n ! Y L W n s d n ~ ~ P f s ",
"^ [ Y I P f F L n T T ! ] ~ X.! ! U Z 5 = ~ ~ ] h.P f I ) ) > 8 b H M 1 X.' I _ 1 v 0 q 9 2 2 a s W < s U ' B.XXXX[.{.{.[.x.S.{.A.x.e.5.[ d a - - x c a = S ) 1 N v.B.h.k._ F ~ 6 6 6 + : 6 6 6 =.6 1 s ! v.] ' [ 4.` 4.c.M.q.4.l.4.k.q.5.A.` L d f ' M.b.1.q.V.k.q.` 4.1.4.v.v.R c.[.v.[ v.v.1.` k.] j E p r ; < < ; @ @ @ < s k.G.5.[ w.w.v.v.x.G.D.w.e.A.[.J.z.c.[.[.w.B.c.} v.K.[.A.[.z.T C.e.E R q.S.w.q.w.{.A.XX[.b.c.x.6.c.5.5.5.C.C.K.A.C.K.*X-XE.T.Z.T.T.R.Y.9.Z.Y.R.Y.Y.Y.Z.Z.t.9.8.>.E k h p p i r r v.qXK.{.e.S.A.N 3 2 : O @ r ; r r r i p r U X.- : # X O # $ O # : : 6 o.K 2 $ # 2 K {. X) V.#X .6 G $.%.*.*.#X#X|.$X$X*.XXKX) b v VXKX+XOXKXP.3 | IXNXmXmXmXmXVXVX8XuXgXwXwXgXwXwXwXE.E.T.Z.7.A h p i r r r r r r r i r r r r r r ; r r ; ; T U.v.b.K.F.1.b.OXM.l.T g / b.E U k.l.k.` _ _ _ ' f ] ' U z.' _ X.d ! U ` _ l.^ _ ] ] l.L U I g a ! _ P N Z X.N M s a W N > - n m n W ~ N W M a b P d a P N s d ~ W s b H M n M N x M ~ s N N M b a H P N d M d M H W H P n d f f n ! ] I n ! L H H P W ! ! P P d P N f f L F n H F N 1 d M M a a b ",
"d X.n F ) ^ ] f n 3.] N ) s 4 b b s s J > a M ! X.g n ~ H F 2 2 2 > x - P ] g P s x 3 G 2 > ) _ ] U W l.[.[.[.[.G.S.{.{.[.S.5.A.x.5.5.R E g - a H *.] J + 5 x a ) F L ^ f a U #.: = D 4 O # > 6 S 6 a 1 5 r g ] _ T 3.l.F.1.j M.k.4.v.` M.b.1.k.l.l.M.k.c.b.e.c.` g 5.5.v.x.p [ q.b.q.` w.c.z.b.q.3.q.L q.r < # ; > F _ F ! l.[.b.A.x.b.J.q.Y 5.A.5.e.{.F.[.b.XXB.v.[.b.e.{.1.1.H.A.x.F.XXF.{.S.6.5.G.A.x.[.c.1.Y 4.q.v.R x.[.oXe.w.6.D.D.K.A c.H.K.9X&XT.Y.Y.T.R.T.y.9.Z.Z.Y.Z.y.Z.Z.y.9.0.>.>.k h p p r p r j c.A.F.K.{.{.[.P 2 3 - O . < ; r r r r r ) n.x = 2 # O X # # : = : : 8 ) b : $ # 6 *.|. X%.*.=.6 G &.*.*. X X X|.$X$X X XNXmXz > 4 @XKXKXNX@XJ = | %.VXNXmXNXmXVXnX0X8XwXwXwXwXwXE.R.T.Z.t.9.<.>.j p p r r r r r r r r r r r r ; r r r ; t / j.c.v.b.R R z.z.v.h.J.X.M.k.c.1.q.v.4.4.[ ` _ _ ' T T d I X.( X.] r ; F P I ` Y L ! W L P L _ L d d f W ; 5 x m W a a N N M d b M N s M P s m g P M g m 5 5 a b s N b m 1 a a Z s s N s s s m N M d M L W Z F W n g s a n F L P L P P U P n H F s W H f M ~ N d n W _ P n f P U C f C F s < 1 M C H ",
"5 8 3 2 V F ) X.F X.J 4 3 # - $ 2 # 4 ~ z 2 X.m m J m c B 8 2 2 & 3 B | J x b m 8 2 # 2 - $ H P ] b..X[.[.F.S.b.A.c.A.A.e.C.w.q.5.E E h j g ' N.l.W F K 8 O $ 5 ; 5 1 5 a 1 n F a # 0 K $ $ 6 6 S s 1 F M.] C ; a l.OXv.4.T T 4.B.] l..Xl.] _ ` ! l.k.T E ` T 5.z.b.c.b.q.4.[ q.1.q.q.1.b.w.c.3.1.q.F.[.G.4.l.1.3.B.k.T b..XJ.e.R ,.G.q.q.x.q.q.[.S.e.[.v.E G.,.q.b.g 5.F.e.E [ 4.C.7XA.1.A.A.F.qXb.[.G.{.XXw.q.g < q.5.q.e.e.qXS.t.%XD.8.E p k.{.E.,XR.T.Y.E.R.E.Y.y.9.Z.T.Y.y.y.9.9.9.7.8.k k l h p p i r r 4.A.K.qXF.qX{.F.U 5 2 - @ . @ < ; r ; i X.X.c x 2 # $ X 2 6 2 : : # : K { 8 # $ - =.*. XK O.2 6 G { *. X X X$XQ.M.|.#XV.@XJXU.> 1 b #.@XVX|...8 : G %.I.VXNXmXmXmXnXnX0XqXwX=XR.E.Y.y.t.t.7.7.>.k h p p i i r r r r t r r r r r r r r ; f h.2.J.v.( M.<.E c.4.q.2.] 3.M.l.z.3._ Y w.5.k.1._ _ I l.U 1 P L h._ Q Z n ; @ 1 X.n P _ f f 3.P d L F N H N 3 5 a 3 # b a a M d x a a s a a 5 a 5 s s s N N 5 < s M 5 a ; a = z 5 a a 5 = 5 H N N N s M P n M Z C P s n n d n f P n ! I g F d a s 5 F N b ~ M b 1 W X.s P P g ! U P U I I ] M M W ! f f ",
"0 0 0 q 8 0 4 8 3 8 0 9 7 3 , , : : 3 a : > 4 4 v 0 0 B 0 9 # = = 0 8 8 c 0 G B 2 = : # # a X.b.J.[.[.G.b.b.F.C.C.x.w.w.w.w.8.[ Y k j h p ; ) F F x S H c X 5 5 5 4 = - - H W d 1 2 1 # # 5 5 1 1 - = ! ' l.M.g P l.#.l.k.M.U.l.l.m.X.k.! U L a F g Y f / w.g E q.q.b.1.5.z.F.q.c.F.v.c.x.x.b.q.w.b.F.c.4.v.J.z.J.F.q.4.L I T v.5.g 4.A.b.q.S.G.w.w.x.b.j g R 4.5.} f G.F.5.E c.c.x.q.x.w.v.w.{.{.b.[.q.G.K.G.J.l.' b.w.e.8.t.qXqXD.e.j j.3.c.A.x.=X-XE.T.T.R.=XR.Z.9.9.Y.Y.y.9.9.0.0.7.,.>.l l h p r r i r j XXK.S.K.A.G.K.[.[ i 2 = = @ . @ @ ; f l.H 1 - - # $ $ # 4 8 : # # : 2 K ) 6 $ # & K *.*.K 6 7 | ..V. X X X$Xb.$X X$X X XNXKXX.3 v J N F @.H 6 & 2 z +.I.n.VXmXmXmXmXnXVXOX*X%XT.Z.Z.9.9.7.8.>.>.k h p p r r r r r r r r r r r r r ; p 2.G.b.Y E 3.q.3.v.l.' l.l.; < L j R q.^ _ 4.,.R [ n a n _ ! n 5 ; i n g < a N a ; H ~ F N d a n g N n P P m H N ; a N s < b s 5 s x a i ; s 1 ; 5 m b s N H s m W H H N ; b M s x N N s b M s s M a a M s M M d M ) a P F W ( ! L P U P C W ! N W ~ < < M P f F f b a N M g n ! L N I P P n P U W n P ! n P ",
"3 9 3 9 9 3 9 3 7 3 2 > 9 B q B B 0 0 4 8 9 9 3 3 5 2 = = # $ $ $ 2 8 : > 8 9 9 2 - 5 s P V.J.[.G.G.G.H.J.b.F.C.w.5.q.5.1.R } j f h g i r < > ; @ : - = $ 2 s 5 < = : = ; P W a - - # : = # = - # - a F C d g _ T d a a N a g d i > a g g I h.k.I f _ 3.c.v.z.G.q.1.A.q.v.F.b.w.b.c.3.x.[.[.v.b.w.F.c.b.v.5.` b.F.x.4.b.k.f R OXA.x.G.x.[.q.c.K.q.A.[.F.z.{.c.4.z.C.e.x.c.{.e.qX[.{.w.w.[.[.w.qX5.E [.k.z.3.[ G.F.A.[.e.*X}.*XC.[.A.e.S.F.qXF.j.9.-X&XT.Y.T.E.&XY.9.9.Z.Z.Z.9.0.8.7.8.>.>.k l h p r i r r i B.{.{.XXK.7Xe.7.{.F.a ; = @ @ @ @ 5 ) X.s < = - = O $ 2 # 3 6 : : # # 8 ..K 4 = : 6 ) *...G 6 =.{  X X#X#X$X X XB.$X X$X XAXVXB z X.*.) v # = # # 6 3 V N.l.L.NXmXVXmXVXmXVXF.Z.Z.C.C.9.7.8.>.A k j p p i i r r r r r r r r r r ; r Y G.z.E z.F.1.3.z.Y ` ` l.] _ n L l.Y Y U T ^ A q.L h.M.! I _ ~ d s s H d d a z s s H ~ H P s ; N n f N m s d M M n M s 1 M s r a s m x v z a x a 8 b H F M H M 5 a N N N g N m M n W s N W a M N H H b H M H N N N > < s n P P P F s L I ; n ) ~ N H P s H d M ~ P f a g _ N ~ ] F L W U f n a F L U _ _ H n _ ",
"$ % + $ $ # % $ # $ + # 3 7 9 9 9 9 2 : = & = $ + $ $ O O $ O O + O $ = - # @ = 5 P M.[.[.z.Y [ b.A.A.b.c.e.q.1.1.E Y E j j h p r r r r ; 5 F P _ P n m 1 s F n N < - - - 1 a 1 1 - a F s b x P ` 2.k.M._ l.M.B.v.' l.k.T _ ^ 3.` L h.v.3.M.T g 4.q.b.w.3.b.c.[.c.[.5.R 1.q.z.z.q.` q.z.{.S.e.A.x.[.w.c.[.x.b.b.6.A.x.c.v.F.H.b.v.z.A.J.x.C.w.A.v.[ Y c.S.c.[.XXA.S.{.C.S.XXR q.G.XXR Y w.S.S.w.q.XX0XG.3.F.[.XXe.e.[.XXA.j ,.6.1.q.C.S.H.H.4.G.%X=XE.T.T.E.R.T.Z.9.9.Z.Z.9.8.>.8.>.>.>.k l h p r p t r ; E b.c.F.G.0XF.x.S.C.J.~ ; a v v V ~ ..H - = = # # $ $ - = : = 2 : # # # F ) 6 - : 6 K *.*.J G K V. X X XV.%.%.#X@X+X#X.X[. Xv.P 1 ) P.V.{ ..6 # & 2 3 G #.M.m.O.L.NXVXnXmXVXnX+XC.C.9.9.7.7.,.E k k h h p i i r r r r ; r r r r ; j 1.z.q.3.q.4._ l.P L 5.` T 3.l.T M._ ^ 4.M.' M.( I i P l.U ^ U ! ) ) n P ~ N N ~ Z m ~ ~ H d d s N F d N d s a a a a a i a a N a z z a 8 v z 8 v x b m - a M a 5 5 5 g N s m M n N m s a N M N s a 4 b J ~ N a a a N ) b - 5 ! M ~ ! P L U n W F ! W F F g s n F ! M a 1 f C Z ~ ] H a f I L L ) H L L P n M C L f ",
"X   . .   . X O X o X O : : 3 : = # O : $ O . . X . . X X X . $ X = x 5 3 1 - b B..X[.H.[.[.c.p L v.q.1.,.[ E Y C j p p g g i i r ; ; ' 3.I U ` l.3._ q._ _ I _ B.! P P n L _ U E U ] I X.' k.k.XXz.1.4.I M.U.h.q.1.q.1.` q.c.4.5.w.w.z.H.[.b.q.G.F.4.E c.b.k.J.q.q.R k E q.v.3.b.b.c.[.v.` w.x.C.e.[.A.b.{.G.b.k.J.e.[.4.k.b.b.H.v.c.c.{.x.w.A.1.b.B.XXG.z.b.w.5.t.t.G.0X{.x.5.[.[.v.c.q.q.x.[.S.XXG.1.x.G.A.e.t.,.t.w.c.z.4.` q.[.z.w.XXv.x.K.=X=XR.T.R.&X&XY.y.9.0.Y.y.7.>.>.;.k >.k j h t p p t i r j XX[.k.XXl.I k.{.x.c.qXoXP ; a x x a ; - - - = $ $ $ = # # $ 2 # # # # # F K 6 6 - 6 { *.) K *. X X*.o.o. . .~  X@X@X0XtX@X#XV.5 s N.V. X X XN.K 4 0  .N.V.m.m.n.O.IXNXmXVXmX0X0XB.7.9.7.8.<.,.>.k j h p p r r r i r r r r r ; r 2.c.z.J.z.1.h.f k.B.l._ U ] l.l.] q.X._ ' ] _ f U h.' ~ ] U n ! n ( n P H W M d M M ~ ! F s a 5 a s N s 5 a a x N 5 5 5 > 5 x x a > 3 8 3 : < = 3 c x 8 b > x H d d a s s P n M d i a N a 1 H W M s a < = @ x H P - 5 ) W M W N ! ] I n P ! ] ' X.g f ) ~ N P C n P W M s d L n N ~ n M P P U ' U T _ f L i F P 5 s n ",
"X O # 8 8 4 @ . . . X O = # @ X O @ > 3 - @ O X           . . X . 5 b ; ; ! M.[.[.[.[.[.A.c.e.q.i ` [ Y j k g g f p r r a r ; < < f 3.v.1.v.^ 1.k.k.l.M.` q.l.l.] ] l.h.' ' l.5.b.z.c.b.g f z.q.3.q.c.R 4.c.b.b.v.k.w.c.q.1.v.A.A.{.6.E 1.q.E j b.q.[.x.f j I q.E 5.q.1.F.c.w.x.c.` q.b.1.v.J.q.q.5.{.x.w.[.q.b./ z.r.w.1.f 1.S.G.q.v.b.C.w.b.A.A.b.j 5.C.E R K.C.A.{.b.5.e.K.J.{.{.XXS.{.{.A.{.K.K.C.{.{.e.c.K.K.5.G.A.b.A.{.q.c.oXH.x.K.G.K.K.%XR.E.T.E.&XE.Z.9.9.y.u.y.8.k l h k l h t p t p t i r f S.0X{.z.q.Y I c.e.5.e.1.c.v.T ; < ; - ; - - $ O . @ = = # $ # = : $ # $ 6 b s 6 6 > K *.*.K %. X X*.G | | | | | K ) *.V. X.X#X#X*.) { J K { K $.I.*.$. XV.V.V.m.N.*.$.tXnXVXVXnXIX@Xh.<.8.,.>.>.k h h p p i i r i i r r r r r Z M.R q.E k.q.L / Y 3.^ h.] a ` ` h.2.U ^ h._ ^ ^ Z Z ( f I ! C ! s @ x Z Z N N Z W N N d N a a x a ; 5 5 5 a 4 3 > @ < < > 5 < @ > > - 3 @ @ @ - @ = > 4 5 3 > 4 5 5 < ; N x d d N N a 5 s H n N F N N m F a ; 2 s a a N ! ~ F ~ ) N P n U ( _ U ' T ) F ( P P ) ( P L P P P _ P a g L L P P P ] F P f Y U L F P ] P g s ",
"M m b m ~ b N z > = O + O X . X @ - - - 1 b M H b 5 > 8 : X X $ = # < P F..X[.H.G.S.S.x.w.6.w.5.j j j h g g p g i i d ; < < f g I ' T j 1.' a _ M.l.J.3.3.Y _ ` ` v.k.3.k.4.b.b.` [.v.q.q.[.c.E q.3.q.l.l.5.1.R b.z.1.v.T [ F.w.w.b.T 1.G.S.c.q.q.z.{.e.5.x.v.b.b.R b.w.b.S.x.v.1.[.b.1.[ q.J.w.w.q.j q.7X[.{.G.` b.{.b.4.b.q.E w.R x.e.{.G.F.0X[.K.x.j e.<.R A.{.A.A.w.1.1.q.x.w.8.6.w.A.S.S.D.,.8.K.7.1.G.qXS.C.oXc.b.q.{.7Xx.w.q.e.$XK.C.6.%X=XE.T.R.&XR.T.0.0.9.y.y.0.>.l l h p p p p t t r r r h w.A.A.,.q.q.[.[.z.e.w.[.w.8.6.S.z.U ; - - = $ O .   X $ $ # # # = = : @ $ 0 2 = 2 2 6 ) *.K { $X X*.S 6 q | B G  .N.K K J S F K #.*.J $.o. . .K 0 B K K *.V.*.l.m.m.V.#.#.VXnXVX@X@X+XU.R >.,.E k j f h g i i p r t r r r ; g 2.k.b.q.z.z.T k.M.[ j v._ f U #.l.U C ; f _ ] P g P ) ; @ g ] n n a - 1 a M Z x v N a @ > 5 5 < 3 3 = 8 3 = = $ > @ @ = # @ 5 4 < @ - @ - 3 @ . @ 3 5 8 4 - - > 5 5 i x 3 5 v N s ; 1 N z V ! s N M ~ P P W N b P ~ P P M g n n 5 ; a a f Z U Y n M ) L C U ^ _ ! n ] ! n F C _ I X.! P U _ ! #.] _ a ! k.U n f L L U C C U ",
"n N < i b 5 a b m W ) a a a 5 Z W P ' ' ! ) Z ! P P ! ~ H g d F N d ] U.G.F.K.C.x.w.w.5.,.R E k j h p p g i i r - ; ; < 5 N h.h.I w.q.4.k.q.' q.E 1.#.v.c.U q.` q.w.` M.q.j U q.1.c.k.q.z.q.k.F.4.g T q.k.x.E w.q.3.E 4.L p v.4.5.c.` c.[.S.A.S.q.r.A.q.1.e.C.b.z.z.c.F.w.[ j Y 5.{.c.[.e.q.x.x.q.c.[ 1.[.A.q.[ A.G.C.w.e.z.x.K.1.R C.S.x.x.b.x.x.S.S.x.[.[.G.w.C E 1.5.S.G.G.A.k 1.D.e.w.{.{.E E k 8.E 5.1.j 5.5.e.q.oXF.v.{.[.A.{.{.t.K.C.C.=X&XR.T.E.E.T.Y.9.7.9.y.9.,.l h p p p t t r t i r r j [.e.1.S.S.S.C.e.A.{.XX` f S.C.D.C.b.H.q.a X @ X X X . . # # # = # = = = : $ > > 2 > & 6 ) K )  X XK 6 : 2 0 O. .G G +. X%.K s a a x 4 # q J O.*.| G G S 9 {  XV.V.*. XV. Xo.m.VX@X@XOX.XOXM.k >.>.j j h p p r r r r r r r r Z ' ( ^ q.1.1.Y f k.j Y ' _ P P N b W U ! 1 a ! s g P ) N N ; x F M W 5 W M n s a m z a 2 3 3 - > @ = # X # X . # $ . . : 3 5 > % @ @ = > : : @ = - > 5 5 > 4 z @ @ > 5 s ; a x s a - = > d x a b M s 1 M F N M b P W f Z F M M I I F ~ a P P H ! P ~ m n P W U ] h.I ] L g C P 1 g F ! W F T m._ ] 3.U f f ! F d ^ ] ! U L I U ",
"g x 5 - - < @ > < 5 ! d ! X.P _ T [ X.T k f 2.^ _ ! I I P ! U C 1.M.B.F.A.C.c.w.5.8.<.R A k l j i p i i r ; < @ @ X . i I <.Z h.g [ c.1.1.c.q.k.b.j f q.3.q.v.w.x.k.3.b.` b.T 1.q.q.[ q.c.q.w.R E q.v.G.1.1.4.3.4.1.q.[ 4.4.3.v.J.1.` z.C.5.S.S.G.K.b.[.{.C.A.q.1.J.j R q.v.q.3.5.C.F.[.w.[.S.1.q.q.S.e.S.J.w.w.4.A.XXt.{.q.e.A.w.[.A.,.C.w.w.q.5.A.8.}.0X[.q.G.E 5.0XXX0X{.G.A.q.A.{.8.{.[.w.w.[.G./ h w.XXv.x.w.E {.1.q.G.T b.w.b.{.F.S.C.t.=XE.T.R.%XT.T.y.8.8.9.0.7.>.h t p p t p r r r r g R {.A.A.x.{.{.e.{.x.[.A.q.4. X8Xw.,.{.[.XX[.B.W @ X O X . . = = @ # # # $ $ $ # $ : = 2 & S S D *.N.*.S - 2 # 2 0 G O.%.*. XN.V.*.) d 8 6 $ # : 9 G  .) J G 0 O. XV.V.V.) J { $.J N.VX+XOXOXP.P.` j k j h p p i r p r i r r r R _ Z I ] l.E ^ A ^ k.P ! ] Y n M < < = W n d M N P H M N s m W M d s s b ~ a 5 - 3 > < > @ = @ @ O O X . O X   . $ O X = > @ O @ @ @ = # @ < = 5 z x z ; 3 a a z 3 4 4 5 m x 4 m N a 5 : @ ; d a i M ! W m i s N i s _ P ! ! f ) I _ P ! g p ! ! ) F 1 ; @ ! ( _ n s g ! ] ) _ _ a a L f C _ U ' f d L a d _ ! ; I U _ I _ ^ _ Y ",
"5 d a > 5 x H s a s s ! P L h._ U ] _ 1.4.' d a L _ f I [ I [ q.A.x.v.v.w.5.1.,.R k k l h p p r r i 1 ; < @ @ < 1 5 N _ f g / h.` 4.T 1.x.b.z.M.B.c.E q.J.z.c.` q.` v.R q.k.z.v.q.5.k.M.c.G.c._ 4.c.4.q.w.F.c.z.z.h.z.F.4.z.c.b.4.1.b.H.4.A.G.M.j.R 5.A.x.v.q.1.5.q.E w.b.5.q.c.4.k F.B.v.A.v.x.{.A.q.A.w.F.w.{.K.K.4.z.e.c.r.4.q.w.{.A.w.E w.G.b.t.A 5.[.[.b.[.q.1.XXv.c.F.w.5.b.v.z.x.5.w.w.*X{.r.XXv.[.c.c.{.{.S.E q.x.A.w.b.w.G.K.w.4.S.%X&XR.T.E.R.T.Y.9.i.8.9.0.8.l p t t t i r r t E z.[.c.e.w.{.A.7XXXK.{.q.{.e.A.b.XXF.A.S.A.c.G.w.5.XXl.< @ @   @ # = < # $ $ O O X O $ O # 2 2 6 s ) { ) [ K : : : % $ : 6 G *.#X$X|. XV.V.#.J > + o + $ 9 K | G G { *. X$X{ 6 6 6 6 8 0 N.+X#XOXP..Xm.j j h h p p r p r r r r i ^ X.k.P ' l.! _ h.] _ I _ T P L F d a N x C d M N x H s x M N 5 M s 5 ; < 1 2 > < @ X O @ = : = O @   X O X . O @ O # O $ O . . X X @ - > - > - > z a a z 1 3 5 a < 4 > 0 a a a 4 m N N N 5 2 v N d m P F P n M n ~ U f I f W N n L ^ U ! ! W L ( P ~ H s s s _ U F s M g n ] ) l.U U ^ U ^ I n g ) I U f U _ L ! P P Y L ) ! T f g ",
"s n M W I I f d M < @ N I P d f g g I R ` 3.L F U j U ] ' x.b.c.e.w.q.,.R E j k j h p g i r r ; < ; @ @ @ - N ' ^ k.` k.c.E z.4.q.k.4.4.k.[ T 1.M.5.[ 1.x.[ q.q.M.q.R ` ! _ l.` j 5.w.q.4.1.l.v.m.B.M.4.4.z.R [ z.F.M.B.q.b.z.M.b.[.z.B.4.1.1.k.X.z.F.4.j q.G.w.q.A.1.x.G.5.w.G.R x.g j T } v.A.S.b.w.c.J.1.h w.K.z.oXb.Y 5.v.F.w.v.b.e.C.G.[.b.A.{.C.w.A.w.v.c.c.} Y M.V.w.v.v.z.w.XXv.E E w.w.[.x.v.z.F.c.oX7XS.e.e.oXXX5.5.v.1.[.XXq.x.t.=XT.R.T.T.T.T.y.8.>.0.9.8.>.h p p t p t h E x.k.b.G.w.v.x.[.v.A z.G.[.t.qX{.{.{.[.t.C.4.T v.{.S.w.G.M.' i @ < = < = = = $ O X X X O $ O X 3 0 - S ) K K K K K K D s =.6 # $ % 2 G *.V. X XV. X) 8 % + o o % 9 | { ..) {  X*.S 0 6 e 6 6 G #X.XP.U.L.P.^ g h i p p r r r r r r n N N s j U P n f n d P d n P f M s H P 5 s i 5 5 < ; 5 > a ; ; < < < < < = @ - - - > : # : = @ @ = #   @ # @ # = $ + O @ $ O @ @ @ # < > < > 4 5 3 5 z ; - > < > 3 5 > 5 a 8 8 b s b N a 5 b b W N d n m P M M P P P n ] U M F ; ~ ] P n P X.n X.P Z Q _ ! n U L L U X.z s H m.] m.Q ' ] U l.] ! g f f s a n ] I L L F L ^ ! N d L L ",
"N a M a i T C ! ! F N I X.L C h.U L 4.` ` T U k.' ! U n C A.e.q.q.5.R Y j p h g t i r ; < < @ @ @ @ 5 N n W 2.h.Y T ' k.k.1.1.( Y ^ v.3.4.4.4.1.k.v.5.q.w.c.,.Y ` q.E I T k.v.T R v.c.4.3.A.R d ` b.b.3.4.R 3.R v.c.B.H.F.` 4.w.F.F.v.3.v.1.v.B.l.k.Y R 1.w.w.E 1.q.c.b.c.q.q.R z.b.4.q.k.3.H.c.c.w.b.A.J.w.E R S.v.1.4.1.[.XX{.G.e.c.A.C.j j G.x.5.A.[.F.A.S.b.b.5.2.J.v.e.G.A.6.A.0Xk.4.K.{.e.w.b.XXXXF.c.{.F.b.q.oX[.XXXX{.K.A.S.S.G.C.D.=XT.T.T.T.T.Z.9.,.>.8.0.8.l p t r p t E .XF.1.3.b.{.{.S.S.XX{.w.F.XXqX*X{.qX{.{.A.S.S.A.H.[.b.A.S.R R w.c.n < < = - = < @ . X X . O O O : b K S ) { &.*.V. X X X$XN. X X*.G 9 : $ # s  .*.N.*.{ H | 7 % + + + 0 { *.) K *.*.S 6 9 6 6 7 2  .#XP.P.N.n.m.a p p r i r i r r r N a s a a C f n F W a d s a a a 5 1 a a a a 5 5 < 5 4 < @ 5 5 - 4 1 - > = 2 2 5 3 3 4 4 > # = > = = = @ = > : # = - < = : > # > 2 > 5 - 3 > @ > > < > ; 3 1 > 3 @ @ @ 8 x ; i 3 2 = 5 a 4 x m N N g M M N a s n n a ; P U C L X.~ n X.W n g C C L s @ a ] I ) I ! U I _ W ~ ! ; N ^ Y ' U P ! ] _ U T k.F f ! I f U N f T T C L W H 5 d ",
"( l.I f Y Y _ C U 3._ I 3.] I l.' T L [ R j 3.E Y 4.k.b.5.R E k Y j p p p r ; ; @ @ @ @ < @ - N a a n T ` 3.T E k.l.M.2.Y 4.T j L Y 4.b.B.k._ q.q.B.b.q.q.q.q.` A v.G.R J.M.#.b.x.x.H.k.c.H.E R [ 3.f R A.E 3.h.T ^ f Y k.z.B.x.e.4.v.c.F.G.w.c.E F.I ` 1.E Y [ [ g b.q.q.q.F.4.8.4.A.4.l.3.5.[.{.e.S.{.1.5.A.oXc.z.<.R {.{.XXw.e.F.F.S.w.R T w.F.q.w.{.S.C.e.x.,.A.C.XXC.w.G.t.0X{.G.3.b.{.D.r.x.c.{.F.5.q.q.[.0X[.[.[.XXyXS.e.6.S.{.e.7.=X%X&XR.T.T.Y.9.,.>.>.8.8.>.h t t p t ,.G.b.XX3.b.rXC.w.C.7XK.C.A.K.A.XXK.}.S.7.C.[.XX[.H.G.[.' j k 5.A.A.A.A.( < < - < # @ . .   X = 3 G { &. X X X X$X X X X X XV.$X$X X#X*.) G B 6 # 6 8 K  X X) K  .S : $ % 6 ) { ) K ) I.) 6 9 =.: 2 2 2 L.|.L.N.#.l.C r i p p r r r r d ~ W N ~ s ; i ; 5 ; @ 5 s - 5 x - ; a 2 5 < - 4 4 4 # @ @ < O = = = # = 4 z < - = - - @ < < # = @ # > 4 3 - = = = : < 1 5 3 > ; 4 1 3 - > 5 < > z ; @ > > < > 3 - > 4 a 3 4 z z 5 a a 5 ; N m a g x s H x 5 s n F d N _ C f U n d a L ! T C ! N g i s n P ^ X.' P W ! C P h.^ n x n g n P ^ ' _ L I I L _ ] ] _ ' _ s I ' U _ ] f P W ] ",
"] P g W _ _ ! I ( U T _ ! ' q.#.q.R l.1.Y j C U R x.x.1.Y Y p p i ; ; < ; = - : 3 a x n ! f ` 3.b.M.q.5.1.1._ ] n Y 1.q.R R 3.5.x.z.4.b.l.b.` k.l.l.4.3.3.1.1.q.5.v.v.q.[ j L z.b.5.w.k.B.[.q.x.x.c.4.F.w.4.3.U U ' i a B.4.` c.7.,.w.4.c.S.` ` F.x.q.w.1.w.b.|.[.c.b.q.` E q.3.5.b.G.z.h.k.c.J.c.A.C.S.x.q.A.XXA.G.c.1.c.w.t.C.A.R w.F.q.5.w.1.q.[.F.G.1.F.x.S.K.S.A.A.G.qXS.5.XXv.1.v.XXJ.M.4.M.v.e.A.F.c.J.[.5.z.b.G.7XXXe.S.S.w.w.t.E.=XR.T.T.T.y.t.8.>.8.8.8.>.h p t p t E {.qXw.{.S.c.b.7.S.e.w.{.}.H.A.G.q.{.S.{.1.E v.5.H.XXz.3.h.j.,.j.v.c.7.v.K.h.5 < 5 3 3 3 c J o.$.N.V. XV.$XV.B.V.V.V.V. X$XV.$XV.V.$X XK K J  .J G 2 > 6 K [.$X) K | G & # & K K K G S *.*.=.9 6 2 : : # B L.N.m.X.X.] r p i r r r r x a a x a a N N ; < @ < < @ = < > < < < > 3 ; 4 > - 7 = @ - 8 < > > . . $ = # # @ X = < < @ < = - - : > 4 a < < 5 : - a 4 a N F z a 4 z z s z 3 5 5 x a z > @ = 3 5 < 5 x 2 z v 2 < a i z a a 5 ; < 1 ; < 5 x z z Z Z Z g n P ! L C P n T _ ] _ U n I d ! _ F n P ^ L I P d Y I C n h.P i i W j _ s d ^ T U ^ _ ! U X.W a b W [ _ f j U U ` ",
"j _ U ] U U ] U l._ U I N U _ L L f ] h.k.4.1.T k.E j g p r < @ > N C C d M M ! ' h.2.` ` j 1.4.v.5.R 5.A.c.M.M.U q.` T b.x.c.z.G.k.q.b.R q._ B.j ; r l.M.T c.b.Y w.q.J.1.R q.z.q.E z.k.3.v.1.w.K.q.q.G.b.A.w.x.q.k.` ` ` b.F.` w.c.x.q.R E 4.e.e.{.b.R c.1.q.z.b.q.[ b.x.[ v.x.v.w.z.B.k.j 4.k.q.5.v.w.G.G.[.G.q.x.q._ ` 5.F.8.E R 4.c.XXJ.v.[.A.x.5.c.{.b.[.{.XXK.S.6.A.x.5.5.v.v.[.[.q.I ' L g b.XX5.S.*Xt.S.q.v.S.c.A.e.w.b.S.G.{.D.=X=X&XT.T.T.s.9.>.>.;.>.,.l p t t t j 5.w.e.C.*X8XXXR w.e.R 8.w.*XXXA.1.R e.v.[.b.Y c.[.{.z.w.0Xb.H.S.F.G.5.e.C.2.U.U.n.l.M.OX.XL.L.N.V.*.M.$X XV.V. XV.M.$X$X$XV.$Xb. X X$XV.K K J K G K ~ 0 , F *. X Xo.K ) K 6 6 9 0 B G =.K *.) 8 : 2 q 8 3 - H N.#.X.~ X.f r p r i ; a ; < < @ z 1 a 5 = - - 8 5 > - < < 3 > - > - > 2 < = = @ = > = 5 - # $ X = @ @ @ @ O # > > < > > ; - 1 ; < < 5 5 a b M s s d P m a a m b M M a s 5 5 ; 4 a c a 8 5 - > > 3 a x z < > z 3 z 8 - a 4 5 b 1 a 5 g 1 ; g M d n P P Z P P n U ! n U ! L L L ] ' ) ! ! I L d P ! F ] U h.] C j 3.h.k.l._ _ I _ _ ' Y a d g n ] ] d a a P I P d U n ",
") _ _ _ _ I _ ] / ] ^ g ` ! L ] _ L ] ' ] [ q.3.U f L ` Y d Y P P ' ] U ^ h.n C ` v.^ / 4.4.4.k.C z.1.4.c.1.f R 5.e.5.v.k.[ I 3.1.w.4.j R M.k.E f I P 3.k.k.l.` [ 5.c.B.z.q.b.1.4.1.U ; _ F.w.v.w.k.5.[ M.b.[ 1.z.k.[ q.A.` p E ` ` 1 E b.v.w.C.S.w.w.G.z.q.G.b.{.v.q.c.e.k.i 4.A.w.x.XXH.w.b.x.A.v.q.E {.S.v.e.x.5.[.B.k.J.R f w.z.g q.c.A.J.{.q.q.e.b.5.g F.G.A.*Xt.S.S.A.C.[.[ h q.E g g < ; ; 3.4.e.e.7.5.c.{.{.e.w.S.{.c.v.S.c.1.%XwX&XT.T.T.Y.y.7.>.>.,.>.k h t p r p w.S.q.h 1.1.w.x.b.[.F.w.qX{.S.qXS.E 6.c.G.XXA.q.A.5.l S.K.H.A.<.>.j.C.z.e.t.S.7XE.U.b.A.c.b..XU.V.N.V.*.*.|.$XM.$XV.] { N.#X[. X$XB.V.V. XK K K K G G J  .G s K V.$X$X) G  .K 6 8 6 6 6 w G ..*.G # $ 6 m s 5 1 X.l.X.) ! U r r r i ; 5 > ; > < = > < < > 4 > - 2 8 - < - > > X @ = = < @ X . . + . # @ . @ @ # > = - < - 2 : - z 3 - a 5 ; a a ; a s a s Q M N n f f n s M N s b n f n a i ; < ; a a 8 x # < - - ; 5 3 4 z 3 3 - > z 8 > z a < ; a < z m d m n 1 a P f a s d g f I L ^ s r Y I p I X.N M U n I P h.) ! P T 4.3.z.R 5.k.T X.I F [ _ _ I _ T _ ' _ a N P W ] ' [ C U ",
"' T ' U U ] I C f C ^ ' #.Y ' k.U U T T k.q.` _ s i l._ f P ' T I L Y T ( l.' ' 3.I l.k.F.4.[ T [ ` z.1.Y w.4.c.3.1.x.4.4.f l.l.l.U U ' q.k.T 4.v.q.c.b.k.,.Y 1.[ q.q.] m.k.v.4.q.b.,.Y 1.4._ T a j q.q.B.b.Y 4.G.z.G.5.T T C 5.1.4.Y c.B.c.z.A.{.q.w.b.4.G.XXv.e.b.1.q.c.G.q.R w.z.{.F.5.} {.C.5.G.B.B.A A 5.w.5.M._ X.T [.G.J.XXq.q.5.5.[ w.b.q.t.u.S.q.x.F.G.XXG.}.*XK.z.e.G.c.F.b.q.w.T P L ] J.b.Y p w.{.x.A.K.C.S.{.A.[ {.[.S.e.=X-X&XT.Y.Y.y.9.>.k k >.>.h t p r t w.8XXX{.x.A.S.F.{.A.e.7XF.A.w.w.F.t.t.[.J.[.S.S.{.G.6.,.5.6.<.,.8.j.Z.*X=X-X9XwXwX9X9X-X-X-X*XC.H..X*.m.V.{ ) $XB.B.$X) v S )  X$XV.$X$XV. XV.K G K K K S S K { %.]  X$X XK K O.K 6 6 e 6 2 =.) ) ) 4 # & b x s ; b m.X.! Q ! g r ; < = 3 8 1 > @ @ 2 , : < @ - 3 < @ @ . X @ @ @ + < @   @ = = @ @ = + X X $ # # @ @ = # < O O # @ @ @ ; a a N x a 5 N M n n M 5 g Y d g n a s a P ) X.Q N a P N s 5 3 a a ; # 3 3 < 3 ; = < ; 4 = < v ; 5 5 v 3 @ @ 1 m d z m b a a N s s M ! n a P U L m I P a f g i < P ! f L ' U g ! n n q.1.l.E 4.1.U I ^ X.] 3.U L ' L C l.] n d M ] m.' f T 1.",
"C U U Y U ] U f d < ^ U ) _ ' d [ ' 1.T l.' _ U n L l.` g [ 3.' ' C ; ' l._ _ l._ _ l.` 4.4.2.` 4.[ g E 4.4.l.z.q.[ ` q.k.l.I f s a T 3.v.R ] M.c.c.R j ` q.A.c.w.w.E g a _ 1.4.J.q.k.z.[ q.' M.a g n L 3.v.[ H.E g ` 1.` F.b.q.v.z.1.` [.XXv.4.q.F.q.5.A.x.q.[.e.e.5.{.G.q.S.C.x.z.[.w.x.q.w.q.c.[.k.1.5.q.w.L 1.B.M a V.{.w.{.F.A.A.{.w.q.x.F.{.A.S.[ [ b.q.c.D.e.w.S.{.G.H.XX[.S.q.F.F.w.#XB.M.[.[.c.G.{.{.S.S.{.S.S.v.U.z.F.S.{.E.9X=XR.T.Y.u.t.0.E >.k >.h t p t t w.b.w.{.x.F.{.S.qXXXq.S.0XS.z.q.v.x.t.Y z.A./ w.C.v.U.H.e.w.E t.Y.9XwXwX9XwX-XW.-XwXE.-X&X*X=X=X=XZ.[.XXV.V.#.K {  XV.V.N.) G c G K  X XM.M.V.V.N.V.V.*.K K ..{ ) *.V.V. X X) S X.*.6 2 6 2 e 6 ~ ) K H 3 $ 6 b s 1 1 ) @.P n P C ; < @ = @ @ = =   . . @ - - # = = @ @ X . X @ $ $ @ . O # < # # @ O $ X @ + @ X . . . . @ @ = @ @ @ z 5 5 a d N F ! H ) Z g C Y g ) f f n U n Z ' ) h.^ ' f a ) P @.F s i 1 4 a 8 8 9 3 5 5 4 3 5 8 8 > a z z c 3 2 i a a N s a N M s s M n Z F ! N a W ! W P I C g ; s N P ^ C n _ F F U f U ` ` U E 1.` _ Y L g ] h.f ) ] ! 3.c.k.l._ n #.M._ _ U p ",
"g g f a ) U U s ; C N N f i n L ) ' L ^ ] ' _ l.^ k.` _ ! L T k.l.Y Y ] X.L I [ Y T ` Y l.' ' B.4.4.I _ c.k.M.z.l.v.z.F.R k.[ c.( _ 1.[ q.1.c.k.e.5.1.3.v.q.c.` v.5.5.B.z.q.R ` F.v.b.5.R 1.q.1.k.B.h.J.R 4.c.v.z.` 5.5.S.b.v.q.` F.q.Y ! 3.c.v.c.1.[ q.G.v.w.A.E E k e.{.e.w.e.e.Y j E q.v.E Y x.w.j j w.c.{.[ ^ g a a 3.A.{.e.R 8.q.5.S.q.1.[.[.b.b.[ E b.XXe.7.,.E {.{.C.c.G.b.q.c.e.q.e.z.c.[.5.[ [.F.XX0X{.oX0XS.{.4.j A H.G.e.-XwX-XE.Y.Z.y.9.,.k l k h p r r r j [.b.b.c.[.A.{.{.S.C.>.5.w.A.q.E F.q.k R F.K.A.b.j.A qXv.5.S.*XeXwXwXwXE.9X-XwXwX-X-X=XW.=X&X&X&X%X=XA.XX|.m.V.F m V. Xc.V. X{ G S 0 S ..V.V.V.V.V.V.V.V.*.N.*.%.) F *.V.V.$XV.S K *.#.K 6 6 6 : S J J K ) 2 = 5 1 6 < a ( M f M Z ; < @ X @ @ . O > : : : . X + X . . X   O @   X = $ $ @ # O . X O X X O . X X . $ X . O @ < < < 4 z N s a f U U f ^ _ I / ^ U P l.l.n ' ^ ] _ C 2.<.Z 1 ! g n ' n W ! H M s b b a a 1 x 3 5 v 4 ; 3 4 - 5 5 3 4 ; ; x a x x x 5 1 a a a F M P a n ~ N N s b P ] Y L f d C d f n X.P d f d I f P f U ] 3.^ n l.' n g f f Z n I l.j p f L M.h.P a L _ U ",
"U ' I < - U _ L F ^ ! P P g F 3.^ l.' f 1.E C k.^ 1.l.M._ 4.v.m.w.` v.` T ' U L _ _ ` 3.h.] l.l.` R q.k.q.` 5.4.3.4.R E ` v.1.1.' v.Y U 4.E q.k.1.1.4.b.v.Y [ A.` 1.v.v.5.4.1.[ q.[ A 4.x.c.w.w.z.v.b.b.b.5.k.z.b.[.S.7.7.E g c.z.4.E ' < ; T z.Y q.5.q.` v.z.j R [.,.E e.w.e.z.5.E w.b.v.J.b.q.w.C.R C.G.z.b.[.l.P B.G.A.R 1.e.e.w.{.{.C.R w.F.q.b.e.w.q.q.,.7.e.e.oXA.5.S.A.XX[.0XU j e.S.b.XX{.q.w.[.e.XXoX{.qX{.e.C.A.M.z.E 8.*X,X-XR.T.Y.9.9.0.>.l k l h i r r i z.XX3.k [ j G.{.{.*XS.w.c.A.{.C.k.[.5.A.F.F.A.S.XXJ.v.v.K.-XwXuXwXwXwXwXwXgXE.9XE.=X=X=XE.=X%XE.E.%X%XD.c.@XV.*.l.K )  XM.V.V.N.K q B 0 0 J *.N.V.m.m.#.*.V.l.m.*.*.K ~ V.N.V.V.) H ) *.*.) S 2 2 S F N F J K b 1 1 - 1 ; N M n n n - > > @ X @ : = # $ @ . @ @ X X . . @ X O + O : @ X @ @ @ . O @ = O = @ . X . X # 3 5 - = 2 3 a g N d N W P i f g L _ ^ T R l.' _ l.5.U U ! ` E ` ' ! 1 n L L ] U T ] ! W m W ~ M n N V > - m a 5 5 ; a 3 5 z z a z z 3 z m a ; a z s N s W M 1 s s s N a F F M a i P ! T Z T L ] M ~ U U ' _ W I f i n k.k.l.l.q.Y T 3.X.Y n d r L C ) 3.U r f M ] l.",
"T X.I U U f U T L ] l.U _ ^ ] ] ^ d ; 5 ` Y j p f ] v.3.z.3.3.j Y L 1.T l.l.U ' I ^ V.R n i ] 3.k.L k.w.1.q.|.3.R j _ _ q.z.k._ 1.` T b..Xz.q.z.B.q.v.v.l.k.[ 5.x.q.v.w.E v.4.XXv.q.1.F.b.b.A.R E ,.c.v.w.E g b.B.B.B.w.A p j v.G.k.Y B.) x ^ f j ` v.b.b.c.5.[.F.A.A.G.A.S.qX[.F.c.q.x.[.XX1.J.q.1.,.1.` q.z.[ T B.[.G.G.8.w.F.{.b.G.t.[.{.q.E S.[.R 5.5.A.w.E e.A.C.w.b.C.G.H.v.{.oXe.[.{.*Xx.1.[.w.q.{.[.1.E w.5.x.6.6.G.G.F.S.-X-X-XE.T.Z.s.9.8.j l k h p i r r q.{.[.x.G.T R [.oX{.G.S.C.F.v.x.R XXr.e.S.5.C.6.S.G.7.7.Z.=X9XwXwXuXgXMXgXMXwXwXwXwX=X=XE.E.T.D.T.Z.Y.E.%Xt..X|.#.V.V.) V.V.N.V. X*.0 q S 0 9 S l.*.#.{ ] *.*.#.V.#.*.) ~ ) V.*.*.] ..K ~ ) o.) J K s N S d K F ) s 1 - - < a n n n N @ . = @ @ : @ X X O   . . O # @ . . X O @ . = = @ @ @ @ @ @ . = = O X @ @ @ = 3 2 4 s 4 a 8 M a d Z I ! h.) f F _ R #.M.2.3.v.E j 1.j j L h.` 4.3._ P n h.3.X.k._ T _ L d ! P ! C f N a a s m z 4 N a z z x z 3 2 3 5 3 z a a a d W N d N N N ; a 4 3 b N N W ~ n n P ) ^ P C ^ U d P ! f L ] _ ] g N T ^ #.L j T A Y l.] ' v.l.f _ U E X.' f P s F _ ",
"k.U f T M.3.' R ' T ' ` k.^ l.l.N 1 - H W l.] C M.k.U q.` f b.v.w.Y j I q.M.l.' I M.1.d n d g ` q.' T ` E ] l.k./ 4.M.3.F.c.l.M.z.w.[ 1.[.v.E 1.b.3.k.q.k.Y E w.5.U 1.z.q.q.4.z.v.F.` 2.z.v.J.4.E Y 6.x.x.c.f U 3.h.b.v.q.c.z.q.v.c.k.3.] J.c._ a r 1.4.3.k.w.H.v.x.E ` [.5.4.R v.z.A.b.c.b.w.z.x.A.F.5.w.{.v.L a ] 3.w.e.b.q.w.{.c.b.w.{.[.{.[.c.F.w.[.A.c.F.{.c.x.x.XX7.6.G.qXC.1.e.A.S.6.A.C.{.{.r.S.w.8.5.w.w.e.5.q.H.G.qXK.*XwX-X=XT.Z.Y.y.9.,.l l h p t r ; 5.e.S.{.{.{.S.qXF.A.S.F.G.K.M.{.{.{.S.A.0X0X4.k T E 6.j.Z.wXwXwX-X9XwXgXMXMXsXeX9XE.E.E.Y.Y.Y.Z.Z.t.y.y.Z.E.E.w.+XB.#.V.V.*.N.V.V.V.V.F 9 0 0 B 3 K *.{ #.) { ] { *.] { ) ) K ) { { ) ) K F ) ) ) K H F F s S S M F F x 1 - < 1 n n d N - $ X # > # X . @ . O @ +   X X X . . : O X @ : 2 = @ X O < @ # = < = = > z 8 3 4 4 m b a a Z n d U n _ X._ [ l.` ] _ b.[ 5.` T ` q.q.k.k.1.3.` _ ` l.' _ P U k.W U f ^ n C U ) ! _ P a s N M H s N d s 1 > 1 5 5 - @ @ > # 4 a 5 a 5 < a ; a d m N W N s ; N W P _ n U ^ ! f L f P _ U U U L _ U ^ Y f g L E T 3._ d g L _ _ h.' ^ U U ] k.l.n ; a ' ",
"E U U _ l.T Y [ R R R R z.v.L ! U ] P W F ] 3._ 3.R T ' f C B.l.` [ ` ^ ] v.] W n ! h.' P I ( h.] b.1.5.` B.Y v.1.[ c.q.4.q.` l.B.q.v.q.1.q.g Y [ T ' ` T I 3.E b.k.4.k.] d R R k.B.P 3.k.E [ c.A.q.q.q.3._ N d ^ Y 1.J.G.b.q.v.F.F.q.B.k.4.5.1.F v.c.XXq.j 5.R w.c.Y E [.[.v.1.J.F.b.{.q.j 1.q.v.R q.w.q.q.l.; ; I q.k 1.[.5.q.G.v.XXG.S.H.v.oX{.T ` {.{.c.G.XXz._ l.B.b.{.F.{.[.A.E F.A.R w.G.{.D.C.6.S.S.S.S.x.A.w.5.qXG.j.K.wXwX-XT.T.Y.Y.Z.7.;.l l p p t ; I x.q.F.w.qXe.{.A.qXG.x.S.XX0X7XXX{.w.w.C.H.v.j.z.j.3.7.E.E.-X-X=XR.R.=X9XwXrX-XE.E.Y.Z.Z.t.9.9.9.8.9.C.Z.Y.E.=Xt..X|.*.V.V.K V.*.*.*.N...9 w =.6 9 B *.*.) ) ) ) X.) { ) ) ) K H ) @.W ~ H s K K K ) F F b s N F a 1 a N s 5 - - d f n a @ @ = # > @ X X   . O O   X   . @ . O X . @ @ = @ X O O # # = @ @ @ @ ; x s 1 5 ; s d a Z C N L U U _ ' c.z.1.` M.l.c.q.q.G.v.w.` v.F.v.v.` q.c.z._ l.' a g 4.[ U ! _ h.Y j _ ] I P ] P Q N N M N x 5 x d N a s V v v ; < > 8 2 a M - @ 1 N f g N s s s s N s P Z L F L L X.P U ] I T L ! ] ] d ^ _ F X.T ' L ' I M ] ' T U U h.[ L U C T ^ ! f I W ! ",
"T T [ _ L U L 3.q.^ ^ j E Y f ! ' n ' l.F g P h.' ` q.` ' ] U ! I ! ! W H F b m M N ! ) F F ) P W ] _ T k.M._ k.M.] k.q.q.q.k.M.M.R T E 1.5.R v.k.B.3.4.z.F.b.w.z.R 1.|.F L z.A.z.j k.M.E q.x.c.c.v.5.v.G.q.c.V.f j d ' q.C.e.v.c.k.[ w.q.R < g v.1.[.k.c.A.R 1.c.q.v.[.} f 5.G.v.[.w.v.[ c.[.b.5.{.S.G.b.G.z.Y d k.w.q.{.c.x.b.[ 1.q.e.t.G.S.G.G.b.J.b.oX[.v.w.h.+.K W Y A.x.x.XX{.A.F.A.J.v.A.S.G.C.K.x.f F.{.{.F.{.{.b.K.D.wXwXwX=XT.Y.T.Y.9.>.l h p t r r i x.R j E x.C.,.qXS.qXK.k A.v.K.{.G.S.e.S.v.j.A K.K.D.;X9XwXwXwX-X=XE.R.T.E.R.=XE.E.Y.t.0.7.7.>.8.,.>.9.Z.T.E.=XwXE.S.OXm.V.*.) *.{ *.#.#.) 6 9 w 9 7 > J ) ) ) ~ ) ) ~ ~ P K ~ ~ K F F K F K s s H F b N F N F s g - - - 1 s 5 - < a d N 2 @ # @ = O X . X   . .   . . O # # @ $ O $ @ @ @ O @ @ @ < @ = < > > ; b s < b M a n d Z ] a r j X.U d n 3.R E 1.x.v.c.c.1.1.v.1.w.[.[.S.[.x.q.v.1.1.M.3._ v.q.k.v.' M.l.l.d f ' n _ ] I I P N P W n @ ; N i b a N a s v 1 a x s x 5 z V z a x a a a x n a H P g P ! ! n n I L f f C _ U F L L U ^ U ] _ U ' l.] ) ] _ 3.' ` M.h.1.3.Y ^ T i W ) m F H ",
"3.T _ ' m.v.U 4.M.' L l.^ g [ ^ ` ^ ^ I Y l.3.h.! L ] #.P s b V m b b c c m b m c v c c m v m W H N F ~ ) ! P l.B.B.v.k.M.k.k.' U ! q.R c.q.T 1.z.m.^ b.F.1.b.z.4.E [ q.! R q.E j ^ h.b.` U J.v.F.4.1.q.3.G.w.w.G.k.Z 4.q.w.{.b.4.` v.v.,.A.' [ F.4.b.z.4.5.E c.XX[.4.J.5.E S.c.1.R XXw.k w.S.,.A w.{.w.[.[.q.F.[.x.[.[.b.q.w.F.k.x.S.{.A.C.{.e.e.b.G.b.q.k c.1.3.M.n ' I A.K.S.e.XX{.A.{.G.1.A.7XA.e.K.C.C E {.oXx.w.A.j.5.=XwXwX9X=XR.T.R.Z.7.k h h t p t r z.A.[.[.5.e.E R S.*XS.A.z.K.G.E 1.[.{.5.R x.C.E.E.wXwXwX9XwXwXwXwX=X&XT.T.Y.T.E.&XT.Z.y.9.>.>.>.>.8.y.T.R.wXwXwX-X9X*X0XP.V.m.) ) #.#.l.*.K 6 9 7 7 6 : : F K K F F K K F D F F K H F F S F s s s F F S N s N d 5 - - < - - 1 - - < a N 5 @ $ @ . O X . X @ X X O X . X @ X = = @ O $ # @ . @ X . @ = @ @ < 5 a a i d > d X.! _ ' I d < 5 L ] Y l.M.v.E p j f z.F.q.v.x.R 1.5.{.[.G.G.w.1.q.k.F.5.` j q.q.c.v.c.k.I E n ; 3._ ! I I ^ ^ _ ] ) n L n i 5 < - m N b x a M b 4 a ; m m N a : x M b N ~ N F M M P n P F ~ 1 a _ P f P 3.L l.T L ^ I Z ' U ] _ I T l.M.k.] v.4.f E 4.] ! ) ~ ..W b c G ",
"l.P I _ ^ I P ] ` ' U ` ) ; ; j l._ 3.R ' M.F H H F x c b v m v 8 v c v v V m m z 0 8 c b m J G b c m J b d N L ' q.1.[ v.[ L ^ h.] M.q.3.k.` T z.c.m.k.c.k.v.j j j l.T ' ` q.` 3.5.k.G.z.q.Y E E ` q.4.c.J.F.x.A.F.z.A.A.6.x.e.w.E E 5.` 1.A.z.[ ^ q.q.5.t.6.5.[.[.A.G.[.{.c.[.A.F.w.e.w.{.w.e.x.e.x.x.q.G.v.5.S.{.1.w.{.F.w.[.XX{.K.{.{.K.S.G.S.{.[.{.w.w.S.[.S.A.S.[.{.S.t.{.{.[.}.K.qXG.C.G.F.{.G.q.x.{.A.x.A.{.w.w.w.D.wXwXwX=XE.R.=XT.Z.0.l p p t r r E G.S.{.K.A.b.z.[.b.R 7.A.R z.R A A.x.w.6.S.*XwXwX-X-X-XwXwXwXmXgX=X=XR.T.Y.Y.Z.Y.T.Y.Y.Y.y.9.9.0.y.T.R.W.wXwXwX-X-X-X-XqX+XV.V.) K *.{ ] *.G : 2 : 2 : : 4 F J d F D F s F N N F F F F s a s s d 6 a F s s F s > < - < - < - = - - # a 4 @ @ = @ X X @ @ - > @ = # $ % % O : = . X . X X . @ # : @ = < = a ; a a 1 1 Z U _ v.X.` } 2.T W l.q.b.q.c.q.b.c.^ _ Y c.c.v.F.F.A.G.b.q.C.c.c.G.Y 1.v.q.3.z.c.A.5.q.q.5.g R 3.h.l.] Y I _ ^ f M.] ] P n H ! P n N H F n ~ Z a < > 3 b s H b a 1 > b s N b H M d N s a N ] W P x I P ] ] f T k.n n P ) ) h.] _ _ f ' i _ q.z._ Y R ` C T ] ..~ | | 0 2 : G ",
"' L f f ; ^ j ` l.[ ] l.] 3._ R q.U h._ P F b z x 4 x x 0 v m B B m m 0 8 9 c v m m v x 8 0 c b v x 8 x m J F F n j Y R v.j f M.q.f [ ' ^ ` C [ q.Y T 1.` [ b.v.A.T 4.q.` ' z.1.b.b.w.4.5.1.[ 1.j q.1.4.b.` q.5.6.S.w.j q.k.M.b.e.5.E 1.b.Y E 3.L U 4.e.t.e.E j q.5.w.w.1.A q.B.b.1.p q.XXc.[.A.b.{.[.q.1.w.c.c.w.b.j e.S.x.x.e.[.C.w.{.A.K.S.K.S.e.[ C.S.C.q.S.7X{.C.*XS.{.u.S.{.e.8.A.{.qXS.qXk j G.XXG.x.w.w.R q.c.e.Z.9XgXwX=XE.R.9X%XT.y.,.p p t r t g w.3.S.A.b.x.S.{.c.b.x.1.w.A.F.j.A.A.D.{.9XwXwX-X9XW.-X-XwXwXgXsX9XR.E.E.T.y.t.y.y.Z.y.y.y.9.t.Z.Y.R.wXwXMXwXwXwX-XwX-X=X*X0XB.*.) F F ) ..) S & : , & 2 S K K F S K N S s s s a s S K F N a 6 s s 6 1 s S F s 1 - < - = - = - - ; = = 4 = = : : : = : - - - @ < : = @ @ @ O $ @ @ X .   O = 2 = - - < 5 5 H 1 ; Z Z q._ L U L E G.1.E 1.1.M.b.c.4.Y I w.k v.A.[.w.A.S.w.c.b.b.oXq.[ [.q.` E U q.b.z.c.G.w.j ` c.B.' 4.v.[.B.q.q.l.U ] j E E U ] ] I T n f ..! P ) P n f f b a a P d d N H W d a n M s s s ; N W ( ) M L N L ( ) L r f ] ~ ) H M m H N ~ _ ' ! q.i p _ s Y Y Y _ W J B 0 9 2 2 + = B ",
"1 ! d < f k.^ h.] L U P g #.4.f p n n N x 8 8 c v c c 8 8 8 0 x c v m 0 8 9 v v B V v c 4 5 5 x m m x x a c H H b d C ,.A.S.R 4.k.k.c.l.] v.q.q.` ` ` x.S.e.v.v.b.q.v.w.z.v.k.E w.b.q.z.q.[ q.c.q.[.1.q.q.q.e.w.6.K.c.j g i M n ; g R Y g E ` 3.M.z.z.5.E j [ R c.5.p j R R [.l.k.[ Y q.[.F.XXe.x.q.[ z.q.[ ` 1.A.x.w.G.G.S.b.{.c.g p S.A.A.e.5.e.w.e.{.S.{.w.w.F.b.e.e.S.K.k 5.q.x.x.z.H.{.S.6.5.5.4.w.w.S.R 1.b.w.1.*XuXsXwX=XR.E.wXwXE.u.0.>.t p t p r 4.[.{.A.qXJ.[ b.A.v.G.XXoXG.G.4.H.H.Z.-XuXwX9X-XwX=XwXwXwXwXgX9XE.E.E.T.T.Z.y.y.9.9.9.9.9.9.9.9.Y.W.MXgXwXwXwXwXwXE.wX*X&XE.qX.Xm.K J K @.) K S # : # : F F F F N S s s s s a 5 5 a N N F S 1 1 s a a 6 5 S F a - - - - - < < = - - = @ = X @ @ = 4 # @ < < @ = # X = @ O @ X X O @ $ @ @ > = < - z ; a a F g C l./ 3.q.1.T l.3.,.R E T R j.2.l.z.3.p 1.4.k J.w.w.c.[.x.Y f t.t.A.A.v.5.[ q.[.v.` k.q.v.{.c.q.M.#.B..Xq.` z.5.w.v.3.v.h.l.E q.l.l.] _ ^ _ ] ! N ^ ] ] P C U ! H M a P M f P m F P M n s M M a P ] d N 5 W ] _ ] ! ~ ~ ..) ~ ~ N a z m J J s i U ] L 1.U P ] z.T ! @.8 2 2 : : & + # c ",
"i s Y n I Y f B.[.~ < ; i ] X.] a a 4 4 4 8 0 v v B b b c c c 3 4 9 8 m m B v z 3 3 c v c z 9 c v G m x 8 x b b b a s Y R 8.,.R J.k.' v.1.U q.4.R q.v.c.5.E v.c.c.q.v.q.q.[.z.1.R j j 4.b.B.l.F.1.5.q.j E [.{.b.K.S.1.q.k.) ; < ; ; i L f 4.G.E R e.XXA.q.Y T A.z.[.w.5.b.x.R ` G.G.XXb.5.w.E i q.q.j x.@Xb.j c.[.x.v.XXoXA.b.F.F.{.v.S.oX}.b.[.w.{.A.c.e.{.q.w.z.c.w.q.6.5.E e..X3.v.J.R 4.XXH.A.K.1.w.[.,.p E w.e.%XuXsXuX&X&XE.-XwXE.s.y.9.l p t p t j A.x.[.G.G.1.b.[.z.v.5.q.J.c.G.<.9.qX-XuX-X-X,X-XwXwXwXgXgXwX=XT.T.T.Y.T.Z.9.9.7.7.>.8.j.>.>.>.Z.W.gXwXMXwXwXwXE.=XE.R.&X%XD.D..X#.~ ) S ) J ~ ~ 0 $ : x K b S F b s s s 5 6 1 1 5 a s N N N 1 1 1 a a 5 a d s 1 - 1 - < - = - - < - @ X @ # O O X O O . # # X = # @ @ $ @ # = # O @ = @ @ = = ; 1 s a d E Y L l.b.Y p j Y 3.v.1.3.h E v.Y 3.B.B.F.v.z.c.R ` G.{.z.c.H.q._ i 5.XXx.z.M.q.oX[.F.c.b.b.G.G.x.1.R [.w.M.b.z.c.G.5.w.b.k.q.f k.A.v.4.T k.l.h.3.] _ U ' P d 3.I T C n #.n ~ #.P ! H H ~ m N 1 a H H F W ~ ! ! ) ! W ~ ! ..@.] ! ~ H V H J V 0 - @ < s I s a I ` _ B.P a H 4 : 7 7 2 : & : 4 ",
"' _ ' R 4.M.U v.l.) f n n N F F 4 4 8 4 8 9 4 8 3 8 0 x b v v q c 0 4 0 c G S c 8 8 c c B F c 0 4 3 8 b m x 8 x m b s s g g E j z.M.B.B.v.v.L I 4.I 5.R 1.1.[ T c.v.R j A.k.R v.q.w.1.E c.c.q.J.T R w.R 3.v.x.3.1.w.x.1.b.b.^ L L a _ z.b.4.3.c.x.1.1.[ j ' I 1.v.A.5.w.[.c.[ c.5.E w.E C.q.j q.v.3.b.4.v.F.F.j.G.{.[.c.[.[.[.G.b.w.[.S.G.XXb.A.G.b.q.S.A.S.e.w.i [ b.q.j x.b.q.M.v.z.v.v.w.5.c.j.b.F.G.G.F.A.A.C.E.wXgXgX-XR.T.-XwX=XR.Y.y.8.t t t t p e.c.w.[.G.b.<.A j.U.c.4.5.v.J.c.Z.qXwXwX-XwX9XwX9XwXsXdXsX*XE.Y.Y.y.t.y.t.9.7.>.R k l k l j k 8.&XgXsXgXwX9X-X=XE.T.E.D.Y.D.Z.S.[.h.W S c W K F F F 8 v s s s s s s s s 8 a 1 1 - 1 1 1 1 a 5 1 - 1 1 6 ; > s a > ; - - - < $ # < - - O O @ # O # # = = # @ = @ @ # $ . # : @ = = = > 5 1 - 3 1 a C P C U f g j v.w.[ f 3.4.k.c.x.w.[.[.q.w.q.q.v.w.c.e.S.F.[ 1.,.E ` F.5.G.z.q.x.C.z.[ w.G.[.G.G.A.Y E b.w.w.q.[ E T q.q.e.w.x.e.z.Y j v.3.4.x.k.3.z.q.k.] L ' 4.' q.L ] ' _ d F ` _ ] N.! ! ) ) ( M n ! ] b M J @.X...X.X.~ W ~ ) ) ! ~ ~ ~ ~ J J c > O X . = ] ] a m M.l.R 3.W ; c 9 : : & 2 2 2 2 2 ",
"i i g _ l.' k.` f v.] M s 3 4 4 8 0 c 0 0 8 8 0 4 2 6 4 0 x m G v x 4 3 8 8 x G B m c 9 c 8 c x 4 2 2 8 m x 4 4 v m b s a f g Y Y E 3.4.5.1.1.z.M.b.G.q.` ] d g 1.I b.5.j j Y x.q.A 1.Y Y [ q.' l.b.q.v.E k.A.[ R Y E v.c.1.x.F.v.v.b.q.F.c.J.q.E S.c.1.v.[ k.J.v.b.b.{.x.e.w.v.q.f [ b.w.5.F.F.j.c.J.A 1.w.5.A.q.[ w.c.5.w.G.e.v.z.5.A.,.,.8.w.q.` A {.qXc.q.b.x.q.R ` w.4.[ b.XXJ.F.v.z.qXx.E A.R 5.b.G.E.C.*XwXuXgXgXwXE.T.T.R.=XE.T.y.y.>.t t p r k b.A.[.S.j.H.<.,.C.F.G.7.C.6.6.*XR.wX-X-X,X-X-XwXuXaXsX9X%XZ.Z.t.t.0.7.7.7.<.A k h p p h p t h Z.uXgXwXwX=X=XE.E.T.Y.Z.Z.Z.C.C.e.H.m.P F F J F F N S S x s 6 s 6 8 6 5 6 6 1 1 - - > 6 1 - 1 ; - 1 - - - - 1 1 1 - ; > - = @ O = - = O . @ X O # # > @ $ = : > > # = = - - = = = - 1 x a 5 1 1 n Z Z ! C [ T R R [ E v.B.J.4.' T F.e.w.F.[.c.p f 1.c.A.w.{.A.5.b.1.f 4.c.c.q.q.b.w.R v.[.q.b.{.e.w.5.q.4.q.q.[.z.R b.F.k.w.E w.e.3.G.v.B.b.` q.b.G.z.` w.] _ 3.q.l.B.k.I f P W X.W f a f _ ) X.d a I I I _ X.s m ~ @.) ~ ~ ! ) ~ ~ ~ ~ ~ ) ~ ~ H b 5 + X X X   3 #.P n d l.E _ k.L z B B 9 : % 2 9 3 2 3 ",
"I j 3.T U _ g j E h.N s 8 3 3 3 3 9 9 3 8 0 B v 0 4 4 0 8 8 0 c 0 c x x b x 8 0 B B 0 5 3 3 0 v G 8 8 4 v m b z 8 x b N x N ! _ E j i [ ` 4.[.v.J.[.4.R q.W L l.X.Y E p j c.E w.q.1.x.1.q.[.5.j g L b.q.w.c._ q.c.q.x.c.Y i [.x.4.` J.v.k.b._ E S.6.q.F.q.e.A.oX{.A.XX5.e.A.C.[.G.c.k.k.q.w.A.c.F.F.x.8XaX*XS.G.z.c.F.{.A.{.x.x.x.c.c.6.,.S.E k k.G.XXx.6.S.{.q.G.XXA.5.1.b.J.v.C.6.<.A.K.H.S.A.x.j.U.G.e.*X9XwXgXgXgX-XT.Y.Z.Y.Z.Y.Y.Z.y.8.h t h t p x.5.5.6.t.E.K.T.E.T.%X=X=X=XE.=X,XwXwX-XwX-XwXwXsXuX9XE.y.Z.9.9.0.7.8.,.>.A l h p r r r r r t ,.*XwXwX=XE.E.T.Y.T.D.C.C.9.9.7.7.7.j.M.W ) b s N s b s s 5 s s 6 s 5 1 5 1 6 1 1 1 1 - 1 > - 1 1 - < - - - - 1 1 1 ; - < @ = O @ = - $ O O .   X X O X . @ $ # O $ @ O < 4 a z 5 1 s N a n d d Z I U T r g l.q.v.w.A.b.z.z.v.c.P d q.5.A.{.G.b.v.A.b.{.w.5.e.w.v.[.x.v.J.c.q.z.c.XX.XF.XX{.F.[.A.x.S.v.[.A.b.[.q.q.q.F.q.G.b.w.A.E x.b.g 3.l.` ` v.F.` ` Y ` k.` 1.q.z.U C ^ _ l.] l.P j n _ l.1.a f R 1.Y ' N - 5 z V W ) ) ) ) ~ ~ ~ ~ ~ ~ H m 5 # X . X X . X - b M n l.` [ Y j P m c G q 2 & 3 B G 0 8 ",
"T 1.k.l.B.M.L d P s 4 8 8 9 8 4 8 3 3 3 5 8 q x B B q 0 0 3 4 4 8 c J G G 8 4 8 4 B B c 0 c c B J J 9 8 3 8 v x 3 2 8 b c 5 1 M U g g g n _ l.] q.v.q.R 3.] q.M.b.M.E g ` w.R Y b.c.{.x.F.c.Y q.d I F.1.R R Y E w.5.A.x.w.1.w.w.[.c.' v.L 3.E z.S.,.v.x.w.[.XXG.5.1.[ x.C.e.{.q.1.v.4.z.[.q.e.c.R A.qXdXsX%XC.K.{.S.{.C.q.S.qXS.G.XXJ.5.8.S.A.q.G.0XH.C.5.t.{.XXXX[.A.w.5.e.G.H.K.e.,.C.7Xv.G.K.K.H.C.*X9XwXsXgXMXuX=XT.Y.Z.y.0.9.8.0.7.8.l t h p t h C.t.{.*X;XR.wX-XwX-X=X-X-X-X-X-X-XE.wXwXwXwXgXwX=XE.Z.9.0.7.8.,.,.,.k l p t p r r r r r r r l t.%X=X%XT.T.Z.Z.Z.C.C.7.7.7.<.,.<.>.1.M.n N s 8 4 s a 6 a 8 4 8 a 4 1 6 1 1 1 > - - - - # X $ = 1 - - - 1 ; - ; a - @ # < = O . O $ O . @ O .   X O O O X X O # @ @ - < < 5 V d d n f ! F f n Q l.( _ M.) h.[.q.w.c.J.G.4.q.XXB.U OXv.A.S.C.C.[.x.x.q.S.5.A.[.S.F.c.w.5.1.v.q.F.XXoXG.S.G.[ XXJ.E 1.[.b.{.q.F.b.` w.[.C.A.x.[ R q.c.5.c.E [ ' v.U E z.1.z.G.q.q.L .XB.v.] q.q.^ h.k.l.q.k.M.v.k.L ! T j / U ] m - 4 m ~ ! X.X.) ~ ~ ~ ~ ~ @.J 8 # X X X X X X O : 8 b b N X._ ^ ] ! #.v 3 G q 9 9 q q B q 0 ",
"k.v.d i X.v.^ s x x 0 8 9 8 x 0 0 4 8 4 8 9 3 7 8 c v 0 9 8 8 0 9 c B v B v 0 0 c m G J G 8 3 3 8 m c 3 > 2 x m z 2 > 8 x 4 - a P L N a a U 3.z.1.5.q.1.k.v.1.q.q.w.v.` 3.q.5.q.q.5.q.1.x.5.1.q.4.F.c.z.E R w.z.F.b.1.1.G.v.x.w.` _ T v.5.z.c.b.w.x.q.5.S.[.G.1.w.z.q.G.A.w.c.5.1.q.x.F.A.1.5.c.5.t.*X-X*Xy.,.C.{.D.8.5.x.w.C.w.A.G.b.6.{.D.XX[.[.H.F.0Xt.7.G.F.w.[.[.x.G.F.q.A.H.C.F.v.b.D.v.h.1.K.qXwXsXgXMXgXwXE.R.Y.y.y.0.9.>.>.l l h u p t l 8.Y.7X-XwX9X-XwX-XW.=X=XE.W.=X-X-X-XwXwX=XwXwXwXE.T.Z.9.7.8.8.>.k k l l p t p p r r r ; r r ; t ,.C.D.E.Z.Z.Z.9.9.9.7.7.8.8.,.,.E E j j q.N N 0 b 4 5 1 1 6 5 4 5 5 1 1 1 1 - ; - - > - # O .   O < - 1 < < - 1 1 > < < - ; = .   X O X O $ $ O o O + O = = @ . O : < 4 5 N N M g r a ! ] P U U _ b.M.M.' 4.c.v.F.q.[ b.b.e.5.F.z.q.G.z.A.S.q.e.F.A.w.5.[.w.1.G.b.A.x.1.z.A.A.c.q.v.q.R Y A.q.R 1.[ v.[.e.v.v.b.F.b.q.c.b.4.f [ E 5.4.c.z.q.x.R q.B.XX` R z.5.w.q.j 5.q.z.v.M.B.] v.F.E C q.q.' U L _ ' X.W #.X.~ m J ~ ] X.X.) ) ! ~ ! ~ V z # X . X X X X O : z m J H ~ ~ ..~ ~ M J H z 2 8 9 9 9 w 9 9 9 9 ",
"] F d n L P 4 5 3 3 8 8 4 0 0 8 4 q 0 c 0 3 3 8 4 0 0 8 c G G G c 8 4 0 B G | G v 0 B v v 8 3 3 3 0 G v 8 4 z J W c > 4 b m 8 1 a a 5 s s f T 4.q.3.[ E v.v.5.Y [ g j L l._ 3.b.g 3.F.1.E [ 1.q.z.c.v.5.` ` 1.F.w.q.b.x.A.{.e.q.3.G.J.q.q.F.G.v.G.F.q.[.F.e.c.b.b.1.T b.{.c.w.5.w.[.A.G.w.{.S.c.7.t.T.E.t.i.k ,.t.D.t.7.K.6.E 5.5.1.` F.F.1.e.b.oXG.oXA.[.G.<.h f ` [ b.v.b.S.{.j.c.oXU.v.H.G.t.*X9XgXgXgXgX-X=XR.T.Y.Z.9.9.>.>.>.y h t t t l 9.E.wXwXwX,X-X-X-X-XR.-XE.-X=X9X=X-X-X=X=X-XR.T.Y.Y.Z.t.9.0.8.>.k l l h h p p p r r r r r r r r r j 8.t.t.t.C.e.7.7.8.8.,.8.E k A k k h h j _ N s 3 1 1 5 5 1 1 5 5 1 5 1 2 > > 1 6 - ; - - # . X X . # 1 < 1 1 < < < < - - 6 - X . . O O X = : $ O O + O o $ # 2 : @ = 5 s f ~ Z Z Z ^ ! k.3._ F.q.w.1.w.U.6.c.k.z.C.w.q.[ 5.8.,.c.A.x.x.XXrXC.4.{.b.{.S.v.[.[.z.4.1.[.` J.[.XXC.A.F.e.w.w.E I v.1.R e.x.b.c.e.i k K.t.q.q.Y v.B.c.1.e.A.F.x.k j f R k.k.M.U [ A R E q.q.` E k._ ` J.B.B.1.v.q.q.z.g 1.l.] l.#.] P P W ~ X.@.] Q ~ ! ! ~ H x : X . X X X . . $ 4 m V H H ~ ~ ~ ~ ) J H H H x = & % * % % # % % $ ",
"U U n P 5 3 2 : : > : > 3 3 2 2 4 0 0 0 S c q 0 4 4 4 0 F G c c c 0 8 x B J J B v 9 5 4 B G b x x 8 v G v 9 3 z b v 8 8 8 b b x 8 x s a a s U ` 4.` b.A.w.x.z.1.R 1.b.q.` l.q.I j j 1.j [ G.A.q.z.c.1.w.q.4.R Y i T w.w.q.w.x.G.[ Y @XXX1.4.x.z.4.[ w.5.p w.b.[.b.1.q.q.w.w.4.E q.q.F.F.A.S.A.v.5.t.t.9.>.l j >.k ,.y.%X;XD.k j A.H.v.H.F.r.w.XXb.A.{.F.{.w.S.F.g ; 5.[.b.b.q.A h h.A M.A.E.wXwXwXgXgXwX-X=XE.E.T.Y.y.t.9.8.>.>.>.p t t l t.-XwXwXwX-XW.=XR.&X=XE.wXwXW.wXwX9X-X=X=XR.E.T.y.y.9.9.j.j.8.8.k k l h p p r t p r r r r r r ; r r p k ,.5.7.<.<.<.8.,.E E k k j l h h g p p i h.m 1 2 - 5 5 5 - > 1 > 6 6 3 : @ = > < - ; > - $ . X X . $ - > < < # = - 1 1 ; - $ . . O X O . X   O = O . X X . X $ 3 5 5 M N n g ^ E T 3.k.k.F.A.z.q.A.k w.c.x.7.w.q.1.x.5.c.G.x.A.[.{.5.c.F.S.k A.b.w.1.i j [.b.j R z.U i b.[.S.x.v.c.A.F.q.v.L 5.x.c.x.w.c.{.b.R 1.e.7.1.` 1.M.k.l.b.T E w.w.E 5.k.A.G.b.b.3.4.` x.z.q.v.M.5.q.R q.v.' v.3.c.b.v.A.b.Y _ ] ~ H H W ~ ) ] ] ~ ~ ~ ~ ~ H x > @ . @ 2 4 8 5 $ - 0 m m b b m m J ~ ~ H H ) ) ..v # + O X     .   . . ",
"T h.b a 3 2 3 2 4 4 4 9 4 2 : 5 3 3 3 8 q B v 0 0 0 0 0 0 c b 0 q | G B v c c c q B B x m J J G c x 4 c v 8 > : 3 0 8 > > 8 b b 4 4 c 5 1 1 f f f g q.w.1.` Y l.^ q.c.R 5.k.q.M.k.[.b.5.C 5.q.Y R 1.Y 1.4.A.c.5.f ; E e.[.z.w.x.3.v.5.^ [ 4.x.R b.z.R R f q.x.4.q.{.A.w.A.1.G.G.G.z.1.R w.w.x.5.A.8.>.;.l t p j l l 8.Z.D.D.*XA.S.5.j F.0Xv.e.[.} j w.t.{.6.x.A.w.E w.F.q.C.,.h <.h.A Z.E.E.W.wXgXuX-X=X=XE.R.T.Z.y.9.9.7.0.8.>.u p k Z.-X9X,X=XwXE.-X=XwXwX-X,X=XwX9XwXwXwXwX=XR.E.T.Z.y.9.9.7.8.>.>.>.k j l l p t p r r r r p p r r r r r r p h j k k l k k k k j l h p h p p t i p r ; l.F > > - 1 5 1 6 1 - 1 1 1 - O O $ - - - 6 - = O . X X X . = = $ # $ = - - - - $ O . . X X X O O X . X X X . X O # - - a d n C g i ' 5.` v.F.k.z.k.Y q.e.Y v.1.8.e.1.h R {.G.XX[.XXA.A.w.q.c.c.e.q.c.b.S.c.[ 1.x.E Y q.J.XXG.q.w.{.e.[.1.A.1.[ G.v.` w.[.XX{.{.G.b.v.q.8.5.k.R E c.M.B.J.T f Y ` [ I l.3.w.R Y U ` J.c.4.R [ 4.z.A.x.T ` [ q.j ` z.c.M.b.U ! ~ ~ ~ ! ) ) ) ~ ~ ~ ! J H b > @ X @ = x ~ o...~ J V H V H J H N F m H J J ~ X...H s # o X   X   . . X . ",
"l.! a 8 9 3 4 5 6 9 9 0 4 3 3 0 9 & 2 2 8 0 8 B c G G c 4 3 q G |  .| G 8 3 8 G | J J G B G J G 0 3 : 2 3 9 3 2 = 9 c 8 > 2 x 4 2 3 c 4 5 > g n g a 4.M.Y 1.v.h.v.q.M.R v.x.z.G.q.q.M.v.5.q.z.w.w.q.q.z.b.c.q.q.1.4.5.x.q.x.v.v.b.[.w.Y b.{.[.x.[.A.v.[.c.v.w.e.b.[.A.F.G.q.A.w.5.k E S.D.}.e.j ,.5.,.0.>.k k h t h k 8.7.t.Z.E.{.C.E R 4.E F.A z.F.1.K.S.A.XXG.{.e.D.=X9XE.wXwXE.nXwXW.wXW.nXMX-X=X=XE.R.E.Y.Z.y.9.9.7.>.>.k >.t.E.wXwX=X=XR.=XwXW.9X-X9XwXwXwXwX9XwX-X-XE.E.E.E.E.Z.Z.Z.9.7.8.>.A k j l j k h h p p r r r r r r r r r r r r r r p t t p p p p t t p p p p p p r t r r ; #.F < < - - 4 5 1 - 1 - - 1 # O O O $ - - 1 - = X X X . . X @ $ O X . X $ = # $ . . X     . O O O O O O + O @ = 2 - a s b F ^ 3.[ q.v.q.E q.b.w.c.b.[.x.[.[.R E b.G.3.q.w.g 5.S.A.K.w.v.S.F.b.F.S.oXz.4.A.[.b.b.F.R A.{.[.w.F.G.[ j p E 3.q.c.v.5.3.c.5.R S.q.G.c.b.q.z.XX3.b.q.v.j q.G.3.l.` E 4.3.T 3.k.E T g 1.B.v.B.A.q.Y q.b.5.Y q.[ c.] f _ ] m.h.! ~ ~ ~ ) ) X.~ ~ ~ ~ ~ ~ J m 3 @ O O $ x J ..) ) @.X.@...) ~ ) ~ ~ ~ ~ ~ ~ ~ ~ V J ] ~ c # O X   .     X     ",
"b 4 3 2 2 > 7 6 2 3 8 3 3 0 4 9 4 6 4 4 3 3 4 b G b G c 0 0 0 G | | q q c q G G  .J | J c 8 s 8 9 3 3 3 4 v c 3 2 3 b b 8 5 4 x 4 4 4 x c 1 s d 5 a d ' l.c.v.k.k.^ ` [ 5.E g 5.b.' k.q.4.c.[.b.v.w.4.c.c.z.q.[.R [ 1.w.R g Y XXw.q.{.F.z.x.{.S.A.{.F.A.b.S.A.x.[.b.x.z.q.1.w.c.S.7.e.t.t.w.C.[.G.t.=XwX=XE.D.9.h t t k ,.7.0.9.u.=X%XD.7.6.5.G.v.z.E 8.z.e.S.K.K.uXuXwXwXwXwXwXgXW.wXwXW.nXW.E.R.E.R.E.E.Y.Z.9.7.7.>.>.>.0.T.-XwXwXE.=X-X=X9X9XwXwX9XwXwX8X8X9XqX=X*XE.E.E.T.T.T.Z.D.Z.Z.t.6.8.<.>.k k k k k k k h h p p r r r ; r r r r r r t r r ; r r r r r r t t p r p r p r r r r < #.v # # = 3 s 6 > ; 1 1 1 2 $ O O X . $ - 1 2 # . X X X O $ $ O . . . . X @ X . . .       . X X + O $ $ @ O = 5 5 1 N a i A Y R z.4.1.z.c.[.S.x.A.S.w.{.{.w.1.c.H.G.A.1.[ x.H.x.w.Y R z.1.b.b.XX[.x.q.w.F.G.F.c.q.5.S.{.S.S.J.c.U ` k.4.F.z.v.b.z.,.G.[ w.e.[ b.w.v.b.v.J.` z.` 4.A g F.[.A.v.4.q.3.l.l.T k.1 < T .X' 1.q.k.k.[ Y J.w.w.G.R _ ! ) ) Q ~ ~ ~ ) ] ..) ! ! ~ ~ H J m 5 @ O O O O 8 @.X.) ) ) ) ) ) ! ! X.! ! ) ! ~ W ~ H m s W X.#.J = X                 ",
"2 - : = : = : # 2 2 - 2 3 0 9 9 9 8 q 3 2 3 3 0 b c q v G | G 0 v B B q |  .G G G  .J v 0 3 2 8 v v c x x 0 c c 4 3 8 m 8 > 3 8 c x 4 > 8 x s 1 a a a L 3.c.v.b.F.l.z.v.v.x.p g F d f 4.q.5.q.q.x.q.e.3.q.b.q._ _ ` Y ` w.G.R E q.b.[.F.z.c.C.e.A.A.x.A.F.F.[.S.x.e.j r ` G.c.A.S.C.S.S.x.C.[.[.F.{.-X=X*Xt.C.Z.C.k h ,.8.9.0.7.9.y.T.R.=X-XK.*XS.S.,.E F.x.5.qXwXwXwXwXW.wXE.wXwXwXE.gXE.R.E.R.E.R.E.T.Y.9.0.,.>.>.9.Y.wXwXwXwX-XW.-X9XwX-XwXwXtX8XyXsX8X9XE.E.E.E.D.Z.T.Y.D.T.Z.Z.Z.t.9.9.9.7.7.<.,.>.k k k k k j h p p r r i r r r r r r r i r ; r ; ; r r r r r r r p p r i i r r r < ] m $ 2 # > 3 4 1 1 - - 5 = O + O X X X - - - $ $ # # $ $ O X .         .             .   . O X . X @ $ = - - a g P W L Y ` z.4.z.q.b.[.M.0Xw.w.{.A.[.XX{.,.$Xc.c.H.[.` F.7Xe.[.z.1.c.c.q.4.k.z.{.w.Y Y A.c.[.[.e.{.S.t.A.x.S.q.3.v.S.v.z.G.XXJ.J.r.R k A.{.[.z.v.z.b.5.Y g g k.k.l.T k.w.5.F.1.4.b.z.b.k.l.! ' q.1.e.R 4.b.B.k.b.E R F.A.^ ) X.~ ~ W ! ! X.X.] ) W H W J J F 5 @ X . X X . + 6 5 8 b b F J ~ @.) ~ @.@.X...] ) ~ ~ H v 8 H X.] J : .                 ",
": 2 2 : 3 8 2 2 2 # # = 2 3 6 4 0 8 4 4 0 q 8 3 4 0 G |  .| G 0 0 q | O.O...| | c 0 0 0 v B 0 c b J J x 3 2 - 2 2 2 3 : $ # = > 2 5 - # - b J 1 1 4 d d 1.z.b.q.k.l.^ b.z.z.k.Y f l._ c.1.3.b.5.v.k.w.q.J.q.T 4.v.F.x.q.[.b.F.q.e.q.b.q.R w.q.q.c.M.Y 5.c.5.A.x.3.c.k.Y x.b.XXJ..Xc.4.5.A.A.w.b.4.S.u.C.0.>.k ,.,.8.7.C.Y.Z.t.9.9.7.9.y.Z.T.=X-X9X=XD.K.*X7.6.wXuXwXwX=XwXW.E.-XW.wXE.R.R.T.E.E.=XT.Y.9.8.>.>.9.T.E.wXwXwXwXwX=XwXwXwXwXwXyXyXaXwX9X-XE.E.E.T.T.D.Z.Z.Z.Z.C.t.t.t.9.9.7.6.7.7.8.,.>.k j j g p p p p p p p p p r i t p i p i r r r r r r r r ; r ; r r t r r p r i t r ; < X.c = = $ # @ # 5 - 1 1 # O O O X . O $ = = - = = # $ O O X                     . . . . X + O < 2 5 - 1 a F F P ^ ] 4.4.k.q.k.b.A.v.F.` [ w.S.e.{.{.[.5.A.A.w.XXJ.b.F.5.x.{.q.5.[.F.{.{.x.4.4.k.[ 1.b.` v.{.S.w.q.{.C.{.A.w.c.[ z.3.R A.G.A.H.w.E 5.5.q.C.q.E f q.v.q.h < < < X.J._ l.l.4.5.w.z.k.b.x.z.k.I B.z.5.5.[ k.q.3.[.4.v._ I M.] ! W W W ~ ^ ) X.) ( ) W ~ ~ ~ F 4 $ X X X X X X X O = = # # = > 3 s c b J ~ ) ) ) ) ] @.~ ~ H H N b m m 3 +                 ",
"6 3 3 3 8 9 2 2 2 2 & : = # 2 3 8 0 4 0 B B 0 4 4 0 G | | G q |  .| |  .&.O.| 0 8 6 0 G J G B c 0 0 3 2 & # # 2 6 8 : O # 2 2 1 # # = : = 3 x 4 = 3 N N U 3.b.k.k.l.l.q.U T R R 1.M._ c.k.R 4.T 1.R 4.I T ` q.v.v.k.k.v.4.[ w.c.b.1.q.b.w.T Y w.5.[ T w.5.w.b.b.b.b.c.x.z.5.q.l.q.l.q.w.w.5.q.{.e.5.>.l h t t t t h ,.C.D.E.Y.D.y.y.t.y.y.y.Z.Y.T.=X-X=X*X*XC.=XwXwXwXW.E.E.Y.T.E.Y.T.T.T.E.E.R.T.Z.y.9.y.T.-XwXsXwXwX9XwX9XwXwXsXsXyXgXaX8X9X-XE.E.Y.Y.Z.Z.Z.t.C.9.9.9.7.9.7.7.5.<.8.<.8.8.,.E k l h i t i r r r r t p p p i p p t i p r r r r r t ; r ; r ; ; r r < r ; t r r r r ; < < @.5 @ O X $ $ @ : 3 2 $ O @ O $ $ $ = - = = = # O O X O X                   X . X . . O @ $ - ; s M n _ q.N I I A ' v.q.3.w.q.k.F.c.q.[ v.k.{.w.q.{.w.w.[.[.[.H.F.c.G.{.G.b.b.A.[.b.c.G.F.c.c.4.w.[.[.{.S.A.t.S.q.{.w.5.5.R c.{.[.z.E z.3.4.[.F.Y ,.q.A.b.` T R 1.1.q.1.U U ] q.E f f _ c.4.j q.[ z.A.c.` h.B.q.J.q.s _ ^ 4.v.3.k.M.m.] F F H ~ ~ @.X.X.! ~ W ~ J ~ F 8 : O . X X X X X X X @ - : = = # $ # # = < : 4 s c F H ~ @.) ) @.~ H m b b x : $ $ # % % # % $ ",
"3 2 3 3 3 3 5 2 2 3 2 & 2 : & 2 2 3 8 q q 8 8 q G B 0 B q G  .&.%.o.| |  .| q q G q 0 G J G G x 5 : # 2 3 3 2 4 8 2 # # & 3 x 8 # @ # 2 2 # # 5 3 5 a 5 a d k.3.C 3.' R R 1.3.[ z.x.x.[ q.A.q.4.3.c.G.v.5.c.q.5.b.q.z.A.1.5.q.b.v.b.w.q.x.F.c.qXq.i L 1.5.q.b.b.G.b.q.F.v.q.z.I a g l.XXc.e.S.5.5.,.>.>.l >.,.k r ; t k 8.e.Z.E.T.T.E.Z.Z.y.y.y.Z.u.Y.R.E.=X=X=X=X=XwXwXwXwXwXwXW.E.R.R.E.E.wXW.R.E.wXwXwXiXgXwXwXwXwXwXwXgXgXnXwX8XwXE.E.Y.D.Z.Z.Z.t.t.t.t.9.9.7.7.7.5.8.,.,.,.>.,.,.>.k k j p p i r r r r r i r r r i r r r r r ; r r r t g r r ; < < < < < < < r < ; < < ; ; ; < < @ = @.> O X X X X O = - # O $ # # $ $ $ = = $ @ O O X X X                   . X . X . - 1 5 1 a a n T Y g 4.w.3.` l.V.v.c.E E c.v.H.[.b.v.1.b.z.w.B.{.b.e.S.F.w.A.e.h 4.b.B.v.b.G.b.c.q.G.XXb.x.G.e.S.S.c.{.S.{.A.S.{.c.w.5.[ 5.{.A.w.w.[.[.A.oXG.q.x.A.1.x.E E _ _ B.b.q.b.F.q.q.[ q.5._ U U 4.T j a ` R j g 3.k.B.' s @ a 3.q.E U l.X.W J ~ W ) X.X.X.) ) ~ ~ ~ W H c - O X X X X X . . . O 2 4 3 - - # - - = # # = = < = - 2 2 4 x m H ~ ) ~ ~ H H m 8 3 4 c F m b v c ",
"& : - # : : 2 5 4 4 2 2 2 3 2 # & 3 0 0 0 0 G |  .G x 5 q O.n.I.%.%. .0 0 G | | .. .B c B B 0 2 = # 3 8 c 0 8 3 2 > > 2 3 4 4 4 = $ $ 2 3 2 - 2 3 2 # # ; a L ' L 4.z.k.v.5.k.|.q.v.q.4.` v.c.E q.[.R [ 1.C.q.q.3.' 1.R 5.A.x.x.x.{.w.1.F.v.A.q.f [ x.c.[ Y w.w.[ 5.q.c.b.v.w.[.] L v.[.q.q.{.e.q.x.*X*XE.E.%XC.8.j t p h l k 8.j.Z.Z.Y.Y.Z.Z.y.y.9.Z.Z.T.Z.Y.T.E.-X=XwXwXwXwXwXMXgXwXMXnXMXnXMXsXwXwXwXwXwXwXwXwXwXwXwXwX9X9XE.E.E.Y.Z.y.y.9.9.j.e.7.7.7.<.h.>.,.,.E k k k k k k A l j h p p p i r r r r r r r t r ; r ; r r r j R Y g g M d g i a < @ @ @ @ @ @ @ @ < < @ @ < @ @ @ @ @ m O O X O O X $ # # # # # # $ $ O O O O X . . . .                   . X X # 5 4 5 s ! U C U f R ` 5.q.v.E E H.z.k.q.5.k.b.w.[ A.[.A.F.c.c.b.b.A.XXXX{.[.b.b.{.{.w.F.J.q.B.[.R 5.A.e.q.5.7.5.e.S.t.c.{.z.} 1.e.A.[.1.[.XXc.b.{.S.S.[.[.v.` 1.v.4.q.k.[.q.1.R M.U _ .Xc.c.q.q.4.4.v.5.b.l.b.v.[ z.P 3.B.b.E j 4.l.Q I ) F f T l.] ! ~ ~ ! ] @.] ~ ) ) Q ~ W ~ F x 2 O X X X X X X . . O = 5 m H x < - # - - : # # = : # = = # = # < - 2 5 a v J H J ~ J J m H J H x 4 4 ",
"- $ # # $ $ : 3 3 3 2 3 3 9 3 3 3 3 6 3 3 q |  .| G 0 8 G O.L.I.%.+.| 9 8 B  .O...O. .0 3 8 3 2 6 8 4 8 0 0 2 # # 2 4 0 8 2 # # : = # & 3 c 2 $ # - = $ - s a Y 1.w.z.e.[.c.q.c.1.T j h ` [.XXJ.w.1.T [ [ w.c.F.B.v.g 1.c.c.A.b.q.A.1.j w.b.1.E 1.v.w.j E w.' L Y Y q.5.[ E 7.b.4.U M.q.j g b.x.E 1.C.9.7.7.7.,.8.8.k k E k k h k >.8.9.Z.C.y.y.y.9.9.9.t.y.Z.Z.Y.T.E.E.E.wXR.wXW.nXW.E.W.W.W.W.E.wX9XwXwX-X-X=XwX=X-XE.E.Z.Z.Z.Z.t.9.9.7.7.7.7.7.8.<.,.>.,.>.A k k k j k k k j j h p p p r p r r i r i r r r r r < r f I z.j j B.` i i r < < @ @ # . .   . . @ @ @ @ @ @ @ @ @ @ @ . . x J $ O O $ $ $ $ @ $ $ $ O O O O X . .   .                       O @ = - 5 m H n C f n _ ` q.v.c.6.3.F.4.,.` 1.4.v.F.J.c.A.x.1.E j 5.e.c.4.` [.R 5.{.1.w.[.oXF.A.e.e.1.F.XXx.f E T 5.5.1.8.x.S.x.,.1.x.3.h F.G.A.{.A.w.b.A.` b.F.q.A.[ 5.x.A ,.e.c.q.B.q.1.U _ M._ f [ R E c.b.x.F.v.B.U 5.G.A.w.q.q.XXG.q.E 3.M.l.! m.! ] ) ] ~ W ! ! ) ) F m H ~ ~ ~ W J x : $ X X X X X X X . X = 3 v H ~ J x - > 2 1 - : = # = : = = # : = : = - = # # - > 5 4 x b H J J ~ H b 4 2 ",
"& & - # # : : : & > 6 9 4 2 2 9 9 2 # : 4 q G G 0 q J  . .| o.%.O.G q q B B G  . .| G 3 : 2 3 0 0 0 4 3 3 2 # # : 8 3 8 2 $ O $ # 3 5 2 4 6 # $ $ > 2 # - 5 a P v.v.z.1.l.q.q.B.q.q.5.v.{.b.b.[.H.q.' b.[ k q.q.v.B.l.J.c.z.F.z.1.1.v.w.[.J.c.c.A.A.5.1.q._ ` 3.C r j R 2.j R E p T b.1.i U b.v.k.x.E h h h t t t p j 8.e.C.t.e.8.,.>.,.,.8.9.0.9.9.9.C.7.9.9.9.C.Z.D.Y.T.E.%X*XE.*XE.=X&X%X%X&XR.E.E.E.E.T.T.Z.T.D.Z.Z.9.9.0.7.7.8.8.8.8.8.8.,.>.R k k k j j j h f j h h h h p p p i r r r i r r t i r r r r < r d 2.H.^ U n d ; ; < < @ < @ @ @ . . . . X @ .   . X @ . . . . . . @ z n...> = # $ O X X X   X .   .                     . . . . X O @ @ < F ~ N s P _ U I U C U R E q.c.c.w.q.q.b.XXk.z.J.F.G.G.w.x.c.F.{.x.5.b.w.z.{.c.c.oX@X1.1.J.F.x.q.S.q.w.[.[.|.[.z.w.g p j G.6.j T g [ k.z.A.G.G.{.G.A.J.G.z.F.b.k.q.z.F.b.w.e.S.5.i L I c.b.z.c.f p [.b.[ q.z.q.3.E [ 1.v.e.q.` g 3.G.v.v.B.] ' f n ~ ~ ! ~ ) ) ) ..X.~ b 5 s H ~ H H x > @ X X O X X X X . X # 3 x b J ~ ~ H 5 = # # : 2 : - - : : $ # $ = = = = - 2 & = = = = - = - 2 5 8 F F F J F ",
"1 2 : : # 2 2 $ $ = 2 2 2 2 3 8 3 2 3 4 8 0 c 9 0 G +.I.$.G G G G G J O. .G q B G 0 3 2 2 : 4 c x 0 4 2 $ $ # 2 2 6 7 3 2 # # $ # 5 9 8 2 # # # O # 2 2 3 4 1 d q.5.|.M.[ c.[.b.1.5.[ q.w.[ e.e.q.5.5.q.5.k.{.b.R M.M.[ g g ^ f F.v.b.G.e.5.w.e.{.w.e.q.] I _ ! 1 a f A 5.z.F.J.b.v.E R 3.[.OXA.z.b.5.p t r t r ; r r h ,.7.C.Z.D.Z.t.7.8.8.7.8.8.<.,.8.,.,.<.8.7.7.9.Z.Z.Z.Y.Z.Y.T.T.Y.Z.Z.Z.Z.Y.Z.Z.Z.9.9.Z.9.9.9.9.8.7.8.,.>.,.,.>.>.>.k k j j h j h h h h h h h g h p p p i i r r r p r p p p r i r r r ; a I I f a ; < < < @ @ @ @ @ @ @ . X . @ X @ . . .   . . . O @ X @ @ < m ..@.a - = O . . .                         . . X . . @ < # = - - 1 a W P T f ] I Y v.4.] l.#.4.5.` q.F.G.[.c.0X.Xb.z.G.[.b.t.K.t.[.oX}.w.1.b.[.J.w.E L U q.T h [ [ 5.q.w.e.,.w.x.x.w.oXb.g T v.q.a i L i ` 3.E j H.XXv.x.G.b.z.5.A.b.c.q.[ j q.A.e.7.E Y V.E 1.v.w.5.R q.k.c.c.b.4.,.[ j p 1.G.1.i f g Y Y 1.T R M.' F ! ) ) ) ) W H ) ) ) ~ V J ~ ~ J m 3 $ @ X X X X X X . X $ 2 z b F J F H H W m a - # # O # # - - : : # # = @ $ = # # # # # : = : = = = = = = 2 2 4 v ",
"2 3 2 : 2 & # $ # : $ # : 3 8 3 2 3 0 q 0 8 8 0 G O.+.$.&.| 4 9 q ..+.O.O. .c 0 4 : 2 8 9 3 3 8 x 3 : $ X # 3 3 3 3 - + # - : # # 2 4 9 = # # - # $ : 4 4 3 - 1 P #.q.q.q.q.w.b.c.b.z.x.F.F.E j 5.A.S.b.w.q.' q.1.3.g C E ] m.T 1.1.k.q.5.S.t.C.5.5.c.5.j d s - < h.k.f I b.XX0XXXw.w.b.` A.V.q.q.F.b.7.8.8.7.6.5.j i t t h h k >.,.8.7.9.7.7.8.<.,.,.k >.j k E >.A ,.7.9.9.t.Z.Z.C.9.t.C.9.9.0.9.7.j.7.7.0.8.<.,.A ,.,.>.R >.k E k k k h h h h h p p h p h p p h p p p p r i i i i p p p p p p r t r r r < ; W a ; ; = @ @ @ @ . @ X @ . @ O . . @ O O . @ . . . .     . O O @ < z W ~ < @ @ X                             . X @ O O # - x a a s a N f F L Y Y L ` 4.h.4.z.v.F.v.4.c.A.c.q.[.7Xe.q.b.G.5.A.F.z.x.w.w.q.A.c.E 1.S.b.q.1.b.` [ Y ` 3.l.c.w.c.S.1.5.t.} 1.A.G.` U .XM.M.L f _ 3.[.b.R A.G.G.A.A.5.4.E ,.x.q.' 4.3.a i 4.c.e.5.c.x.q.k.q.q.w.5.w.w.4.b.w.q.q.XX1.j w.c.` L ] ] ` 1.2.Y L h.X.! ~ ) X.) W 4 5 4 s b J ~ ) ) H x = X X X X X X X . X @ 3 x m H F F F F H H P ~ ~ F m s 3 : # = # # = = - - = # $ # # $ $ $ $ = : # = : - : : # = - : ",
"= = 2 2 6 # # : > # $ $ : 2 2 3 4 8 q c 8 6 > q | $.o.O.| q 8 7 q | O. . .| 0 2 : 5 8 0 8 8 4 3 5 # $ $ # - 2 4 2 = O O = : & = 2 2 - : 2 # $ > > 2 2 5 > # = : 1 T [ j 1.w.q.q.[ w.qXe.q.x.5.j 4.w.x.t.{.A.w.1.E [ 4.c.z.H.c.z.T 1.z.R 5.5.6.6.5.} T a 1 s ; < d h.^ a i 3.J.c.e.1.` F.w.w.i f q.k.5.t.t.e.6.6.5.>.h j h p p t r t t h h l k E ,.k k k k k h j j >.,.,.5.7.9.9.9.9.7.9.7.8.8.,.>.A k >.E k k k k k k l k k j l h h p p p p p p p p p p p p p p p i p p i p r p p p p p p p i r r r r r < @ < < = < @ X . . @ @ @ = X . @ . . . . X O X . . . . . . . X # = - - 5 d a < < < @ . .                   O . @ # - s W ; 5 N a s P I ! ` _ _ [ 2.T j 5.1.3.v.C R z.` 4.c.4.H.w.5.A.F.E p Y c.w.1.G.A.E ,.A.1.R 1.E A.w.5.[ w.F.B.[.[.z.b.nXG.1.8.{.{.t.5.p E w.w.j U B.OXA.1.` b.{.F.5.1.v.1.A.E 5.F.A.K.x.v.XXv.^ B.! L F.[.XXF.b.j [ b.[.F.c.3.4.1.l.l.F b.B.F.5.1.b.q.g g l.h.L ] d F _ F n s N ! ( ) H 2 = # # - > 3 8 c 3 O X X X X X X . X # 2 8 m H H H H H W H H H P H H F ~ H ) H F s 5 - < $ # # # = = = = # # $ $ $ $ $ $ # : : = - = : # ",
"$ $ # 2 2 2 2 2 # $ # : & # # 3 0 q q 4 2 3 9 9 G  . .G 8 0 G G 0 0 G | | 9 2 = : 3 0 8 0 0 3 # $ # 2 2 2 2 2 2 : $ $ $ # = : 4 8 : O $ 2 # $ # 4 4 2 # $ @ # - 1 P q.j E 5.1.j [ 3.6.8.3.3.5.E q.H.c.R 1.w.F.[.x.{.A.c.G.b.1.x.k.q.4.v.R j 1.E j a i a r < < < f g g i s j E 4.E v.c.w.{.{.w.b.c.c.<.k j l p p t r h l ,.,.8.,.,.E k l h h p p h h j j j j h j k k k ,.8.7.7.7.5.8.,.A k k l l h p h g h h p h p h p h p p h p h t p p p p r i i i i p r r p r i p p p i p p p h p p t p r r r r r < < < @ @ @ = = - . @ X @ @ . . . X @ @ @ @ @ @ < < - < - 1 ; a 1 a a N a x P.c.a d l.k.h.N . . . X . X X X X @ - 5 5 i a a ( a f F T f C T 3.v.l.q.z.@X[.q.E q.w.4.z.v.v.5.4.1.q.XX$Xe.{.F.5.1.q.b.v.w.A.[ T b.c.3.F.z.4.G.A.A.A.c.q.1.4.c.3.w.[.{.C.C.7XoX[.q.; g E w.x.b.B.c.q.x.w.R 3.4.5.4.g p Y 3.R v.1.t.A.1.M.1.U L q.b.[.b.XXq.1.[ 3.v.w.6.[.3.T p f g n ' R j g f 3.R L a X.k.! f a ) X.! P N a a s v c > = = = # < # < = O . X X X X . . + 2 x m J H W J H H P H W ~ ~ W H H W H F W W ) ! J H m x 5 > # # $ # $ # - = # # = $ $ $ $ $ # # # = = ",
"$ $ $ $ : 4 3 - = : 2 > = # $ 2 8 0 3 2 2 0 G 0 9 B q 8 0 G ....G 4 4 8 9 6 3 5 2 2 4 0 8 2 # o O # > 5 6 4 - @ $ # # # $ $ : 3 2 $ $ $ = 2 # : 4 2 # O $ # # = - d U ` c.w.w.w.A.H.[ E l.q.z.c.4.v.w.T f w.[.q.[ 5.k.c.c.v.q.[ 4.F.F.b.R z.T i @ < ; ; ; 1 < ; ; < r f U z.q.[.q.v.oX[.A.S.e.q.z.4.3.,.p r ; ; ; ; r t h k E ,.,.k R ,.E j j h h p p p t t r p p p p j E k k k h h h p p t p r t t r r r r r r p r p p i r p r r p r r t r p p i p p r p p p p p p h p p h h h p p p r r r r ; ; < @ < @ @ . @ X @ @ @ . . . . @ @ @ . @ < a - 1 1 s g C ^ F j ^ n f ! g _ T L 3.5.A.F.{.4.z.R i s i 1 5 5 a s 5 N F ) d P ^ f d Y 3._ h.E Y 4.[.c.3.q.k.I l..Xk.x.b.G.5.3.J.q.v.J.F.c.A.C.C.x.w.G.XX[.[.XXA.1.J..XB..X.Xv.5.z.x.5.5.q.v.w.c.q.k.w.j 8.{.S.x.q.{.w.5.[.c.S.x.x.J.[.3.E 5.5.3.B.[.[.B..Xk.h.F.5.Y ,.E E E d d _ q.5.z.q.b.q.` ] g R c.R R j f l.f r n ' R 1.` l.T f C n j a d < 5 N ! X.] ..) W N a ; - = = = = = = - # O X X X . X @ : 8 F H J W ! ~ ) ~ W P H P J ) H ~ H ~ ~ ~ ~ ~ H W ~ ~ ! ~ J F m s 4 - = # $ = # $ = - # # $ $ $ $ $ # # ",
"% # $ $ $ : : 2 6 2 > # # # : : 2 5 2 3 9 G J G 9 2 2 q G | | | J 4 : : 2 4 9 9 4 2 5 3 6 # $ # $ + : 3 8 2 $ X O = : : # # : = $ O $ # # 3 4 # # # $ X O : = - 3 s P M.c.h ,.C.5.[ r E #.' v.U E q.3.U.[ Y ` 1.` j x.w.5.w.w.b.F.b.c.4.q.3.f P ^ f i L L 5 ; r d ^ [ b.5.q.c.[.A.1.e.S.C.e.w.C.b.v.XXK.k h k k ,.k h p t t t r r r i i t i p i p i r r r r r r r i p p p p p p p t t r r i t r r r i r r r r p i i r r i t r t r r i r i r r r p r p p p p p p p p p h p p p p p r r r r r ; < @ @ . @ @ < @ @ @ X @ @ @ @ = @ < < @ < ; a 1 a d L L d 5.` i Y / 5.` L R v.5.[.v.A A.<.g g h R v./ 3._ Y U ] _ / P ^ ' ' ^ ` 3._ b.G.S.S.c.J.G.z.v.z.5.j ; L J.c.k.A.{.4.q.c.` I ` T v.5.l q.e.w.q.[.XX[.[.F.v.q.c.tXOX1.j v.[.[.5.b.x.b.w.b.[.c.x.Y q.A.5.1.C.w.w.G.G.x.S.S.{.c.b.[.j j [.@XtX@X+XOX@XU.M.` E E w.5.[ k.l.Y G.[.S.R 1.l.T I i f z.f p j b.` b.3.f k.4.w.4.] k.' _ l.F.R ` n a 1 < 1 5 x H ! ) ) ! H z > 2 ; - - = = $ O . . X @ : 4 v F W ~ ~ ~ _ _ ) ] ) ~ ! ~ ) ~ W ~ W J W ~ ~ ~ ~ ~ H H ~ ~ F H ~ W H F c s 4 2 = = $ O $ # # = = # = # # ",
"# # $ # O O $ : 2 2 - # # & 2 : # $ & 4 q 0 q 0 5 # : 4 G G G q 0 3 # # : 4 3 8 c 9 2 & $ # # 2 : = 3 4 2 O X O O # # 2 6 3 # O O @ $ # : 5 2 # X $ $ @ O 2 3 3 5 - 5 ] v.3.c.E 6.4.` ` l.M.v.f f ` B.v.[ f j w.b.b.c.w.x.x.x.[.1.1.A.b.A.H.h.U.F.1.Y B.v.k.M.k.c.OXz.5.q.x.S.6.5.j E w.5.q.w.R z.F.{.5.A 5.v.Z.C.7.k j h g r r r r r r ; r r r i t r p r t r r r r r r r r p t r r r r r r i r r r i t t r i r i r i r p r i i p r r r p r t r r i r p r r r p p i r t p i r r i r r r < @ @ . . . . . @ @ @ @ @ @ @ ; < ; 1 5 5 r a s g n a j T ' d d z.,.C j v.v.v.J.v.e.w.A.4.p j r ; < p A.S.z.v.k.3.M.^ _ 1.3.T 4.k.3.3.J.k.B.S.7.5.H.XXw.G.G.v.v.3.XXb.x.w.c.XXx.R R c.A.R ; i B.b.c.b.c.[.G.G.[.[.G.z.F.G.w.[.b.b.F.[.XXXXA.F.e.F.c.q.b.5.q.1.v.b.j E q.1.[.[.S.w.w.G.x.R E q.5.w.0X0X@X@X@X#XN._ U 1 < ' w.1.v.XXG.` c.c.,.j I j i U [ j Y i g 3.v.w.R g L 1.4.M._ d ] _ C J.J.w.R k.) a < $ - - ; 5 a x Z H V x N b a 4 1 < $ X . X = 4 m J ~ ~ ~ ~ ~ ~ ! ) ) ..] ) X.) ] ) ~ ~ Q ~ W P F F F P ~ ~ H ~ W K H H ~ ~ ~ K H H m x 4 1 = # # # # = # = # ",
"$ $ - # $ $ $ # : : : 2 : : : # $ O # 6 9 0 4 2 : 2 3 3 9 q B 8 2 : # 2 2 3 8 0 9 - $ O $ > 3 2 6 2 2 # $ @ $ # @ O # 2 2 : $ O $ $ $ - 3 : # $ O O # : : 2 4 > $ O < W ` q.` A R 5.G.1.S.c.c.q.b.q.k.3.c.c.1.x.G.G.w.q.5.E x.A.1.z.XX.Xv.q.q.e.F.x.5.z.4.q.E 1.[.b.q.A.S.7.,.5.A.z.5.w.e.w.[.z.c.S.S.A.8.h j h h h h j k R E Y j h p p p r i r t r r r r r r r r r i p p p p p r t i r p r r i t t r t r r r r r r r r r r t r r r r r r r t r r t r t r r r t r t t r r r r r r ; < < @ . . . . . . . . @ @ < - < a f n F L L 2.g P U [ 1.] 4.4.5.1.z.q.q.q.b.A.G.q.z.{.G.C.q.z.v.b.4.v.z.v.[.A.{.b.k.c.c.3.b.XX{.5.q.b.q.c.c.I [ 4.5.j q.A.x.[.x.1.x.7XG.b.[.S.{.G.A.G.J.b.G.q.z.k.b.c.b.J.q.w.q.A.b.1.c.v.A.{.w.1.x.x.A.w.3.c.c.x.x.5.v.[.G.v.q.q.F.S.R 5.v.c.c.{.b.h C e.,.w.v.E e.R l..X+X@X+X.Xl.d f ^ C b.c.5.Y ` w.z.5.q.5.q.h I ' B.k.3.q.B.[.[.q.Y 5.U 3.b.v.` X.L k._ ; I c.K.6.q.l.n # @ - > > ; - - ; 5 N ~ ) ~ F F m x 5 = # = - 4 b H H ) ) ) ! ) ) ) ! ) ) ( X..._ ..X.! ) ) ( ~ ! W W H P H W P H ~ H P P H W H W ~ ~ ~ J H m s 5 - - # # @ $ ",
"2 2 : $ $ # # $ $ $ # 2 4 2 # # $ : = : 3 5 2 : 2 9 0 2 2 3 6 > # 2 3 3 2 2 9 3 # O X $ # # : 6 3 > O X O $ $ # $ # # # # O X O $ # & 3 : O $ $ O X # 2 2 - # $ O @ - s U l.` ' 3.E 1.1.e.A Y w.A.R 5.x.z.z.v.4.6.,.E Y [ R 5.,.E 1.v.k.' g Y 1.6.z.R v.c.` ` q.q.4.q.q.e.S.e.A.XX}.e.w.XXw.1.J.4.E E ,.5.j p p p t p p p j j h g p i r r r r r ; r r r r r ; r r p p g p p p i r t r r r r r r ; ; r ; < r ; ; ; r r ; ; r r ; r r r r r r ; r r ; ; ; ; ; ; ; ; ; ; r ; ; ; < < @ @ . . . . . X . X @ - i 5 s f L 1.[ ` R Y R 4.k.c.b.q.q.R [.[.c.4.F.{.[.z.[.1.e.6.w.v.1.w.w.k.qXH.v.@XA.C.K.S.5.` XX[.z.k v.[.x.w.A.[.b.4.w.3.,.[ c.v.w.C.5.q.w.R x.G.e.b.A.x.S.[.v.k.G.[.S.c.7Xv.q.z.w.b.c.1.[.F.q.E q.b.x.G.S.S.G.S.G.e.A.b.q.[ q.Y z.[.v.b.c.c.q.v.G.w.b.oXx.w.z.R 5.b.v.[.b.v.[.5.a ; X.L.m.#.m 5 P 5.Y [ f f k.R R q.E Y i g p q.b.q.1.M.[.B.B.M.Y p Y b.J.3.j f 3.2.5.` L I 1.R R R l.f = @ - ; ; > 1 ; - 4 J ~ X.) ) ~ ~ J F m 0 z 8 5 5 a a b m W J ~ ..] ~ ) ) ) ! ] ( _ ) ) ) ) ! ) ! ) ~ ~ W ~ F H P H F F H H H H P J H P H ~ J ~ F J m x 4 1 - ",
": 2 # $ $ : # $ X O $ 2 8 6 : $ # - 2 = $ # : 2 2 2 4 4 : $ # = 2 2 2 3 2 : # # @ @ # # $ $ : 3 2 O . X $ $ $ # : : $ O O O X X X $ 2 - O . $ # $ O # 3 1 $ @ $ $ : = - n V.l.B.v.` z.G.E R v.v.e.A.{.S.v.k.E h k R p q.F.c.R 8.c.b.b.z.q.Y T q.b.v.3.J.k.4.G.[.b.b.,.3.C.S.b.F.v.F.c.q.q.q.w.b.v.5.E w.e.q.j p t p r t r r r r r r r r ; r r r r r r r ; r ; r r r p p p i r i r ; ; ; ; r r p p j j ( A A ( Z j d i ; < @ @ < < @ < < < < < < < < < < < @ < < @ < @ < @ @ @ @ @ @ . @ @ @ @ @ @ - a g n n I h.z.4.e.x.<.T q.` v.S.x.v.q.` Y w.A.1.5.q.b.e.1.q.b.S.S.v.w.[.A.G.6.A.,.6.5.5.v.R R 5.q.z.v.c.S.x.x.R A w.x.5.1.A.x.q.v.[.G.c.S.x.x.r.{.q.b.[.5.,.w.,.E G.e.H.c.x.A.A.S.{.w.j E j j b.b.w.w.[.c.x.oXG.C.{.G.v.A.[.c.b.v.3.w.e.e.c.1.f E 1.1.A.w.A.b.` q.[ A.x.A.G.[ 5.c.1.5.[ 1 - 1 5 < s ' M.J.Y i I [ G.G.b.Y ` ' q.v.5.k 5.q.1.4.] d Y c.k.p 4.c.b.v.[ a p [ 3.3.B.OXB._ 3.J.z.L = # : 3 2 - - - 1 1 5 4 b b F F J J ~ m 5 x H H F N x a a a s N m H J @.~ ) ) @.@.! X.X.) X.X.X.! ^ ) _ ! W ! ~ P ~ P H M N M F H F H F F W H H H H H H V V b ",
"$ # & 6 : # $ O $ $ $ @ & 2 > # # & 2 # O O = 9 5 : 2 5 = O $ - 2 2 2 4 3 $ O O $ # = 2 : # = % $ X X O O $ : 2 2 # X X O + o O $ # # # X X X # : : 4 2 O X O $ $ # 1 3 d ~ U q.k.2.oXM.j Y z.[ q.A.8.R q.M.1.Y q.,.f 1.G.F.e.F.{.x.w.4.x.{.[.F.F.3.R w.q.v..Xb.b.c.4.b.{.q.q.k.4.j w.F.w.q.F.F.q.[.S.[.{.q.t.R i r r i t t r r r r r r r r r ; ; r r ; ; < < ; r p p p p r r r ; r p E 1.1.v.v.6.3.j k.h.g g a n i - @ @ @ . . . @ . . . @ . @ . . @ . . . . . . . @ @ @ < ; < ; 5 r r I Z d C [ ] ] ' 4.4.j.c.x.Y A e.XXb.J.G.x.6.e.c.v.{.w.J.[.v.[.G.b.w.F.oX[.w.e.[.b.[.v.x.4.1.5.Y [ 4.c.x.q.1.` x.A.{.S.w.1.` A [ C.w.J.A.5.e.b.oX[ j z.b.4.q.C.e.S.F.x.c.qXF.5.x.C.$Xq.E 5.e.S.A.q.E b.[.q.q.c.w.x.x.{.XXXXG.A.w.b.v.S.K.B.q.q.F.x.w.c.c.` Y T q.q.c.q.q.Y ` [.G.A.c.3.v.p g ' w.v.E 1 a < @ ; _ U.B.' 3.L l.B.k.g f g p k.XXG.v.p p w.c.z.B._ G.b.q.j v.[.c.5.1.' L [ 3.b.J.z.' f ^ ' U I # @ - 2 1 - 1 1 2 - = # - > 1 4 x m x : X = b H ~ ) ) ) W m s s a a a x N V ~ ) @.] ) ! ] ) ( ) ) ] ) ..] ) ( ) ! ~ ~ W ~ H P H F N m N m m m F J H F F F F J ",
"O $ : 2 2 # O $ # # # O O $ 2 3 6 & # O O $ # 3 4 3 2 # $ O $ # 2 3 9 3 # O X O # : : 2 2 # O X O O $ $ $ # : 2 $ X X X X @ $ # : $ O O O X X $ 2 5 # O $ $ O + # - 4 8 2 5 N ! h.h.U.m.l.h.B.v.q.b.q.1.1.q.F.q.v.b.z.` 4.4.q.R k.k.3.c.A.C.qXv.v.w.5.k.k.U E U [ w.b.e.v.v.q.z.4.j 4.4.Y j w.b.F.A.7.C.{.5.q.[.6.p r r r r r r t r r r ; ; < < < < < < @ @ @ @ ; p p r r ; r r N I <.3.,.g I T Y p i ; < < @ @ @ . . . . . . . . . . . . . . . . . . @ @ @ - 2 a ; a Q f ` k.I k.q.[ 5.F.c.3.h.F.F.w.q.b.q.c.b.q.b.F.x.[ ` z.e.A.v.5.k w.v.[ v.x.v.R 1.[.C.{.[.[.{.{.F.4.J.b.c.1.R x.c.A.b.[.[.J.R 5.G.[.S.e.q.C.F.w.w.6.R z.q.x.q.z.c.v.G.[.w.4.F.x.w.S.G.H.S.0XqXF.A.A.t.x.e.x.5.w.e.Y 1.b.A.{.6.w.S.{.c.e.v.v.XX[.e.x.[.b.M.] q.` w.C.4.v.R j k.k.I T 1.j g C v.b.b.w.5.4.H.4.L U 1.A.E E ` U Y T b.v.` T B.v.Y i d < a g i 4.z.G.w.j ` b.w.XXJ.U M.w.q.1.E 1.E r Y G.M.k.j [ 5.4.q.L k.] M.P @ @ = - 1 > > - - 1 # = - - - - - > # . . X = 1 5 s F ~ ) ) ~ ..~ M N a a i a s b M W ~ ) ) ) ) X.X.) @.X...) ) ) ) ) ! ~ ~ ~ W W P H W M m F N F m m m F F J ",
"O $ # : : 2 : # $ # $ o . O = 4 8 : $ O $ # $ = 2 2 & O $ : # $ : 2 2 $ O O O O $ : 2 3 = X . . $ $ $ # - # $ O O X X . X # # : # X . O O X @ # 2 : O X $ $ O $ 4 2 > = $ @ 5 s n ~ H ~ ) X.P.B.R J.k._ b.1.4.c.G.v.T E q.z.w.R [ h [ x.e.1.q.w.k.c.w.q.q.E [ G.v.q.q.q.q.R 1.c.F.z.` v.v.F.b.q.w.5.>.,.1.E q.e.5.Y j r r r r r ; ; ; < < @ @ . @ . . . . @ @ . @ < r r ; < @ 5 > ; d g ; < < ; < ; ; a a 5 ; < @ @ @ X @ . . . X @ ; ; @ @ @ @ < < ; < s ) ' k.Z ` M.l.` R 1.R v.c.v.A.Z R 5.6.x.q.b.c.q.f p q.z.` F.F.1.G.{.5.v.G.A.5.w.w.w.w.x.F.x.[ w.5.c.x.rXF.c.' r Y F.c.[ F.G.e.1.E E w.x.x.5.S.t.q.1.h q.{.F.S.q.v.[ A j z.e.5.w.z.c.b.c.c.z.c.c.G.z.e.{.S.e.{.oX[.{.e.e.5.w.w.1.v.[.v.E E c.b.F.w.4.5.[ v.[.5.v.A.T a L _ 5.e.x.{.z.U Y G.v.4.3.z.v.j Y A.e.R E ' V.q.A f [ w.w.5.w.z.v.z.3.j f c.c.b.b.` d - ; F L Y [ q.J.3.g q.b.5.q.E f j Y [ q.G.z.z.1.v.1.q.[.q.c.1.` ' ^ v.B.l.d - < < 1 ; > 1 1 - - - = - - 1 - ; - O . . O @ - - < - 1 4 x J ~ ) @.X.) ~ M v s a a 4 x N M ~ ~ ~ ) ! ) ! ~ ] ) ) ) ) ) ] ~ ! ~ ~ ~ ~ ~ W P H F m F b N m N N ",
"X O O O $ # 2 2 # % o X @ $ $ : > # $ $ # $ $ $ # # # @ $ # = # # # $ O O $ # $ # > 2 = O X X X O O # 3 3 # X . O o . . $ # 2 # O X . X $ # # # $ X X . O # # 2 2 # O O # = > s H H s b N m J ] k.k._ f P [ v.4.1.j [ v.c.c.x.c.v.1.c.5.[ R w.b.F.A.x.S.z.w.S.S.5.q.b.G.z.z.c.v.x.[.4.4.q.A.[.5.G.q.5.1.w.w.[ w.e.5.3.3.j r ; ; < < < @ @ . .         . . . . . . . . @ @ . X . . @ @ @ @ @ # - ; g Y v.q.4.l.k.E Z P W a ; < < - a n ; i i s r C ' / n [ F.c.c.4.l.l.g C E 4.E v.J.F.v.C G.G.G.S.1.Y ,.x.w.5.w.q.c.w.w.5.w.[.[.E q.[.A.{.G.e.A.C.A.[.[.q.A.x.b.{.A.e.b.q.5.{.c.A.v.[.x.[ ` v.w.4.F.K.G.[.$X1.E b.{.S.w.v.XXXXH.1.1.e.S.A.v.w.b.F.c.H.q.q.z.k g [ R 8.b.[.[.A.1.A.z.G.{.c.c.{.c.} w.[.b.[.{.v.1.4.c.b.4.` j d n 3.q.A 5.C.z.c.k.` v.[.b.1.q.1.c.1.1.j p L g ` q.w.x.{.w.S.S.G.c.3.b.5.i T [.A.[.c.c.1.l.] M.XXw.R F.c.q.E x.XXG.E Y Y ] 3.[.b.e.3.v.1.` 7.A.,.T 4.g _ X.Y L z.q.n 5 5 - > - - - - - > = = - > < = > - O . . X @ : - ; - = - - - > a x M ~ @...@.) H n x a a a 1 z x N V Q ~ ~ ) ) ) ) ! ~ ! ) ) ) ~ K ! ~ K F ~ P H F V m m b b ",
"X X X X X O : : # # O O # % @ O O $ # # $ # # $ O O # : # # : = $ O X $ $ $ $ # - # $ X X X X X X $ 2 2 # X . . $ O O # # # $ X . X X O $ > & O . O O X O 5 3 2 $ O O + : : : 5 N s s b N V s d U [ U a ; f ' 1.k.[.c.c.q.e.{.A.5.G.q.w.b.b.S.w.C.x.F.S.1.1.5.5.w.` q.v.1.q.q.v.x.H.q.E q.e.v.c.c.v.[.G.A.q.A w.w.[ E ^ I g < @ @ @ @ .           . . . . @ @ @ . @ . @ < @ @ @ @ @ @ @ - d n W X.B.I I .XU.F.3.R j.M.v.3.T h.^ ! 3.P n k.2.h.c.G.v.c.F.q.w.E E I 2.n i M.b.J.F.c.A.x.F.v.F.qXS.q.1.E 1.w.{.e.5.1.R q.e.w.5.x.x.z.q.c.[.0XG.b.z.F.XXw.b.1.5.c.e.x.[ c.F.x.C.{.6.x.c.A.H.[.[.v.z.R v.XXw.S.G.x.[.b.A.C.R w.J.A.z.5.e.S.w.F.{.e.q.z.2.R R v.1.j 1.c.S.e.w.x.q.j w.XXF.A.w.w.5.E E z.q.w.w.[.[.b.5.1.4.` L n A I G.v.A.j f b.v.,.[ Y j ` b.A.3.U b.T w.{.v.[.l.l.b.q.q.[.x.A.A.z.4.J.J.,.1.4.k.A.3.j R f k.z.q.z.Y R ` E v.q.v.b.[.[ E E ` ] k.5.3.v.q.j 4.5.R R j f f v.l.[ j d ! f > - > 3 1 - 1 1 : 1 - = ; > - @ < - X . . X + = - 1 ; > - - - = = = : 5 z b M H @.) ! W H M x a a 5 a z x H W W ! ! ) ) ! ) ! ~ ~ ~ ~ ~ ~ ~ P ~ W W H M F F b ",
"$ O X X   X O $ $ # : $ # # O X . O : 2 $ $ $ X X X # : : # # $ X X X + # $ # - $ X . X O O $ $ $ : : O . . . . O $ # 2 # X . X X X X @ : : $ . . . O $ $ 2 : $ @ # $ $ - 2 3 4 8 a s s m s a 4 b W ] ' M.k.] 1.k.c.k.A.R k x.x.c.F.q.w.1.1.[ e.{.b.A.w.w.q.q.F.w.R F.c.[ q.w.v.{.w.5.5.x.v.C.e.j w.b.v.XXe.[ 1.j f f a ; @ @ @ @ @ < @ # @ @ @ @ < @ @ < < 1 1 - < < 1 d a 1 n I M n P ] l./ b./ l.3.E ` 5.5.Y 1.R z.A.4.w.A.5.` q.q.k.B.v.v.0X{.e.v.q.5.c.w.C Y 4.M.G.[.[.F.q.q.z.v.A.F.[.C.e.w.c.G.[.e.q.q.5.w.q.F.[.e.e.v.b.F.G.b.x.G.A.G.3.q.[.c.[.q.[ w.q.1.f T A.[.x.C.C.e.w.x.G.` l.l.v.q.Y x.S.x.c.{.z.z.[.[.[.q.E } 5.A.[.e.G.{.S.G.z.F.c.j E J.J.A.b.[.XXS.c.c.A.z.5.w.c.A.5.k j r C J.c.q.5.x.6.A E w.[ q.` z.A.4.b.x.x.1.j M.XX[ 1.3.f r g ' 3.U q.q.` x.b.F.1.z.G.c.F.1.1.[.x.F.M.k.q.v.v.R Y j ` 1._ j R p f h q.q.[ q.c.b.k.C ` ' B.k.1.' l.E E l.q.v.3.5.A.v.R ' [.M.c.q.l.P a 1 - < - - - 5 2 1 2 - = - 1 2 # O = = O . . . O # - 1 - - - - ; ; - - - < - - 2 5 5 b F F @.@...~ W N x 4 4 3 a s b m W Q ~ ) ) ~ ! ) ~ ~ ~ ~ ~ ~ ~ ~ ~ H P H H ",
": $ X X o + X X $ 2 3 2 $ $ X X X X $ 2 2 # X X X X $ : 2 2 # X . X X O # : : : X   X X $ $ $ 2 : # $ . . X X . X $ : # O . X X X $ & # # @ O X X . $ # # # O O X $ # $ : 8 b 8 x F F H P m b b b s ] b.b.v.v.z.3.4.4.1.[ ,.5.C.G.q.T q.4.j E x.S.5.q.w.5.q.z.b.w.b.XXb.w.z.q.5.F.6.,.Y 5.b.b.5.E 1.5.w.v.R Y j a r ; ; < @ = < ; a M g 1 i L _ F Y d n ] ! I ^ L T L _ k._ [ ' v.4.3.z.c.c.c.H.T L T j j A E 5.q.z.b.R R R w.c.G.q.v.v.[ 1.k.z.w.e.w.x.G.x.q.c.v.c.G.e.,.A.b.` z.[.c.[.c.5.5.q.w.#Xb.[.w.1.1.w.S.c.w.q.[.b.q.w.q.S.w.w.w.T 5.z.A.c.A.x.q.1.F.x.b.G.R w.e.q.[.x.u.{.8.R T j [ c.b.q.w.5.A.G.c.q.q.w.q.q.q.q.6.C.w.z.z.x.G.x.6.6.6.z.z.c.A.1.c.H.4.F.XXX.I v.c.` j [ x.1.q.E U q.1.e.x.5.w.1.h p 5.e.E w.[.A.[.x.R ,.,.5.c.k.I j j f U j f 1.R Y [ w.E E j g z.c.w.E p j 6.8.1.,.5.T 4.q.j U l.@X.Xc.4.Y E k.f 3.G.b.F.b.T ' 3.L f B.M.1.[ L U T f ` G.` [ S.z.R 5.x.q.' a i 1 1 4 = @ = - 1 1 ; - : > < - > 1 < O # = O       O $ - - - 1 2 > 1 > - 1 - - - - - < = - : 1 8 b F J @.@.) W F N x a a 5 a s b m F ~ K ~ ~ ~ ~ ~ W ~ K ~ ~ ~ H F P ",
": # + $ $ $ O X X # 2 2 : O X X O $ O $ # $ O O O O @ $ : # $ X X @ $ $ $ : # $ X X X X $ = : - $ X . . o X X X O $ $ X O X . O $ : > $ . X O X X X # 3 # X O @ X O : : 2 4 4 3 a m H F W M F H F b U k.v.x.b.A.z.c.v.[ q.b.3.q.q.5.w.v.q.q.4.b.w.1.5.b.q.x.1.[ 1.w.F.[.G.b.z.R q.w.x.w.z.3.z.x.x.c.w.q.1.,.[ Y a ; ; ; ; ; 1 a d [ / E L f ] q.4.` E ` k.4.` T R 3.L 1.` E j M.k.3.4.4.4.V.[.b.1.c.k.g e.[.q.v.c.z.j E A.c.f j q.R 5.1.[ z.' j R C.A.A.4.x.S.x.F.S.` 1.q.C.{.A.[ 3.z.XXA.w.A.S.A.c.F.{.b.x.{.e.{.` Y w.q.q.q.w.w.[.A.v.v.c.S.XX.XE k 8.A.{.w.e.b.{.1.5.G.[.b.j 5.e.j f j v.b.F.F.{.w.Y 5.E h b.c.#Xq.f b.c.[.{.q.{.x.3.v.4.,.8.7.8.A.A.F.v.v.3.R c.F.z.` c.F.F.A.b.oXF.F.z.c.c.w.F.G.e.1.c.4.q.w.v.c.A.q.XXG.z.c.C.G.S.q..Xb.' R 1.k._ B.B.z.j 4.J.R R c.c.5.8.q.p j w.x.C.1.[ } 4.XXG.1.M.U.b.q.R R 3.c.[.k.4.b.v.5.x.x.k.l.L U B.z.w.R T z.b.1.Y z.z.x.[.` g ,.q.<.V.U g F ~ W > O # - 3 - 2 1 1 1 # = 1 1 < O $ # O     . X + = - 1 ; > - > - 1 - 1 1 - 1 - - - < = - = = - 5 4 b H ~ ) ) ~ H F N x a 4 a a z s N J H ~ ~ ~ W ~ W H ~ F ~ H ",
"+ : : > $ X X X X O $ 2 : $ X O O O O O $ $ $ $ $ # # O O $ $ O X $ = # $ $ X X     X O $ # $ X X . . X $ O + # $ X . X X X o # # = # X . X X O X X & - $ X X $ O O 2 5 : # - 3 2 4 s b F m m b 8 4 s ' b.5.w.w.R R 3.J.x.3.E k.q.E q.q.4.` 1.G.G.b.q.q.q.c.` q.[ 1.[.q.1.q.z.c.c.w.w.c.w.[ E x.[.x.5.q.1.[ ` Y g g s f j f L ' I ` ` / q.z.3.1.R 1.q.6.5.5.E R z.1.I ` v.4.j ' l.4.3.J.R R ` 1.[ 5.G.F.[.{.q.q.v.4.E A.e.x.1.g 1.q.w.4.5.b.E i E 5.5.3.E E [.{.t.5.1.j [ w.w.z.Y p q.e.4.e.{.C.e.c.b.b.1.5.{.{.G.F.q.[ [ j 1.[.S.w.[.G.q.[.{.A.5.k k 8.C.S.1.e.S.e.q.v.[.H.w.E G.[.F.e.k.[.qXH.A.c.v.q.q.q.5.c.[.[.z.q.[.{.XXb.5.w.I r P v.,.R C.x.b.F.F._ ; 1 C 3.3.XXG.F.c.1.w.q.c.B.XXXXc.w.w.5.F.A.k.v.v.XXXXb.5.[ E q.k E [.[.q.5.1.[.b.q.` I l.L I l.J.k.1.z.1.R J.A.T j L g I b.b.q.,.1.j 4.XXS.e.b.XX5.E j Y F.b.k.q.` 1.1.w.Y q.v.` U T z.4.[ ` l.b.F.q.q.A.b.z.q.1.1.1.j 3.v.1.k.` ' H < @ = - 3 - 1 - 5 - - - - 5 - @ = # X .   . . $ = - - - - 1 - - 1 - - - - - ; ; 1 - > - = = = # < = > 5 8 c F H H ~ J H F N b z a 5 a s x m m F J ~ ~ ~ H ~ W ",
"X o : : # X X O X X X O $ : # # O $ O X X O # : # # $ . . X $ $ # # # o X X X . X X $ $ O O X X . X X X $ : : : X   X X O @ @ $ : # X X   X X $ # # $ $ X X . $ = $ : > # $ : 5 4 8 4 s v b v 8 8 4 a ] b.q.z.` Y v.x.b.] R ` k.[ 1.q.b.4.k.B.b.z.v.3.4.w.v.c.c.R 1.5.[ 1.5.R q.5.z.J.x.[.q.} E 1.q.1.q.R 1.E T 3.q.3.' l.v.Y E 1.1.1.5.b.{.w.w.q.q.x.w.5.5.1.R 4.k.z.c.b.[.G.[ v.4.q.b.F.A.j E e.6.[ 5.{.e.c.c.A.z.v.G.e.c.v.q.J.G.{.k.b.b.k.` R R 5.e.H.A.S.K.C.S.v.q.F.S.S.c.v.w.v.b.z.x.w.t.q.E x.[.q.8.A.5.E 5.z.x.` 5.F.{.{.G.T Y x.J.[.5.t.K.8.k j A l q.[.A.F.4.F.v.b.M.b.J.oXx.v.1.b.v.q.c.4.w.c.A.[.[.q.q.A.v.c.q.c.w.w.1.Y g L C i j c.A.v.R j g = @ < 3.b.J.{.A.S.}.S.q.R b.[.[.x.A.S.1.[.q.p ' J.b.[ ^ 1.E Y R 5.Y 1.w.q.R c.w.5.q.L g L d W P ] ] j q.l.' ` k.` f f q.V.z.L c.b.` [.F.w.c.q.1.w.q.x.c.q.x.e.F.[.c.p k 5.5.x.c.5.M.F.q.q.C I 3.h.T [ ,.w.w.4.E M.[.v.[ F.J.b.v.T j a @ = < < 1 1 > 5 3 - - - ; 1 ; - : # O .     X @ # - - 2 2 - 1 2 - ; - < 1 > - - - - - - - < = - - = # # = - - 2 4 x m F J ~ J H H b b a 4 5 5 a b b m F J ~ J ",
"X X X $ $ # + O O X X X X # 2 : : $ X   . . $ : 2 $ X . . X X # : : $ X X X X X O # : % X X X X . X X X O # # O     X X O $ $ $ O X X X   . O : 2 # X X O O X @ : 2 # O # 3 2 2 8 x 8 z z v v 8 x c s I ` q.v.k.` 5.q.c.v.3.4.4.1.x.v.` U 1.q.1.4.R 2.J.F.w.q.5.e.C.q.w.v.1.1.q.Y c.XXw.1.R w.b.q.5.w.q.q.c.w.q.v.[.z.q.b.v.` w.A.x.5.A.XXc.1.5.[ w.G.q.1.R T w.[.z.z.k._ q.` w.z.A.c.c.e.w.` z.q.1.[ q.e.6.w.w.z.4.4.5.[.[.q.q.v.1.1.c.F.4.4.[.A.q.A.S.e.c.[ x.[.x.` 1.S.5.F.G.v.{.qXb.F.x.e.1.1.5.C.S.F.$XJ.1.4.F.F.w.1.x.G.S.e.[ E w.A.F.XXS.{.S.5.A.x.5.` w.x.} ` 4.c.w.b.q.` 5.x.G.5.q.x.E 4.q.E e.{.x.[ 5.5.5.q.q.q.[ E q.z.z.x.1.j T Y 4.H.[.A.4.k.v.' P g z.c.c.A.t.e.e.q.c.w.E w.x.w.w.1.R v.c.Y [ B.b.L I q.[ q.q.5.R 1.q.1.} [ q.,.E j ` l.d m s L U I _ T T Y [ T _ ] ' k.I 1 ` v.z.c.v.x.c.1.E 5.A.A.e.Y [ v.1.T ` j w.c.G.[.1.j 5.b.k.J.` I f U f U q.1.1.q.k.b.c.w.1.5.e.v.3.v.' a = = - > > 1 1 5 5 > < - - 5 > - - = O       X O $ - - > ; - 1 2 ; 1 - - - ; - 1 - - - - - < 6 - - - - = = = = = @ - - 1 5 c v V J ~ W H F m x 8 5 5 4 4 s d m ",
"X X X X O : : # + X X   X X $ # # $ X . X X O + # X X . . . X $ : # X   X X X X # : : X X X X X X o $ O O O O X   X X X # : $ X . X X O X o $ # # o   X # $ X $ 2 2 $ X $ 3 0 x m J m J x b V m b b M _ q.3.] B.z.q.c.b.b.c.c.b.b.v.b.4.5.v.v.w.3.4.V.v.3.R [ q.c.R 1.b.v.4.q.z.w.x.w.w.w.w.e.[.b.w.w.1.v.F.j Y x.A.v.R Y w.R R [.w.,.R e.e.q.[ R E A 5.b.k.p 1.z.` L ` f ` b.e.G.c.E R w.w.S.b.q.w.x.v.S.A.t.A.G.{.t.w.e.w.Y E z.R [ 4.3.1.c.J.v.T 1.v.A.F.E 4.5.R b.[.G.q.q.e.w.w.J.b.G.c.XXXX*Xt.7.e.5.5.1.4.G.S.{.7X{.1.5.C.q.R S.qXC.b.4.z.G.A.qXA.G.[.] v.4.3.c.F.w.E j g [ XXrXoXA.{.A.Y c.b.A.c.F.5.5.F.{.e.{.{.[.q.R v.F.oXw.E R c.v.J.{.A.A.[.F.3.B.[.z.S.A.S.w.j E 5.w.[.[.E w.F.e.1.j A.b.q.[ T B..XT ' c.q.v.F.z.v.b.S.F.A.q.F.e.R [ k.M.l.s ~ W 3.] _ 4.1.` b.G.J.B.M.I a a k.x.A.[ A.4.q.c.4.v.F.c.w.q.q.` [ 5.` ,.z.c.k.b.5.[ 5.` 1.c.M.! r a L ' k.T j _ q.T ` k.q.<.C.z.q.v.B.d - = - 1 - - 2 > > 1 # - 1 1 - ; : = O       X O $ = - : ; > - > 2 1 2 1 - > - - - ; - - - - - = - - - - = = = = = = = = = = - 3 5 z m J H H W H m b s a 1 1 4 ",
"X X X . . $ # = $ X X X X X X X $ O O X X $ O X X X X X X X O O $ O X X X X X O # # X       X + # # % X   . X X X X X $ : # X .   X X + # # $ O X X X X + # # $ : # # $ = 2 8 8 v b m m b m J H m x d 3.4.E ' v.4.` z.q.z.b.v.e.4.` M.G.b.w.v.` 1.` 5.z.z.1.[ 4.w.q.q.E q.w.G.XXx.q.,.E e.[.{.[.x.[ q.[.l.l.T q.e.4.4.[ j j i g z.1.e.v.[.5.w.w.w.5.j c.[.x.j R c.Y p ; ; v.0XF.5.4.3.E q.q.G.q.F.[.' [.b.q.e.q.x.A.}.[.v.1.` [.e.j E j T 3.4.4.4.Y Y c.0XG.3.b.B.[.0XoXoX[.e.w.6.6.1.T ` c.b.c.{.x.5.E R Y R 6.w.v.oX0XJ.` 1.R w.[.x.C.5.1.E k.c.b.XX{.G.M.M.B.F.v.c.c.C.6.R j j b.0XS.5.e.E R 0XoXb.G.J.1.3.{.oX[.*Xb.e.q.[.oXb.[.c.[.H.z.[.A.1.8.,.v.XXB.XXF.x.C.K.S.1.E 1.1.q.J.x.[ c.S.x.q.5.[.z.1.[ j 4.k.f j 5.1.5.[ [.F.w.b.F.[.q.1.{.S.G.b.Y B.M.f 1 ^ M.v.[.[.5.q.F.1.R 3.! 3.3.T 5.E j R g g 3.z.` G..Xz.k.z.` 4.J.x.3.[ z.q.V.5.E ` _ f ` _ f P l.q.Y 1.z.R Y L ^ l.M.q.4.q.1.z.J.B.N = - - 2 2 ; > - 1 > - - 1 1 1 1 1 # X X     X O @ # - - - - 1 1 - - - - 1 1 - > 1 - > 1 - - - > - - = - = = = = - = = = = # # # = = - > 4 z v J H ~ H H m N x ",
"+ O X .   X O # $ X O X X X X X . o # $ # % $ X X X O O O O $ X X X + o X X X X $ X       X X O # # $ X   X X + $ $ # $ $ $ X .   X O % : O X   O $ X X $ 2 : $ O $ = : 3 0 8 3 : 3 8 z c c b x 8 5 W M.1.Y z.[.c.` k.5.x.e.` g g 1.v.F.c.c.z.k.A.w.q.q.3.4.v.4.4.z.v.4.3.R x.G.b.E [ E w.oXtXF.q.j q.J.' [ ` v.v.5.1.c.` Y Y M.c.` E [ j 5.c.F.A.b.G.{.0XJ.G.q.q.q.] d j 3.w.,.E v.A.[.w.1.F.w.[ 1.q.c.c.q.v.T 5.A.{.[.[.w.c.{.S.z.` 3.q.` q.q.q.z.b.w.R E q.B.V.M.J.b.z.1.Y k 8.Y j [ q.1.Y [ [.b.1.5.4.E x.qX1.R 5.T 1 i E E 5.F.A.w.w.e.c.b.v.F.{.x.T L L q.` g g 4.A.4.e.F.5.1.1.1.5.e.1.[ e.b.q.q.^ Y Y Y w.F.x.w.c.A.w.A.e.k.3.q.[.c.[ j Y 7.E j k.[ [ 4.w.b.c.q.1.J.w.[.4.Y 5.G.G.[.[.q.Y 5.b.c.b.q.q.[ c.M.b.b.' Y 5.5.q.[.F.c.5.[ w.1.R P f q.XX[ 1 ] l.v.c.S.w.q.z.1.' k._ q.F.Y j g d i a 3.z.q.b.c.` R E 1.F.B.J.k.U ] [ E T v.w.' q.) ^ L n _ l.q.w.q.z.M.3.` l.B.` T ` f [ 4.F.B.s @ = - 1 - - 1 2 1 - # : ; 1 ; ; > # X       X O $ = = 6 2 > ; - > - - 1 - 1 - 1 - - 1 - - 1 - - - - - = : = - - = = = = # = # # - # # # # # : > 4 c b b H ~ J ",
"# $ . . X O X X O $ $ $ X X X X   X $ : = + X     X O $ O $ O . . . O @ X O X X X   X X X X X O % O X       X $ # # $ O O $ $ . X X $ $ $ X X X X O O $ $ # # O . O # 3 x c 8 5 3 8 x 0 z 8 z c 8 a l.B.z.q.v.c.k.c.M.4.A.5.[ [ R z.v.v.k.3.q.z.c.k.E E g ` q.q.4.R z.b.q.x.x.[ w.1.5.w.F.v.4.c.A.1.z.w.k.v.` 4.c.v.F.b.[ k.J.@X.XG.Y i j 1.w.c.1.E E 7.K.w.` 3.! L U ] q.v.5.1.q.[.[.XXb.c.l.3.R E 1.A.[ E ` T q.[.tXXXb.w.q.b.c.q.c.{.{.F.c.E Y q.{.b.j [ E L d j 1.1.q.4.1.e.S.e.8.A.c.q.1.E q.q.v.[ K.[.H.S.5.3.q.U d 3.q.4.b.{.oXv.4.w.S.e.1.XX[.[ i a i f i g T q.F.G.[.S.x.S.x.E 5.{.S.w.Y [ q.F.[ 5.R g E c.x.R 5.w.h k 5.T j w.F.F.1.p U J.5.g s Y 1.E 5.G.b.q.[ 5.c.{.e.w.S.{.[.w.w.b.x.x.$Xe.c.c.q.b.b.v.M.B.l.` v.q.q.XX[.w.1.e.C.5.T i p R x.v.k.[.l.q.[.5.5.G.b.q.M.B.F.R E q.4.' l.U g q.z.R z.z.p a [ q.b.c.5.T Y k.q.E f ` c.q.v.[.L d ] l.M.' q.l.b.M.4.b.k.B.B.q.` [ l.T I ` s $ $ < - ; 1 - > 1 - = - ; 1 1 > - = X       X O $ # = : - > > > 1 1 - 1 - - - - - 1 - - - - - - - = - - - - - - = = = = = = # - # - # # # # # # = = - 2 3 x m ",
"# $ . X X X X X X + # # $ O X   . X O $ # X .   . . o # $ O .       O $ # # + X     X X X O O X X X     X   O $ $ O . $ # # O $ O $ O O X X       $ # : # $ $ $ $ X # 2 8 x 4 x c m m m v 8 B m x s ' 4.5.3.v.q.k.z.M.c.A.q.q.c.c.q.4.5.1._ [ 5.4.q.R E C q.b.c.b.v.c.x.x.A.v.v.k.q.1.R 1.` E z.z.Y 1.x.w.c.4.j q.q.1.R R G.7X{.7XH.5.R z.b.b.A.v.4.p j j 1.5.q.] L ! J.[.v.F.S.F.G.b.[.J.[ l.c.q.q.[.b.b.v.d I q.4.[ E j 1.[.[.q.b.oXF.[.{.B.w.q.4.v.B.[.XX1.1.E R q.A.F.A.{.*Xe.S.{.K.c.k.q.1.b.[.c.w.b.b.b.C.S.q.z.b.3.x.G.[.k.b.q.` b.5.E ,.5.G.G.4.] ] U M.5.b.c.c.v.E w.e.w.A.w.q.x.b.x.C.q.[ c.G.c.v.k.R [ A.[.w.A.{.w.1.E Y E F.[.[.w.z.c.b.b.v.j 1.G.z.A.w.j E 4.4.q.E E e.t.t.t.q.F.A.{.XXC.5.A E c.J.q.1.] l.l.M.` [ ` c.5.E 5.q.b.[.A.1.1.w.6.w.G.b.z.G.5.R w.e.b.[.k.M.J.z.G.F.k.M.l.n F M.k.A.v.q.R T A.z.3.G.[ j U l.v.' E x.c.v.B.v.C d n f l.l.` f 3.q.[ v.k.[.M.l.v..X' i g U N # # - 2 5 1 - 1 5 1 = - > 1 > 1 - = X .     . O O $ = = # # $ - - 1 2 - 1 - - 1 : - - 1 - - - - - - - - = - - - - - = = = = = # - # - # # = = # # $ $ # $ # - ",
"o + $ $ O O X X . X X $ $ O     . X X X X X X X . X $ $ O . . . X X O $ : $ X     X X O $ + X X   X X X X O $ X . . . & 3 # $ = # $ . . X X X X X $ : # O X $ # = & > 8 3 2 2 x m J ~ J c m m x 4 L ` 1.q.z.k.` q.R R x.v.v.z.1.q.5.4.z.k.' [ 3.` z.c.z.w.v.J.z.z.A.k.z.A.w.5.5.q.b.e.1.1.w.q.q.q.[ 5.5.1.1.k.k.b.w.1.f ` [.0XS.w.e.k.v.XXb.' v.b.V.q.5.w.G.w.4.4.L _ M.q.1.5.[ 5.q.5.j [ ] k.w.' w.b.l.M.w.3.] z.w.1.p p 1.c.4.` x.G.w.{.{.q.q.5.[ j q.H.b.v.w.4.[.{.6.6.w.F.w.5.w.w.x.v.v.] b.q.F.w.q.j j [ w.b.b.b.0Xz.q.A.w.[ [ Y b.XXF.S.E ` v.G.w.b.[.c.J.x.1.c.q.E [ c.x.6.5.w.q.5.e.{.e.e.c.C.{.8XG.XX@Xb.c.b.c.e.{.A.w.q.T q.[.[.J.q.[.M.B.b.v.1.4.G.B.v.x.x.C.e.7.5.} 4.x.1.5.G.[.oXb.A.A.e.,.p j w.q.q.R 1.q.I U a i Y ,.[ p E ` q.c.q.x.A.5.w.E ` [ ` q.j g q.q.q.M.L P Y k.OXG.1.U _ F ! v.l.c.G.F.x.8.5.4.q.XXJ.k.[ ` b.k.E 5.5.,.z.3.q.q.T U T B.v.T ` ` 1.q.J.w.` 4.E 4.[ R q._ s $ O = - 5 5 2 1 1 > - - 1 ; 1 1 ; = .       X X $ # : = O . X X # & - - > - 1 1 - > - 1 - 1 - 6 - ; > - - : = - < 6 - - : = = - # - = - # # # < = # $ $ $ $ $ ",
"X X # 2 # $ X   . X X X O X X X X X X . . X X X X $ + X X . . X X X O + O X   X X   O $ $ X       O O O $ $ X   . . X # = $ O # # .   . X X O $ # $ # O X X X # 2 8 z 8 3 2 3 8 c m m c c m m 8 a U 3.q.k.q.4.4.1.` q.b.l.v.B.z.b.q.5.` ' M.M.q.^ k.v.k.4.w.1.w.S.G.3.R q.v.J.G.v.q.[ 5.v.v.4.5.3.4.F.w.j L [ L I _ k.T w.c.5.w.e.x.k.U P L n ! s f q.w.C.[.[.w.v.J.4.R q.q.1.E w.v.z.v.5.Y R F.F.w.j f [ w.v.q.z.q.b.1.1.q.[.e.w.e.e.e.6.R w.[.v.5.1.4.z.4.q.z.E 4.S.8.1.1.A.A.x.5.` [.w.T Y c.q.c.c.v.[ 1.v.c.v.XX[.D.C.A.x.q.x.A.v.F.e.c.[.w.A.q.R 1.,.x.F.F.e.` ` j R w.j E c.b.S.F.e.[.[.F.0X{.w.e.{.G.XXJ.[.G.z.q.w.e.w.5.q.F.F.[.b.3.[ 3.L ] k.q.S.1.Y ` q.A.c.S.A.A.x.x.v.A.v.k.b.x.w.1.4.w.J.z.[ 5.x.C.b.q.5.w.f n U _ T I R ,.v.k.1.c.k.q.x.R f g f g d ` [ i R q.1.q.I I [ ) U 1.R L k.l.L i g E _ 3.c.z.5.c.J.b.q.3.Y d l.3.w.4.1.R Y Y w.z.q.T L M.b.B.q.4.z.T q.1.R 3.q.q.] 4.k.v.s @ O # 1 1 1 1 1 1 1 = - 1 1 ; - - = X       X O $ # : # X X $ . X # O O 2 2 = # 2 2 - > - 1 - - - - - - - < < = = = # - - - - - = = = = = = # = = = # # $ # < ",
"    o # # $ X   . X X X X X + O X X X   . X O + $ o X   . X X X O X X X X X X   X o X $ O .   X   X $ # $ X     . X X O $ $ X X o X   X X O # : # O X $ O O O # 3 0 8 3 3 c v m b v 8 > 8 v c 5 a n Y [ 1.1.q.` 4.z.x.M.l.q.c.v.c.q.,.j ` B.B.` P 1.m.v.` 1.E q.A.x.5.1.[ [ b.[.b.w.v.b.c.v.v.1.1.4.5.' _ d N ^ d g f a T R p E q.Y n f d f 1 a ; d ` w.x.q.1.q.A.oXA.b.[.x.b.w.v.v.G.XXA.5.5.w.w.5.1.1.q.q.v.q.R 4.l.l.B.G.{.A.b.c.A.e.7.e.A.[.XXb.c.z.z.5.3.k.4.3.k A q.q.m.oX[.l.q.v.R f g q.J.c.z.k.4.5.q.1.q.G.C.u.{.t.5.w.A.[.3.E R C Y z.c.T Y x.G.{.S.A.G.G.C.5.A.[.q.G.[.q.A.[.w.v.b.{.{.x.q.5.,.E x.x.q.A.x.1.e.w.5.[ w.XX[.G.q.j Y 4.Y f [ w.w.5.5.w.1.4.x.c.S.[.5.v.b.v.j [ q.x.[ p i Y v.[.F.F.b.1.q.[.5.C d Y M.v.v.l.M.B.c.c.q.q.b.4.` z.Y q.v.' L [ ] q.q.q.b.F.k.M.l.v.q.1.` k.5.[ [ R 4.R j T R E E c.M.k.` E ! I I _ b.3.4.q.E k [ 1.E C f [ v.q.5.x.F.b.e.q.` 1.q.z.q.q.q.3.a @ $ = > 3 1 1 1 2 - < - - 1 ; 1 > = X       X O # = - # X O = # X $ O X = : O + = # = # 2 > - - 1 - - - 6 - - - = - = # # - # = = # = # = = = = = # = # # # = ",
"  . . X X X X O X X X .   X O $ $ X .       O # # X       . X @ $ O X   . X X X O o X X X X     X X $ $ X       . X + # # o . . X X   X X $ = # O X X $ # # # : 3 5 5 8 v v m b M B x 8 c c - = 1 f L U Y Y R 4.4.k.R [ ' q.l.q.1.E 1.1.v.J.3.f C 1.] _ [ 5.w.e.v.z.v.b.4.` v.c.b.b.[.F.v.A.c.q.z.x.j.v.c.k.l.l.[ L f d E j i f Y C L 3.l.! i ; a 3.c.q.q.4.R [.G.e.x.b.A.b.[.oXq.E 4.x.F.v.e.x.A.w.q.[.w.v.OXG.4.l.f g U v.5.E [ 3.e.C.D.{.5.q.q.3.` R w.q.c.A.F.G.1.Y q.] f X.#._ R E h Y Y p Y k.[.z.b.F.q.g T w.e.t.y.5.A.G.[.[.q.[ ` ] l.XX{.S.6.t.[.K.G.K.[.[.{.qX{.q.z.XXG.c.b.[.q.[ F ` c.e.e.A.5.1.A.S.5.A.v.[ q.q.b.b.w.e.w.e.q.1.q.q.[ 4.v.c.q.q.A.[.E T v.z.A.b.z.k.[ U U ' M.b.' I j L M.z.q.F.c.R z.XXx.,.` ` ] ] ] ] #.q.' 1.Y E l.c.F.v.4.` q..Xk.] M.B.E R 5.[ L _ l.v.w.5.z.F.b.F.A E z.4.M.b.q.4.[ 4.k.A.S.b.M..XB.) U l.v.1.w.b.` q.w.U ` 3.R 1.R w.c.w.q.w.1.[ 5.w.w.` v.l.g 2 2 - > 2 1 5 5 5 - = - - 5 1 > ; = .     . . O $ # - # O X # : # # O X # : X O $ X X O $ 2 - : - - 6 > - > - - 6 - - - = # - - # = = = = - # - # # # # = # # ",
"X .   X X . + $ + $ O     X X O O X .   . . . O X X .   . . $ $ $ X       X O O O X X         X X O X O X   X   . O & & + . . . X o X o $ $ $ @ X X X O : 2 3 3 : = 2 c m m m b v x c V m 5 # @ 2 a d f d g U 3.z.q.1.R [ ) q.' Y j 5.w.v.J.v.E ` v.4.C q.G.[.b.c.4.1.c.k.h.z.q.q.z.b.v.G.b.4.k.q.A.K.B.v.H.4.} ` q.w.c.[.q.` ] T _ l.k._ _ _ 3.` 5.F.F.F.[.c.F.c.5.S.v.[ z.XX[.w.1.z.x.F.z.v.q.b.b.q.b.q._ 3.[.b.U a ; L 5.x.q.1.E 5.S.{.w.8.Y } 5.R 3.q.5.H.{.q.x.b.q.4.[ 1.k.l.J.[.J.q.q.q.[ [ G.{.G.b.c.z.` v.b.5.E h k A.A.c.z.q.4.b..Xc.b.[.{.x.3.F.A.H.}.e.F.[.t.5.E ` b.F.J.G.z.C g ; i [ w.q.w.q.c.x.8.w.e.5.` b.z.c.k.k 1.8.E 5.c.z.1.b.c.z.w.q.w.w.c.j g q.H.[.4.E R f g U m.4.4.k.B.k.j 3.4.q.c.5.Y q.b.w.c.q.1.R f C n ; g I j I [ C v.[.v.z.1.c.G.` ` q.w.R q.w.5.g r R 5.1.E ' v.3.F.w.j _ M.v.z.z.c.z.3.1.1.b.B.c.l.^ v.' T l.z.c.b.q.k.B.k.] c.k.` C R q.j [ 1.,.z.c.1.q.' #.] f 1 1 - - ; - ; > 5 > < - 1 1 > ; - # .       . O # = - > # X O # 2 = O X : 2 X O # . . X . X # $ $ # = > - > - - - : : # 6 - : # - - - = = - = - # = - # # # = ",
"@ X . X .   X O $ $ .     . X X X X . X . X . X X X X X . . o O O   X   . . O % o X     . X X + + X .   X . . X X $ $ X           # & : O X X $ X X + $ : 3 4 2 : : 3 3 8 b m m c x m B 4 = @ $ = ; a a d L / 1.k.z.z.4.` q.q.R T 4.v.k.c.c.c.4.v.J.b.k.3.q.c.w.q.1.4.F.v.Y [ 1.R ` [ 5.v.v.w.k.q.q.4.5.c.XXv.` q.z.q.A.qXG.[.z.I E k.w.j [ z.v.4.[ 1.x.[.0Xx.k.q.[ 1.E } 4.b.z.z.G.G.b.J.z.1.3.v.b.x.5.j g Y x.q.U _ ] k.v.b.{.{.[.S.c.F.F.w.1.w.[.XXF.b.b.v.c.w.C.x.w.w.w.c.v.[ q.[.[.G.c.c.F.A.[.e.S.S.w.A.F..X[.b.4.R 5.v.3.E q.q.1.[ 1.` w.c.x.k.L U Y 1.q.R Y E L j f 1.x.b.z.R L g f L ` w.5.Y j 5.v.c.w.,.R j j w.c.v.` j Y 1.6.A.G.w.T 5.5.b.c.Y I b.c.5.` A.x.b.q.3.1.f g 1 Y 2.4.3.1.v.1.` 4.R E 1.` L T U f E w.5.U [ 4.F f I U 3.v.[ ` q.v.e.E q.q.` ' l.J.c.z.x.w.q.I Y 1.E j z.v.[ ' ] I _ b.w.q.R ` l.5.5.q.b.4.[ j i _ 3.z..XM.3.' P f ` q.3.c.v.Y I q.z.w.3.j R v.b.k.3.T 3.] d 5 1 - 2 - ; - - 2 - = - 1 1 1 - - # O       . X @ = - - 2 $ . . $ - $ . & 2 X o $ X O # o . $ O . X X $ # - # : - - - - : # - : = - - - : # - # : # - # = # - ",
"$ $ $ o .   . . O O X . . X X . . X O O . . .   . X X X X X X . . X . . . X X X X       . O + + O     . . X X + + X . X X   X   X # : $ . . X $ # = 2 - 2 2 2 3 3 c x 8 x v x x m J J 8 = X O $ O $ 5 a a C E Y q.q.q.l.l.b.x.1.R 5.5.[ z.q.4.q.F.x.` 1.' 3.1.T R ` q.v.q.3.q.q.w.w.v.w.q.w.w.q.q.` } E 1.1.1.1.1.q.1.e.S.5.q.q.[ ` c.k.1.v.z.1.5.j g 5.S.q.U E E v.1.j / x.e.[ 1.x.c.l.] ' 4.v.c.b.v.[ U z.G.[.v.q.v.q.` 3.k.{.{.e.S.v.w.b.q.1.b.[.G.b.w.q.q.b.[.b.w.5.b.[.C.w.R 5.z.v.k.z.z.[.A.w.8.5.C.w.e.x.{.c.x.[.G.F.v.k.c.G.b.1.5.q.5.w.1.j a 1 i g g g i 1 f q.q.R [ v.z.q.[ U L ] B.[.b.E U z.b.q.[.G.1.f i Y w.k.M.M.q.U e.[.A.x.w.5.[ 5.x.q._ _ B.b.b.w.b.v.v.XXJ.` d a n U ' _ q.q.z.` j 2.[ 4.b.z.n F d n T f C q.c.5.g a W v.' L T [ R R 6.8.w.v.z.M.h.] k.J.[.w.b.J.v.5.1./ R 1.[ N f L l.1.5.1.R c.z.` w.q.q.1.3.1.1.R R b.b.k.] L n U Y Y E 5.1.q.b.J.G.c.` Y ` k.3.k.L s _ ] 5 # = 2 1 1 2 ; ; 1 1 = - > ; 1 1 > # .       X O $ # = = = : # X X $ O X = - X X % X + 2 + X $ o . X O X O $ O $ - - - - - : - = = - # = = - - - # = - - = - # ",
"X O $ O . . X . . X O O O X . .   . X $ o O .     X O O @ o X X . X X X X X o X .     . . X O X .       . $ $ + X .   X o X . X o $ $ X X . . $ & 2 3 2 2 # > 8 v m m m B c 8 3 c m b > @ . X X O $ = - 1 a f d f I R q.1.z.q.3.1.1.1.1.` [ Y j R E j 3.B.b.1.j [ 5.R j T c.q.w.G.w.A.A.5.v.x.1.q.1.q.1.Y E 4.x.A.A.q.5.e.w.e.t.x.w.z.v.x.S.S.c.v.` j ` z.q.R 1.q.XX{.c.e.v.` 1.w.x.X.F a F U k.[.G.4.T q.[.tX7X{.A.c.c.z.4.[ 1.A.w.A.S.v.F.A.x.[.S.q.x.F.v.w.G.[.x.b.w.w.c.w.5.x.x.F.x.z.1.3.G.F.e.R j x.S.x.e.R 1.x.A.b.1.T b.XX@XXXz.A.[.{.F.R f F Y Y q.k i a _ b.oX[.w.F.b.3.v.b.k.n I z.[.c.R q.[.[.' ` T [ j P k.1.C 3.M.M.' v.[.b.4.e.G.S.e.j Y ^ C ] q.R Y ` z.z.b.w._ ^ I l.k.h.! ^ [ Y j ' v.x.J.B._ f ~ F ] B.I L 1.v.j r f l..X` g l.M.z.q.6.e.A.b.v.h.f g ' 5.w.v.x.w.[ ` j.R j j Y n ] l.' j h j q.G.B.w.q.j g 3.F.k.c.k.1.q.q.k.l.P 3.J.k.E R 4.q.F.[.q.v.z.k.q.z.k.U P L d U _ 5 @ # ; - 5 - > - 5 - # - - 1 > ; > # X .   . X O $ # = # O $ = # . $ O X = 2 O o # X X # $   $ o X $ # X X O X O = : - # $ $ = # - - # = = : : - # - # # - # - ",
". X X O X X . . .   . $ + $ .       . O $ O .     . X O $ O       X O $ O X       X X X O X X . X     X O # $ X . . . X + $ $ O O X X X O O O # : > 3 > 2 2 - 5 x B V V b c c 0 9 3 - @ @ . . . O # - = 1 i s d g f ` ` [ E Y 1.1.R 4.[ E 1.[ U j p Y k.b.k.[ 1.z.F.v.1.5.z.z.b.[.v.w.q.R 1.1.R 5.c.G.b.A.A.G.A.w.1.q.A.[.{.S.w.e.q.q.1.1.c.S.w.b.b.q.z.G.G.b.G.J.[.[.e.x.z.Y E q._ b x 1 ; ; _ c.` Y ` q.v.[.K.A.c.x.5.z.G.1.R c.[.A.S.w.q.w.G.G.x.w.F.F.w.z.G.b.x.[.S.e.w.x.G.0XoXS.5.q.T Y v.[.{.e.q.A.XX{.A.5.z.XXG.z.Y [ [.@Xb.q.` v.[.{.c.w.q.k.M.q.v.w.E 3.b.c.F.[.C.A.x.w.x.v.T a ; I v.3.` 3.[ ` L g j Y U [ q.z.3.v.q.] [ 5.c.G.k.b.J.b.w.Y h d d f f g Y q.q.[ E Y n _ U _ n N L U ^ j ` q.[ c.k.] n a n U U ~ h.' 4.b.z.[ 4.[.M.U f 3.v.3.3.5.` 5.E 4.k.L s L Y T ,.q.w.1.q.B.m.h.' U U l.k.1.Y g i q.k.l.B.b._ L 3..XM.q.3.R k.q.E _ _ V.B.w.5.1.4.l.q.c.5.3.1.k.z.` ` f f X.M.] ! a # = - > 2 3 2 1 5 1 = - - - 1 - - @ . .     X O $ = = # O X # $ X O O . & - o X $ X   X . . $ o X # =   X o X O : - - $ X $ $ $ $ $ # = = # = # - # - - # - # ",
"    X X O @ X X       X + $ O .     X X X X . .   . X X X X .     X O $ X     X X X X + X     . X . X X X X X .       X $ # $ O X X X $ $ $ & : = # 2 9 3 8 4 3 z v m m m v m B 3 O . @ O X X X X $ = - ; 1 g P I L Y [ R Y R 3.Y f Y Y R 4.w.c.[ T q.v.k.4.R [ k.z.q.v.v.c.1.5.4.q.q.R E E [ R 1.q.z.A.H.S.[.x.w.1.q.b.c.e.S.w.1.e.b.` 5.v.w.w.b.w.B.b.k.v.J.[.x.q.q.e.[.x.5.E 3.L 5 8 < ; d T 4.[ R w.x.1.v.x.q.x.A.q.w.b.z.4.c.H.c.q.A.x.c.F.F.F.[.XXb.z.[.[.A.w.q.q.A.C.q.c.H.XXA.4.x.z.[ b.[.{.{.[.[.{.[.J.x.e.S.b.x.1.R 5.z.E f R x.b.v.q.z.q.w.F.v.5.1.q.c.x.1.R 1.4.7.C.C.C.A.1.L a d L ` k.v.` f i d 3.w.q.4.q.k.z.v.3.` c.w.[ 1.Y T w.b.q.Y j Y ^ R } R w.q.` P j I ^ 3.3.T n d l.B.k.I 4.k.[ j a g U q.I ' ^ 1 P q.' l.z.q.` q.[ g Y E g a d ^ [ 1.E P U _ Y T 4.R ` q.[.F.l.M.m.J.M.l.l.M.z.5.q.k.T ^ ` ' M.v.#.l.k.z.q.E ` h.v.k.` T n U 4.q.q.l.q.` R [ I Y ` q.v.3.' _ ' ' l.k.] s @ # - > ; 1 1 2 5 - = - - 1 - - = $ X .     . O $ # - : # X X X . $ $ X # 2 X o # X X + X O = + X $ + X X O . O = - : $   X O X X . X $ # # = # = = = # # = = ",
"X .   . X + # o       . X O X . . X . . . . . . . X X X . . . . X X O O X       . O $ + .     X X X o X X . X X . . X X $ $ $ X   X X $ & 6 3 - $ $ 2 x 0 0 0 F v 8 9 5 v V m 8 # X . . O O O O X O @ - 5 a s L f g g Y 1.` T L f f g E v.5.q.x.v.b.v.q.4.z.4.1.4.1.` ` E k Y j U q.z.[ 1.1.5.v.5.5.1.q.x.5.e.5.x.x.w.z.5.q.v.q.w.[.c.5.1.q.q.q.w.` 5.q.3.1.q.z.5.1.1.S.[.{.b.1.c.X.F H g L k.z.c.c.z.z.A.A.v.R Y 1.v.c.q.,.[ U [ z.v.w.b.S.c.x.v.c.S.F.x.c.F.c.v.1.R w.e.5.Y g Y 4.q.4.c.[.q.w.[.#XrX{.A.b.k.c.v.w.q.E } 1.1.E R R q.c.q.c.S.w.q.w.b.v.w.x.e.S.c.v.t.E j ,.8.6.e.1.1.T 1.M.l.] 4.5._ f f j [ v.[.b.q.k R z.1.4.1.G.C.[ j g L 1.R Y j 1.b.b.c.5.R c.c.q._ 3.c.c.3.3.v.3.I 3.c.` n U q.1.f N I 4.v.1.1.[ Y l.] I R R e.E E R T 1.1.f g d ' B.b.J.] k.J.M.1.z.3.b.XXJ.m.P W ..X.) #.J.B.v.l.v.b.b.' ' _ U U L ] 1.5.1.1.` _ c.J.k.' T T 3.4.4.U X.z.k.` g L 4.q.` q.1.` 3.` ` k.l.a @ < - ; > - - - - - # - 1 - - $ $ @ . .   . . O $ # # = & @ O X O = # X $ % X o # X X : : : : O         o O . $ - > - $ X O + . . X . X # $ $ $ # # # - = = = ",
"X X X     X $ O . . . . X . X X o X X . . . X X X X . . . . . . X X X .         X X O . .     . o # # X .   X O o o % O O X X X X X O # 2 5 2 # - 2 2 3 x b J J m c 8 8 c c 3 # O . . . X @ O O @ O = < 1 a a n L a a d Y E L L T #.` [ ` E E [ q.e.v.5.R x.x.q.4._ [ [ j j ,.` 1.q.w.` k.k.1.v.F.G.3.R 6.w.e.6.w.1.[ E 1.c.4.Y 1.q.[ q.z.[ g g [ 1.R 1.R E Y [ [ R q.S.S.G.4.[ 4.I n h.` 4.A.e.x.J.v.1.x.{.x.E f i Y 4.q.R E f U z.b.b.b.S.F.A.[.A.G.q.q.q.q.v.v.q.w.x.q.E f i d 1.v.v.x.S.c.c.J.oXXX[.G.q.` b.{.F.5.R 1.A.{.w.5.q.F.[.k.w.c.` R q.1.T q.b.[.[.A.G.[.c.A.5.j 1.5.j j q.v.XXJ.z.[ E g i ` w.x.w.w.b.w.R 3.w.4.b.e.5.w.e.' F [ h.T [ q.z.e.1.R 1.w.M._ L d L w.z.1.1.w.k.4.' j g U U ` z.v.G.J.w.q.1.q.5.w.[.z.E 4.1.R 1.k.k.1.4.w.4.q.] _ k.c.v.q.v.XXb.` R E l..XB.) > - = ; 1 s ~ ] k.x.' ' 3.l.c.q.` ] f L q.q.4.e.v.[ c.B.4.4.z.c.z.w.q.j U l.v.3.U _ B.B.k.b.z.[ R L E v.k.5 @ # - > 1 - 2 - > - = - - - < O = $ . .     . O $ # = # > = : = - - - O X X . o # X X : 2 > : O   O O O # $ . O = - : $ X X @ . O $ : $ $ O . X X $ $ = = = = ",
"X X X     X O O X X . X .     X @ $ X       . X O X .   . X X o X X   . X . X . X X X .         O $ X X     X O $ # # $ X X O $ O $ # : : = 2 9 0 v 8 4 8 b G F v m J V z , @ . X X X . . X O O $ = > - 5 1 1 a L F g L U I U _ ^ q.5.1.R f C 5.4.1.4.,.E 1.w.3._ U ] w.q.w.4.1.1.R [ R L _ U ` J.b.1.[ w.C.7.8.E g i g q.J.q.E Y j E q.q.L g f 1.1.R R 4.v.4.q.z.x.w.w.S.x.3.5.1.g R c.z.x.S.w.q.c.z.k j q.z.[ f Y ` e.c.x.w.[ q.J.F.v.w.w.c.x.x.A.F.x.w.R [ 1.q.v.w.b.c.w.5.R ' J.b.v.c.G.F.b.b.G.F.c.b.v.q.c.XXF.e.{.XX{.c.' q.v.v.q.q.5.j p [ q.C C q.z.A.F.H.G.G.[.G.c.q.q.w.1.5.w.c.b.q.4.4.] f d ] b.5.E h Y 5.5.1.1.4.A.w.E E ' ] I [ h.Y R z.4.3.E j R q.' f L U E E R k.` [ k.4.z.T Y [ _ ` b.b.c.q.E E Y z.[.F.b.w.[ c.v.5.A.XXF.w.k.J.x.l._ f L T 1.1.4.k.k.1.T C ] k.! N 1 ; 5 s n 5 ; 1 Y 3.T R Y [ k.b.b.l.l.k.c.v.q.c.z.3.4.1.Y 3.z.` q.B.k.E [ 4.4.^ j f ] v.v.z.4.5.` g d ] _ a # $ 1 5 5 > 3 5 1 < # < - 1 # O # $ X . . . . X $ # = : - - - - - 1 > # $ O O # # X O # 6 > : + X $ 2 - # $ X O - - = $ X o $ X O # : : # X . o X X $ # = = = ",
"X O X . . X X . . X O $ .     X O o X       X X O X X .   X X O o     . . X X O X     X   . . X X X X .   . . X # # # . . X O $ # & > & $ $ 4 c G J m m 0 8 8 c m m V x : X X X @ . . . X . O O O $ = < < - ; 1 n n C P f f L _ ^ E E 4.` U l.M.w.1.f g Y ` v.1.j U 3.M.k.c.1.R ` R [ k.' ` ` R q.q.[ E 3.x.5.k j C L ' k.z.4.1.` [ q.z.` q.q.q.w.1.U 1.v.b.q.q.x.c.5.q.G.A.c.G.e.5.c.[.v.1.q.5.5.q.4.Y j 4.b._ L h.z.A.K.[.b.w.F.J.z.v.q.z.b.v.1.1.5.b.A.q.b.b.k.b.q.c.G.F.v.v.z.J.z.q.5.w.b.q.` 1.` 1.3.v.v.q.5.8.e.{.{.q.k j 5.v.c.5.R 1.j a ] b.3.4.c.w.A.x.,.[ b.b.q.F.F.c.c.b.v.3.1.R C E q.k.q.L T k.4.E i j q.z.w.x.A.b.[ j g a d F l.M.U L T Y w.G.c.` ` ` I _ k.c.E g } R ` 3.q.x.q.q.z.z._ ` [ j g g T _ h.v.` [ R C Y v.4.4.z.v.v.k.k.4.C ` 3.3.I ` ] P N N b s a m P ~ P a g Y q.q.Y s s Y R 4.4./ L 5.S.1.Y U E 5.q.` T ` 4.R R R E R Y 3.B.k.1.M.3.k.k.U U _ _ 3.Y j E L L L L L a - = - - 1 - - 1 2 - # < 1 1 # O # @ . .   . X $ $ = = = - - - 6 - : - 1 : = - 6 - $ O = > - - $   $ > 1 : $ . O - - - $ . o O X X $ # = # O X $ + X O # # # - ",
". X X X X . .   . X O X .       X X X . .   . X X X .     X O O X       . X $ o .     X . X o O X   . X . X . X # # O . X O $ : 5 3 - # 2 3 3 x J J H J v 8 8 v m z 3 = O   . X . . . X X O X X . O < - > 1 d L n f P I P Y _ q.1.[ ` 4.I d l.b.4.L g f U l.z.[ Y 1.[ I U ' _ _ [ ' v.G.c.z.c.q.q.q.1.3.w.q.,.j E ' l.z.L j 3.q.G.b.c.q.q.b.F.F.b.1.U 4.A.w.5.R Y j Y 4.c.x.A.A.F.b.v.A.b.4.1.k.z.k.k.M.M.A.b.4.T [ z.A.t.6.1.1.e.w.w.b.k.b.H.A.5.[ 5.x.S.[.[.{.c.q.q.c.B.w.v.F.w.q.w.x.R q.c.q.5.[ 4.v.c.b.w.[ Y E 5.w.w.E T [ q.A.A.w.,.E Y T q.c.w.x.q.1.4.w.1.[ A.x.q.x.c.z.4.z.v.c.w.} E w.q.4.q.3.R [ 4.` E 3.q.q.4.q.q.v.5.C f L f j ` 1.] ' 1.[ 5.A.c.` I Y _ q.4.3.` f j 5.1.q.c.b.F.c.w.1.Y ^ P i ; g l.k.R R E E Y i g 5.v.M.k.R 3.4.[ E 1.b.J.v.P n 8 1 2 5 3 3 3 : 2 H W L E T R ` E I Y 1.A.F.v.U j 1.5.[ E [ I R [ [ f a g j E ` [ T ` 4.l.v.4.` ` q.k.l.] I _ ` C g L _ U _ ^ U N s 1 - - - - - - - - $ - - - # @ $ $ . .   . X O O # # = - : - - - = - ; - > > < - # : : 1 - & O X $ : - 2 $ X X & > : $ . o O       X # # O X $ $ $ $ # # - # ",
".   . X X . .       . X . . . . . X   . X   . X X X X     X X o X . .   . O $ . X       X O $ X .   X o X X O $ $ $ O X o $ O - 8 3 2 3 8 0 0 3 c J F b v v c 8 3 : @ . X X . X X .     X X . X O O - 1 5 s F ^ ! I I _ 3.' 3.1.Y E q.z.4.T ` q.U f h.l.4.' Y E [ R j r i L ' ] C _ F.x.q.z.F.G.v.4.v.b.M.x.4.R 4.] ] F.Y E z.4.q.4.1.q.` 5.q.5.q.U s R v.5.w.5.Y j _ v.v.5.R q.G.b.q.q.k.] l.` ! P _ B..Xc.` E ` 5.v.c.[ j E 5.z.c.x.b.M.M.M.q.q.1.w.x.x.w.q.q.1.[ 1.q.q.q.z.c.5.E 1.e.1.[ 4.w.x.c.G.c.c.F.w.1.R 1.q.4.5.5.c.z.c.v.1.w.z.` 3.z.c.v.F.G.F.q.Y [ 1.R 5.5.k.x.G.A.1.R z.H.F.z.v.F.q.w.b.c.q.q.c.q.q.z.k.q.R 4.v.b.G.z.b.J.c.q.R E ` c.G.S.e.x.A.q.E F ] c.q.q.V.k.4.4.j ` k.q.q.q.q.j U k.' I s P v.k.R q.b.c.I g R w.5.G.F.4.q.3.j Y v.B.c.X.b 5 2 2 7 q q 7 : + $ 1 m 4.b.k.` q.k.4.z.z.J.F.z.] ] 1.E 4.M.1.3.' ' _ I ] I Y ` ` 4.] ! ] q.z._ g j Y j _ ' L F g f U U [ U [ k._ f s 1 - - = = - < = - @ = - - = @ = @ X .   . X O $ $ # = - = = - - - - - > - - - - > - - - 6 = $ O # - - - $ . X $ : : $ . O O X X $ O # : $ X X + # # # - # # ",
". .     . O O X . . . . X X . . X X   X X X X .   . . X X X . . . . . . . X X .       X O # $       . O # # $ O X O @ $ $ # # : 3 3 4 B J  .| c x c c c v m 0 : O X . @ X . . . X X X   . X X @ # # # - ; 5 d n P L L L T U U Y f h E z.q._ ^ 1.` [ l.z.c.l._ ' 3.` L a r L k.l.E 1.w.1.1.w.c.x.3.4.J.F.b.XXb.k.l.3.1.b.q.q.c.' q.q.q.' k k Y j g g f 3.1.R A.b.k.4.k.k.k.v.5.q.b.c.5.` C _ q.` j 1 d ' k.q.1.` q.1.q.v.1.R q.x.c.w.4.Y Y ] 3.q.v.z.c.c.q.R R R [ x.e.5.q.q.1.1.1.Y E 4.q.q.5.w.e.c.G.v.e.c.v.b.b.z.v.c.c.w.w.q.q.v.R T q.3.q.w.v.F.G.G.x.5.1.1.[ j j [ 5.z.A.A.w.1.x.H.A.v.c.v.` R z.z.z.b.v.A.G.w.` q.3.q.z.q.F.G.[.G.x.q.R 5.e.F.v.5.5.w.e.1.` l.B.v.3.q.M.M.4.5.k Y 3.[ j E ` U ! 3.l.3.[ q.z.4.4.b.XX{.b.x.q.5.E [ 4.c.H.z.[ 1.M.l.W v 3 > 0 q B q 9 % + X . O - ) b.c.1.w.H.F.c.k.4.] 3.] M.b.4.4.b.` Y ! 3.l.h.B.M.5.1.U ' ' _ l.3.1.T d P T j L ` l.U f U ` E U _ ` ` C g 5 < - ; 1 ; < < = < < = - > < = = @ . . . . X O O X $ $ # = = - - - - - - = = - = - - = = = > = = - - - - $ X   X O $ $ X X $ X X # - : : # $ X X O # : # - - ",
"X .     . X O X X . X . . X X X X X     X O O .   . X X X X     . X X X X . . . X   X X O o X     . X $ : # O X . + # # = 2 2 = & 3 c J ....J G v 8 8 c 0 3 = O . . X . X X . X . @ O X . X . @ = : - ; 1 5 a g L L f f g C I L d d T 5.1.U 3.z.4.,.[ ` k.l.] l.3.` q.U I _ ' ' 1.4.q.1.5.6.5.R Y E k.z.q.b.v.5.I R 4.q.5.[ R T l.l.5.E j [ E n U U 1.F.w.5.v.z.q.k.4.R _ q.q.U ` 3.` [ Y 1.w.q.` f f T q.z.z.c.F.q.R q.z.v.c.x.w.4.[ C a d _ c.G.F.c.C.6.<.v.v.A.XXS.v.1.C [ 5.1.` ` k.c.b.b.e.w.w.w.z.F.v.v.F.b.z.l.M.[.b.q.q.q.c.w.R Y [ T Y [ w.w.5.5.x.A.c.c.x.q.c.b.v.w.e.x.6.w.e.w.5.[ E E Y z.b.z.3.T 1.b.c.z.q.[ q.c.4.q.[ 5.w.q.E j 5.C.C.w.Y j ` c.1.T q.A.z.U L L _ k.4.` Y 5.w.4.T f L ) q.` 1.q.k.z.q.5.w.x.x.x.F.c.E k [ R w.b.z.1.] ] m 4 3 7 9 q B 9 7 % . X X X X + s _ 1.E 5.c.v.q.T N L ] k.q.k.q.3.q._ f d ] v.3.5.4.[ E Y ] k.l.k.' ' ' ` ] k.l._ q.q.^ _ k.k.1.` q.3.L g d n s d F L L f N a : @ = = - = # = @ X .   . X O O $ $ # = = = # = - = = = - > 1 - - = = # = = = - = = - 6 # # O X X O $ X O O X X # : : = = # $ X . $ # - # # ",
"O X   .   . . X X O .     . X X X     X X o O .     . X o X .   . X X X . .   . X X X X X . . . . X X $ # @ X X . O # 2 8 8 3 2 6 3 8 m J J m G G c 3 3 : + . . . . . . X X X @ . @ O O X . X X @ = = ; a a a f f L f f L T ' ' [ U [ [ j Y ` q.1.[ w.q.4.` _ T ' 3.l.k._ j i g E 3.' k.c.v.x.` Y T 4.q.q.q.` 1.E R 5.1.R j j _ T Y R [ 1.c.q.k.b.A.c.F.w.1.[ ` q.v.3.Y f F N g L 4.` 5.e.c.c.x.c.k.k.M.z.k.v.[.{.e.e.b.k.v.G.b.v.k.l.M.` f U v.G.b.w.1.5.3.c.A.b.F.S.w.5.q.k.q.1.#.] ' c.c.b.w.e.q.T Y ` q.5.q.1.` _ v.J.b.k.c.v.b.b.q.4.w.` g Y ,.Y j [ c.F.J.G.b.c.J.b.v.b.w.5.1.R R 5.5.R 1.[ 1.v.c.q.1.R 1.v.v.z.5.E 4.b.4.1.8.E R q.[ Y R w.w.w.q.Y ` k.' Y R 5.4.[ f a L ' U T 2.` [ z.q.U ` z.c.q.v.k.] b.c.5.R 1.R ` q.q.[ q.b.c.4.4.! n x 4 8 8 0 B q w & % X X X . . X X X @ a U 1.3.' 4.5.1.U U q.` ` ` [ [ ` _ U I ! ` [ E E 5.[ ` h.B.b.4.` 3.k.m.M.' 3.` ' 3.R [ q.q.` R 1.v.' U U ' _ _ ` ' ] _ _ P - # # = = # = = @ .       . O $ $ $ = = = # = - = = = - - - - - = > : = - = = = - - = - : = # # # # $ O O $   . O $ # # $ X $ X . X # - # - ",
"X X .   . . . . X $ X       X X X     X X X X       . X X X .   . X o X . .   . X @ o . . . X X X X O O $ $ O $ $ $ $ 3 0 4 4 c B c 8 z m m v G G x = O X .       X . . . . . X X . X O O X O $ = @ @ - 1 s F U U C L [ ] l.` 3.l.4.4.[ C Y [ q.v.w.e.w.q.` E Y ` ` _ 3.[ g r r f I L [ w.w.q.` _ l.b.q.[ P C ] q.4.E [ 5.Y [ q.3.4.e.w.x.b.z.l.B.F.b.c.w.` ` q.z.b.1.j L f g L ` z.w.v.x.A.{.{.c.v.[.[.v.4.z.A.x.e.A.v.1.[ 5.v.c.k.c.J.k.Y L [ 1.5.[ h j [ R 1.5.w.A.S.z.q.c.q.4.q.I L ` [ 3.w.w.q.Y f [ 5.R R R U _ k.k.z.5.T E 1.4.q.v.c.q.^ Y 1.4.` 4.4.5.w.q.5.q.c.q.3.5.1.q.4.Y k 5.w.1.q.e.z.1.1.1.q.z.v.q.6.e.x.4.3.k.` w.A.8.1.z.J.v.q.w.w.b.c.v.q.q.F g R 1.v.c._ f P _ _ ] B.w.` q.3.3.c.[.G.c.z.3.] 4.z.5.E 5.v.4.` l.c.b.v.z._ M x 3 4 8 q B B 9 : % o . . . . X X X . X O ; I k.l.U [ x.b.v.k.v.4.z.v._ ` M.l.l.k._ Y I T q.q.z.q.3.b.A.1.T ' Y ] X.I d L [ 4.5.q.b.k.` ` ` q.] _ 3.' k.` U L U _ ' U 1 = = < < < < = O . . . . . X @ $ # # @ = # $ # = = = = = # = - - = = - - = - - = # = = = - - - = = # # # # X X     X O X . $ X X X # - # - ",
". . X X . . .   . X X X . . . X X X     . X . . . .   X . X   . . . X X         X O O . . . X $ $ # $ X X # $ # = 2 2 4 x 8 B J ....J 8 9 b v 0 3 $ X . . . .     . @ . . X . X X X . X @ # = = < 1 - ; f ~ ! ] ` E C R 3.4.T U ] ] 4.h._ ' ' ' c.z.1.,.R ,.R R ` U U ' k.^ Y C U U I Y I Y Y I E q.z.E i 1 C 3.z.q.5.5.q.q.q.k.v.G.G.S.A.z.q._ _ 4.q.x.v.q.x.x.v.k.q.1.#.q._ ' q.4.5.q.q.A.G.A.5.q.b.x.4.Y 4.v.z.z.x.w.,.j E 4.w.1.5.v.q.R Y j j Y g i g U [ ` q.e.F.F.v.q.q.q.k.4._ 3.q.` q.c.q.q.U ` M.b.q.1.3.q.k.M.z.c.q.E f j ` w.w.q.3.] 3.z.G.G.z.4.1.R [ T q.c.5.Y Y 3.c.v.[ 4.q.z.1.3.c.b.q.1.[ 5.z.z.[ R z.q.3._ 3.1.4.4.5.q.k.G.G.b.c.c.b.q.q.v.z.U L R 1.q.J.x.1.k.k.! ^ A.[.G.A.w.5.e.e.e.q.` q.^ I E R [ v.v.l.' ] 3.3.L H b 4 4 2 9 w 0 q 7 % X . . . . o . X X . . X X < F h.3.R R c.A.M.k.z.b.v.q.` ` m.l.l.k._ ' 3.4.c.4.] ` 1.3.3.C Y _ P U E f f _ 3.3.` v.B.q.` ] ` 1.R U ] _ ^ ' U L ! q.3.` C s ; 1 s s 1 ; # X = 1 - = = < ; 5 ; 1 5 a 6 - = - # - = = = = = = = = = - = = = = = = = = = = = = : = = = # $ $ X X $ X   X . . O # # - # ",
".   X X X X .     X X X X X X . X X X X X .   . X X . X . . X X . . X . .   . . X $ O .   . X # = # o . O & 2 : 3 0 3 2 8 c G ..o...J z 3 3 2 # X       . . . . . . X     X X . O X X X @ < - 2 1 a i a n L P T 3.[ R T ` [ E U _ _ X.3.! _ 3.` q.z.R j A E [ q.' U U ] q.X.k.q.] l.q.R j j ` 1.Y j Y d i a _ b.c.b.w.q.z.b.v.3.` q.5.x.x.5.3.q.3.4.q.q.` R w.x.w.v.c.z.b.c.5.1.[ E R 4.q.v.c.e.w.w.C.S.v.1.q.v.v.v.z.k.e.5.q.e.4.Y R c.v.k.z.R I T T L _ ] w.b.c.w.w.q.q.v.v.z.c.k.z.b.b.z.b.F.z.h.l.M.b.b.5.4.q.v.q.c.A.c.1.[ T } 1.z.w.1.w.z.1.q.c.v.[ R [ j Y k.v.z.q.R [ q.w.q.4.v.J.c.q.` 4.w.q.1.[ T 4.q.1.1.q.z.4.R 1.q.T R 4.v.c.q.v.q.1.q.z.k.z.v.F.b.M.v.5.3.F.G.c.w.q.f g q.G.A.F.e.q.w.5.R j T k.] [ 3.l.' ] ! W ! F s s a 8 0 9 2 2 2 9 7 2 % X . X X X X O O X X X X . X O b ] q.3.[ 5.q.z.1.1.5.[ [ ` ' 3.T I U L ' v.q.` U L 1.3.1.R E ` l.' 3.^ [ ` k.k.q.^ U ] ` _ ^ T [ [ Y I U C T 3.' U E U _ ` ! P U ] ' U I f a s I P N N F L L f N U _ m s x 5 - = # = = # = = = = = = = = = = = = = # = - = = = = = = = = # # $ # # O X X X O # = = = ",
"        . O X . X X . . . X O X O O X X X     . . o X . . . X X X X . . . X . . X O X . . X X # : $ X O $ = 3 4 0 8 3 2 3 c | O...H c 0 > $ X X           . .     . X X X . . . X O X X @ = = 1 a d F F L L C Y E k R 1.3.q.q.3.h.] ! n n ! ] ' 2.1.E Y f h g f f T 1._ _ q.k.` ' z.b.q.E E ` [ j j R T T T l.l.q.w.3.3.q.' W F g a Y q.w.q.z.F.v.z.v.v.q.1.1.[ 3.z.v.w.q.1.q.3.T R z.x.q.4.R 3.w.w.7.w.w.q.[ q.c.F.b.b.b.v.x.e.v.q.3.z.v.b.b.q.' k.k.z.k.l.c.G.b.1.1.5.q.A.F.e.c.b.q.z.b.z.z.k.4.l.M.b.z.1.T E 1.4.` w.c.q.Y E 5.5.z.v.w.4.c.F.w.4.q.k.` 1.` R 4.c.q.1.4.q.4.v.1.R q.c.b.v.z.v.k.[ 4.e.e.q.z.c.c.b.v.w.5.q.v.q.` 1._ ` q.1.4.1.[ ` z.b.b.v.B.b.z.z.c.w.v.c.e.e.q.f f ' z.x.v.` R w.e.` f _ l.3.l.b.B.k.W s z 4 8 4 9 0 w 9 2 , 7 w w 9 7 & $ + + + X % * + o X X   . X X 5 ! 1.,.[ E E ' 4.R R 3.` ' l.q.` Y L f L _ ` R n f U [ E R ` h.' [ 3.` 3.q.3.' ] ^ [ ' _ U _ L j T T T _ E Y ` 1.L U U U ' _ _ k.] ' ^ ' _ L U [ I P I Y L _ ^ U ^ ' ! ! _ W F a 1 < < < < # = = = = = = = = = = = = = # = = # = = = = = = = = = = # $ $ $ $ # # # $ ",
". X   X X X X . . . .   X X X O = O X X .       . O O .     X + O .     X X X O X . X O X . X $ $ O $ # # : 4 0 c 4 0 G 8 4 B H m 0 3 > O                     . . . X X X . @ . X $ $ $ = < ; a s n U _ T U Y g j [ 1.3.5.4.k.] P s s 5 1 s I ' ` _ ] ' f i p i a Y 1.[ U ` 4.3.` 4.z.k.4.4.k.1.1.5.k.k.z.c.k.] ` q.5.1.4.Y g N d j 1.c.v.c.F.F.w.5.v.e.w.q.E f Y [ ` q.q.q.v.v.` 4.b.A.c.q.1.k.v.5.,.R 5.5.[ q.v.c.q.4.q.b.x.x.{.[.q.4.q.q.4.R E 1.v.c.x.l.q.F.C.e.8.5.5.A.b.4.x.v.w.z.4.` _ ^ U _ 3.k.q.[ Y A ` q.5.q.c.k.1.` b.H.J.c.4.w.b.b.c.q.v.b.z.v.q.3.k.z.4.E E z.c.b.q.T ` q.w.q.z.G.b.z.c.A.x.e.c.b.A.[.e.5.[ 1.c.v.v.k.] L j E [ 1.z.k.b.c.4.,.R 1.1.5.x.A.q.5.E 5.w.' [ q.c.b.k.1.E 1.w.5.` ' h.R U l.M.' b 4 4 9 9 8 0 9 2 : 7 7 q B q 9 7 2 & * $ X X + + O O X . X X X . # s Y R 4.[ T q.l.4.1.k.3.l.k.1.1.` T f g L ' l.X.` _ _ _ ` _ h.4.3.q.l.' 3.' U _ ] q.` ` l.` I _ 3.3.3._ ` [ R U [ 3.] W L L _ ' [ U U ' ' T L j f P L L L _ 3.` ! U _ U T _ _ P f F b s 1 < = = # = = = = # = = = = = = = = = = = = = = = : = = # # # # # # # # # # ",
". .       . . . X X       X O O O . . O X .   . . X X       . O O .     . X + $ .   . $ + O $ $ $ # : : 3 3 2 8 0 v G  .V z 8 z 3 # # X                   .     . . X X . @ . . X # - 2 5 1 a s n P L L T ' E L ] v.k.5.R [ ` L 1 < < # @ - d _ _ ^ U T I f L L I 1.5.Y g Y ` 4.E E 4.q.z.v.F.c.c.b.q.1.k.z.q.' 5.[ R ` q.I L ) ] k.c.F.c.x.x.w.q.w.w.w.x.v.E f j E R v.b.b.c.q.1.1.q.b.F.b.q.z.v.v.5.5.w.x.w.w.b.z.R j 1.c.c.c.F.c.1.[ q.` [ 3.R ` w.w.[ ^ 3.x.x.8.,.1.4.e.4.4.z.q.z.k.R ` _ U L f L L F j I ` l.l.3.q.z.v.v.k.c.J.F.z.5.5.w.5.` q.x.x.w.v.v.q.4.4.` T T b.F.k.[ E 5.z.q.q.v.x.3.q.b.A.w.1.z.v.w.b.A.w.1.5.q.v.F.l._ L f Y 1.5.v.F.J.b.4.Y g j 1.1.q.c.v.q.E E q.l.' q.x.z.q.v.1.Y R ` ` R 1.Y f I W b 5 2 9 9 7 7 , & % : 7 7 9 7 2 % # # * * O X X X o X X . . . X . . O ; P 3.k.` ' ] 3._ E ` _ ' l.' ' _ n F L T 3.b.B.q.l._ Y _ _ k.c.4.` ` ' 1._ U _ k.3.U T ] _ P _ k.q.4.' 1.] ` U ! _ ^ F a g P [ U P ^ ' 3._ L g f F L _ ^ ^ ] [ E U _ L n U _ Y P _ _ ] ! s a 1 < < = # = = = = = = # = = = = = = - = = = # # = # # # $ # # # = # # ",
"O @ O .   .   . X X .     . . . .   X   X X   X X . . . . . . X O X     . X $ X     . O # # $ X $ 2 4 4 8 3 : 2 0 G @...G 4 : $ O X       .           . . X X . . X X X X @ O @ $ = < 1 s f N d n W C g F ` _ _ ] l.q.` Y Y E f < # # @ < ; d _ ` L d L ] _ _ ` v.A.v.` L ` k.q.R q.q.[ 1.q.z.v.b.w.4.T T k.] [ T A E q.z.k.q.] 1.q.w.q.z.w.w.q.v.F.C.c.b.v.q.1.1.R [ q.x.M.4.1.5.q.w.v.c.v.k.q.q.q.v.v.A.F.w.w.x.v.1.R 1.q.q.5.1.1.[ 1.3.R ` z.5.4.k.w.R T ` 5.5.E E 5.w.e.z.4.z.q.q.1.q.x.z.4.T C C F d d _ k.3.` T R ` z.b.z.5.w.3.q.e.1.q.q.q.k.q.5.w.v.b.v.q.q.q.q.R ` k.5.E [ w.x.1.` 5.3.E 4.G.G.z.1.q.z.v.v.c.w.z.x.e.q.v.k.U ^ ' 1.q.q.1.v.c.A.v.1.E ` q.[ R w.v.z.q.` q.3.[ q.q.R R q.q.E 1.q.h.` ` ` U n a 2 2 7 7 7 & & : : & # e & & % O X X X X o X X X . . . .   . . . . X O 3 F ' ] _ ] _ ^ Y f g L _ 3.' U f a a P _ U ] l.k.k._ L U U 3.k.T Y E 3.q.) C T _ U f f F d n U ' T _ ` ] q.] I L F s a a g I ` ' U f U ^ U L I _ ) I ! _ ^ L f L ^ [ L L P U L L Y U [ ^ U P d s a 1 < # = = = # = = = $ # - # < # # - < # = # # # # $ $ $ $ # # $ ",
"1 1 5 - O O O X . X X .   . . .   X X X . X X   . . . . . . . X X X . . . O O O X X . $ 2 # $ O O 2 c 0 9 3 8 3 8 v G 0 6 $ X .         . .     . . .   . X O O $ = = $ @ = 3 a 4 1 ; 5 b L F L P I [ U U _ 3.' U _ ` U Y R R Y g 1 < $ # = 4 d P P F _ ' [ ' k.c.A.4./ ^ 3.z.w.w.z.z.[ E E 5.z.5.[ 4.4.q.v.q.E R 1.5.w.c.b.v.] [ 5.1.E ` q.v.z.c.F.G.v.5.5.w.5.5.E Y 1.q.3.[ ` e.5.R R 4.k.k.1.R 1.v.A.c.e.8.1.q.v.k.k.q.1.1.w.4.5.R 5.w.w.w.z.v.q.c.x.w.q.5.1.8.8.5.w.z.q.4.4.c.z.k.q.w.c.v.z.q.3.q.q.' U 4.q.3.[ ' ' ` z.x.q.1.1.5.v.F.c.4.` ^ T [ R 5.5.3.4.3.q.q.v.4.E ] q.q.q.w.q.w.5.4.4.[ 3.c.c.c.c.3.1.1.[ R 1.v.x.q.5.5.z.1.q.c.c.v.1.Y E 3.z.w.5.q.z.v.q.5.b.b.z.v.v.w.q.c.c.q.T R 1.[ E ] c.v.z.z.v.k.I s 2 2 2 : % $ % # & % X o X O .   . . .   . X X X . .     X . . . . X X # z n N s N P ] T L U E U ' _ L f n d n L n L ] 4.k.` 1.' _ l.] [ U ^ ' k.] U n Y j E j g n W _ _ L f U _ ^ U Y ! I F d P T ^ ' [ ^ L P L n L _ l.] n d L I f a g U ' _ L P f f f C P I C C L L ^ I d a - - # $ $ # = # # # # # = $ $ # # = = = # # # # # $ $ # $ # ",
"s d f a 1 5 4 > @ @ O X   . . . . X X     X X X X X . . o X X X   . . X . X X X X X X $ : # # # $ : 0 0 4 c v 3 2 2 # +                   . . . X O O O @ O = = - a a 4 1 a m W ! n f n L U U ] _ U 3.l.] ] _ L L _ _ Y E [ R ' ' n 5 ; - < # ; n U ! 3.4.[ T ` 4.3.R E U E 1.w.w.z.z.4.[ ` 4.h.[ R q.q.q.z.1.R 6.r.x.w.v.b.z.' q.w.1.Y E 3.` [ 4.z.z.1.} R 1.R j g g R 4.k.T I [ R j g f [ 5.E j [ x.w.5.1.,.5.e.M.c.b.v.[ 5.w.v.1.` k.b.b.q.w.v.c.v.b.b.z.v.c.q.q.c.V.c.k.[ T 4.z.v.q.` 5.w.q.q.q.c.c.q.E ` 5.` 3.k.k.k.k.q.1.,.5.k.v.F.c.' T I Y E R 5.1.E ` q.x.5.1.q.3.k.l.k.k.w.q.w.w.c.z.1.` 4.4.z.c.3._ _ I T 5.v.k.5.1.q.b.c.z.b.F.w.[ j j R 6.4.[ [ 4.q.k.v.J.[.b.w.c.b.F.A.F.c.q.4.q.q.q.k.q.k.c.b.v.k.3.J 2 # $ O X $ O O O X . . . . . .     O # # X . . . .   X X . . . . X X @ - - - - 1 s X.3.X.k.3.[ ' ` _ q.X.! L U Y E [ k.z.4.q.z.k.' 1.` ] ` ] ' ' ] I ^ _ ` E N L ] h._ F d L U L f L T T Y Y ` [ I L L ^ U U P f d L P F a 1 f L j d d I _ _ U U f d F T _ ^ L d L _ h.h.I d f s 1 = # # # # = # = # # = # $ # # # = # # # # # = # # # # ",
"L L P n n N N s 5 5 - $ O X X . . . X X   X X O X X   . . + O . . . X X X X . X o # # $ # = 2 3 2 3 2 8 8 8 2 $ O X X                   . X .   O # - 5 5 a s s d L P n d n ( _ ' U U ) T _ ' ] _ U ' ] T ` U f U q.] ` 5.R U ] h.^ U U L s 1 d F _ 3.l.' E j C [ 3.[ ` [ Y R k.q.1._ ] h.v.c.z.1.E R [ 5.5.T / 4.w.q.q.w.w.` U ' z.4.T [ ` E E 1.R 5.R R 4.q.` E Y L _ 1.' L f U ] P f n R R E Y 5.w.q.k k [ q.z.q.z.v.w.1.q.q.5.` 4.z.c.z.4.q.v.z.q.M.b.x.b.A.c.k.q.' z.b.4.1.k.z.q.4.5.w.w.3.` 3.q.q.5.[ E Y [ 5.4.' ] 3.3.` [ q.q.4.' q.] 3.q.v.q.1.` R Y 3.J.G.q.T ,.q.k.z.v.k.v.c.c.c.k.q.q.4.w.4.w.v.1.k.v.l.3.q.4.[ [ v.b.v.3.` q.z.z.q.' q.q.4.q.1.4.q.' q.q.c.G.v.q.w.F.[.b.F.G.z.4.k.M.c.c.k.v.b.b.z.z.k.P > # - - 2 2 = = # $ . . . .     . = b P M 5 @ O $ @ - = $ X X X . X X O @ : 3 4 1 5 M ! h.v.q._ ` ] ' k.' U U ` 3.5.` ' 1.` 5.k.q.q.3.k.q.3.` [ l.M.k.k.k.' [ j L ^ 3.] I L U U L L U [ ` E Y R E C f I U I I I n g a g d d d L } I L L U U L U P j f L [ ] T F n _ k.3.L F f L U n 6 - - - = = = # = < = = - # = # # # # $ # $ # # $ # # ",
"f n C n C F s F n d s 5 1 1 > = X . . . . .   O O X     X O O .   . O O O X . O $ # : $ $ 3 9 4 8 3 : # = O                       .   . . X X O - 5 s n F F U L P T ] ! U C Y _ ' U U U R ` T U L U _ _ I L U U [ [ T T 5.` T l.' 3.k.l.h._ F ) ' ] ] l._ Y L T 3.3.` k.l.` 4.4.R Y Y _ k.z.v.q.R f j ^ ` 1.` 4.q.z.q.[ 1.E j j [ [ R E T U Y A E [ 5.q.k.z.k.k.x.q.1.` 1.4.U I _ l.l._ ] l.` I [ v.z.q.E E E R T E ` q.w.5.[ q.4.q.k.q.q.l.k.4.3.q.k.c.z.z.z.z.4.4.1.1.z.z.z.z.v.c.k.k.q.q.q.q.3.R R 4.3.5.1.` q.q.` [ ] k.k.v.q.w.w.' E [ l.k.c.G.b.q.3.T T 3.v.z.[ j Y R R 4.q.q.5.w.A.v.3.e.c.c.c.q.z.z.4.q.c.B.z.R Y f U 5.w.^ d j T k.q.q.v.b.b.c.v.c.c.z.] l.c.b.z.1.[ 1.z.v.w.w.v.q.z.b.z.k.z.v.k.q.v.v.b.c.) s s H W P W n m b s 2 # = = : = 3 m ] k.X.W b s s d n F s 1 > - $ O X X X > W @.b - 1 a F _ #.3.` ` ] ^ I C U 4.k.q.' R _ ` 3.z.z.k.] q.1.4.] _ ` l.4.` ^ _ _ _ L U _ U F U ] ' T _ _ 5.1.T Y Y j L P [ U L I [ ^ F f f U I I I U U U R U Y f d d f j f f L L L U _ _ F a 1 a F U U F d s s 5 - = $ $ = # = = = = = # $ $ # # # $ $ # # $ ",
"f g g f n f s f n n N f d n N 4 : + @ @ X X . X X . . . X X X .     O + O X   X # - : : # 6 0 4 : $ X                         . . . @ @ - ; ; a s n C C L [ U L I I U I F L U U R Y j C R R Y j L U [ ` ^ I [ R R R R ` 1.^ U _ ' [ 5.4.3.T Y ^ ' U U U U Y [ 4.5.E U ] l.q.3.[ L j I T ' 3.` ' T f d _ ] 4.4.q.4.1.` 4.5.R C ^ 1.5.q.q.3._ [ E k 3.b.b.z.3._ q.z.k.k.3.` q.k.q._ ' l.q.' h.T j R k.v.z.q.` _ L f E q.w.q.1.q.v.c.v.k.v.` I [ ` [ ` q.z.q.q.q.4.4.z.k.q.4.q.v.k.k.z.3.4.q.k.k.q.4.` T [ 5.v.w.k.v.z.4.1.q.v.F.S.c.v.b.z.' q.v.q.4.c.c.k.4.3._ 5.` T f f U [ 1.v.3.R 5.c.A.z.4.z.v.z.z.k.z.v.x.z.z.v.z.R Y j j R [ I f ! 4.z.k.q.c.c.k.c.b.c.v.z.q.4.v.v.q.` 3.q.q.5.R R ` q.x.J.b.b.v.q.q.q.4.v.c.k.q._ ) h.k.2.` 3.X.q.] U L F P N M ~ _ [ ` 1.l._ U T ` ' ` U U ! M b 8 3 - = 5 ..#.J 5 ; 1 a Y ' l.] q.] ] _ P L ! ' q.1._ ] _ ] l.3.[ [ T R ` ` U U _ U U _ U U U U T I L g L T I _ q.3._ U U Y Y U L L P L F L ] q._ I I ^ ] ^ U P U Y C E ! U f d F j f a a d L I U L s a s g f L I L W U ^ F s ; = @ $ $ # = = = = = = = # $ $ # # # $ $ ",
"d i 1 g d a a g N N d s d n n d s a 3 1 1 = @ O @ O @ X . X O . . . X O O X O O : 3 3 2 : = 2 $ X .                         O O @ ; a N F F L U P U P C j L Y L U U F g d P _ [ U L C Y _ [ E U U Y L I _ ' ' 3.1.1.q.q.3._ _ ' ` R 1.4.' ^ ^ U L n L T 3.z.z.4.R Y U ] ] ' ` _ U T ` ` [ Y U _ _ ^ U h.M.c.z.1.j j U ' w.v.q.4.` q.c.c.v.q.1._ Y 4.F.G.w.R C f I ' h.T E 5.k.q.[ L ^ _ T ` R R q.k.l.v.M.v.] U ^ q.c.b.q.4.z.b.c.v.v.q.^ U 3.1.R R E [ ` q.5.1.q.c.F.c.4.4.c.z.q.4.R ` k.c.k.q.k.z.3.` q.c.b.c.k.5.5.q.q.w.x.C.x.q.c.v.z.b.J.c.4.w.1.` 4.h.` [ [ ^ T ' l.z.k.q.5.Y E q.v.v.x.c.z.4.1.q.z.w.x.A.v.z.k.q.q.` Y R ` _ _ k.c.v.b.c.q.q.[ 4.w.1.1.l.3.T ` q.q.5.w.v.q.5.R [ 1.q.w.z.k.c.z.1.3.k.q.4.z.c.l.q.h.z.z.1.1.z.q.' 3.1.1.l.' / ' h.` Y Y 1.k.l.` 4.4.1.[ T ] l.3.( ! ) ~ N d ! ] ~ f N N f U ' l.k.' q.c.k._ Y U ' ' ` ' _ L U ' ] I j E T U U f f L T _ ] U L I [ ` U L L L L F [ _ ` I d f U ^ U L g g f C F L U _ I F P ) U F f f L L T _ ' U F Y L f s g d g F P F f P ^ U L L I P I I ^ L F n a - = # $ @ $ # $ = = # # # $ # @ = $ = ",
"a a 1 d n x 5 s M P d g s g d n n N s d N s 4 1 ; 5 < # O X X O O O O O O O $ # : 3 2 # $ O .                       . X @ - 5 a s n P I U U U L Y U Y Y j Y j L ^ _ P d f I T I j U ^ [ _ ` ^ U U L j j L R T E [ ` ' ` ' k.3.l.1.R ` 1.q.] U n a a f U ` q.1.R Y R _ ' l.q.] l.k.b.b.q.` ! ] q.h.` _ h.k.v.z.[ j j T q.c.b.k.[ ` 3.z.q.v.q.` T U ` q.q.1.Y T U U _ ` ` [ 4.q.5.E L _ q.` ` 4.v.v.q.` q.c.c.k.] q.z.z.q.q.k.v.k.5.1.1.T E q.z.q.1.E j j T 5.1.1.4.w.b.c.4.1.z.4.w.1.E E 1.q.R R q.M.l.' 4.v.x.w.5.[ 1.4.5.5.5.6.q.1.5.q.w.v.w.k._ [ E 1.z.z.k.v.v.k.] M.J.[.v.q.[ E [ q.4.4.v.c.v.4.1.k.b.S.x.w.k.q.3.k.M.l.1.3.v.z.q.k.e.4.z.z.] _ 4.q.5.1.q.v.q.4.4.q.q.1.z.c.c.v.q.q.5.1.` T I U ` ` 5.4.4.3.z.q.' q.1.1.1.1.3.q.' I U ' z.q.' _ ' ' 1.Y E [ 3.1.T 4.3.[ E _ 3.k.' ] ( ) ] ! I ) ] ] _ ] ' U U ] ' ' [ q.k.' ] ' ' ] _ U U F a d I _ U L E E T U F d I _ [ ^ L f L ^ _ _ U U T U L ^ _ U F f U U / ^ I S L L L L f U _ U d f I I f d L L L U _ U F j F I U I f f g g n n n L _ I L I U I L L L n Y _ L s 1 ; > < < @ # $ $ $ # # # # = # # @ ",
"s f N F F f b f ! ! F d g g n N d d s d N n n N N n N a > < - = $ = = = : - # - = # $ X                     . X @ - 5 1 s M P L P I U L Y L U I L I _ U R C f L _ ] ~ P U U I f f U 3.l.^ L L U _ U U I U T Y j E ` _ T U q.q.' _ U E [ l.l.U f i s L I ` 4.3.R E 3.4.q.4.` ' h.c.b.c.4.5.[ _ ` ' _ ' ` ` 1.` [ [ E 4.k.z.c.k.4.3.[ R [ 1.R T T _ T 1.4.E Y k.l.3._ U E 1.q.q.4.` ` q.v.c.q.c.F.c.1.U ^ h.4.2.T q.v.k.4.3.q.q.^ Y E 1.` ` 3.q.1.3.1.[ I [ 1.[ 1.4.4.q.4.' 3.4.4.q.4.5.` [ / E Y ` 3.] _ 4.b.z.4.4.1.5.z.q.4.[ T R [ 1.1.1.q.1.U U U T ` v.v.c.F.c.4.` 3.c.c.q.4.` 4.q.4.R ` k.c.b.v.5.w.A.J.c.q.k.q.1.R _ h.k.k.c.c.k.w.e.4.5.4.3.4.q.z.q.5.v.b.F.x.w.e.v.5.q.k.v.w.z.v.4.` ` _ L f T 4.w.q.4.] 1.` 4.5.1.E [ 4.4.4.` ! _ 4.q.` T T ' 3.2.` ` 1.` R R 4.k.! I U _ _ ` ^ F C P U ^ _ h.l.l.3.] _ L U ` ` 1._ _ U ) 2._ ^ U P d a - ; d U U ^ _ ` _ U F n U _ ! ^ U I I U ! ' _ _ ` U U _ ] U I ^ ' 3.[ E Y P L I _ I I ^ ` U L f L L F P _ _ P f d g g d n T ^ I F n d s g f d d f f g d P I L f f f n I T F d s s s a - - - < $ = # # # $ $ # $ ",
"g n L Y n d d P U Y f f f g f N s g a s N n n n f I P n n N N a 4 1 5 M V N 4 4 5 = @ @ O O O . . X X @ = = - 4 a N n C P U P L n C L f g n W ^ U I T _ _ L d f I _ ! ! U U U L F ^ ' ' U d g F U ' _ U F Y U T [ ` ` Y P ) q.^ f g f R k.' T U L U ' ] ] ` 1.[ _ q.q.' 1.R R 1.q.1.R T R E Y T U U _ [ ` 5.1.' 1.4.1.` q.4.' 3.5.R j j E R 3.l.3.' 5.3.T R q.k.4._ L C 5.v.v.v.k.x.b.F.b.q.z.z.k.` U ' h.3.T U ` 1.4.q.1.` [ E Y ` z.z.l.] [ 1.w.v.v.k.3.R E 1.4.1.1.[ _ ' ' 4.q.v.q.q.3.3.1.1.[ U Y U 1.5.1.[ [ q.z.v.k.` T _ ` 1.5.1.1.5.3.U _ _ ` ` 4.q.q.v.z.` Y E 4.q.5.[ q.x.c.4.[ 4.v.b.v.q.q.1.q.z.z.z.v.k.q.R U ] h.k.q.q.4.z.z.k.4.q.v.c.z.q.4.v.c.c.x.w.w.w.v.q.q.q.k.q.q.q.5.q.w.k.] U [ 4.4.q.z.q.` 3.q.q.5.E E 4.z.q.] ] ] 3.5.R Y U ] ] 3.q.4.4.1.[ R ` _ _ T U U R _ ' P L L U ^ ' h.l.k.] _ L L U R E _ _ U ! ' h.U f N a 1 ; < @ - N U ^ ' ] U f g s f F U _ U ) [ ! P T ^ U _ U L U ^ I L U ` ` Y Y Y L L U ` E E U ! I L L P f U _ _ T P g g d d g n U ! L f g N f f f f f f f f d d F d g g d d L Y L d d L ! F d N s s 4 ; > - = @ O # $ ",
"g d f f g f N L F C P P f g f n b d s m F L f f C n n F L P P m s N P ) ) W N N b 1 1 a 5 a 1 ; - 5 a m m s f F P L P P L F f d d n n d g d ! U L L I U U L f f F F f L U _ U L L I T U j s g L _ M.l.L s n _ ` 5.5.1.E L U _ I g i g E ` ` _ _ ` ' ' _ _ _ ` R ` 4.4.3.3.` ` R [ U f L Y Y j U T U j U l.v.k._ U R E T ] ] ' ` [ Y g f _ q.z.z.l.4.3.4.1.1.` 4.` _ ] q.c.c.q.z.q.k.v.z.z.4.[ [ ` _ 3.l.k.' ` 3.[ R q.q.R Y [ 5.1.4.x.v.3.^ U ` z.z.l.l.3.U E 3.z.q.4.3.T U U 1.w.v.w.3.' k.v.q.3.^ U ` 1.1.E R ` k.k.` U L F _ l.k.q.3.5.5.4.k.l.3.' ` [ q.k.z.z.1.T R 1.5.[ 5.w.c.q.R 1.k.v.z.3.R 1.R R ^ ` z.z.w.v.k.4.3.k.k.q.4.e.b.b.v.h.k.v.z.4.[ 4.v.v.q.q.q.w.z.w.z.z.v.q.4.` [ ` k.v.z.3.R ` ` R 3.z.v.z.w.c.z.q.U U 4.v.4._ ` ] ` R E T _ _ _ ' 4.q.q.R [ 1.] ] ] ] _ [ R ` ' ] X.3._ T Y U ^ _ I L f L _ [ R ' _ f F ) ( f ; ; - < < @ @ # 1 d n U ] I a 5 a g f L Y I U L f f I L I U [ I I L L d L L j j f d a g I Y E Y F f d F L F d U ^ L L N s F U L f d n U L d d n F n f n L L U U L d s g s s s n P I L f g d L U C L L P F s a x 5 - = = $ ",
"s d f g s f f f f F P L N g f F P n d N n F C f n n f f L P F n N L Y _ ! P n C n N n L P n N d d N L W I I L P U L n n s 1 a g d f L n N n L L L n d n I U U I L f f F U U T _ U [ U U L L f _ ] l._ f g L U T R [ [ Y Y I U I d d g I _ _ ] q.' ^ I L _ 4.4.3.1.5.` E [ 4.4.` ` _ U ! _ Y f L I _ W I l.v.' _ T R ` _ _ ] ' ' _ C a j ] l.l.q.3.[ R 1.1.[ 1.3.` q.k.l.M.w.4.[ 5.1.4.1.[ E T / ` l.z.z.4.` ` k.4.3.w.5.R Y R q.q.q.q.3._ _ ( h.h._ ^ ] ] 1.1.q.v.k.q.] ' U Y [ q.5.E I _ ` 1.3.k.3.` ] l.' [ ` l.k.3.U g a f U ` q.k.z.w.q.q.q.k.k.3.4.1.5.w.q.1.3.4.q.q.4.4.3.k.k.1.[ 1.4.k.4.[ ` R R ` T ` q.q.3.z.v.k.4.4.z.w.k.v.b.A.x.X.' 3.` E E 4.k.k.q.5.q.k.q.` q.q.4.4.5.1.1.1.3.4.4.R [ R ` 5.4.z.k.q.q.k.w.3.T T 4.k.` I Y T 3.1.R ' 3.U Y U 1.1.R E E R h.v.l.q._ R ` T ' l.l.h.' ! f C n f f g a f _ 3.3.k.` f a d d 1 @ < = @ @ @ @ @ < 1 a n _ P f s g F I C f C f g g C ^ ^ _ ] U I I L f a g d j f g g s a d C Y L g a g f F f f L L n n s d Y ] _ L d f L U F f n L f f P F L I U L s i s F F b N F I U F f f L F j L L U L d d f n d s 1 < ",
"g g d g f f n n n n n j f N n F C d s a a d f f n F n f F P P L P L I L f d f I L C L [ _ I L I L F I I F L d F L C L s a i d L L L U ^ L F L I L L f P ^ ^ T I U T U U I U U ] q.] _ E _ U I _ 3.] L d f I Y f L Y U L E [ ` _ I L L L P I _ ' _ F g F ` k.q.1.1.1.E Y ` k.q.` q.l.' ] _ U f L ` 3.] ] ' ] ^ ' k.k.k.^ L ^ ' l.h.Y j U ] q._ [ T L j E R [ q.q.q.3._ _ ` 3.5.` 3.q.4.3.I E R R ` 4.q.q.[ I E 3.q.q.4.5.R Y 1.q.5.4.` [ ` ` 3.4._ U T ` q.l.q.] k.4.^ _ ] ^ U ` q.1.Y f j Y j E 3.q.k.' 3.h.] ] k.v.q._ L L L I U 3.v.c.w.1.5.3.` ` k.v.k.q.4.` 1.3.v.c.z.z.k.l.k.k.q.1.E ^ 4.] ` 4.5.` q.1.1.q.4.q.z.z.3.R R 1.q.z.z.q.z.h.5.R R R R 1.3.3.` 4.q.q.q.1.1.[ ` ` ' 3.1.` [ E ` ` ` R _ q.q.q.q.` T R q.q.q.q.R 1.3.E L Y _ q.k.1.q.' I f C ^ R j s f U ' 3.) I [ ` [ ! T T ) ! ^ E f f L L f a a f U ' q.l.l.U 1 1 ; @ @ @ @ @ . @ . @ < ; a d W ~ U L L U U U L L f f I U _ ` [ L L F I U F f n L L f f L I U L n L F f d f d n j F j L Y F f F U U ^ f f F Y I F d f F L L L L f L U L g s s d g a a d L I L U I I L f f L U L F f d L U ! N 1 ",
"d f n n n N n L n M P n f d g n L d N a a d s s f f d n L P W W I f d d d g f L L L f L U U U U L j I I f g g g F L L F L L L L P L U ] _ L L I U I L I ^ T Y } I ` ] ] U U [ ` ] U L L T E E U _ U f g F F n g d C L I ` q.1.U f L ^ ^ L f L U L f d F U T U E 1.` Y Y _ q.5.R T ` ] q.' ^ U L ] q.k.1.[ E T 4.v.k.` U I U ` 1.4._ ' 1.] 3.` [ U f d f R 3.q.k.q.R I f U ] q.k.l.k.c.k._ [ 1.3.` R ` 1.[ A Y 1.q.4.1.1.E E [ 4.` q.R 3.4.3.R R 4.4.` ^ _ ] ^ L ^ R f Y _ _ I U ` ` j j T Y f I 3.w.k._ ! ' ' ] k.k.k.` _ ` _ Y _ 4.q.w.q.4.4.q.` _ k.k.l.l.] 4.z.z.c.c.q.k.k.x.v.q.w.3.[ ' k.k.] ] q.k.v.5.[ 3.4.k.z.k.3.` R [ 3.4.4.1.1.3.3.3.1.1.q.v.k.3.3.z.c.q.q.4.q.3.T Y T 3.3.k.' _ U U U U _ k.z.k.3.R C E 1.5.k.q.5.[ [ U f I _ ] _ _ _ I f s L _ U F j f f n C n L T ' ` I f g g L ^ R T U _ _ U d g F U _ ' l.k.T a ; < @ @ @ @ @ @ @ . @ < s N s N I ^ ^ I L U ` ` ` _ ^ ' ` ^ ! F P T ^ U U U ^ U U U I L ! ] ' U F f f P T U L f L U L L U I Y L f L f d j j L L f d f L U U U U L P Y f d f d s a a a g L I L W U L L C f F L U T C f L U ^ F a ",
"g f f s a g d d s s d d f g a g f F L d g N b a s n n L L P W U n g a a d F f C L f L L L I L L d L U T F g d L L L I U L L I d d L _ ] _ U L L L L f L L Y f j j R R T _ _ ' ' U F g g U ' [ U L d a a g F W W F g g I _ [ T L d L _ _ I g d n g Y U I L d d Y 1.3.I f F L T Y T ` _ ^ U _ _ _ _ ` 1.R R R [ 4.v.q.` _ ' l.[ [ 4.4.w.q.3.` 5.' q.! L L T h.q.w.4.1.T U ` l.k.3.' 3.k.q.3.3.q.k.5.[ 5.5.3.T T ' l.4.` E E E [ ` 3.3.4.c.z.4.E R z.b.4.Y L I f g L L f L ` q.) U _ U U ] 3.` R ` 1.[ T T _ l.l.q.3.q.5.[ ] ' _ _ k.4.` ` q.k.k.q.3.1.4.4.4.] ' l.k.q.1.1.1.1.q.q.z.k.z.q.5.3.v.k.` _ ` q.z.q.1.' q.#.4.q.5.q.q.q.5.1.1.R [ 4.z.v.z.z.c.k.z.k.l.z.q.q.q.k.v.z.` Y Y 3.w.k.l._ P j d d I ] k.1.[ j j E ` [ 5.q.3.R T T / _ 3.' U f d d g f ^ ' ] _ ] W n a i N U ] ] ' U d a d I ` ` ` ' ' k.' P n I [ U I I _ U F s ; < ; 5 1 - = @ @ @ ; s W M P P I U L I _ ' ] q.] [ ' ` _ L C _ l.' ] U P U U F Y U L ! _ ` U C g d L U _ U L U U L L L U Y f d a a s f L j F f f L Y L L ! ^ F f f L f L F d a a g F F L f f N f F C P n f L U L f L L F f d ",
"d d s s a a b a a ; 1 s s b s g g n n n f s d s s C P C n d F f N g g s d L C d f F I I L N f d g L F L L L L L Y F I U L f F g a F ) _ U U Y C f d a a d j Y j Y j j L _ ` ` U L g a L _ ' _ U f g a g L #.l.k._ d g C Y Y f f L U U I f d g f f I [ ^ L g d U ' _ L f f Y E Y E [ U I U _ ] _ U E [ E 1.5.1.3.5.` ' l.b.v.l.4.z.k.5.1.R [ 1.q.k.] _ _ ] ` ` 1.q.q.' l.k.z.q.1.E E ` ` 1.5.k.z.q.3.[ 4.4.` _ 3.4.q.1.R [ 3.5.5.3.h.h.k.k.4.R 4.x.v.` f g F f f L Y L I ] ] ! U ^ I U k.c.z.4.` T f f U ' l.v.l.q.4.E C U _ ^ ' l.q.] ` 3.l.4.1.` 4.3.4.z.h.` 3.q.4.1.[ R [ ` 4.4.z.z.4.5.q.v.z.3.E U ` ` ` ` _ ] k.k.w.z.z.v.k.4.3.[ 1.q.z.z.v.c.v.z.4.q.q.4.q.5.` ` q.z.l.l.[ [ 3.z.k.' I F n f g f ^ _ ' U ! ^ ` ` R [ 5.1.[ T ] h.V.k.] U L f L U [ ' k.k.q.k._ L f n P ! T U Y L L f f U [ ` R ` 3.] ' U L L _ _ P L U _ ^ P d s N H F N 4 ; > 1 x W ) ) ( _ U I U [ U _ _ _ U P ^ U U I U 3.l.k._ L f g d d f L L f F I I n f f F f L U U I L F L I L F n g d f N L I L C L L C F j F U P f g d F n f F f f f L U T L F f s d F L I n d C U Y P F L j f f ",
"g g a s s s s 5 ; 1 5 s M m N s a g d d g d N F F n N f d a a d n n n N d L L f f U U I d d d d g d n f F F L j f L U U L f d g d F T ^ Y I f f f d d s s f T _ T j f I _ ' ' U L f f I U I L f j L f f U l.M.M.] f f L L Y L I [ ' U L L C U _ ^ T _ U f f I _ ] T L f U ' ` R E [ L ^ ' ' ` E Y Y [ q.3.q.q.1._ U 3.v.c.z.4.3.3.1.,.E ,.1.[ R _ _ _ _ _ ` 1.1.z.z.k.k.1.4.1.` R [ ' 4.4.q.k.k.k.` U R ' h.h.1.1.4.3.` 1.z.v.z.j.' [ ` _ ' ' q.v.4.[ L F _ _ I _ ` _ T U U F U T ( 1.3.k.k.4.` L g f T 4.3.` ' 3.' E j U _ [ ` l.k.3.' 4._ E E 3.4.5.q.z.4.1.R 4.w.4.1.1.1.5.4.X.3.1.1.4.x.z.q.1.1.[ _ ` T T _ k.z.z.q.q.v.b.z.q.4.4.4.k.k.4.3.q.4.q.1.1.1.1.4.1.1.1.` ` q.] ` 3.z.4.1.T C P ^ U P U ^ _ _ _ ^ ] k.1.` R [ ` _ _ ' h.4.q.1.^ _ _ _ ' ' ' q.' #.X._ U U U _ _ U F L P Y C P Y Y Y T ^ U U U F Y [ 3.` ^ U Y I U U I L ) _ ) W M F F P W ! _ I _ _ L U U U F j I U L L I L F U I ] ' _ U L f d d g f L L f f L U U ^ _ U P L L C n g N P I ! U L F I W P I ! P L L L I L f f F n f f F L f d f L I L U _ ^ Y L n d d n L P F F C I ^ _ U F f f F ",
"N d s s d d d s a i a b H M F d s s g g g d f f N N f g a a 1 d H ~ W P S L g f P ^ [ L f F F F d f n F f C j f L W I U L L f d n n L L L L F f L L L C f d U _ _ L d L ^ ] [ I f L L I L L L I U ^ U F L T ' ] [ f f I T U I U _ ` [ [ L U 3.w.4.[ U L d F ! ! I I L F L ] ] T U f L U ] 3.` [ Y U _ ' 3.` 4.` T R ` 1.` E ' T T 1.R E 1.5.1.A I ` ' q.1.4.5.4.z.k.z.q.1.` ` q.q.q.l.h.' 4.h.h.] ^ f g ! h.k.' ' ' ' [ ` q.v.v.q.1.R E T _ 3.4.4.4.3.X.3.k.l.] ` X.l.3._ Y L T _ R [ ` _ ' [ R Y L T 1.4.[ Y U ] ] _ _ ' ` ' ' l.q.q.1.[ Y f E 3.4.q.4.4.3.R E ` 3.5.5.k.k.k.l.4.] R R q.w.4.` 3.w.k.1.4.q.` 4.k.z.q.` 4.c.z.q.z.v.z.k.z.q.4.R ` 5.R R 3.3.q.q.q.q.q.' [ ` 3.4.k.4.4.` R _ _ ' ] q._ [ ' _ _ U _ 3.3.3.` ` ^ _ ^ [ ` 5.1.[ 1.3.` q.q.1.Y _ ] U U I I _ ' _ U L C U _ ( U U U j Y E [ L f f f I 1.1.' q.` U F U U U U ^ ! Q H P U ] _ _ ( I L n L L T ' _ I L U U U U ^ I j C f f L P P L P W ! F L I L n F L U _ ' l.' U L F f a a s F ! _ _ U L I ~ F n F F N f j L U Y F n f f n Y U I n n L U L U T U F f n f F L L U L f g L _ X.] I n f f ",
"n n d m n N f N a a s s s N N x s N N d d F C F b N a 5 s s a s F _ ! P C j d f L I I L C L I P L L L L f F f F f N f F I I L L n n n d f L I L L U T I f g f W U F d f L U I f f L [ U I L Y ' ] _ I j n F L F d g g F L U U F C T R ^ L ^ 1.5.` E f g g d N d d I U F f L Y U C g f T q.k.1.` ' ' ' ` ^ U _ ^ T T Y C L Y T I ` 1.[ R ,.[ R T 1.k.k.q.4.4.4.k.5.1.3.5.4.4.4.k.z.e.3.' _ _ U U _ _ L f Y ] ] ' _ ] ] 3.4.3.z.z.k.5.[ C P _ _ ` 3.4.k.v.k.l.k.q.` 3.k.q.2._ _ ] ' R R ` T U Y E ` 1.4.4.q.` ` ^ h.k.h.3.3.` k.l.q.1.E L f f f Y [ 5.3.5.4.4.1.[ ` 4.1.k.z.z.3.3.3._ Y T 1.1.R R 3.v.c.v.k.k.k.z.v.q.5.T 1.k.k.q.z.b.b.c.z.q.4.4.4.4.[ E 3.4.z.k.3.` 3.4.` [ 4.4.4.5.1.1.k.v.k.3.q.4.4.3.k.' U I ^ _ ` ] ] ' U I Y R E U ' 3.1.` R R [ E j E U n g f U _ R Y f F P ! _ _ _ U [ Y Y T ^ L g f L Y ` ` ` ] _ I I U _ ] I U ! I n F _ ] _ _ _ L L n d L _ ] ` U U T _ [ _ ` ] L f d d f P I I U ) ` U L F L L P U U U _ _ _ U U L f d d n d n ! U W I F d s s s s a a g F U T ! Y f d f P ! U I P F F n U U W F f L L Y P L Y L d g g L ] X.W m s g ",
"N a s s N n n d a 5 a 1 4 a a s N n N N d f d f F d s s d N f N U ] W n n P L L L I L L U I I I L U I Y f f L j d s s P ^ U L d g f L L C I I L Y F n n d g d f d s g a d f f L F P ! _ U _ I U ^ L n g n f g a g a a g d U I I C Y E E C Y [ Y j f g i 1 a 1 5 d F L L d g f U Y L C [ ` 1.` _ _ l.l.' ^ U U U _ T Y L I _ ^ _ 1.4.` T Y E [ 4.k.v.k.q.5.3.3.3.[ Y [ ` k.4.` ` 4.3.` 3.3.' L C _ ' ` E E E / ' ( _ ' v.v.4.k.4.4.3.5._ ^ ' ' ] ' k.z.q.4.3.q.` ] k.k.4._ _ ' 3.' 3.1.R ^ _ _ R 3.w.q.k.z.z.k.3.' 4.X.k.k.4.4.k.3.R f a g f U U U E Y 1.4.4.3.4.q.q.3.q.c.k.1.` ' ` [ 1.1.[ T R q.x.x.k.q.q.4.q.w.q.R Y R 4.q.q.k.z.c.c.k.4.4.v.z.q.` R R 3.w.4.,.E R T ` R 1.1.R ` [ 3.k.z.k.2.1.4.k.z.l.' _ _ _ [ [ q.' ^ f f U R E Y _ k.] ` Y Y Y Y C E I f g F P U I f F L n f d L U E [ ^ U _ U I f F U ' ' _ _ ` U L U _ ' ] _ I ^ ) P n f f L U U _ T P n n I U ' _ U U I L U _ [ L d g L I [ ! P I ^ U I j f N L U I U L L I P n L U I L Y n s a d F ! ! P f s s b s d N f d L U U P F N f n ! ] ) L n f n L L L f n j L I L C f f s a g F W I M a a a ",
"a 1 1 a s d a a 1 5 a ; 1 i b N d N N s s s s f n f d n F P n P U U L L L j L L L L L F L F n f L P F L L L L n s s f ! _ ^ F d d F U U U L C C C g g g d f n n s a a i i a g g d I ) _ U F g g a i a g L F g d N a i a d I _ U L C T T L d d g a g d a a 1 ; 1 a f I I P L F U _ _ T [ 1.E L f L _ ] ] ^ L f C U [ ' _ ] ' ] _ ' 3.' U Y _ T ` 1.3.4.5.3.5.` _ I Y U [ ' ] ` R ` R 3.z.v.l.^ ^ ` 4.1.[ R [ 4.h.^ C ^ h.z.3.1.1.` 1.4.l.l.] ' l.l.k.q.4.` ` [ R ' q.' _ ^ ^ _ _ _ ` _ U _ l.l.' 3.z.M.q.z.v.z.' T I ^ q.q.q.4.q._ U g i g L ] ` I L T 3.k.3.1.h.q.1.` 4.z.k.q.h.4.l.k.k.4.1.` 4.z.v.q.1.[ R ` 4.4.1.R T R 5.q.3.[ ` 4.z.k.3.4.z.z.k.k.' [ 3.4.3.[ R ` T _ 4.4.3.R R [ U _ ' [ R ` 5.z.b.l.q.] q.3.R ` 4.' Y f L T ,.R U ' l.3._ I I E R E T Y f f L f j d g n L f a i f Y T U U U U U L F C T ` _ I I U F C Y ^ _ _ _ U T W n a a i 1 d L T ( P n d d P U U L n g g d I Y C g f U ] ] ] L f F I L f C L U U U L n F L f d n U _ _ U f d a s n U ! ! P f F d s F P L f d L Y L f F L L P _ ^ L f f f f N f L L F n n f f f n g a g f L n s s s s ",
"; ; ; 5 s s a ; i a s 5 5 a N n s s a ; 5 - 1 a N n F W I P n F P L f F L L L L L f f n f f g s f f d L W U F d s s n ! _ I f d f L U U L L L j L n d s f n n d a a s a s a s d f L U ~ F i 1 ; < ; g f U _ Y L F d F Y I U _ U T T U W L f a i g F L L g 1 a N n f U _ ^ U L U ' ` [ E E Y f a g n L F f g g L U _ ' ' _ _ ^ C C n n Y ^ _ ^ I E R T [ 1.` ' ' ' ` _ ^ U T ` 1.[ 1.q.v.v.3.' 3.4.3.R R _ 4.v.l._ L U 3.3.1.E R [ ' ] k.q.3.3.q.4.4.q.1.` ` ` ^ [ E R _ [ ' _ U U ^ [ ` q.k.1.[ 1.k.k.4.q.q.k.q.^ Y E [ 4.5.` ` ` U F f f ^ ' ] U U ' v.k.` E ` 4.3.` 2.4.4.k.v.v.v.x.v.z.4.` 3.k.q.3.R T ` 1.1.4.5.1.1.1.q.q.3._ T R 4.4.3.` 3.4.k.l.3.' 3.h.1.` 1.3.' ' ' 3.3.[ R R Y L ^ E R 1.3.q.k.k.` ' ] l.4.1.3.` _ _ U ` [ U U q.l.' ] U ] ' ' ` T U L I N d a a a L U f a i f U _ I U f L Y U L L U I U j f d g g f L U P I P U L f g a 1 i a f F C F n C C Y Y F n d a a g L U L L F [ _ ' ^ L f L U Y Y L U T U U I C U L F f F U T Y L f f n f d F P F n L L n n n L L F n P U n f L L L L j Y L f F j C F F U L L n f n n L n f f j F F f s d n n ",
"1 ; 5 s s s 5 1 a a s 5 a s b d a a ; = @ @ = ; s n P W W C n d d d f j I L L I P n P n f s g g g d d I W W f a a s N U U L f F P U ! U L f f U _ _ U L f g a 1 1 a n n N g f f g L P f a 1 ; ; ; 1 d U ] ] ^ U L L Y U U W I T _ _ } L f f g g f T ' U s g f W W F P I F g g f L U L f Y A L f d N s a a f L P _ _ U _ ^ ^ P g i a d n ` ' U f Y E T [ [ [ _ h.l.k.] ! I U ` 1.[ 1.q.1.U Y Y ` 4.1.T Y T 3.k.4.' _ ] k.z.h.` T ` ` ' ] ] q.k.z.3.3.5.4.3._ ' [ E Y E 1.4.q.' [ T 1.` 1.4.4.` E _ ' 3.4.q.4.4.5.` ` [ 5.` ` ` 1.' ' ' ` ' 2.4.' U I _ h.4.` [ 3.q.z.k.' 3.1.4.z.z.k.v.z.k.3.R ` 1.4.` R ` q.5.q.w.w.5.1.` 1.q.X.1.E R 3.5.1.[ ` 3.3.q.] ' ' _ R ^ ' ' ' _ ' ` T Y Y T L L U ` 3.4.3.` _ U I _ ` k.4.3.3.2.` 3.k.q._ L T ' ` ` T T ` l.k.] _ ` _ U L s 1 a g L I U F d F I U U L f L U U F g f f d d d d d d j C I L f L L U F f f f N d d s g n I T ^ ^ U n f L L d f L U U U I I L I I L L I U I I I L Y L f f U U T I n L I P f d n I I U n f f s d n U P C g g F F I U I n f L L f f f j j f F L L L I W P n n n F P F n M P I L f d g d n C ",
"a a s n n s a ; 3 5 1 ; a s s a ; = < @ @ @ < 1 s N M H H N s g d d f C L L P F f F n f g a d n F f f n L n s a i d F n L f j L P U F f f f L _ h.k.' U F a i a a f L n f f L j f L f g 1 i N F d d L U ' ' U L P U U L f N f L I U L L j j f g F U T I f d U ] } d g g a 1 a g f f g d j [ _ U T I F f F I ^ T U Y F I ' ) F g a f n L U U U I [ 3.1.` ` I I _ 3.` _ j C L E Y C E _ E f a f T [ ` E E _ h.' 1.2.3.l.v.h.3.` [ [ ` ] ] q.c.v.z.4.R 1.3.3.] 2.1.` ,.R [ ` 5.4._ ] 3.1.` 4.1.,.Y U ] ] 4.5.1.` 4.q.k.4.q.q.1.[ [ 3.q.k.q.1.` 3.h.' _ T ` ` 1.5.k.c.z.l.k.' R 4.3.3.4.4.k.X.1._ 4.k.q.5.1.1.q.5.q.z.q.q.R R R 5.q.3.` [ 4.5.3.1./ ` ` _ 3.q.1.R ( T _ ` ' _ ' ` T j j j L _ 3.4.q.1.` _ _ L F U ] X.3.T R ` ' l.l.l._ _ ] ' R Y Y [ l.k.] _ T _ _ ) I N d g f F P W P n N d f F f L I U L d g a s s g a g d L L L L n f f L F f L U U L N f f f I _ _ ' ) U n n U I L I I U U U U I L f L L U U L L L I L F g d n I T U f F U U L d g n U ! I F f F N N P P T P f f C C Y U L n F L L L f f f f f L U I L f N b a N N P P P N n F F n f d d d n n ",
"s a s n N d 1 < < # @ < a d s a - @ @ @ @ @ - a N N b N d a a g d d d g d d b n L L L P n f n U L L f f n f d f n F L L L f L C j F g d f f F I ) ^ ! ! n d d f F L F d f L U E j j f a a N W W F L U U U L f g n L I d g a i a f L L I E Y Y f g d f F f I U _ L g g i a g f L C L L U ^ ' ] _ _ _ ! U ^ T T / L f d P ! ] W n L U _ U U U L E 1.k.q.[ U j d F U T Y Y U U I f f U ' U n C U ` [ _ T ' k.k.3.3.3.k.k.] _ _ [ ` R ` 3.z.v.v.q.R R E [ 1.' ` 4.q.w.4.` [ ` 3.4.1._ ` [ 5.4.4.1.` ` ] ` 4.q.4.1.3.4.4.q.l.q.3.R R ` 4.5.` [ [ 4.z.k.l.U T ` 5.5.5.4.4.` ' ' 1.1.1.R 3.5.3.h.h.3.k.z.k.1.4.4.3.` ` q.` ` T E R 1.1.] ^ ` ` 4.q.q.4.` T 1.h.k.3.` ` _ _ ` ] h.2.` E Y j Y T ` k.3.` [ 5.' ' ^ I [ _ ` T Y U T T ' h.l.' ] ] [ E L T 1.k.] U L I T U _ L L L U U L F f F L f g 1 g L I _ _ L d a a a s a 1 a d I L n f F f n g g a d U U I L L P L U T _ U U Y F f U U ! ^ U I F I ^ [ L f L U _ _ U F f P F L n n P ! _ U C f L U L f n F L L L n F H P N f n P I P L P L C L L L U ! U L L L L j F n U L f s a a a s N F N d s d N N f d f n L f d ",
"g g s f N b a - < @ < - a s a 5 - @ @ @ < > s b s x 5 - - ; 1 s L f g a a a a N n L L C n n L U P F F n N n f F Y L L L L L f d d f d f L L d s n N n P L L C F Y F j d d F U U Y f f g s f F L L I P f f d a a g F f d d g a a d f C I U E L d d d f I T P L L I L L d F ^ ' ' ` ` 3.l.q.` U I I I U ^ T [ R E L a 5 N ! ~ P P _ l.' _ U U [ 1.q.q.' ^ U L C I I E T _ ` ` U L L _ ] ] ' ' ` R ^ T ' k.k.4.R 1.3.h.4.T E ` 1.4.4.5.k.z.l.` U j Y R R ` 5.4.5.q.5.3.1.5.5.q.k.4.1.R R 3.q.4.4.q.k.k.1.R 5.` ` 3.' _ ^ l.k.1.R 1.4.4.1.3.1.2.4.k.k.4.` [ ' 1.[ R E E I [ 4.q.1.R R [ ` [ ! _ l.z.z.q.1.R 2._ I U [ _ T I [ 1.1.1.^ T T [ 5.4.q.3.1.R 5.3.3.4.4.3.l.k.3.3.3.4.4.1.1.R [ ` 3.3.` R T 1.q.` ^ P P I I I _ T ^ I U 1.` ' ' _ T P ^ ] X.' U f d C U U T Y U R _ U L f L _ _ U L s g L U _ U I f s F d b s 1 a f L n d d n P d g 1 1 g L [ L L L I I f d g d d g f L Y I } ^ U U U Y U [ L C L _ _ U Y f F P L F P P P ] _ U f g g j f n L Y F f n j L P H N a s f N P U U L f f n L I ^ ^ U U U U L F f f F f a a a s d n n n N f N F F N n n P L f f ",
"a a g d f f s a 1 1 ; a s s i i 1 > a 1 1 s d N s 5 < @ @ @ 1 g d g g a a 1 a f n n f f f F L F f n L n n I Y L L L L L j f f g f I U U U d a 1 a a n L U I L L L L j n g g d g d g i a a a a ; s L P s 1 1 i a f L f L I L f F I Y Y } Y I C F L Y ^ ` ` U I L f d d L Y ' k.] ] ] 3.' ` T f L U _ _ ] 1.3.` U f a 1 s M L f f T ] ' T ^ ` 1.1.5.5.[ L U _ ` _ Y [ [ q.] _ U ^ _ 3.3._ ' 1.5._ ` ` ' ` ` 1.E E ^ [ ` E E ` q.q.q.q.z.z.3.U f f Y ` ` 1.q.5.` [ 5.[ 1.q.k.z.v.z.3.R [ 3.k.3.1.3.3.k.` [ [ _ ` 3.' U F _ ' 1.1.5.5.1.` 3.l.h.3.' 1.` ` ` ' ' ` E U L U ` q.5.[ R ` ` R I L T 1.q.q.` ` ` ' U C j T _ U _ U [ ` E T T Y E R 3.3.3.` ` 2.` [ R ` ' 3.l.2.' 3.q.z.4.4.4.5.` 3.1.[ R E R [ U F s f I L ^ ' _ ' ^ R R ` ' ` _ I I T ] ' ` U Y Y U U ` R [ Y Y Y L n C P ' k.] _ L F L ^ ^ U U ! W ~ F F s d N N N f b d F n d g a a d L U f f L L f a ; < - i d f F f L U U ' ' ` U L F f L U _ U L L L F F n n P P U ~ U L g i a g f U U P f f d n n F d a a a a a s L P L d g a d n P P L P L L F f N f N s s n n n F n n P P L L P P M F m F N g g ",
"g g d f L F L N d s N P N s 5 a s a s d d d N d x i ; @ @ @ ; a d n j d d g s d f f d d s d f f f d n L L L L n n f F j F f L C U ^ ' _ L d i 1 1 d L U U L N g d L I F d a 1 1 1 ; = < < @ @ < a m N 1 < ; 1 f ! ! U U ) I I I ^ ^ T Y I I I ] ` ' ] ] ] _ U L g i 1 d I ` ' ` _ ' _ _ Y Y Y T ] ' ] 3.k.l.` ^ f d d f n n n F U _ T T [ ' 3.` ` 1.Y Y _ ] ] 4.` 1.' _ ^ L L [ ' ] ' _ / [ R [ ` ` ` ` ` [ E Y Y _ ` 2.` 4.q.q.3.` 3.l.] _ L U _ ` [ T 1.R Y Y Y U ' ] ' ' 4.k.3.3.' 3.4.` [ R ' ` ` R E T ] 3._ L f Y _ R R R [ [ ' ' k.3.' ] [ ` ` 5.[ [ / T T _ ` ] 1.1.R E E 1.R U L R 1.2.` R E [ U n f L _ _ _ I L L Y L E Y Y T R R ` ' T ` 1.[ R T ^ _ U ^ ^ T ` 3.k.k.4.3.3.2.3.1.` 1.R E Y j d L U ^ U ^ ` ] ' _ [ ` ` ' _ ] U I ^ _ ' _ T _ ' ' ' ' / R E I U L f Y _ ' k.q.' U L Y I I L ! ! ~ U L f f F P n f F I P L f n f F L L I I C L L f d a a 1 1 a d U I Y L L U _ ] ` I F d d f L U U L L L U L L n L L U U I F f d f d F T U U F N n f g d d d s g g a s F L L f f g d d F F d d d d d d n n F f f L P P L L F P U f L L P F d b s a a a ",
"d f d n L F n n f F F W P n s s g N n n n n L F n g a 1 ; ; 1 a f L I L L d s d n f f N s f F f g d f L L n f g a g d j P U ( _ ^ I Y I F f s s d n C L n f s a s n P L d 1 < @ @ @ @ @ @ @ @ < 1 1 1 < @ < a H ) ! I f L F F L ( _ _ I U U _ _ ` ] _ U U _ _ F g 1 a d L T [ E T _ _ _ [ T E 1.3.l.' ` ' l.k._ L f L I I I I _ ' T _ [ ` ` ` _ T R T U _ ` ' 3.4.3.1.T n a s L _ _ _ T _ T T [ ' [ _ q.5.5.` T U ` q.k.k.1.[ E I L U ^ ! ! Y I _ ` E Y Y j g g g j I L f I [ ] ] ` ' ' ] ` T T ` 1.5.[ E Y T ` T n f P T E j Y T I ^ ' h.` ` ^ T R 1.` T I L U ' 3.3._ _ ^ R T ^ 3.3.` [ 3.1.[ [ I L f g a a d n P P d s a g f Y Y E T [ E L I U ` ` ` T E Y L f f L U [ ] ' ' ` R ` ` ' ` 1.4.5.[ T U L U ' ` ` U [ ^ _ _ ^ R R _ ^ _ ` _ I U U I U [ ' ' ` U Y Y E E U I Y ( E E _ T E Y C f C f d s f F L L N f P P I U U ] ! P F Y U _ ] _ U L L F F f P L n f d n U U _ _ U U L L [ ^ I d a d f d n f F n L U U L L L U I I C C L n P P P U T U L L L f g f n C L f L n n P L n n n F L F L n d s s d f C L Y L C j L P L C C C L L g f F L f s 5 5 a ; 1 ",
"N f d N n f d d f F P P P n d N N n P P P L n P P n d g a s N F I U I I L F F f f f f F P U U L f f f L L n d s g d f F L U ] _ [ F n F n d f L L L C d g g g a a s s d a < < @ < @ @ < < - < < ; < < = # < s F P L s g f L f L I P L P U _ U _ _ _ I f L U _ I F n C T ^ R R E U T ] ' 3.3.1.1.' ] U P T ' h._ U U [ E U U _ ] 3.l.' _ ` _ _ ' ' ` ` ] ` ' ` [ ` 1.1.[ L f d j U _ _ _ ` ' ' 4.3.' ' k.z.4.3.' ] q.k.k.q.E f g d g f L L P F j E R R E Y g 1 i a F L I I L I I I L I [ U ^ _ ^ ] ' ' R Y Y U _ T L I _ _ [ T [ ` _ I U ` ' 3.` 1.4.4.' _ U L U ' h.3.] U E ` 1.2.3.h.h.] ' ' [ T I f g a ; ; 1 s a 5 5 - - 1 g n Y U T ^ U C j ! ` 3.' E Y Y f g d F U T U ! ( R _ [ ` R U ` 3.q.4.5.` ' l.1.5.[ U I ] ' _ U L f f U ^ ` ] I L Y I C U I L L f f f f } ^ ` [ E I T T U F j f d f f d g a f n F f f I ^ _ ] ' ] _ T L U U l.l.3.U L L L L L ) ^ ! _ ! F ! ] ) _ U L L L L F d d s d d g g f d f L L U L L L L Y F C f d F P P P W P I U U F n f F P U I U U W P P F f f P P I ~ P n d g f L f F I L C f f C L U L C L f f d d d F f s a 5 1 a 1 ",
"N f s a g d g d d N N f n f f n n d f C n N N F n n f n F L Q ! W ^ ! C L C f f d g d F W ] ] U F F f L n f f N d d g g d F Y I L f n L P L Y I L F f g 1 i a i 1 ; ; ; ; ; ; 1 1 ; ; a s a a 1 - ; ; < ; ; a N d g a g C L L L F F f F U I L U _ ^ L f L ^ ` _ _ _ ] ` 3.` R R U U _ ' ` ^ E E U I L f F T ' _ U E R T P T _ ] ' h.3.] ` ` ] _ ' ] 3.` ` _ [ E Y E ` / _ U U U T _ ' q.' 3.#.4.q.1.q.q.q.4.3.1.] ' ' ` U f i 1 a g f F f g a g j I [ ` E f g a d P ] q.' [ ! U C s d F L _ ( ^ ^ ' _ T j E _ ' ] _ _ h.h.3.q.l.k.` U U [ 4.q.4.1.1.q.3.U U T ' ' q.3.` E R 1.3.1.` 3._ _ U U _ ' _ F g 1 ; - < < < @ @ O @ - a s g L _ _ T U Y U ` ` ` R [ [ L g d U T Y C Y T ' ' 1.( L f U ] 3.q.q.q.q.4.4.` E Y _ ' q.] U d d g L ^ ] 3._ ^ ^ T f f L L d g g g j C T E R I U _ ^ I L f f L L U f n g d f L L P _ ] ] ` _ U T T U U ^ ` l.] ^ I I I P L U ] _ _ U I ~ ) ! P f L L L f f f d d f C d d f N f L I L L L f f L L L L d n F n f F F I _ _ W F f n Y L L U U U P H N N d f F P P n d s f F I F L I P L d F L U I L L f L f n f n n f N N N s d a ",
"s b a s g g g a s s s a a s d f n n f N f N d d s d g d L U W W U U W L F f d g a g g f I ! ! P f C L n f d d d F F f a a g F L f d n Y _ _ T C j n a 1 1 a a 1 < @ @ - a g a i a a a N W m b s a 1 1 a a g d N d g f f L L L L L f d j Y U I U ` ' U I U _ _ _ ] q.] ' T R ` _ _ U U I I f g g d f j f n T _ _ U Y E U ! _ ^ U ^ _ _ ` ` _ _ _ _ ' ` ^ U ^ _ T j C T [ ` R ! _ _ ] ' k.k.4.4.l.q.` 5.5.` ` 1.[ [ L L f f s i 1 a C U L f a a s f ! [ _ U F f f F [ q.w.z.q.' ` U j d d L U U ^ U ^ [ T U [ ] k.3.q.h.3.l.' l.v.l.' _ ' ' q.q.4.1.` 3.` ` ' ] k.k.5.3.1.[ 1.3.1.R E ^ ^ U L L _ ] _ I L j d a - @ @ . X . @ = - 1 a L _ ' 3._ _ _ ` ` [ R 4.` Y L Y [ ` T L U ] 3.4.' ^ U j U ' h.] ' ` _ ' 4.1.T E U ` l.l._ f d g L ^ ` ` _ _ ` U U U U U L n g F P L U U I Y I T _ ! I I U ! U U U L L n C U L U ` ' ] ] U L P U U Y L _ _ _ I L I I L L F U ) ^ U W ~ W F f d f f L j f F f n N f f F P I P U L L L F j j L I U L F f n n F j L U ^ ) I C F L L f Z L ! F n s s N F n n F f d g d n U L L ! ~ I L d d L L L L j f F U L P L n n n n n n n s ",
"s d d N d a i a a a a i a a g f n d g d f f d b s a a g f f P L n F n M d g s a g g g d g f d d f n d d g a 1 s L L n g g N P P L d d f I [ L Y C d g 5 1 1 1 - @ @ ; s n f g a 5 ; a b H H F b s g s f L I I I U L C C f F L I Y P F L T _ U T ] ' 3.' _ U L U _ _ U L L T [ ' ] U F f g g a a g f L U U _ _ _ _ R E _ _ ^ U P j L E 2.3.' ' _ ` ' [ U L ^ ' ' U L U [ R T T _ ' ] l.q.k.k.q.] _ R R R Y E E T Y d a g f f d L f ! ) T n N s n n L L L L F j L [ ' q.q.q.q.1.] ` ` L Y L U _ ] T _ ` ` T ] 3.z.v.k.q.` _ _ _ h.' ' _ ] k.l.3.5.3.3.` ` _ 1.q.3._ 1.` 1.3.4.5.[ R E [ _ Y L I ^ ' _ ^ U ^ U n a < X @ . X @ < ; a a L ^ 3.k._ _ ] 1.R E ` 3.3.^ U ` 3.1.^ T I ' ] ' _ _ I U _ ' ' ` [ T R ` 3.4.1.E T _ l.k.] _ I I L I _ ] _ ^ U I ^ _ ] _ U L F j W T [ U L C L U I L I ^ _ T U U U U U U L U [ U U _ ] _ I L U U ^ Y f L U U L L L L n f f I [ U U ] ! L F d g f f C C C I L L L f n L _ ] _ _ U F C L L f L P W I P F P n L L L Y U I P n n L n f C P P n s a f P I W I P F d s d L P Y W ! U I F d N N C L f f d n P L F f f n n f C n f N ",
"s f F N b a s a a 1 a s a a g F n n d f n F n s a i a g s d n f N n d s s a 1 a s d d g g d d f N s s a 1 a i N P U L f f P ] _ P f a g s f f d f f d N N a a 1 < 5 b n L d ; < ; < > a x s d x s n C U _ ] U [ T U L f f f L I ^ T U U ^ T U U U _ l.' _ Y j L U U U L Y [ 1.' ' U n d g d L n f f U ` _ ] _ U [ _ [ _ _ T Y T U U ^ 3.3.' ` 3.' ' _ ^ U ' l.k.] ! _ T U I U _ _ 3.4.4.q.3.] ` [ [ [ R Y L U U P d 1 g L U I I W T _ I n d M H P L C C L L _ ] q.1.E E E E R ' 3.1.3.' _ ` _ h.' ' 1.` ] _ _ X.l.l.3.` T U U T T ` 3.k.k.3.3.` R ' h.' ' 3.3.` R T 1.4.h.3.1.R [ 5.` ` _ _ ! _ T _ [ ` 3.` _ f 1 - < < - 1 4 s N f I _ 3.] _ U _ ` ` [ [ ` ' ^ _ ` ' ` ^ U U U U ! U U U ' ] _ U _ ^ R T [ [ ' [ R E I ` ] 3.] ^ } _ 3.] ! ^ ^ T U U U ^ U U L L L U U U Y L F L L f L L U U [ _ U U _ [ ^ U U U U P I L U U U U T U I I U U U L L L L n f f I U Y U U ! F L L f d g f f L U ^ ! Y L P U T ] ) ! U P f F f f F P L L ~ ) U I P U L L L L P n n N n N F P n b s s F U ^ ] ] U L f f F L L L P P F L f d d n P n n f d g f f f f n n L C C f d n ",
"d n n f n d N d s s s x s g d L L n n F n C n N s i a a d f F f n f a a a a s a s f d g g f N N N s a a a s d H W U F f n P ) ! P N s a 1 a a g f I ] ] ! n g g a s m N s 1 < ; 5 a 1 ; ; 5 1 s f P P ^ ] _ ^ I F L L d j L U ! _ ! U T _ U C f L U _ ] _ Y Y [ T _ _ ' ' [ 1.' ^ L C L W _ _ U L L U ] ' _ U U ` ` ' ' ` T [ E ` ] _ ] _ _ ' ` _ _ _ U ^ ] ' ' ] T T ` ` ' _ [ [ 5.1.4._ _ U T / <.R R U P ) ! L g g f U ` U I L L U I L F H P ! I U ! I [ 3.4.1.E A A E [ E [ ` 4.h.' ] ` 3.3.1.` 1.` ' U L U _ 3.2.` _ _ ' ^ [ ` 3.l.l.' _ T T ` _ ` ' 3.1.` R ` 3.3.' ' ` [ 1.` ' ` ' ' _ ` R ` ` R R _ ^ P f s s s s s N P U U U U ! Y L L U _ _ U L L I I U T U I [ Y f f j P L L U _ _ T L I U ^ U I I _ ^ U Y E ' ' ` ' _ _ ' ] ] _ U T _ ^ C f g F I U _ _ U U L U P L L L L U L L U _ ` ' _ U U U L I U I L F j L L T _ _ _ T I [ U T L F I U I f F L F L F L P L L j L d g s F L ! _ _ _ U U L U U P f L I F F f F f F F L ~ T ^ U I L L F f L P n n n n N L F n d n n P ! [ _ _ U U I L Y U L L C L L F f N n F F P F f s s f f f F F I L C F f f n ",
"s g g s n n C M n N d f N f f L P P N n f n d s a s s s f F L j n d a a a s N d N F n n n n n N s a a s N f n P L n d g d n H P L L g a < - ; 1 N ( m.m.' I n n f F F s ; < ; s Z n s 1 - < 1 a N f N F U _ Y f g d f I U U U U U _ _ ^ U U C g g F U U U T T _ _ ! ^ ] ' ' ` ' [ U U T ` k.] _ I U _ ] ' _ U ' 3.l.' R ` R ` R _ T _ T I T ` ^ U C Y U U _ _ U U U I ' 4.3.3.` R ` 4.` _ T U L E R R U U P P W n a d U ` ` ^ L L L T [ ^ T Y ! ! _ h.4.` ' 4.3.1.E j R R [ ^ U [ 1.] _ T _ ` ` _ U R _ U U f I ` 3.3.` ' ` ` 1.1.1.1.` ' ] _ T R [ T _ ] ' _ E _ 5.1.' ^ U U ' ` _ U ^ _ ] ' ` 1.3.3.` Y I I I I C Z ! I U U U T ! U I Y U L I U ^ U Y j j F j f C L U I L f d L U U U Y _ _ U n n U T U L F I Y U U U U U U T _ ' k.] ' T U ' ] _ U F f L U _ _ U U U U L U ^ U I T ^ [ U ` ] l.' U P U U U [ I I I C C f L U U ^ U L I I U ^ I Y I U _ U Y C P j f L L I Y j C f d s f L P ~ ] _ U I L C F f f C L L L F f I L I P U U U U I L L L L L U L P L F L P Q P P L Y I L U U Y L n F L L L L n C F L F N F f F P ! W C f f d f f L U Y P n f g N N ",
"a i i s f P M N F d f n f N N F P Z n s a a s s a N f F n f C n d f d n n F n n N F L f n d g s s b s N n N f N f d g g d g s n P L f 5 ; 1 1 a W X.#.X.U f f j F U I s 1 ; a F W P s 1 < @ < ; 1 4 i s C I L C f f Y T _ _ U U _ ] ` _ _ I j d g f L U U _ [ T U I I ^ ^ [ ' ' ` ] _ ] ' ' _ ^ I U _ ] ' ] ' l.#.3._ T R ` [ E P j L U U ^ T [ Y j j } T U I L L U T 3.3.l.k.] ] ` ` ` [ Y L L P T E C d d F N g s f U ] ` ` ^ _ T [ 5.3.1.' ' ' ' 3.4.3._ _ ` E T R 1.4.` U C I [ T U Y T ` _ Y j L T ! U I T 5.q.1.[ T _ [ 1.1.1.[ _ ` 1.' 1.T R T U ^ U Y L _ ` ` U n L U ' _ T I L U ] ` ` q.k.q.^ L F I ` _ ) ^ _ ( _ I U U U U Y E [ ` _ U U I Y j C j L f f L T ! U L L I ' ` T T _ ' ^ F f F U T ! ! W ! ^ T U L L L U ^ ` ' ] ] T U _ ] q._ I I U _ _ ` _ ) U U _ ] ' ' T U U U U _ _ _ U L L U U _ _ U U U U L n f L I U L f f L I _ T U U U U U P L Y F L P U U I C L I P L n L n L F W U L Y L L L f j F L I I P U U U U L P Y F L L L F Y U U U U U F j L I U U I P I C C L F n n C j L F f F I U P F f f n F P P L F b d f n f n L F n g a a s g ",
"5 a 5 d n d s s s s f n N f d F f N N a i a s f f F P P H F n n L f F L P L n n d n L F F n f f g d n f F f s s d n F C n d g d F n C s g s s N W ) X.! n g d n U ^ I s a a N P P N a ; @ X O @ < @ # ; N U _ ( I L P _ _ _ U ^ ! T U ) U U L f L I I P U _ ` _ U I L U U _ ] ` ] ` _ [ _ _ ^ Y I _ ` ' ' q.' ' q.] [ E E R R U I L U ' _ _ _ ^ Y Y A E T _ ^ T R _ ' ' ] ' ' ] ] ] U _ I F f F n j f f d s n F n d d I ^ ` 3.` _ R R R 3.1.3.3.' 3.h.3._ T I Y Y ^ _ l.l._ I j Y E U L Y R [ T Y Y T _ ' ' ] ` 5.5.[ E U _ ` 4.R [ E _ 3.l.l.` T T U I I P Y C _ ' ' Y d L U _ ' ^ U E [ ` ` 3.4.h.3.` U L _ ' _ _ [ ` ! I L U _ _ U T _ 3.3.` T ^ U E Y U L f F Y T T _ _ _ ' _ ' ` _ _ 1.` ' T C j Y I ~ ~ ! ~ ! U I L n f Y ^ _ _ _ U _ T _ ] ] _ _ _ _ _ _ _ Y _ T T _ ] ] _ ^ U U U I U U U L L U U ' _ ^ U T T T U U F L U U I L d f L _ ^ U I I [ U I I U ^ U T U T U I U _ _ ! U P P P L I L F L L I L L f j L I I I [ T U U L n f f L P L F I L I U T U L F n I U U P L C C n n n f f f n f n n P I U P L L n n f n L L n s N N f f f n f g a 5 i s d ",
"a g s d s a a s a d g d f d d s b d N a a 5 s F L n L P W n n L C L I I U P n N f n L P f n F L n n n L L F d d N L P P n d s N n L f n d N f d P P L d g d n L ^ ^ I n s f F L n N s 5 ; - # @ @ @ = 1 d ! ] _ T L L U ^ U T U U L U ^ ^ ^ I L I ^ U I ! T _ _ U U Y U ^ ^ ^ ^ _ U Y Y L Y [ U I Y U _ _ _ [ ] ' ] T R E R U _ U U ) ] ` _ U U ^ T E R ' ' ' h.` 3.3.2._ ' ' _ T L n g g s i g f d f f n f Y I I L L U U ] ' ] T U E Y E R [ 4.k.4.] T U Y n f U U _ ] _ U L Y E R T ^ _ 3.3.1.` ` 2.3.3.l.q.' [ E E Y U _ ] ` ` T ' ' l.3.' _ Y Y L T ^ Y I I _ ] _ L f L ^ ` ] 3.' [ R T 1.1._ _ _ U L U 3.k.] _ U E R U E ' ` ' ^ ^ ' ] ] ` _ ` ` R [ ^ [ I U T ` _ ` ' ` ` _ ' _ T U [ [ ` U Y L F f n F ~ W ! ! W F L L U U I f f f U Y P U U I ^ ) _ _ U I I U ^ ! _ ` q.` _ U U U ^ L I U L U U U _ _ _ U U U ^ _ U U U U _ ^ I f F U U U U L L I ! U U ^ ) U U U U U U U _ _ _ ^ I I U U U L L L f I U I L L I L L L L I I L f d d f L L F I I L L U U U Y F F F F L F f n n F P P F f F N N f N n F L n L L P n n n C n f N f N F d d f f d g a a s d ",
"s d s s a a s n L d g a b F f d s d s s a s f n n n n n n N N n F L I ^ I L g g d L P L n n f L P n L P P P n N f F P n N a a s F W I C n F L d n n f d f f L P U I f f f P F f n n C f b s 5 5 ; 1 1 a L T ) _ ) I U U U U ^ I I L I U _ ] _ ! _ ! [ _ ' ' T U U U _ ' ^ U [ U U U Y C f j E I I F C I _ ] ] ] ' ` ` ` E Y L T ] ' q.' _ _ ^ _ [ R E Y _ ] k.' ] ] ' [ T _ ` _ I d i r r 1 a g d d L C L U _ ` [ T U _ U T T U I Y j f f L T 3.] ] U I T U L U ^ ^ ] ! L L U T ` ` _ ] h.k.k.' 3.3.4.3.3.l.3.] T Y j Y U 3.] ] _ ^ ] ] 3.] ' T Y Y Y ^ _ ] [ ^ _ _ _ I f I T 3.k.h.4.` ^ _ ` ` _ U L L U ^ 3.l.q._ E E T R [ ' q.3._ P U T U U _ X.3.` ` _ U U ' R ` [ T ' ` _ U T I C C U U [ U L L n d a s c s n F n N n U ' [ F a i a d f L I F C L U ^ U U L I U U U T _ ] _ ^ I U [ ^ [ I U I U U U U T [ Y L f L U ^ U U _ ` ' ! f g f W U U L L I _ _ _ ] _ ! W W I I U U U _ T W P I T U U I P L L F ! U U U U L F L L f F F n f n n F P P P I C f F U L L d f j f f f d s f n H H F f f f n f f f f f n n L L n f n F L F N N N d N d n b s s a s s s ",
"s N d s a a M ! ! F g a d M M f g d n d s a a d f f n f d d b d f n P W F n s d d L L n d g d L L C C C P H d f f d d s a a a N P ! I P L f d g f f d f L F C f n d g g n L Y f n P ! ! Q ~ M N s s d F L I ( ~ W ~ W U U I f F L L I U _ ] _ _ ] U U ' ' ' U I I U ` ] _ _ ^ ^ U U U I C j Y I I C Y U _ l.] ' ] q.` ` U L U _ ] q.] _ _ U _ _ ` ` U Y T _ _ _ _ U [ U E [ ` ` I d i 1 i a f F f j C L U _ T [ [ ,.[ ` ^ I L I I L Y f d C ^ ] _ ^ I U T _ ^ ' 3.] ] U C F U _ ' T ^ ] k.] ' ' ` ` ` ` ] ' 3._ U I Y T ] ' _ T L U _ ' _ ^ [ T T U T ] h.3.[ _ _ ] _ U I T ` ` ' l.` ' U ^ ] 1._ U U ^ ^ ' q.4.' T Y E R [ ` ' ] ` U L f P U U ' 3.1.R ` U T _ _ ' ` T [ T T E C L C C U _ ] I L L L L d a 1 5 5 a a s a s F ( _ j s ; ; a s F L C L n L T U T U U U U U _ ^ ! U P L L L T _ ^ U U U U I I T T U n f F U _ U T ^ _ _ U f d n L L C F Y U ) _ _ ' ^ I L F f L I U U U U L F C I I U ! T L L F L I ! ! U P F d g f L L F n F L U W P U P j f f f d g f f j F f g g a a b N N N x s d f n n d s g d f n n N n N n n F N s s a a g s a a a 5 5 a s ",
"s d s a s N W ~ ! N a a b P W F N d n f d a a a b d f n d d s g d n P P n f b d n C n f g d d d f M n N N s s d g f d s a a a s P I Y F f d g s f d d f L n f n g g d L L L L F P I ' ] ] ] W P F F I P C L U P H F F L I L f f f C F P ) W ! I U U U U ! U L L L U ] ` _ ] ` _ U ^ ` _ I C L I I L L ^ ] 3.] ` ] ` [ T U I L _ ] ' ^ U L I ^ _ _ T T U U U U F f Y L j I ` ' ' U f d d L U I L L L L I _ U E Y Y U ` ] _ ^ L L U U Y j d L [ _ ^ I C I ^ _ _ ' ] k.' [ Y U U T U L Y ' ' _ U L U ^ R [ _ ` ` ' ^ _ _ ' ` _ _ L d L U ^ _ ` 4.3.` _ ( ` h.2.1.R T ' ' ` ^ ^ ' ] ] ' _ T U U ' 3.` ] T ^ _ 3.4.3._ ^ L L Y ^ [ T ] U L L L L L _ ^ ^ [ T [ ^ ^ U T _ ' _ R R [ Y j f n U ' ] ' ] L L L U L F g 1 ; a a 1 5 4 m W W F a 1 a d d j I U L L L I U _ _ [ _ _ U U ^ ^ ! I F f F I I U U I I U I U _ T I n g f L U _ U P I U P f d n L F P f F ~ ! ) ! ! T L n f d f L I U U U L L L L L U T ) ^ L f f L U I W P n f g n L L L j F P ! U I I j F g d f g a g f P L n g a a a a s g a a a a N N N f d f d d f N g g d N n f s s a i > > 1 1 ; - = < 5 a ",
"d n d d d d F P H N d s d N F n n n C f g a a s g n F L n g g d N n n M N N a s d d d f n N f n n F d g i 1 i s d Z M n a g g f n P F f f N d d N L L L n n P F f f F L U U L U U _ _ ) ) ! ) P L Y U U I U U L n s b n P L F j L Y f d n n F L d f L F I I L I U _ _ _ _ _ ] ! T T _ _ _ U U _ [ ! I I _ _ _ _ ^ I Y Y L L I U _ [ L L L T U T T _ _ ' ' ^ Y f L F j f j P L U Y C f U U _ ^ U I U ' ' _ U j d f U _ ] ] _ U ] ' ' [ L L [ ` ) _ I I L I U U _ ' ' ` [ T _ ] U L n F Y _ ! C C Y ^ E Y ] 3.' ] ] ` ' ' 3.` I f f d L U _ 3.z.z.k.' ] ] 3.` ` / ^ ' ' 4.[ [ T ^ _ U L L L Y T ' ` ' U U ^ _ _ 3.] _ I I U Y } A Y ^ ^ _ _ U U T T U U T _ ] ' _ _ ' ' ^ ^ R ` T U Y L ^ ' k.] _ I f L U U I n s 5 1 1 ; = - 5 s s a 1 a s P U U U I L L P L ^ [ ^ ^ _ [ U I U _ ( ! L L L f I U U U I U U U U U I L f f F U U L L U U U P P P I Y L n f n F L f n P L P F L I F L I U I P P ! L L U U U ! F F F n n L L L F n F L L U P L L F I U U L F f f F f f d d f P W F f b s a a 1 ; a 1 1 a s x d N f f s g x g s a a a g b s a 1 1 - = - > - < = - ; a ",
"n d f f d d N N N f d f N s b f f n n f d d g g d n L F n d g s d d b s s s a a s g d f L P P C C n d a 5 1 a s F W H n d s d d d f f n I L n f L W U P L L L L F L Y U T U U P U U ( ! P I L L L U I I U ^ U I L d N F I I L I I L f L f g f f f F L I I I U U U ] _ ^ ^ _ _ T P L ) _ ) ^ ^ _ ] _ U L U U I L L Y C L L L I I U L f L P U U L L U ' ' ] _ U L L L F d f d d L C F I U _ _ ^ U U ] X.3._ U f s d I ^ _ _ [ ^ ] q.' _ I ^ ] ' q.' ' _ T U L L U ] ' ` ` ' ' ' _ T I L T _ _ U U [ [ E ^ _ ' ` ` ` ` _ _ ] [ R T C f L U _ 4.q.z.k.' 1._ ] ` T E ` ` X.` ' E T U T U I L L U U ^ _ ^ I L I Y U _ ' ] _ ^ U I L Y ^ _ _ ^ U ^ _ _ _ E Y _ ' ' 3.' _ _ ^ _ U ^ ` ' _ T U U ] ' ' _ f L P I ( U n N a a 5 ; - - ; 1 a 1 a d W ) _ ^ U U L U U U T U U U U I I P P I ] ] ) T L L U U U U L U U U U _ _ ) P L U T ! Y L U U ) ~ U P I I P n f n n N s d n L I W T I I I C F C Y ! I L C F Y U P L L C n n n F P I P L L L P L F f f L I I n n n F L W F n n F I W P L f d s a a a a a a a s s d n N f g s g a g g s a s s a s a a 5 - - > 3 - ; 5 i s "
};
