/* XPM */
static char *Futuristic_128[] = {
/* columns rows colors chars-per-pixel */
"128 128 254 2 ",
"   c #010303",
".  c #010709",
"X  c #020B0C",
"o  c #0B0C0B",
"O  c #060706",
"+  c #050F11",
"@  c #0A0F10",
"#  c #031213",
"$  c #0B1315",
"%  c #051619",
"&  c #0C1719",
"*  c #031A1C",
"=  c #0C1A1C",
"-  c #0C1916",
";  c #131414",
":  c #131A1C",
">  c #181C1E",
",  c #141718",
"<  c #0E100F",
"1  c #091D21",
"2  c #141E21",
"3  c #191E20",
"4  c #042527",
"5  c #152123",
"6  c #1C2325",
"7  c #1C262A",
"8  c #1D292D",
"9  c #15272C",
"0  c #062D33",
"q  c #1C2C33",
"w  c #152C33",
"e  c #053539",
"r  c #1C343B",
"t  c #16343A",
"y  c #222629",
"u  c #232A2D",
"i  c #252729",
"p  c #242E32",
"a  c #292E30",
"s  c #253135",
"d  c #2A3235",
"f  c #24343B",
"g  c #2B363A",
"h  c #2D393E",
"j  c #24383E",
"k  c #323A3D",
"l  c #373838",
"z  c #302F2E",
"x  c #00201E",
"c  c #0B3B44",
"v  c #183C44",
"b  c #233C44",
"n  c #2C3C43",
"m  c #243E48",
"M  c #333D43",
"N  c #393E43",
"B  c #064549",
"V  c #18434B",
"C  c #084D54",
"Z  c #184B54",
"A  c #07555A",
"S  c #18555B",
"D  c #24424B",
"F  c #2C444C",
"G  c #294349",
"H  c #344146",
"J  c #3C4244",
"K  c #35444B",
"L  c #39464D",
"P  c #38494E",
"I  c #2C4B53",
"U  c #274953",
"Y  c #344A53",
"T  c #3B4A52",
"R  c #364953",
"E  c #28545B",
"W  c #37535B",
"Q  c #075C64",
"!  c #155C63",
"~  c #1F4F67",
"^  c #265963",
"/  c #3A5A65",
"(  c #325F73",
")  c #04666A",
"_  c #15656A",
"`  c #096C73",
"'  c #166B73",
"]  c #06767A",
"[  c #17747B",
"{  c #00726A",
"}  c #27656B",
"|  c #39656B",
" . c #266A74",
".. c #396976",
"X. c #26747A",
"o. c #387477",
"O. c #00615F",
"+. c #45484A",
"@. c #424E55",
"#. c #494E53",
"$. c #4B5355",
"%. c #44535B",
"&. c #4C565B",
"*. c #485659",
"=. c #535A5C",
"-. c #555656",
";. c #514F4E",
":. c #65615E",
">. c #4B5B63",
",. c #465B65",
"<. c #535D63",
"1. c #5A5F61",
"2. c #47646B",
"3. c #58636A",
"4. c #476A75",
"5. c #5A6A74",
"6. c #58747B",
"7. c #47727A",
"8. c #6C6B6A",
"9. c #676766",
"0. c #726E6C",
"q. c #766966",
"w. c #74706E",
"e. c #646D74",
"r. c #64737C",
"t. c #6A7479",
"y. c #75797A",
"u. c #615C5B",
"i. c #2D3F3E",
"p. c #00817E",
"a. c #84817E",
"s. c #067C83",
"d. c #187B85",
"f. c #2F7A85",
"g. c #477887",
"h. c #577885",
"j. c #467B8E",
"k. c #697A85",
"l. c #747C83",
"z. c #05868A",
"x. c #16848B",
"c. c #058C92",
"v. c #059499",
"b. c #17949A",
"n. c #158A94",
"m. c #388A96",
"M. c #2D8C93",
"N. c #0A9BA2",
"B. c #309AA4",
"V. c #0EABB1",
"C. c #2FACB2",
"Z. c #478797",
"A. c #538892",
"S. c #6A828C",
"D. c #77848A",
"F. c #688896",
"G. c #788995",
"H. c #7C919C",
"J. c #69939D",
"K. c #4998A6",
"L. c #5396A8",
"P. c #7997A5",
"I. c #6A96AA",
"U. c #57A8B8",
"Y. c #4DAAB6",
"T. c #71A8B5",
"R. c #10BBC5",
"E. c #30BBC7",
"W. c #52B7C9",
"Q. c #71B6C8",
"!. c #0DCCD3",
"~. c #33CCD3",
"^. c #0FDBE3",
"/. c #32DCE5",
"(. c #0EEBF2",
"). c #36E9EE",
"_. c #59D5DC",
"`. c #4FCBD4",
"'. c #67CAD8",
"]. c #6ECBD6",
"[. c #53D9E4",
"{. c #67D8E5",
"}. c #72D2E4",
"|. c #48E4EB",
" X c #52EBF1",
".X c #68E4EB",
"XX c #6AF7FB",
"oX c #79F7FB",
"OX c #74E7EE",
"+X c #5AE1DF",
"@X c #838C95",
"#X c #89949A",
"$X c #96999A",
"%X c #878989",
"&X c #8799A6",
"*X c #949DA4",
"=X c #839FB1",
"-X c #8BA2AD",
";X c #97A3AB",
":X c #89A6B6",
">X c #97AAB6",
",X c #9CB2BE",
"<X c #A5ADB5",
"1X c #AAB3B9",
"2X c #B4B7B9",
"3X c #A8A9AA",
"4X c #A49E9C",
"5X c #9BB5C4",
"6X c #8BB6C9",
"7X c #A7BAC6",
"8X c #B5BDC4",
"9X c #A1BFD0",
"0X c #8FC8D6",
"qX c #B9C3CA",
"wX c #B8CAD6",
"eX c #BDD2DC",
"rX c #AAC8D3",
"tX c #90D4E8",
"yX c #B3D7E7",
"uX c #87F8FB",
"iX c #98FBFD",
"pX c #90E8F2",
"aX c #A4FDFF",
"sX c #ABFDFE",
"dX c #B3FEFF",
"fX c #AFE7F1",
"gX c #C5C9CB",
"hX c #C6CDD3",
"jX c #C8D4DA",
"kX c #D6D9DA",
"lX c #D1CFCD",
"zX c #C6DAE4",
"xX c #D7DEE3",
"cX c #DCE2E4",
"vX c #DCE5EC",
"bX c #DEE9EE",
"nX c #D2E2E9",
"mX c #DDEBF2",
"MX c #D5E9F4",
"NX c #CFEEF7",
"BX c #E2E5E6",
"VX c #E1E6E8",
"CX c #E2EBEE",
"ZX c #E9EAE9",
"AX c #E2EDF1",
"SX c #E9EEF5",
"DX c #E8F6FA",
"FX c #F4FEFF",
"GX c #FDFEFE",
"HX c #F7F6F5",
"JX c #F5F2EC",
"KX c #E6DDDD",
"LX c #C7BDBD",
"PX c #837E7B",
/* pixels */
"T T T @.T T @.T @.T T T T R R N %.R R T T T N T N R N R N R N N L N M N M R R M M M M M k M l l h g g g l g l d l d d d d d d d a d a a a a a a a a a a a a i i i a u i i i i y y y y 6 6 6 6 3 i > > i > > > > 3 > > > > > > > > > > > > > , 3 , 3 3 , , : , , ",
"T T T T T T T T T T T T %.N R T N R T N T R N T M T T N R N R N M N N M N M N M M N M M M k h h h l g l d g g d d d d d d d d d a a a a a s u a u a a a i a a u i i u i i i i y 6 i y y y y 6 i i 3 i > > i 6 3 3 > 3 > 3 > 3 3 3 > > > > > 3 , 3 , , 3 3 , & 2 ",
"T T T W T @.T @.T T T T R T T T N T R N N R N R T T R M M T N R N K N H M M N M M M M M M h k h h l g g g l d g g d g d g d d d d a d p a a s a s a a i a a i a u u u i i i y y y y y y i 6 6 6 3 i > 6 > > 6 3 3 3 3 3 3 3 3 3 3 3 > > > > > > 3 3 3 , > 2 2 , ",
"W T T T T W T T T T T T R N R N R R R T T R T T T M N R R M R M L M K N M N M N N M M M M k M h k h k h h g g l d l d d d d d d d d d d s a a a a a u a i i a i i u u u y y i y i y i y y y y 6 i 3 i > i i > i 6 3 6 3 3 3 3 3 3 3 > > > > > > 3 , 3 3 3 3 , 2 ",
"T T T T @.T @.T T T T T T L T L R T T N R R R N T T T M M T M R J K K H H N N H M M M M M M k M M g g k l h g g d d d g d d d d d d d d a a a a a a a a a a u u i z i u u i u i i y y i y i 6 y i > 6 i > > i 6 6 6 > 3 3 3 3 3 3 3 > > > > > 3 > > > 3 > > : : ",
"T T T T T T T T T T T N L R L L R N R R N T T N M M R T T M R M H K H H H H N M M N M M M M h M k k M k h g g l k d d d g d d d d d s d d a a a a a a a a u z u i u u i i u y i i y y y y y i i i i 6 > i 6 > i 6 6 6 > 6 3 5 3 > > 3 3 > > > 3 3 3 3 3 3 > > > ",
"T T T @.T @.@.T T T T T T N L R T T R T R N R R T R R M M R M N H H H H H H H H N M N M M M M k M g k g k k g g d d d d d d d d d d a a a a s s a a a u a a u u u u u u u i i 8 i y y y 6 u y y 6 i 3 i 3 i i > 3 6 3 3 3 3 3 3 > 3 3 > 3 3 > > > 3 3 3 3 > > > ",
"T T T T T T T T T R N T T T R L R N T N R T N T R N R N T R N R K K K H K K H H M M R M M M M k M k n k g g l g k d g d d d d d d s d d s a a a s a d u u u i a u u 8 u u 7 i 7 i y 6 6 y 6 y 6 i 6 i 6 i 3 i 6 y 3 y y 6 3 3 3 3 3 3 3 3 3 3 > > 3 3 3 3 3 > : ",
"T T T %.T T T T N N T T L R T L R L R L K Y P P R N M R N M R M K K K K K K H K H H H M H M M M n h h h h h h h g f d g g d d d d a a s a s s a a u a a p u a u u u u u 8 7 7 y y 8 8 6 y 8 7 y 6 i 6 6 6 6 i 6 6 6 6 6 3 3 3 3 3 3 3 3 3 3 3 , 3 > 3 3 3 3 > : ",
"T N N T T T T T %.R R R R R R T R R R R R P Y P R R R R R R R R K K K K K K K H H F H F M m M n n n n h g g g g g g g g s d d s d a s s a a a a a s u u u p p u u u u 8 7 7 7 7 y 6 y y 6 6 6 6 6 6 y 6 6 6 6 6 6 6 6 > 3 3 3 3 2 3 3 3 3 3 3 3 3 3 3 3 3 3 3 : ",
"T T W T T R T T T R T R R R T W T T T W T T Y W W R R W R R R R T R R L Y K P P K R H K F F n n F M n M n n n n n h h h g g g g g d d d d d d d s d s s p p u u u u u u i u u i 8 y 8 i 8 y y 6 6 6 y 6 7 6 6 6 6 6 6 5 3 3 3 3 3 2 2 2 3 3 3 3 3 3 3 3 3 3 3 : ",
"N T W N %.N T T T N R T R R K F F R R F I I Y I R R m m m M m m n m n n m G n m n b b b j j b v f r j b b q n q q q q p q q u y 8 8 7 7 7 7 y y 6 6 6 6 7 7 7 7 7 6 5 5 7 5 5 5 6 5 6 5 5 - > 5 5 > > > 5 > 5 - 5 : : : : 2 : 2 , @ ; 2 2 2 3 3 3 3 3 3 3 3 2 : ",
"%.R T T T T T T T T R T R k.@XH.G.G.G.H.&XG.D.D./ k.H.G.&XG.k.G.F.D.G.F.G.G.G.H.G.G.D.D.D.G.D.l.D.G.e.8.y.e.K r.l.l.D.y.t.y.y.l.y.PXy.y.y.y.y.y.0.8.9.1.=.-.$.J +.+.;.$.i.-.e.=.+.+.+.+.$.+.J J J l i.l i.l i.l d l d d d d a a g #.M 2 2 2 3 3 3 3 3 3 3 3 2 : ",
"T N T N R R R T T T R T %.zXGXDXFXFXGXDX-XW Z.K.R J.zXwX7XMXFXDXDXDXDXDXMXDXmXMXMXnXnXzXyXeXwXwX,XG.f.E.`.Z.R J.Q.H.*X7X@Xy.l.%X%XD.%X%Xa.%Xy.y.t.e.9.1.1.=.$.8.;XtXpXJ.8 7.F.8.9.#XgXlXLXgXgXLXgXlXlXlXlXlXgXlXlXgXgXgXlXlX7X9XyXP.d , 2 2 2 3 3 3 3 3 3 3 3 : ",
"R N R T T N T T T T R R R eXSXSXDXFXrXf.E ) Q C P.F.~ I.&X5.>XMXDXMXnXMXMXzXzXyXyXeXrXrX9X9X5XH. .c.!.V.C e B.} S d.( %.k.k.<.$.=.-.=.-.-.-.$.#.#.@.+.N N ;.D.0XpX'.! x 2.! x B I l =.3XkXlXlXlXkXkXkXkXcXKXcXcXcXcXcXZXjXeXfX9XR + ;., , 3 3 3 3 3 3 3 3 2 2 : ",
"R T R T N %.R T T M T R R hXDXFXnXT.B.I.X.A Z.pXNXaX8X( ( h.W 3.9XDXMXMXMXMXnXnXzXzXeXyXeX5XA.v.!.R.) e d.OXdXuXK.! ! d.^ >.k.k.1.1.1.1.=.=.=.-.$.#.L +.8.Q.oX Xx.x J LXfXoXY.S B O.v s 9.8XcXkXkXkXKXkXkXcXkXkXcXcXkXrXpXtXg.  a $X&X< . , : 3 3 3 2 3 3 3 > 2 ",
"L L L R L T L R P R Y P W jXFX0XL.U.A.A X.].dXOX{.fXGXHX#XZ ^ R s 5.eXDXMXnXnXnXzXyXzXwXP.B.^.^.c.B _ '.iXuX|.oXsX}.M.C ' ' I ,.S.e.1.=.=.=.=.$.$.+.:.J._.|.B.0 8 $XJXJX0X XaXOXM.A A ! t i.%XlXBXKXkXKXKXxXxXZXxX9XtXpXI.2 - y.1XH.G.;   < ; , > > > > > 3 > > ",
"M K L L T L P P P P P Y W rXT.U.L.S ! Q.dXiX+XOXbXzXzXJXGXkX5.c m p s D.zXDXMXnXNXzX5XK.!.(.V.Q A Y.iXiX|._.T.W.|.iXaX]._ C d.( I 3.r.3.=.=.=.$.1.k.K.~.V.c < q.kXJXkX$Xa.U.~.oXsX_.[ A O.S t P ;XkXZXxXxXZXKXwX0XtXQ.i.O =.1X;X&XgX<X<   O < ; , > > > > > > > ",
"R R L R L L L L K R P Y F e.T.o.B K.sXsX X+XNXHXDXDXnXeXxXHXGX1X/ c b 6 n &XMXmXzXL.R.(.^.) B B.uXsX.X|.0X&XG.@XP.`. XiXpXY.! Q x.} W 3.e.=.=.3.f.x.p.A + N 4XKXkX3Xe.y.4X3X3XW./.iXiXW._ C _ A v 5.2XSXJXkX6X}.}.,.X l $X1X;X2XcXZX2Xo   O < ; ; ; > > > > > : ",
"L M K K R L R K K P Y Y Y I A X.tXdXOX/.pXHXDXAXAXDXDXDXzXjXZXGXJX$XZ c v 3 &.>XC.^.(.n.c ` {.sXOX|.}.7X&XH.G.G.S.D.L.[.XXiXOXB.C ) d.' | 6.| ] { B # i e.$X2X3Xy.:.a.$X4X4X2XLX1X~.+XaXuXC.S A ] f./ h.5X].].A.$ > y.;X;X3XkXCXcXcX2X<   O o ; ; > > > : > > : ",
"M R R N T K L L R R R R Y | ].sXuX|.OXAXHXDXDXAXAXAXAXAXDXMXzXkXHXGXcXS.V c i.6.^.R.A A `.aXuX/.{.rX>X-X&X&XH.F.S.k.t.D.U.[.tXfX'.' B { m.6._ A x 5 1.D.#X3X%X1.8.a.%X%X4X4X1X2XLXlX0X~..XaX.XM.B Q [ ] U.L.q < &.#X#X*XhXZXCXcXcXCX1Xo   O o < ; > ; > > > > , ",
"R M R R K L K P K K R I Y Q.iX[.+XNXHXDXDXCXAXAXDXAXAXAXmXAXmXnXjXvXHXGXqX2.V f.] c B.pXaX+X|.rXqX,X>X-X&X&XH.G.D.k.t.6.k.k.E. XiXaXY.Z B | 0 # @.y.D.$X$Xt.=.8.y.y.%X$X4X3X2X2XgXqXlXlX].~.uXiX+XX.C p.Z . N t.l.#X8XZXSXVXBXVXcXCX2Xo   O < < ; ; ; > > , > : ",
"R M M L L K K R K R R I F ]. XfXHXDXAXAXCXDXCXCXCXCXAXmXAXmXmXDXmXzXjXVXGXkX<.B X.OXsXXX/.tXjX8X7X5X>X:X-X&X@XG.D.k.k.r.5.5.r.k.~.XXiXuXM.4 T G.S.*X3Xa.=.=.3.t.y.l.%X#X$X3X3XLXLXgXlXkXKXeX`.[.iXuXE.Z G *XD.l.3XxXSXZXcXVXVXVXcXCX2X<   O o < ; ; , > , > , , ",
"M R M R K K K K K K K I Y T.NXHXAXDXDXAXAXAXCXAXAXAXbXAXAXAXmXMXmXAXnXzX3Xa.-X) [.aX/.}.zXjXrXrX7X5X,X>X*X&XP.G.S.S.k.k.k.5.5.1.e.K.`.}.0XG 5XDXrX#X=.P =.3.9.t.t.a.%X$X4X3X2X2XgXgXhXlXlXKXBXrX~.OXuXc.I.FXjXgXSXCXVXVXZXVXVXVXVXZX2Xo   O o < ; ; , ; > , , > ",
"L R L M K K L K K R F R m 5XtXfXDXDXDXAXAXAXCXCXbXCXCXbXAXmXbXmXmXmXmXDX&XxXyXA _.oX}.vXwXwXwXwX7X7X>X>X-X&X&XG.G.k.k.r.r.e.5.5.3.=.r.nXVXf -XFXjX+.$.=.<.1.9.e.y.PX%X$X4X3X2X2XgXgXlXkXkXkXxXZXkX~.oXc.m.DXzXkXZXVXVXZXVXVXVXcXxXZX2X<   O o < ; ; ; > > ; > > ",
"M M K K R L K K K K R F m rXFX0XzXDXJXAXAXAXCXCXCXCXCXmXbXbXbXbXmXmXmXMX<XZXrXA _.OX}.nXyXyXwX9XrX7X5X>X-X&X&XG.G.k.k.r.r.e.5.5.5.2.t.AXcXs :XFXeX*.$.&.<.1.9.e.t.D.%X$X*X3X1X2XLXgXhXlXkXxXxXKXcX/.uXc.m.DXjXhXCXVXVXVXVXBXVXBXBXBX2Xo   O o ; ; ; ; > ; > > ; ",
"R M R K K K K K K I K I m 7XFXnXzXDXDXAXAXAXAXCXAXCXbXCXmXbXbXmXmXMXMXmX;XBXwXA _.OX}.vXzXwXwXwX7X7X,X>X-X&X&XG.G.k.k.k.e.e.5.3.3.=.t.CXcXs -XFXeX*.$.=.=.1.9.e.y.l.%X#X4X3X2X2XLXgXlXkXkXxXxXcXkX/.uXc.m.DXjXkXAXZXVXBXBXBXvXBXBXCX2XO   O < < ; ; ; ; ; > > ; ",
"M R M R K L K K K K K R m 9XFXzXjXDXAXAXAXAXAXAXmXAXCXmXAXAXAXbXmXmXmXmX>XZXrX) _.oX}.xXzXeXwXwXrX7X5X>X:X&X&XG.G.l.l.r.r.5.5.5.3.=.t.AXvXs -XFXjX*.$.=.1.1.5.e.y.a.%X#X$X3X2X2X8XgXhXkXkXkXkXcXxX~.uXc.m.DXjXhXZXVXVXVXBXBXBXBXVXZX2Xo   O o < ; ; ; > > > > ; ",
"H K K K K K K K K R I I D 7XFXzXzXDXAXAXAXAXAXAXAXAXAXAXbXmXbXmXmXmXmXMX>XVXrXQ _.oX{.xXyXwXwXwXwX7X5X>X;X&X&X@XG.k.k.k.e.e.5.5.3.,.e.SXvXp ;XFXeX*.$.=.=.3.9.t.t.D.%X@X$X3X<X2XLXgXlXkXkXkXkXcXkX/.uXc.m.DXjXjXZXVXVXcXcXBXVXVXVXCX1X<   O o < ; ; ; > > > ; > ",
"M M F H K K K K K K K R D rXFXyXeXDXAXJXAXCXAXAXCXAXAXbXAXbXbXbXmXmXmXDX>XcXyXQ `.uX{.vXzXeXeXwX8X7X5X>X:X-X&XH.G.G.k.k.e.e.5.3.3.>.t.AXvXp -XFXjX&.&.&.=.1.3.8.y.y.%X$X$X3X1X2X8XgXhXjXjXxXxXxXnX/.uXv.m.FXjXlXSXVXVXVXVXVXVXVXcXCX1X< O O o ; ; ; > ; ; > ; > ",
"K M H K H K K K K F K I D rXDXzXeXDXAXAXCXAXCXCXAXbXbXAXAXbXbXbXmXmXmXmX>XBXtXQ _.uXOXxXeXeXwXwXwX9X7X>X>X-X&XH.G.k.k.k.r.e.5.3.3.>.t.AXnXq -XFXeX*.$.=.=.3.9.e.y.D.%X#X$X3X<X2X8XgXhXlXkXkXxXxXxX~.uXv.m.DXjXkXZXCXVXVXVXVXvXcXcXZX2Xo O O < ; ; ; ; > ; > > > ",
"M n H M K K H K K K F K m 7XFXzXeXDXAXAXAXAXAXbXAXAXAXmXbXAXbXbXmXmXmXmX>XKXrXQ _.oX}.vXzXeXwXwXwX7X7X>X>X=X&XH.G.G.l.k.k.5.5.5.5.>.r.mXkXw >XFXjX>.*.=.<.3.3.8.t.y.%X@X$X;X3X2XLXgXhXhXlXxXkXxXcX/.uXv.m.DXjXjXCXBXvXVXcXcXcXcXxXBX<X< O o < ; ; ; > ; > ; > ; ",
"n F M K K K M M K F R m m 9XFXzXeXDXAXAXAXmXCXAXCXAXAXbXAXmXvXbXmXmXmXmX-XjXrX) [.oXOXcXzXeXwXwXwX9X5X,X>X=X&XH.l.l.k.k.r.e.5.3.3.%.k.mXxX8 >XFXjX&.$.<.<.1.3.8.y.y.D.%X$X;X3X2X2XgXhXlXkXzXkXcXkX~.uXN.M.DXzXjXCXVXxXVXVXxXxXxXkXvX<Xo   X @ < ; , , 3 , , , 3 ",
"M M m M K M F K K F F F m 9XFXzXjXDXAXAXAXAXvXCXbXAXvXAXAXAXVXmXbXmXmXmX>XeX0X` _.pX}.xXeXeXwXwXwX8X7X>X>X;X&X&XP.l.k.k.k.e.5.5.3.>.e.mXzX9 -XFXeX<.&.&.<.3.9.e.t.a.D.#X$X;X<X2X2XgXqXgXjXkXjXkXnX~.uXv.m.DXjXjXCXxXxXxXcXxXxXkXxXzX<X<   O o ; ; , , , , > , : ",
"M n K M K K M M n F K F b 9XDXyXeXSXAXAXAXCXvXAXAXbXbXAXbXvXbXvXmXmXmXSX;X8X0X` _.oX{.xXeXeXeXwX9X7X7X,X>X;X&XH.=Xl.l.k.k.5.e.3.3.>.e.mXzX8 -XFXjX>.>.<.<.3.5.e.t.y.D.%X#X*X3X1X8XqXgXqXgXjXjXcXjX~.iXN.m.DXjXhXvXxXxXxXkXkXzXzXjXzX>X<   X o ; ; , , , : 3 , , ",
"n n M K n K K R K F m R v 7XFXzXeXSXAXAXCXbXAXvXvXCXvXvXAXvXmXbXmXmXmXMX-X7X].) _.oX.XxXeXjXwXwXwX7X7X,X>X=X&X&Xl.=Xk.k.k.e.5.5.3.>.k.AXzX9 *XGXjX%.>.<.<.1.3.e.t.S.%XD.#X*X;X<X2X2XgXqXhXlXjXkXzX~.iXv.m.DXjXgXKXxXxXxXzXkXjXhXhXjX>X<   . @ @ ; , , , , , , 3 ",
"n M m M R M M m M F F F m 5XDXzXwXSXAXAXAXvXCXvXvXvXbXvXVXmXbXbXvXMXmXAX-X5XQ.) _.OX}.xXeXeXwXwXwX9X7X,X>X-X=X@X=Xk.k.k.k.k.5.5.3.,.k.MXzX9 -XFXeX>.%.>.<.<.5.e.t.k.D.D.#X$X;X>X1X2XqXqXqXhXkXjXzX~.uXv.m.DXjXeXxXxXxXzXzXjXhXhX8XhX;X$   o @ ; , , , , , , 3 : ",
"n n M M M M R M F M F U D wXeX7XeXSXmXmXmXAXvXCXvXCXvXvXvXvXmXvXbXbXmXDX=X6XQ.` _.uX.XVXeXzXeXwX8X9X7X>X>X-X&XH.=Xl.l.k.k.k.5.5.5.%.e.vXzX9 -XGXjX%.&.=.>.3.3.e.t.t.D.%XH.$X*X3X1X1X8XqXgXwXjXkXkX~.uXv.M.FXzXhXxXjXjXhXhXwX8XwXwX9X>X;   X @ ; , , : 3 , 3 : : ",
"n n n M m R n M M m n F D G.mXzXzXSXvXSXvXvXvXvXvXvXbXvXbXvXmXmXvXDXMX;X,.I.Q.) {.uXY.qXnXjXwXwXwX7X7X,X>X=X&X&Xl.l.I.k.k.5.5.5.3.,.j.6XwX4 >XzXk.<.%.>.<.3.3.5.e.y.l.D.@X#X*X;X<X1X2XrXqXjXlX8XC./.iXc.B.NXH.$XjXzXjXhX8XwX8X9X7X7X>X,   X @ ; , , , , : : : : ",
"n n n M M M M m M m G D V [ b.5XSXSXmXvXmXvXvXvXvXvXvXvXvXmXvXmXAX8X5.T +.%.M.C E.`.e.5.&XeXzXwX8X7X7X5X>X;X=X@XP.k.k.k.h.k.k.>.( d.V.(.W.2 ..r.1.e.e.&.*.3.5.5.6.t.S.D.G.#X*X;X;X1X1XqXlXqXU.R.+XdX+X{ ' F.8.;.e.5XjXhX9X8X7X7X7X7X>X;   + @ ; , , , 3 , : 2 , ",
"n n n M M n n n m M m D V `.uXV.B.8XSXAXvXbXmXvXvXvXvXvXcXbXSXjXG.W T ,.7._ e o.S E a.%X0.0.-XeXwX7X7X5X>X*X&XH.P.l.l.k.k.e.>.d.s.c.b.[ e A B S g.t.6.6.3.=.3.5.t.r.t.D.G.#X#X;X;X<X8X8XT.!./.iXiX~.{ o.G 1 $.1.J +.l.5XrX7X7X7X5X7X>X;   o < $ ; , , : 3 2 , : ",
"d n g n n n n n n m m D v ]  XaX{.V.L.kXSXbXVXxXnXvXvXbXAXxX-X2.W *.o.X.A O.`.yXH.I 0 3.%X$Xw.t.>XqX7X7X>X-X&X&Xl.H.k.k.3.( s.v.c.! 1 1 Z.sX{.s.A [ Z.6.g.7.=.=.r.t.k.l.G.@X#X&X<X3XT.C.~.uXsX|.c.[ Z.$Xy.w + 5 P P d *.H.7X<X>X>X>X-X,   X @ ; , , : : : : : : ",
"n n n n g n n n n n m D m h.n.R.uXaX~.b.:XKXAXxXnXvXmXAX7X6.W / o.f.` ) C.aXdXrXlXBXt.4 w e.4X%Xw.l.>X7X>X=X&X&X=Xl.k.( d.v.N.` 4 . / }.oX.XiXiX~.{ O.x.m.M.M.M.3.3.S.D.D.H.&X;X&XC.!.XXdXOXV.p.K.cX2Xl.D.i.H 9 # 8 G i.u 2.:X5X>X>X>X,   X @ $ , , 2 , : : : : ",
"n a g n g n n n n n m m m zXzXZ.s.~.sXuXR.B.5XBXbXAXgXS.} E ..M.] O.b.pXsX.X+XyXkXZXJX3XT 1 h a.3X%Xe.D.>X>X=X&Xl.h.d.s.N.s.e . v Q.}.[.U.A.~.XXaXuXC.) { b.!.!.V.Z.3.l.G.@X#XK.R.|.dXuXV.c.B.rXHXJX2X<XkX;X+.f i.- X e V 5 g A.6X5X;X&   X @ $ & : , 2 : 2 : : ",
"a s n n n n n n n n n n m wXGXDX6Xd.v.[.sX.XV.L.8X&XX.! } M.d.Q d.].dXOX|.pXkXkXeXqXlXgX%X3.s * @.$X4Xa.e.H.&Xk.f.d.N.s.C + 2 I.0X].].J.3.W 2.K.).oXdXOXv.O.] !.(.^.C.o.h.A.V.).iXiX~.c.x.0XHXGXkX2X8XjXwXjXhX%Xi.h f @ * C v > E W.5X;   + + & & & & : : : : : ",
"d n n d s n g n n b b b v 7XMXDXFXMXT.s.V.OXaX`.B.V.V.V.x.) ] `.sXiX|..XnXkXjXjXjXwXqX1X#X-.+.P 1 * 9.4X4Xl.5.d.b.N.s.* & h.0XtX].T.e.T W *.W *.7.Y.|.uXsX`.p.A v.(.(.).V./.oXsX+Xv.z.U.bXGXBX1X;X8XqXqXqX8XrXjXqXt.g b u X e Z 8 v Z.<   X + $ & : : : : 2 : : ",
"d n p n g g n s n b n b v :XeXzXMXFXFXyXm.s.~.iXuX(.!.] O.C.sXsX X.XyXKXjXjXjXjXhXhXjXwXqX#X=.i.@.M % 9 y.2Xk.b.d.4 . ,.6XtX0X6XD.%.T %.%.%.*.W / 2.A.~. XaXiX~.{ { !.XXuXiXoXV.p.Y.zXHXJX8X#X;X2X1X7X7X7X1X,X,XrXeX;XL b n 3 + c ~ } O . + @ $ & , : : : : : & ",
"d s s d n g s n n s b n q 5X8X9XwXnXmXFXDX6Xd.c.~.b.A n.pXdX.X/.fXKXkXjXjXjXjXhXhXjXhXqXrXqX,Xy.H k @.8 + +.h.v . b 6XNXyX9X&X<.T @.%.%.%.%.%.*.*.*.%.3.L./.XXsXoXV.{ c.|.E.p.n.0XHXHXlX#XG.;X>X>X<X,X<X>X,X,X>X;X-XrXqXl.n m n & 0 e   X X @ $ & : : : : 2 : : ",
"p f s n g n g g n f n f q :XwX7X7X7XwXxXSXHXSXI.Q [ _.sXuX/.tXkXlXjXjXlXjXlXjXhXwXhXqXqXqX8X7X<X&X9.M M M 3 % p &XvXSXzX5Xk.#.@.*.$.%.%.%.%.%.%.%.%.,.,.%.h.U.|.XXaX[.c.) [ ].cXHXkX$Xt.G.&X&X&X;X;X:X>X:X>X>X:X>X:X=X:X9X5X<.b b m k . X X # $ - : : : 2 : : = ",
"p f d n g s d n n h f n f =X7X7X7X7X7X8XzXvXrXj.] _.sX|.{.zXkXhXjXhXjXjXhXhXlXwXhXhXqXqX8X7X7X<X>X;X@X-.l.<Xq 5XSXKXwXl.%.T >.&.%.%.%.%.%.@.@.%.%.%.%.,.,./ ,.h.W.|.aXoXz.].GXSX3X5.6.D.G.G.H.#X&X&X&X-X*X=X=X:X=X=X6X:XQ.6X9XH.e.*Xh.% X # $ - & : : : : : : : ",
"s s n s g f g n h f f f q =X7X5X7X7X7X7X7XwX/ C ) `.XX`.KXhXqXhXhXjXhXlXhXlXhXwXhX8X8X8X8X8X<X7X<X>X&X@XyXT.q h.I.wX>.%.%.%.%.#.%.%.@.%.%.%.%.@.%.%.%.,.>.,.,./ 5.L.|.pX] Y.NXwX2.r.S.t.G.G.G.H.H.H.P.&XP.=X=X=X:XQ.:X6X6X6XQ.tX6X~.C.% # # - - & : : : : 2 2 : ",
"s s s s g g g s f f f n f =X5X>X5X7X5X7X7X7X/ ~ ) `.XXW.gXgXhXhXgXgXgXwXgXwXgXgXhXqX8X8X7X<X<X>X>X>X;Xk.I.k.2 h.h.>X%.>.>.%.%.%.#.#.%.@.@.@.@.%.%.%.%.%.%.,.,.,.2.j.|.uX] K.tX5X3.6.r.k.k.k.k.G.G.H.P.P.P.P.=XT.P.6XQ.Q.6XQ.6XQ.~.).B.% # * = = : = : : : : : : ",
"s s f f f d g g f g f f q &X>X>X>X>X>X5X7X7X,.~ ) `.XX`.gXqXqXqXgXqXqXqXqXgXqXqX8X8X8X8X7X<X>X>X;X*X&Xk.Q.I.2 g.j.5X,.%.#.%.%.%.%.@.@.@.%.@.%.@.%.%.%.%.,.,.,.,.,.m.|.uXs.K.=X:X3.6.h.e.k.k.k.k.F.J.P.P.T.T.T.P.Q.Q.Q.6XQ.].0XE.XXC.e x * * = = - 5 : : : 2 : : ",
"s s s g f f g g g f f n q &X=X&X-X;X>X5X7X7X/ C ` `.XXW.LX8X8X8XqXqXqXqXqXqXqXqX8X8X7X<X<X<X;X;X;X*X&Xk.Q.I.2 h.I.>X%.%.%.%.@.@.@.%.%.@.@.T T @.%.@.%.%.%.%.,.,.,.B.|.uXs.m.k.P.2.5.5.h.k.h.k.k.k.F.F.I.I.I.T.Q.Q.Q.Q.Q.6X].0XE.XXB.e 4 x x 1 = 1 - : 1 2 : 1 : ",
"p s s g g s s f f f f f q k.=X&X&X=X-X>X>X5X/ Q ) `.OXW.8X7X8X1X8X8XqXqXqXqX8X2X8X<X<X<X<X;X*X*X&X*X&Xh.Q.I.1 j.W.=X#.%.%.@.@.@.@.@.@.@.@.T %.@.T %.%.%.%.W %./ ,.j.|.oXs.f.h.I.<.5.4.5.5.h.h.h.h.F.F.I.I.T.Q.Q.Q.Q.Q.].].}.}.W.oXC.e 4 x * * = : : : 5 : 5 : : ",
"p p s s s g s g f f f n q I.=XP.&X&X&X&X-X:X/ ~ Q `.XXW.3X<X7X<X1X1X1X2X1X2X1X2X<X<X<X<X;X*X*X*X&X&X&Xh.Q.I.1 L.Q.=X@.%.@.@.@.@.@.@.@.T T @.T %.@.T @.W %.,.%.,.,.m.|.uXs.d.2.I.2.5.4.5.4.h.h.k.F.A.F.I.I.U.Q.W.Q.Q.].'.].}.}.E.XXB.B 4 x x x = - 5 : : : : 5 1 ",
"p p f s n a p p n p b p q k.P.=Xl.P.&X&X=X=X,.d.Q ~.OXE.3X>X>X<X<X<X<X1X7X<X<X<X<X;X;X;X*X*X#X*X#X&X@Xk.Q.U.% j.'.I.%.%.@.@.T @.%.T @.@.T @.T %.T %.%.W %.%./ ,./ f. XuXs.d./ k.>.4.2.4.4.h.h.h.j.F.L.I.L.U.Q.W.Q.'.'.'.{.}.}.~.XXB.B 4 4 4 4 1 1 5 1 : 5 : - : ",
"s p s s p a n p p b q b q k.k.k.l.P.l.l.G.=X( ~ Q W.XXY.*X&X*X;X;X;X;X;X;X3X3X*X*X;X*X*X*X#X@X@X@X@Xl.h.}.L.% j.W.=XT @.@.T T T R %.N W N T T T T T T %.%./ %./ / B. XuXs.d.I h.,.,.2.4.4.5.4.h.j.A.F.L.U.Q.W.Q.W.'.{.'.{.'.}.E.oXC.B 0 4 4 * 5 1 - 5 1 : 5 5 1 ",
"p p p s p n p d p b b q y k.k.k.k.k.k.P.l.=Xf.d.Q `.XXC.$X#X&X*X&X*X;X;X;X;X*X*X*X*X$X#X@X@X@X@X@X@Xl.h.}.U.@ g.L.H.T T T T L L R T T N T R R T W T W @.%.W W / / f.|.uX` d.U h.2.,.2.4.4.4.h.g.h.A.L.I.T.U.U.Q.`.'.'.'.'.{.{.E.oXC.B 0 4 4 * 1 1 5 - - 5 1 : : ",
"p p p s p a b p p p b p 3 h.k.h.k.k.k.k.k.k.d.d.) `.XXC.@XH.@X@X@X#X#X#X#X#X*X#X#X#X@X@X@X@X@Xl.l.l.l.h.}.U.% ( j.G.L T L T L L T N T R R N R T R R T W W %.W / / f. XuXs.d.m g.4.,.,.2.4.5.g.h.A.A.L.L.U.U.W.W.'.'._.{._.{.{.E.oXB.B 0 4 x 4 4 1 5 5 5 : 5 : - ",
"q p p p p n p p p p b p q h.k.h.h.k.k.k.k.k.n.d.) ~.XXC.%XD.D.G.G.@X#X@X@X@X@X@X@X@Xl.@Xl.%Xl.l.l.l.l.5.'.U.% W ( G.L T L L L R T R M R R M W m R W R R R W W / W M. XpXs.d.m g.,.,.,.4.4.4.g.g.A.A.L.L.U.U.W.`.'.`.'.'._.{.].~.oXC.B 0 4 x 4 = 1 5 5 : : 1 : - ",
"p q u p p u p n p p p q q 2.h.<.h.h.3.k.h.k.R.s.) `.oXC.l.S.k.l.l.D.l.D.G.l.D.l.D.l.y.l.l.l.l.l.l.k.e.h.[.E.% R ( l.L L L L K K N R R M R M M W R M W W W W W / W M. XuXs.d.v ,./ / ,.( ..4.4.g.Z.A.A.L.U.U.U.W.`.'._._.'.{.}.~.oXC.B 0 4 4 * 4 1 1 - 1 : 5 5 : ",
"y p p p p p p p p p p b 9 ,.h.h.<.>.h.h.5.k.C.N.O.~.oXB.l.k.r.k.k.l.l.l.l.l.l.l.l.l.l.l.l.k.q.k.k.k.1.( ).E.= U %.k.L L K L K K R R M R R R R R R R R I I W W ~ W b. XpXs.d.v / / ,./ ,.2.4.4.g.g.A.L.L.U.U.`.W.'.`._._.+X{.{.E.oXE.C 4 4 4 x 1 1 5 : 5 : 5 1 - ",
"8 8 q p p p p p b p q q q ,.<.>.>.h.&.<.<.5.E.N.O.`.oXC.k.6.r.r.r.r.r.r.k.k.e.k.k.k.e.k.k.k.k.1.e.e.9.g.).E.= D %.h.M R K M K m m M m R m R R m I I I W I W W W ( b. XOXs.d.v W W / ,.( | ..4.g.g.Z.L.L.U.U.U.`.`.`.'._.{._.+XE.uX).N.e x 4 x 1 x 5 1 5 1 : 1 : ",
"9 7 y p p p p p p p q f q ,.>.>.>.>.<.,.,.&.~.!.O.`.oXb.e.r.r.6.e.h.5.5.e.e.e.k.e.e.e.e.e.e.e.5.5.e.-.,.).~.% G I 5.H n K K K K M m R m I G Y I I P I I E W E } ^ n.|.uXs.d.t I W / | W / 4.f.4.g.j.L.L.K.W.W.W.W._._.[.{.[.XXE.~.oXV.0 * * 1 1 1 1 = 5 = 4 : & ",
"y y p q p p p p p p q q q %.>.%.,.,.,.@.>.y.T.~.A `.dX~.b.4.5.5.3.3.3.h.5.5.3.5.5.e.5.5.5.3.3.3.1.#.f.R.V.B.x W 9.3.5.@.F F F G W m m R G I I I I I I I E E E } N.!.oXoX] x.4.y.3.T W 2.| 4.4.g.j.j.Z.L.Y.Y.W.W.`._._.{.{.{.M.) s.R.V.4 * * * 1 1 1 5 : 5 = = = ",
"q 7 q p u p p p p f q q 9 R %.%.W @.+.2.D.gX2X#.e c..XsXXXR.d.2.3.5.3.3.3.3.3.3.<.3.3.3.3.3.<.-.| V.(.(.V.e 4 E Z.} ' M.4.M G U I U I I I G G I U I E E E _ x.!. XaXuXV.C C 6.t.8.5.%.W / ....7.j.j.Z.K.K.Y.W.W.`.'.[.{.C.s.n.[.~.{ e # # * * 1 = 5 = 1 2 = = = ",
"7 y y y p 8 p q q q q q w %.%.T J &.M.B.D.9.& % P.K.s.V.iXdX|.V.f.>.3.5.>.3.>.3.<.<.<.3.<.&.>.b.^.(.!.) 4 } U._ B s.v.V.^.C.| F m U m U U U U I E Z S E ] V./.uXsX~.p.{ L.U * Z | 2.2.2.R / ..g.g.j.Z.K.K.Y.Y.`.`.[.W.n.v.[.oX~.] _ | # # % * = 1 = 5 = = : = = ",
"q 7 y u q p p p p p q q 9 m T #.f.V.V.g.:   Y I.DXZXQ.z.c.~.sXuX~.n.( <.<.,.<.>.>.>.>.&.*.M.!.(.^.z.e C U.NXoXuXY.) O.V.). X|.b.^ U Z U U Z U S S S _ N.!.oXdX+XN.] C.fX<X=Xh.4 4 S X.x.V.X.W | j.Z.Z.Z.K.Y.W.W.W.B.v.~.uX[.s.s.M.7.t.3 + % % * - 1 1 : = 1 : : ",
"7 q y q u q y u q q q q 9 M 2.b.V.f.p   h F.I.6XDXZXKXeXW.s.N.{.fXXXR.d.,.<.2.,.,.W &.4.V.!.!.V.A B B.fXdXoX).XXsXOXN.A ] /.XXXX~.d.E Z Z E S E S p.!. XsXuXV.z.b.}.MXSX>XT.9X6X} x e c.^.^.V._ / f.Z.Z.K.Y.Y.B.N.R.oXoXR.N.d.L.*.+.@X2 . % % % 1 1 : 1 5 = = = ",
"7 7 q y u u u p 7 q q q 7 ,.V.B.M   2 h.I.T.rX-X6.1XBXKXKX9Xf.s.V.pXdX XV. .,./ ,.5.f.c.R.V.] B x.tXdXuX|.`.h.B./.oXaX+Xc.O.N. XuX XR.d.S E S p.V.).iXuX~.z.c.'.NXSXnX&X/ S.5X0XrXQ.E 4 ) !.(.^.N.} ..K.K.m.c.V.XXuX/.v.s.C.j.L 3.0XQ.# . # % = : 1 : : : 5 1 = ",
"7 7 q u 7 q u 7 7 q q q 7 ( f.; @ g.k.I.5X>X3.K i.Y y.gXSXZXzX6Xn.c.E.sXiX~.n.2.7.' Q c.s.C ' '.dXaX X`.J.>.Y R 2.C.).iXiX`.p.p.E.XXiX|.V.[ N.^.uXaX[.v.z.`.fXDXAX7X4.v m m >.T.0XyXyXL.B 4 { !.(.!.b.X.n.V.|.uX|.V.s.B.Z.%.T =XtX{.Y.# . + % % : - x = : 1 = = ",
"7 q 7 q y 7 q y q 7 q 9 q 9 $ R I.I.6X7Xk.M M R T T M T H.jXKXLX7XY.z.v.+XsXOX|.N.{ ] A A Y.sXsXXX`.U.3.P Y W I F P f.~. XiXuXC.p.c./.iXuX/. XiX.XV.] C.pXDXDXzXS.D m D F F m F h.6XyXyXtXB.c B V.(.(.!.~.XXXX!.z.b.K.| m k.6X'.'.'.W.%   # # % - = : = = = = = ",
"7 7 7 y q y p 7 8 8 9 q q 2.P.I.:X7XH.N n M T N L L T L M >.*X8X4X@XT.B.z.V.OXoX!.` A B.pXaXXX|.Y.6.W I T P P P Y U F W M.~.XXsX.XN.] V..XsXuXE.p.v.OXDXFXMX-XE v D D D D D F F m ~ F.0XyXNX}.d.c ` ^.XXoX~.c.z.K.7.G $.I.W.W.W.`.W.Y.# . X # - - = = : 1 : = = ",
"7 7 7 q y y 7 u 8 9 9 q 9 k.6X6X=X%.b M R M N R L L L L T M K h.;X@X9.y.L.x.] c.{ x.].dXoX|.`.S.2.I P Y P F G H G K Y U G / C./.uXsX`.c.] V.n.z.`.NXGXDXwX2.v v D m m m F F F D R m m 4.T.yXNXfX'.[ C v.v.` B.A.T R S.T.W.W.W.W.W.'.C.+   # # $ - * = = : 1 = = ",
"7 7 7 y q 7 7 q 8 9 q q 1 4.:X3.n n M M M R N M K K K K L L R M P k.#X5.1.D.K.A C.iXaX X/.J.=.I I W P P P P P H H H H G G D G o.E. XiXaX~.O.B.dXHXGXnXF.D v D D b m m b n D m F m I R I m j.Q.fXNXdXC.A ' Q.5.N 3.I.Y.Y.U.U.W.W.W.W.Y.#   X # # * - = = = = = = ",
"7 7 7 q 7 y y 7 8 9 q 9 q m n b F M M M M m M R K K M K N R N T T M >.l.D.'.E.{ [.uX/.U.5.I U P R P K L H H H H H H H H F G G D U M./.fXW.A B.eXAX>XW r D D b b b b b b m m m I I I I I E U / I.tXyX Xz.d.P.&Xk.L.K.K.L.Y.Y.W.W.W.W.K.1 . X # # - % = = = = = 1 ",
"7 7 7 7 y q 8 9 8 9 q 9 9 ~ ' m M m M M M M M M M M K M M N M M M N M M M.v.c.{ _.XXn.*.I Y P Y K L K J J H H i.M H G n n H H G D r 4.X.A e C W 6.b v V v j b j b b b b n m m M m m I m I I E I m./. Xs.Q e @.g.f.Z.K.L.K.L.K.W.U.W.B.1   X # % % = - = 1 = = 1 ",
"7 7 7 7 7 7 y q 8 q w w 9 c j.f.m M n n M n M M M M R M R M M N M N M N  .Q c.{ [.XXz.W I Y P K K H H H H M J H N M H i.n M n n G j ^ S Z 4 V G W V b b r D r j b b b b b b m m m m m I I I E E d./.XXs.) e p ..j.j.Z.K.j.K.K.K.Y.L.K.1   X # % - & = = 1 1 = = ",
"7 2 7 7 7 7 7 7 9 9 w w 0 C [.j.~ M n n n n n M M n M M M M M M M R M M  .) x.{ _.oXz.W I P P L K H H H M M H M M M k H h h h n n g E Z c 4 w D Y f r j r r j r q f b b b b m m m m U m U I E I d./.XXs.` e p ( j.j.f.j.j.K.m.L.Z.Z.B.1   X # # - % & = = = = = ",
"2 3 7 7 8 3 q 7 q q w t e A .XV._ n b b h h n g M M M M M n M M M M M M } Q s.{ [.oXc.Y P P K P H H J H J k J k M M M M n k h h h g ^ v c 1 w v R q r r f r f r j v f v b b b b j D D D G U U E d.^.XXs.d.c q / g.g.g.g.g.g.j.j.Z.j.B.4   + + # % = = = = = = * ",
"2 9 9 3 9 2 7 9 8 9 w 0 c A .XC.[ n n h h h k n n g M g M n M M M M M N ^ A n.{ `.oXz.Y Y P H J H J H J H M k i.M k M k k M n h h f ~ Z c 1 w v F r r f q r r r r f f v b b v b D D V G D D U E [ /.oXc.) c q / ~ ( ~ g.f.f.g.f.j.j.j.1   + + # % & - = % = 1 = ",
"9 3 3 9 7 7 7 7 9 w w t B A {.C.] D b h g h h k d n d M M l M M M M M N ^ B x.{ _.uXz.W Y J J J J H J J N i.N k k M k k k h h k h d E v c % 9 b M r q r r r r f r r v b f v b v D r b D D D S U [ /.oXc.s.w q W W / ,.( / ( g.g.g.g.d.0   + + % & % = = 1 & % % ",
"2 2 6 7 7 2 7 7 9 w w e e O..XC.[ D h j g h g h M M d n n g l M M M M N E B d.{ [.oXc.T P P J P H J J J N N N N N k M k l k k h h d I v 0 % 6 v H s r q q r q v r r r r v b v b b v b b D D U Z ] /.OXs.s.c p W ~ W ~ / / / ,.( ( ( f.1   + + # % = = = & 1 & 1 ",
"2 2 3 6 3 9 7 9 w w t t B O..XC.' D j g g g n g d M M z M M l M M N N J R c z.{ +XuXv.P P P J +.J J J J N J N N N N k N N l i.l M a ~ v 0 % 9 r K s w r t r t t t r r v v b v b v b V V V D Z U ` /.oXc.s.c q m R ~ W W ~ / / / ~ ,.f.% X + + # % & & 1 1 = % 1 ",
"9 3 9 9 7 7 9 7 7 w 0 e e ) .XC._ b j g g g d d M d d M n l N N N N N J I c d.{ +XoXn.P P P P J J P J J J J J J J N J J N N J l M g R c 0 % 9 q H q q t t t t t t t t r r v v v b b b V D D Z Z ` /.oXc.d.c b n R R W R R W R / ( R f.1 . X # + % % & % & & % & ",
"2 2 3 3 7 7 7 9 7 9 w e e O..XB.! j g g g g g k d z M l l N N l N N N L m c d.{ `.oXc.+.P P +.J J +.+.J J +.J +.J N J l N N N l M M R v w + 9 q H r q t q t t t t t t v v v v v v V V D V V V Z { /.oXc.s.v n U U R U U W I R W R R f.1 . X # % % $ & & 1 & 1 & ",
"2 2 9 3 7 2 2 9 9 9 0 e e O.OXb.~ n s g d d g l M l M N N N N N J +.+.+.R c n.` +XoXv.+.P +.+.P J +.+.+.+.J J +.+.+.+.J J J J J N N U v 0 % q r H r t t w t t t w v r v r v v v v V V V V V Z C { /.oXz.d.c n R m U U m m I I ~ R R ~ 1 . X # + % & & % % % 1 % ",
"2 5 2 5 7 5 5 9 9 9 0 0 e ) '.x.^ s d g d g d l N l l N N +.J +.+.+.+.;.K c x.] +XoXc.#.T +.P +.+.+.+.+.+.+.+.+.+.+.+.+.+.+.+.J N N N v w % 8 f N t w t t t t t c t c v v V c c V V V V V Z Z Z ` /.oXc.x.Z i.F m U m U m U U m I F ~ % . X # # % $ % = % % % * ",
"2 3 5 6 5 5 5 9 9 0 9 w 0 |  .d./ d d d g g l N l J J N +.+.+.+.+.#.#.$.P c z.{ +XoXn.*.@.$.+.$.+.$.$.+.+.@.+.+.;.+.+.+.+.;.+.+.+.N R v c # p f @.t w w t t c t v t t v v c v V V V V B C Z C S { /.oXz.s.Z H G Z m m m m m U m U F ! %   X # # % % = % = = = % ",
"2 2 5 5 5 5 5 5 5 9 9 0 4 V X.4.M a d d d l l l J J +.+.+.+.;.;.;.-.$.-.K e x.] +XOXx.*.@.*.$.#.$.+.$.$.;.@.$.;.+.$.;.;.;.$.$.$.#.#.R c c % s g +.t t t t t t t v c c v v V V V V Z B S Z C S A ) /.oXz.z.E +.U Z v V m Z m Z U m m S +   X # # - % = = % 1 * % ",
"2 2 5 5 5 5 5 5 5 4 5 4 5 S 7.K u a d d l l N J +.+.+.+.;.;.#.-.-.#.-.u.=.,.x.] .XuXV.8.=.*.*.$.+.$.$.;.$.;.$.+.$.$.$.;.$.$.$.*.&.4.b.d.S 4 g +.e.r 0 v t t B B c t B V B V B V C B Z C Z A A A z./.uXz.x.| 2.U m m V v m m m m m U E # . X X # # - % = % % = % ",
"2 2 2 3 5 5 5 5 5 5 9 2 1 b H i a d d g l l l J +.+.;.;.;.;.-.;.-.u.9.B.!.A.M.B E.sXuX~.Z.9.*.*.$.$.$.$.$.$.$.;.$.$.$.$.$.*.$.*.f.R.XXsXB.1 3.3X$Xy.Y 0 t t V t V c V B Z C C C S C A A A S { V./.iXXXO.X.].-X2.E v V Z m Z m m Z m ~ #   X # # % % % = & 1 % % ",
"2 2 2 2 5 5 5 5 5 2 2 4 1 D _ U i a d l l J +.+.;.;.;.;.-.-.-.u.9.Z.!.^.C.E * S { N.OXiX+XC.7.:.*.*.-.*.$.*.$.$.$.$.$.*.*.<.o.V./.iXuXE.Q B e =.#X4X@X3.V e e V v B B V B Z Z A S O.A A { N.^.uXsX[.] O.e o.t.P ` _ Z D Z v Z Z m Z ~ + . X # # % & & & = % % 1 ",
"2 2 2 2 5 3 5 5 5 5 1 2 1 1 Z x.n.F z l J +.+.;.;.;.;.-.-.u.:.h.E.~.W.| - * P.zXK.v.z.~.aXiX/.C.e.=.*.=.*.$.*.*.*.*.*.=.2.b.~.uXsX[.z.{ ].,XH * 3 e.$X4XD.| V e B V C C A A A A O.A O.c.!. XdXOXV.{ b.T.A.+ # O.V.N.` ! Z v v Z Z m Z +   X + # - % & % % & % % ",
"2 2 2 5 5 5 2 5 5 1 3 1 9 k.V e d.C.| l l +.;.;.;.-.;.u.:.e.B.!.E.f.1   | eXGXhXG o.B.z.v.+XsXOX~.Z.9.=.*.=.=.*.*.-.2.b.!.XXdX.Xv.] C.fXGX3X+.F 4 . j D.4X#XA.S V B C A S A ! Q ! p.V.).iXuXE.z.v.}.NX$X0XC.e   e v.N.s.` ~ Z m Z Z Z + . X + # # % % % % % 1 % ",
"2 2 2 3 2 5 > 5 2 2 2 1 8 hX5X~ 1 A b.b./ ;.;.-.-.-.:.0.m.!.E.m.c   b 5XDXFXzXD.G f U M.N.c.V.OXaX|.C.A.1.=.,.*.=.M.V.|.aXoXV.p.b.pXDXHXbXD.t.*.G V % # W H.$XJ.M._ C A Q Q Q { N.^.oXaX[.p.] `.NXGXDXD.F.'.~.s.% . C N.V.s.Q S Z Z ~ X   X # # # % - % % = * % ",
"2 2 : 2 5 2 2 2 2 2 2 1 7 8X5X&XZ.e 4 ' b.d.&.u.u.q.4.[ ~.B.Z O 1 J.NXFXnX&X&.;.$.T b w E b.b.v.~.iXpX/.B.e.3.o.V./.iXiX~.z.z.{.DXGXDX7X,.j I t.5.P U t # 0 6.$XH.m.x._ Q ) z.!.XXsX.XN.{ C.pXFXGXkXS.A C o.W.).!.C . % c.^.R.s.! Z Z +   # # # # % % - = % % % ",
"& 2 2 2 : 2 2 2 2 2 2 2 2 %.>X:Xk.j.( 1 c d.N.f.5.C.N.X.~ 1 . / tXDXNX>X3.;.9.:.:.1.$.F r q X.N.p.v.+XsXOX~.B.!.XXsX+Xc.p.`.NXHXFXeXk.H i.P i.r *.t.<.P E c x V A.&XW.V.z.V.).iXuXE.p.b.OXDXGXSX:X! A _ ! A ~ h.W.^.N.4   B !.^.N.s.! +   X # # # % - * * % % % ",
"2 : : 2 5 2 2 : 2 2 , 1 2 3 u r.:Xh.2.f.c 1 m B.V.C.f.0   b I.tXfXrXe.;.=.9.:.9.:.9.:.=.@.n 8 V M.b.p.V.uXsXXXsXOXV.{ C.fXDXHXNX#XW H P P G H G j m 2.t.=.| X.B 4 M..XXX|.oXiX`.p.p.`.NXGXHXwXZ.) { ' _ Q _ Q ~ f.L./.^.s..   s.(.^.s.  . X # # - % % % % % % % ",
"- : : 5 : 2 2 2 , 2 1 2 2 a z 3 J @Xl.W g. .1 1 f.Z X 2 ..I.T.6Xl.;.u.:.9.:.:.9.9.:.9.9.1.$.T f 8 ^ b.z.p.~.uXC.p.n.tXDXHXDX,X3.I T T P H G K P U G v Y 6.6.A.U.M.C { ~.uX XN.{ C.aXFXGXcXJ.{ { [ ] ` ` ' ' _ ` A ~ g.Y./.R.C . c !.c.  . X # # % % % % % = % % ",
"- - : : : 2 : : 2 2 , 2 2 a i a i i 1.@X,.R f.v # 2 ~ g.h.F.k.=.-.9.9.q.9.q.9.:.9.9.9.:.9.:.1.$.K s s X.M.{ ) ] `.NXHXFXwXt.P P W +.P P P P G G F U I U i.| G.:XtX}.b.A z.] n.OXDXFXDX>XX.p.z.x.] [ ` ' ` ` ` ` s.) C ~ j.W.~.d.1 % c   . X # # % & % & % % % % ",
": : : : : : 2 : , & & 2 2 u a z z l i l l.h.J A.4  .h.4.k.3.-.9.:.9.q.9.9.9.9.9.9.:.9.9.9.9.9.:.<.&.T p 3.J.e ].HXGXzXD.*.@.*.P #.T P P P G G P I I E E E S S 6.6XMXDX'.e M.DXGXFXwXm.{ z.z.z.z.z.s.s.s.s.` ` ` d.Q s.Q ) f.L.j...~ %   X + # # % # % % % % % % ",
"- , : 2 : 2 : : 2 , 2 2 2 z z z d z l z d #.j.B.1 N.E.3.1.u.q.9.q.9.9.9.q.8.8.9.9.8.8.9.8.9.9.3.9.1.1.e.A.Z x Z P.*X=.$.$.*.$.$.#.@.T T P Y Y I I I E E E E E V ^ T.5Xo.4 E J.eXJ.` ] z.p.x.z.z.z.z.z.d.s.s.d.s.s.Q s.s.) s.) ..g.c ( <   + # # % % & % % % % % ",
": : : : : : : : : : : = > z z z z z l l i.i.o.A.1 C.).| 8.9.9.9.8.9.8.q.8.8.8.q.8.8.9.9.9.9.9.9.9.9.:.,.S v # w 9 +.=.*.*.$.*.$.W +.T T W P W E E E E E } E } } ! ~ V C * r *.E { s.s.z.x.z.z.z.z.z.c.z.z.z.z.s.s.s.s.s.s.s.` d.C c F.&   # # # # % % % = % % % ",
"& & : : : : : : : = : : > z l z l l l l l +.PX6.1 E.|.| q.8.9.q.q.8.0.0.0.8.0.8.8.8.8.9.8.e.9.9.9.e.9.,.S V # 8 p =.=.=.-.*.$.*.*.*.@.W P W Y W W E E E E } } }  .X.S A * q =.| ] ] [ p.s.z.x.c.c.n.v.c.c.c.c.z.c.z.z.s.c.s.s.Q 0 J.H..   X # # # % - % % % % # ",
"& , & : : = : : : : : & > l l z l l l J J ;.D.S.1 E.|.o.q.8.0.q.0.0.0.8.0.0.0.8.8.8.8.8.8.8.9.9.9.8.9.,.! V X 7 d =.=.$.=.*.*.*.*.W W W *.W W E W } } E } _ } }  . .S A # r =.| ` [ ] ] p.z.p.z.c.c.v.c.v.c.c.v.c.c.c.c.s.d.~ 0 j.T.! .   X X # # % % % % % % % ",
"& & & , : : : & : : : 1 ; l l l l l l i.+.;.J.y.4 C. XX.q.8.0.8.8.0.w.w.0.8.8.0.8.8.8.8.8.8.8.9.9.8.8.2._ Z . u l =.=.=.=.=.*.=.*.*.*.*.W W W | W E } } } } } { ' ' Q A # s =.,.` ` ' ] [ ] d.p.z.n.c.v.v.v.v.v.v.v.v.c.s.Q 0 g.=X' ) X   . X # # - % - % % % # ",
"& & & : : : : : : : : & 2 l l l l l J ;.;.-.J.A.4 E.).o.q.w.w.w.0.w.w.w.e.w.w.0.8.8.8.8.8.9.8.8.e.9.8.2.[ A   a +.1.=.<.=.=.=.*.*.*.*.2.| / | W | } } } } '  . . .' _ A # f 1.2._ ) _ _ ` ` ] ] z.z.c.c.v.v.v.v.N.N.v.s.' 0 f.:Xd.s.` .   X X # # + % $ % % % % ",
"; & , : & : : : : & : : 3 l l l l ;.;.;.:.:.S.A.4 C. Xo.q.w.0.0.w.q.w.w.w.w.w.8.0.0.8.8.9.8.9.8.9.e.9.2.z.Q   l -.1.=.=.=.<.=.=.2.*.2.*.*.| | | | } } | X.} X.[ [ [ } ! # s 8.2.! Q _ ) _ ' ] ` ] ] z.z.c.c.v.v.N.v.s.' e ..6Xd.s.s.` .   X X # # % % % % % % % ",
"$ , & & : : : : : : : & 2 l l l +.;.;.:.0.9.A.A.0 E. Xo.w.0.0.w.w.w.w.w.w.w.w.0.8.0.8.8.8.8.8.9.9.e.9.4.N.`   +.:.9.=.=.<.=.2.2.=.2.*.| 2.| | | | } o.}  .X.[ X.[ [ } E X i.t.5.! ! ! ! _ ) _ ` ` ] ] z.z.c.c.N.v.s.d.e ( 6Xd.s.c.c.` .   . X X + # % % % % % # ",
"$ & & : : : : & : & & : 2 N J ;.;.:.q.w.w.q.A.m.4 C. Xo.q.0.q.w.w.w.w.w.w.w.0.0.8.8.0.8.e.9.8.8.e.9.q.4.V.s.  +.9.:.1.1.1.<.1.=.<.>.2.=.| | | | } o. . .X.X.X.d.X.[ o.| X i.y.3.S S A S S S ) _ ' ` [ ] s.z.c.c.s.' 0 ~ 6Xd.z.c.c.v.` X   . X # # # # # % 1 % # ",
"$ & ; & : : : : & : : & > J +.-.:.q.w.w.w.q.Z.f.= C. Xo.w.0.0.0.q.w.w.w.w.w.0.0.8.8.8.8.8.9.9.8.8.8.8.7.!.z.  ;.0.9.1.1.1.=.1.2.2.<.2.2.2.o.| | o. .X.X.X.X.d.d.[ [ A.5.X i.PX3.S S S S S S S _ _ _ ' ` ] s.z.' ! e V -XM.z.c.c.c.v.` . . . + + + + % % % % # # ",
"$ $ , : & & : : : : : & > +.:.w.q.w.w.w.w.w.Z.M.# C. Xo.q.w.w.w.w.w.w.w.w.w.w.w.0.8.8.8.8.8.8.e.8.8.8.7.^.v.  u.a.8.3.1.3.3.3.=.<.2.2.2.4.7.7.o.o.o.o.X.f.X.x.f.x.[ A.6.  i.$Xy.Z S U Z S E S ! ! ! _ ' ' ] _ Q B v &Xo.z.c.c.c.c.v.d..   . + + # # # % % % % # ",
"& $ & & : & : & : & , > ; ;.8.:.:.:.q.:.:.:.PX3.. ' v.,.q.9.:.:.:.:.:.:.:.:.:.:.:.:.:.1.:.1.:.1.<.1.3.>.d. .  q.y.:.1.1.1.<.3.3.<.<.3.2.2.| | } } } X.} } _ } _ _ } X.n.X J l.o.' { { _ _ { [ ` ] ` ] ` s._ Q C % S.m.{ ] ] ] s.s.s.} .   . . + + # # % # % % # ",
"$ $ & ; & : : , & : & , & < O O o < - - O o O o   O . o o o o o O o o o < o < o o O o o O o O O O o O O O     O X o o o o o o o < o < < X X # X o X X X X X X X . . . . . O X X o # X < X # X X # X X X X X X     o X # X X X . . + . .   . X + # # # # % % % % ",
"@ $ & ; & : & : : : & & , $ .   O .                       . .                                   .               . .             X   . .               . X .             .       X .                                                   . . . + + + + # % # # % + ",
"& $ & & & : : & & & & , & & +     O                 O O       .   O       O         . .     O   . .       .   . X       . .     X X   X . . . . . . . . X X . . . X . . . . . . X   X X . . . . . . .   X . .     .             . . . . . . . + # # # # # % % % ",
"$ $ $ , , : : & : & , & & & & . .                   O X .         . .               .       .   .             . + X . . . . X       X . . . . . . . . . . . . . . . .   . . X X X X     . . . . . . . . . . . . . . . .   . . . . . . . . . + + # # # % % # + % ",
"$ $ $ & & & & : ; & , & & , & @ O .   O       O     X X X O . O   O O   O . .   . . O     . . X O . . . . . . X + X # . X X   X X   X   . . . X X . X . X X X X X . X X X X # X X X X X X X X X X X X X X . X . X X X X X X . X . . + . . + + + X # # % # % # # ",
"$ $ $ , & , , & & & ; & & $ & @ @ . . . O . . . O o o + + + X X X X O X . o X X X X X X X X X X X X X X X X X X + # @ + X X X X X X X X X X X X X # # X X X # X + + + + + + # # # X # # # X X # X # X # X X # X X + + + + + X X X + . + X X X # # # # # # % # * ",
"@ $ $ & , 1 , & & & & & $ & $ $ + @ X X o o . X X X X + @ + @ X + o + + X + + X X + o + X + X X X X @ X X + X @ @ # # @ + + X X # + X # # X # # X # X # # # + # + + + + # + # # # # # # X # # # X # X # # X X # # X + + + + # + + + + + # X # # # # # # # # # # ",
"$ $ $ $ & & & $ & & $ , ; & $ $ @ @ X o + X X o X + + + + @ + @ + + + + + + + + @ + + + @ @ X @ $ + + + + @ @ + < # # + # + + # # X + + # + # # # # # # # # # # # + # # # # # # # # # # # # # # # # # # # # # # + # + # # + # + + + + + + + # X # # # # % # # # ",
"$ $ $ & & , $ & & $ & & & & $ & % @ + + + + + X o + + @ $ @ @ + @ + + + @ + @ @ + @ + @ + @ $ + # o + + # + @ # # # < - # - # + # # # + + # + # # # # # # # # # # % # # # # # # # # # # # # # # # # # # # # # # # # # # # # # # + + + + + + # X # # # # # # % # ",
"+ $ $ & $ , $ & & $ $ $ & $ $ % $ $ + + @ o + + + @ + @ $ @ $ + + @ @ + + @ + + @ @ @ + @ @ # + @ # @ + @ # @ # < # # # < # # # < # # # # # # # # # # # # # - # # # % # # + + % # # # * # % # # # # # # # # # # # # # # # # # # # # X # # # # # # # # # # # # # ",
"@ $ $ $ $ $ $ $ $ $ $ & $ $ & $ $ @ + + + + + + + + + + + $ + $ + + @ $ @ + $ $ @ + + @ # @ @ $ # @ # + # @ X $ # + - + # # # # # # + # # # # # # # * # # # # # # # # # # % # # # # # # # # # % # # # # # # # # # # # # # # # # # # # # + # + # # # # # # % + % ",
"+ $ @ % @ $ $ @ $ $ $ $ $ $ $ $ % @ + + + X X @ + + + @ + $ @ + + @ + + + $ + @ @ + + + $ + @ # @ + % @ + + # + X + + # # # # # # # # # # # # # # # # # # # # # # # # # % + % # # # # # # # * # # # # X # # X # # # # # + % # # # # X # + + + + # # # # # # # + ",
"@ + $ + $ $ $ @ $ @ + $ @ @ $ $ $ @ + @ @ + X X + + + + @ + + @ + @ + + + + @ # + @ + + X + + o # + + + + + # X # X # X # # X # # # # # # X # # # # # # * # # # # # # # # # # % # # # # # # # # # # # # X X # # # # # # # + # # X X # X + X + + X + + # + + # + "
};
