/* XPM */
static char *Metal_256[] = {
/* columns rows colors chars-per-pixel */
"256 256 243 2 ",
"   c #020301",
".  c #090703",
"X  c #0A0A06",
"o  c #0C0D0B",
"O  c #070807",
"+  c #110E09",
"@  c #120D05",
"#  c #0F100D",
"$  c #13120D",
"%  c #1A150D",
"&  c #1D170C",
"*  c #0E1112",
"=  c #141512",
"-  c #191712",
";  c #1B1A15",
":  c #1C1D1C",
">  c #171817",
",  c #0D0F10",
"<  c #221D14",
"1  c #211F1A",
"2  c #281F15",
"3  c #20190E",
"4  c #1E201F",
"5  c #22211E",
"6  c #2B251C",
"7  c #2B2318",
"8  c #33291C",
"9  c #3F311F",
"0  c #1D1F20",
"q  c #1F2121",
"w  c #1D242B",
"e  c #242423",
"r  c #292723",
"t  c #272827",
"y  c #2A2926",
"u  c #252728",
"i  c #26292A",
"p  c #2C2C2B",
"a  c #332D24",
"s  c #312F2B",
"d  c #392E22",
"f  c #2F302E",
"g  c #32312E",
"h  c #3B352C",
"j  c #3B3226",
"k  c #2C2F30",
"l  c #242931",
"z  c #2E3132",
"x  c #2E3439",
"c  c #343433",
"v  c #393733",
"b  c #373837",
"n  c #3A3936",
"m  c #343739",
"M  c #36393B",
"N  c #3B3C3B",
"B  c #201F20",
"V  c #44392C",
"C  c #433C34",
"Z  c #413E3B",
"A  c #493E34",
"S  c #513D28",
"D  c #41311F",
"F  c #3E403E",
"G  c #42413E",
"H  c #4B443C",
"J  c #4B4337",
"K  c #56493A",
"L  c #564733",
"P  c #635139",
"I  c #3B3F41",
"U  c #363D41",
"Y  c #403F40",
"T  c #3E4143",
"R  c #3E454A",
"E  c #3F4954",
"W  c #434444",
"Q  c #494743",
"!  c #474847",
"~  c #4A4946",
"^  c #434649",
"/  c #46494B",
"(  c #4B4C4B",
")  c #484748",
"_  c #534C44",
"`  c #514E4B",
"'  c #594E45",
"]  c #4F504E",
"[  c #52514E",
"{  c #5B534B",
"}  c #5B5247",
"|  c #454C52",
" . c #4B4E51",
".. c #434B56",
"X. c #4D5154",
"o. c #4D555A",
"O. c #465159",
"+. c #535453",
"@. c #595753",
"#. c #575856",
"$. c #5A5956",
"%. c #535659",
"&. c #55595C",
"*. c #5C5C5B",
"=. c #655749",
"-. c #615F5B",
";. c #645C53",
":. c #715E45",
">. c #5F605E",
",. c #62615E",
"<. c #6B645B",
"1. c #736659",
"2. c #555D62",
"3. c #5B5E61",
"4. c #535E69",
"5. c #4C5864",
"6. c #5C6164",
"7. c #5D646A",
"8. c #59636C",
"9. c #5B6774",
"0. c #4C6079",
"q. c #646463",
"w. c #686763",
"e. c #676867",
"r. c #6A6966",
"t. c #636669",
"y. c #64696C",
"u. c #6B6C6B",
"i. c #726E69",
"p. c #6F706F",
"a. c #72716E",
"s. c #7A736B",
"d. c #646C73",
"f. c #6B6E72",
"g. c #636D78",
"h. c #6C7174",
"j. c #6C747B",
"k. c #67727B",
"l. c #737473",
"z. c #7A7976",
"x. c #73767A",
"c. c #74797C",
"v. c #7C7C7B",
"b. c #787773",
"n. c #706F70",
"m. c #605F61",
"M. c #817E7A",
"N. c #83776A",
"B. c #806E55",
"V. c #7F807E",
"C. c #82817E",
"Z. c #8B857C",
"A. c #95836E",
"S. c #6C7884",
"D. c #737C83",
"F. c #777E85",
"G. c #61748A",
"H. c #5D6E83",
"J. c #7D8183",
"K. c #7A838C",
"L. c #76818B",
"P. c #7A8895",
"I. c #6F8090",
"U. c #7E92A8",
"Y. c #848483",
"T. c #8A8986",
"R. c #85898B",
"E. c #8C8C8B",
"W. c #868786",
"Q. c #908E8B",
"!. c #92918E",
"~. c #99958E",
"^. c #858D94",
"/. c #8B9298",
"(. c #949493",
"). c #9A9996",
"_. c #9C9C9B",
"`. c #969898",
"'. c #8F908E",
"]. c #A09F9C",
"[. c #A39B8C",
"{. c #9EA09E",
"}. c #A1A19E",
"|. c #ACA49C",
" X c #8A98A4",
".X c #959DA4",
"XX c #8496AA",
"oX c #9AA2A8",
"OX c #9BA9B6",
"+X c #8FA4B3",
"@X c #A4A4A3",
"#X c #A9A9A6",
"$X c #ACACAB",
"%X c #A6A8A8",
"&X c #B0AFAC",
"*X c #B1B1AE",
"=X c #B8B5AD",
"-X c #A6ADB4",
";X c #AAB2B8",
":X c #B4B4B3",
">X c #B9B9B6",
",X c #BCBCBB",
"<X c #B6B8B8",
"1X c #AFB0AE",
"2X c #C1BFBC",
"3X c #BEC0BD",
"4X c #C1C1BE",
"5X c #CAC7BC",
"6X c #A9B9C5",
"7X c #B7BDC3",
"8X c #9BB2C5",
"9X c #BAC2C7",
"0X c #B9C9D4",
"qX c #AEC1CE",
"wX c #B9D1E1",
"eX c #C4C4C3",
"rX c #C9C9C6",
"tX c #CBCCCB",
"yX c #C5C8C9",
"uX c #D3D2CD",
"iX c #C7CED3",
"pX c #CAD2D8",
"aX c #D3D4D3",
"sX c #DCDDDB",
"dX c #D7D9D8",
"fX c #D0CFCC",
"gX c #DFE0DD",
"hX c #E2E1DE",
"jX c #D6DDE3",
"kX c #C9D9E4",
"lX c #DCE2E5",
"zX c #D8E9F4",
"xX c #E3E5E4",
"cX c #E5EAEA",
"vX c #EAECEC",
"bX c #E6E8E7",
"nX c #E8EEF2",
"mX c #ECF3F5",
"MX c #FDFEFE",
"NX c #F4F7F8",
"BX c #EFF0ED",
"VX c #E1DEDA",
"CX c #807F80",
/* pixels */
"x.4X=X>X3X5X*XdXgXgXuX3XxXaXaXV.4 F V.Z.!.#X{.'.).{.#X@X|.(.}.Z.(.}.{.p.+.V._.Z.>.Y.C.Q.z.[ W *X3X).1X3XV.'.:X{.Q.).1X).W. .F [ H p.:X:X1XE.l.v.Y.T.v.v.z.v.E.o.i W @.,.q.u.r.>.u.$.*.u.r.+.w.$.w.r.*.q.+.#.` ( [ *.*.3.-.+.n u.!.>.&.q.*.6.$.q.*.*.*.*.r.6.c v n $.!.@XE.h.T.%X].%X!.CX:X#XuX-X..u n ( [ [ >.6.] / ] ] ( ( ! R ^ ! / ( ! W T ! W F N N G g v ! ~ c.k.c.d.o.%.| ! ] ! ] W &.] F F F #.V.R F x x F ! F F F ~ ~ #.4.R F F F F T T T T T T / / / X.|  .T / | O.%.( F o.2.o.E F F r R U.P.%XP.`.oX;X6XU.U.Z.V.P.V.O.",
"*X:X>X4X5X&X).:XgXuX3XrXbXV.9XlXu.w F >.V.~.Z.[ V.Z.{.1X@X!.!.V.).).|.).'.V.V.a.a.Z.b.,.~ ~ :XlXp.>.{.!.z.Z.oX).V.(.}.l.#.e.4 g ~ @XrX:X_.].(.(.(.!.E.W.T.Q.v.@X2.q N ( @.u.H [ u.w.q.q.w.-.*.q.r.( +.$.3.[ ) +.$.3.3.*.+.N f.W.o.~ ^ X.( ] ( +.*.#.$.q.( 6.| > v W.<Xr.q.z.a.R..X-X7X>XrXW.rXhX;X..t c F ( >.] ~ / R H T T F W Q ^ W W W T W T T T N G F g G } k.L.2.] >.o.R R ! ! ] ! W F 6.! y F V.F F x x x F F F F F F F F T 5.R s z F F F T T T T W T R / O./ ^ / |  .X.X. .X.o.X.F F a ] P.L.>./.U.P.U.oX'.P.P.V.V.o.V.V.",
"*X>X}.*X*X3X|.}.5X3XfXuXsXdXhXBXcXJ.t F e._.}.Z.V.'.#X#X|._.'.Q.@X}.#X].}.}.'.Q.Q.C.q.! $.yXgX^.z.b.z.V.V.'.(.T.Z.(.{.>.#.K.o + ( eXrX(.( a.V.!.E.!.T.E.(.M.z..X%X2.i n @.$.T >.-.m.*.m.q.w.q.q.*.+.$.3.m.#.[ #.*.$.#.[ T v.R.( ] ] +.%.#.+.] #.] ` #.,.+.f.&.  r {.#Xa.r.b.p.W.@X4XfXfXdXvXaXrXvX9Xo.k v H ] ] / / ! R ^ ! ! ! / W W W T T T F G W N N F ! +.L.+XP.k.X.X. ./ R ! [ F F ! F 6.o.1 ~ V.F F i j F F F z x F F F F F T 8./ F F F F T T R R F W / ( X.( ( / / / T / O./ R F F F O.U.8XV.V.U. XP.V.P.P.V.V.P.V.$.P.U.",
"}.$X=X3X).{.W.*XfX3X3X&XtXgXxXcXbXbXK.c F $.>.>.,.,.w.w.>.>.>.t.q.>.>.>.>.>.>.>.,.+.~ u.dXxX`.V.d.6.e.h.R.).Z.r.>.l.).~.T.V.# X W aXeX$XT.p.u.u.W.!.T.v.Y.Y.!._.).@X6.k b ! ( ( ( ( ) [ @.#.+.( ( ~ +.+.+.[  .[ ~ ( ( Q F.J.t.] ] %.#.>.*.+.[ #.] G [ ,.r.6.R   5 @X9Xu.b.h.b.p.W.>X2XaXsXbXVXfXhXvX-X4.c F G ! / ~ ~ ! ~ ~ ! ~ ( ! ! ! ~ Q Q W W W W G ~ +.d.P.P.I.I.9.O.! / F ~ #.~ G W F >./ $ ~ Z.F F F F F F F F F F F F F F F F %.| F c b F F T T F N G W W W T W T T N T H F F F F &.P.P.+XOX+X+XU.P.V.V.V.>.8.V.U.U.;XP.",
"&XfX3X#X).nX9XV.3XuX1X5XdXgXlXxXbXrXsX@X!.}.@X}.%X).`./.%X%X$X@XoX{.`.oX}._.J.z.V.J.`.lX<X/.x.6.6.q.y.V.~.Q.T.9XV.#.V.~.~.V.# O ` ].:X>XY.$XyXr.*.E.T.v.v.`.E.).`.(.W.6.^ X./ / ) ^  . . . .X.] X.+.|  .+.+. .+.o.X.] V.x.~ X.] +.>.#.#.&.#.>.;X/.8.] >.w.r./   4 @X9Xu.p.).lXU.F.:XyXtXVXxXxXbXBXhXhXdXj.| R / R R / / / X.( | / / ] ( ~ / ( ] ( ( ( ( +.d.G.I.P.I.I.9.X.R F [ {.V.P.#.| F V.R $ F #.! W F V.V.8.0.R x F F F F F F T F O.2./ R / ( / O.X.] / O.O.X.o.o.&.o.o.o.o.o.o.+.6.P.L.J.P. X+XOXoX X XV.V.U.6XoXV.U.;XP.",
"=X3X3X~.V.gX}.F 1XsX3XtXxXgXxXgXgXdXgXNXNXMXMXNXMXNXMXMXMXMXMXMXMXMXMXMXMXNXcXmXNXMXmX_.c.f.6.&.%.e.a.(.#XV.T.:X&.F w.V.(.P.# O +.<X<X,XT.$X-X] N v.E.(.E.'.E.!.(.E.W.{.%X_.W.E.W.R.CXCXJ.(.(.F.F.'.v.u.x.Y.h.u.x.x.h.x.] [ X.+.+.%.+.&.#.[ i.5XV.&.~ >.r.l.R   - #XyXb.a.(.5X7.l.&XsXyXdXVXVXxXvXBXbXhXiX^.L.d.8.7.d.6.d.K.k.9.y.g.d.j.j.7.j.j.t.6.6.2.d.I.P.P.P.I.I.9.#.] R ;.V.V.U.$.~ F 2.] $ g V.f F F V.V.o.9.T F F F F F F R R F F +.X.X.o.o.| 8.&.o.| 8.6.6.7.d.S.c.7.d.d.d.j.P.P.k.L.K.P.V..X-XOX+XU.e.P V.6XV.V.OX6XV.",
"3XQ.Q.3X;.F 7 $.3XfXfXdXxXxXlXgXsXcXgX).T.}.}.#X*X#X#X1X1X>X:X>X*X$X#X#X&X*X:X*X#X}.sX%Xx.y.3.6.6.u.V.`._.Z.$.a 4 p V.V.`.V.* O ` eXeX=X~.( r > ~ l.).).(.'.W.Y.T.W.Y.T.@X~.T.E.!.(.M.l.Y.Q.R.z.z.b.z.w.w.u.f.e.>.e.r.%.>.*.+.] ] ] X.#.#.+.,._ 4 > G ,.,.a.X.  4 }.dXJ.z.a.J & H :XaXxXdXfXtXdXbXBXhXhX3Xd.u.>.>.r.u.q.>.w.i.$.$.i.,.-.u.,.<.r.w.u.p.Y.P.G.P.P.V.I.V.9.2.&.&.[ 8 ; p ] ] F >.F # F V.F F F F ; 4 z F T T F F F F T T F R H F F F F T / / ( / W ^ ~ W ~ W ~ Q G ! +.` >.k. XI.K./.V.U.OXOXoXoXV.V 8 5 F ! V.wXU.",
"].T.b.=X).<.s.5X3X3XaXsXxXbXxXxXvXbXV.f 4 5 5 < 6 t t 6 e e y y a y s a h h s c n v V.aX^.y.q.*.q.p.T.(.'.z.p.] F >.e.V.R.V.* O +.yX4X*X].M.Q [ b.E._.(.`.(.E.Y.Y.C.V.E.E.W.Y.Y.Y.CXCXCXW.'.T.CXx.u.l.n.e.u.n.w.+.u.6.+.%.*.*.+.+.] ] #.#.%.>.[ c n ] >.,.e.|   4 }.aX(.V.V.i.$.T.*XfXVXVXfXuXVXhXBXNX4XF 6 j h J h j h h d d F C V C V h V h h h v j g z. XP.P.V.V.V.y.8.2.>.#.F t F ] ] W >.R # F V.F F f F i t z x F T F F F F F R F F T F F N M T F T / / W ~ T ! Q F T W N F ~ F H @.h./.P.V.V.U.+XOXOXP.`.V.&.F ] V.V.0X{.",
"`.Z.uX3X3X3X3XdXfXaXgXhXbXbXhXBXlXp.f s F F F F F G F G ~ ~ G ` [ [ ~ ! ~ H Q ~ $.>.[ z.aXJ.6.&.#.h.W.(._.~.T.Y.Z.V.r.V.V.V.o O +.:X$X$XT.!.!.Y.Y.(.T.E./.(.!.(.W.x.M.T.T.(.T.T.W.F.W.W.CXE.Y.z.a.e.l.x.a.x.p.e.>.u.&.+.#.>.>.>.%.( [ $.#.#.%.#.] +.$.>.,.y./   & }.fX).Y.x.M.(.(.$X,XsXlXsXVXbXvXNX7XN y p c n h v n v g c F h n n c c g g c g g c p ~ :.C./.I.I.I.V.5.2.2.2.o.] ] ! ] o.! V.E X n V.F W G W F F m F T T T F T F T T F F T F R T F F F F  .R F T / ^ ^ / / R F X.] F F H >.e. XV.U.oXOX;XOX XoXU.V.V.U.).+X;XV.",
"3X3XsXrX3X5X3X3XaXhXxXbXbXxXvXdX6.f f F <.$.r.V.r.i.V.Q.Q.!.z.v.~.`.a.>.a.T.C.u.l.a.l.<.v.$XJ.&.*.e.V.`.{.oX_._.{.Z.i.w.V.V.* O +.%X].].M.Y.(.T.W.T.W.W.(.E.(.!.T.W.E.E.T.E.E.(.Y.v.W.T.CXJ.v.u.q.q.e.u.l.c.w.q.e.e.>.>.>.>.q.6.*.+.#.&.+.&.#.] ] >.r.,.$.&.T   4 ).uX`.F.c.W.!._.%X>XtXsXgXgXxXMX7Xm t s N T T ! F T F F F F F N c F N N T M M n m n W [ <.h./.I.I.I.0.2.&.o.] ] ] ] ] ! F V.F X N v.M F N F n F F F R T F T F T F F F F R ! F R / ( F R  . ./ / / / / | / X.o.o.X.X.R F ( [ >.U.OXoXOX;XOXOX XP.P.+X;X+XiXwX X",
"3XlXsXdX5X5X5X5XgXbXbXbXlXjX3X] p f F V.V.Z.).V.Z.b.Y.).].].Q.Y.T.@X].C.T.}.Q.l.V.C.V.z.$.i.:Xy.q.2.l.E.(.`._.%X{.).V.V.J.8.* # @.]._.(.M.Y.).`.(.Q.E.(.!.E.!.E.C.Y.T.W.C.Y.W.'.Q.Y.T.Y.Y.M.v.l.e.q.w.u.r.l.u.e.q.u.y.q.6.e.t.>.*.*.#.&.#.@.+.%.*.e.,.>.>.p.X.  - @XlX/.Y.W.(._._.%X:X:XfXxXbXBX:Xc e p N ^ ( ( ~ / R T ! ! T ( N N W T W W T W T M N T W [ } l.U.I.I.V.5.o.O.| #.o.#.#.! F V.o.. b V.F W Q G n R H T F T F W T R F x F T R R R / / ~ ~ /  .o. .X.X.| | R X.>.] / X.(  .( F H >.<. XOX+X+X;XOX XU.OX9XqX9XwX0XU.",
"3XbXxXuX3XaX3XfXgXhXbXgXBXuXF 4 y H r.T.).{.{.'.~.T.V.{.#X~.(.Q.!.1X*X~.(._.M.C.z.Q.Y.C.!.r.p.(.h.6.6.v.(.`.{.{.T.J.T.!.).V.* # ] :X&X$X).).).(.(.(.'.E.(.`.(./.Y.Y.C.x.v.v.v.W.E.W.Y.CXCXCXJ.z.l.u.u.u.u.h.p.t.q.u.u.e.e.q.>.>.6.&.#.+.&.+.+.*.>.t.$.>.>.y.O.  ; }.dX.X^.`.(..X%X$X-X$XeXdXNX*Xz t g N )  .( (  .( ~ ! ^ R / ! ^ T ^ W / W T T T I F T T G [ { V.I.I.V.V.2.] O.&.o.] ] o.R V.|   N (.G G G G G ~ ! F / ~ F ^ / R T x F T E R F / R R  ./ ( X.+.X.o.X.! / o.o.R / ( X.o.&./ F [ $.#.oX3XU.OX;X8X;XqXpX0XqXdXwX{.",
"sX{._.hXaXhXgXgXxXhXgXcXaX( e e H V.T.Z.'.}.T.T.{.V.V.}.#X_._.~.#X>X:X#X_.#X!.a.b.Y.Q.b.Y.V.~ r.(.t.3.t.V.!.).E.V.(.V.>.V.V.* * ` $X_.$X$X$X`.(.!.(.W.W.E.(.`.(.!.E.l.f.v.M.v.W.E.W.M.CXY.CXv.x.l.n.i.e.y.u.u.q.w.p.y.u.u.w.>.>.>.&.#.*.*.#.*.,.q.e.e.*.>.d.R   4 %X:XJ.`./.`.`.%X%X%X:XiXvX.XM e g F ~  .+. . . ./ ) / ^ ^ ^ ^ W W T T W T T T T T T W T T W [ F >.V.V.V.5.O.5.o.&.&.#.o.! V.R   F Y.F F F c F G N F ^ W R ^ / ! F F F / ( ! / / F R ! / / o.o./ | | T | &.o.o.X.X.&.2.&.X./ F H $.>.;X8XOX6XqX0X0XpXpXpXV.6XqX",
"3X3X1XvXxXbXbXxXxX3X}.$X! t f F w.a.u.b.V.T.T.b.V.p.b.!.#X%X}.}.$X>X#X*X*X$X).W.C.l.z.p.r.,.z.r.C.@Xy.&.7.V.'.`.V.Z.'.V.'.V., * W *XM.}.].@X`._.`.(.W.E.(.(._.`.(.(.M.x.u.M.v.T.W.CXv.F.F.Y.l.v.l.x.l.q.q.q.q.y.y.p.>.e.e.6.>.6.*.>.>.>.*.&.*.6.y.r.@.*.>.V.X.  4 #XdX%X/.E./.(..X%X*X&XiX.Xm p g T ! X.+.+.X.( ( ) / / ~ / ! ^ / W T / ( / ^ T T T T / W T F W ] ~ #.V.V.I.V.8.&.o.o.] O.| ;X]   F _.T T F G ~ F b F N T T T T R / F T / T T | / R R T R ( o.X./ | / / X.2.&.5.o.&.8.7.>.o.&./ F [ [ X.3XkXqX0X0XkXjXwXkXV..X.X",
"r 3XNXlXcXbXbXxXxX3XV.F y y ~ w.i.V.,.u.).Z.V.p.w.w.a.Z.}.*X$X=X1X*X$X>X*X#X$X{.Q.z.l.r.l.z.Q.`.M.}._.t.&.y.V.R.'.'.V.V.P.F * > v { 2X$X_.(.E.`._.(.).!.E.`.`._.`.(.E.W.Y.W.R.R.W.J.F.M.M.Y.l.v.z.M.l.w.e.>.$.y.p.u.q.t.q.>.>.6.*.&.>.e.>.%.#.*.y.q.,.u.c.X.k O 5 ,.dXmXOXY.v.^.`.@X;XtX/.z y s T / ( X.+. . . .) ^ ( / ! / / ^ / T T T / / / T T R / T T F F W F [ _ ! 5.V.0.0.#.O.] | ! .X.Xt @ g Z.O.T M F R / M m T T / T R R F T ~ / T R ( ~ R / R / X.+.O.] / R / O.>.8.&.&.7.7.7.o.6.8.>.] F H [ ] 3XzX0XpXwXkXkX0XzX+X5 ",
"r 4 :XNXbXbXbXgXbX3XF i y ] i.w.r.r.i.e.W.!.Q.V._.V.p.J.}.>X*X$X1X:X>X$X*X:X$X}.].!.u.a.Y.C.z.l.r.W.W.`.y.&.f.'.oX{.).p.p > O 4 Z 1 ) %X`.E.Y.E.(.!.]..X(.`.'.(.(.'.W.R.(.W.E.R.W.W.Y.v.M.v.l.n.l.F.n.f.u.e.y.u.p.q.u.y.>.>.6.>.*.&.>.r.t.] +.$.e.r.V.'.X.4 4 O 5 [ $.=XcX XJ.'..X}.7X/.n r s I ( +.( X. . .+. .) W W ) W ! ^ ! / T T / / R ^ / T R / / W T T T ! F ~ } o.V.V.O.| #.] | .XP.4 4 o g G <.8.M F / / R T F R / T T F R / R R / ! / / R ! / R  .X.( X./ T | %.6.6.8.8.9.7.7.>.8.9.8.o.X.F J H ] 3XcXkXpX3X;XcX-X4 $ ",
">.4 4 1XNXlXbXNX:XF i c +.w.e.r.a.C.V.V._.V.Z.).).'.T.Q.$X*X*X$X$X:X:X:X<X:X&X:X:X@X(.!.Q.CXM.l.l.b.b.Q.%XJ.x.E._.$Xf.e - k = > [ r.4 n #X1XT.T.'.(.(.`.`._.`.`.`.'.CXE.E.W.R.CXz.J.Y.CXCXx.x.u.l.v.b.l.u.w.f.h.e.q.u.u.6.w.m.3.3.m.3.3.m.3.+.+.r.R.{.] ; 6 x   ; p.} J ).lX.X^..X$X^.c B s Y ) +.%.+.X. .( (  .( W ) / W W W / ( R F R R R R F F R F R R F F R ~ F ! [ F $.&.>.&.#.E L.V.4 f w $ H ~ 7 <.7.T R R R U U R / T ^ / / ^ F T ( / R ( E ! ! R X. ./ X.X.| O.&.8.2.&.d.9.3.X.8.8.7.6.7.y.&.F F K [ 3XmXwX3XjX;X; X F ",
"Z.;.4 e 5XeXrX1XF f N $.,.b.V.W.~.*X#X(.~.a.l.{.>X$X*X}.*X=X*X).].].#X>X<X&X}.&X&X#X@X`.W.Y.'.Q.b.u.*.~.@X<X(..X%Xh.1 - e ( * : [ r.H 4 c #X*X}.{._._._.`._.`.E.(.W.W.E.W.'.'.l.b.W.Y.Y.CXv.b.u.x.u.n.x.u.e.p.l.y.q.u.y.t.e.3.%.#.*.*.*.*.*.q.l.'.`.X.4 > F m   5 >.$.H J ).sXoX;XY.c B s )  . .+.X.X.X.( ^ ^ ( ) W / ~ W N T ! ] ( R F R H ! F R R F F F F T R ! F ! F F ] #.V.7.9..XV.> 4 E F 4 F >.5 r K a.R T T T T T R T W / / R T R T T ! ( ] R R F ! R R | | &.6.8.7.%.%.7.6.%.O.8.6.6.7.d.y.6.o.F F F F 3XpXzX3X4 # k 4.",
"!.i.[ y F rX3X>.z F u.b.i.~.$X$X).}.%X#X{.{.{.:X#X#X3X*X>X*X*X#X}.(.Y.@X:X%X].}.].@X(.u.W.].`.].!.l.n.M.].:X*X<XD.p < e ( X.* ; ~ H ,.[ p C.cX>X#X_._._._.`.(.!.^.CXv.M.Y.W.'.l.x.CXR.T.CXv.v.b.b.m.r.x.l.u.u.u.u.u.y.u.f.e.+.%.7.-.3.*.#.$.r.eXyXI.F ; z ( m   5 p.$.] _ ~.NXyXR.%.y c ) ) +.X.] X.+.] ( ) ) ( ) W ~ / W W W N F R ( R F R F R R F F R F T R F F | [ ! F F $.Z.>.+XOXe e F o.F = F [ F F y [.).x M T F T / / T / / T T R ! T / X.E R R R R X.( / o.&.6.6.8.&.8.8.8.8.7.2.6.9.y.6.&.7.7.#.F F [ Z.sXnX! X x O.o.",
"V.$.[.G f rX1Xu.~ r.z.~.}.:X:X*X%X$X}.#X#X:X:X3X}.(.3X>X:X*X:X$X$X}..X@X@X:X:X%X).].!.M.!.!.].)._.CX(.E.$X:X<X<Xg...l W m.3.o > H ,.a.a.F ~.BX3X@X`.(.oX_._.!.(.E.CXF.W.CX'.E.CXY.v.T.Y.c.CXv.x.l.w.e.n.l.l.u.u.y.u.u.u.u.&.*.q.t.m.m.+.X.+.r.fXyX+Xk.y H ] F   6 a.<.~ ~ 4XMX,XD.d.n Y ) (  .+.+.+.X.( ( ( ( ) W ) ( ) ! / W W H F R F R ! R F F R F F F T ~ ! F ! F F F F ! V.&.oXqXF F R o.f $ F >.F F ] uX3XT M T T / / T / | ( T F T R ( | ] R ( X.R ( X.| E >.2.6.6.&.&.6.7.7.o.2.8.k.d.7.7.2.2.V.7.[ F Z.dX0XmXR i 8.8.V.",
"].Q.Z.~ F :X).).T.!.@X}.*X>X,X:X*X1X@X#X3X*X:X3X$X$X>X*X:X*X>X*X:X2X*X(.@X,X2X<X@X@X].].@X@X@X!.%X).#X@X<X4X2X2Xj.8.b [ n.t.O - ~ v.T.C.W !.dX$X_.(._.}._._._.(.E.E.Y.E.CX!.CXCXW.Y.J.Y.J.CXCXb.l.l.w.u.u.u.f.u.n.l.u.u.m.m.e.q.e.*.3.*.$.+.e.fXiX+XL.c ~ +.c O y a.$.+.~ >XMX:Xg.d.W W +.] ] +.+.X.( ( +.( ( ^ / ! / ( ! ! ! W F R H R F ~ R F R F T T T F F R F / F R F F F &.>.oX0X&.F F &.F ; F $.F F [ VX3XF M T ~ ] T R ! ( / ^ W ! / | / ] R R X.| R ] o. .X.6.7.6.6.6.| d.&.X.8.k.k.k.j.L.y.5.V.8.5.F V.uXpXzXF F V.I.V.",
"}.).).@.v $X*X3X:X>X3X$X>X2X>X@XZ.*X@X@X).}.3X3X*X3X*X|.).#X>X}.2X:X%X,X:X*X<X:X(.T.].$X$X:X&X}.$X:X:X:X,X4XeXeXd...m +.c.t., - @.!.T.Z.Z '.vX$X).`.}..X@X.X.X_.(.E.E.E.W.v.CXW.E.E.J.CXCXM.M.v.h.u.q.y.h.u.r.u.n.x.u.*.y.e.3.q.q.t.t.$.#. .u.xXtXXXg.g ~ +.b O t ,.,.+.` ,XMX,XF.H.C W ( ] +.+.%.X.X.] ( ( +.) ( ] ( ( ( / / / F R R F R R R F R R F F R R R F R / R F F F F 8.V.oX3Xo.F R O.f ; H w.F F ] VX3X^ W ] T ~ R ! ! T ^ / | X./ / | X.F X.X.X.X.X.X.X.o.6.9.7.6.8.2.2.o.X.d.k.k.j.K.V.V.9.V.V.2.F ,.uXsXnXF F 8.V.I.",
"|.$X{.>.F 9X9XfX#X1XeX4XeXeX4X,X(.%X&X=X]._.&X3X*X>X=X$X}.:X>X|.:X`.<X2X:X].:X@Xz.b.(.$X$X:X>X<X$X:X<X4XeX,XeX4XS.5.m W u.t.o ; { (.Y.W.) Q.MX}.E.%XoX@X@X@X@X'.(.Q.(.'.E.Y.W.Y.E.E.CXz.F.Y.z.l.x.a.t.u.u.u.u.u.u.l.u.m.u.$.*.3.3.m.t.#.@.( b.sX3X/.d.F ! >.T O e $.r.#.[ 3XMX7X XP.N ) ( +.+.+.[ ] ( ] ( X.+.( ( +. .( / / ( ( R H R ! ! R R ! R R F F R ~ R F F ! F | ! F F [ V.{.wXo.F F R t 4 [ $.F F @.VX#XW v F / ! T ! R T ! / O.X.| | ( ] E o.X.&.&.o.O.o.&.6.6.6.7.g.d.8.6.7.d.S.I.V.L.V.9.I.V.8.4.F V.5XaXcX/ x O.V.I.",
"|.3X|.{ F 1X>X*XW.$X>X,XrXrXeX4X3X3X3X:X3X*X3X3X3X*X#X#X*X$X$X_.Q.:X2X2X<X:X:X*X!.].$X$X$X:X2X>X$X*X,X4XeX:X2X$Xd.O.n ( h.t.O : ( Q.~.E.Q E.NX;X(.@X@X%X@X@X'.Y.W.Y.`.`.E..XE.W.'.W.CXv.CXY.CXn.l.x.l.u.u.u.u.l.f.f.u.e.q.3.q.m.3.*.3.#.#.+.a.bX9X XK.c H [ ! O 5 a.r.#.[ ,XMX<XP.F.Z )  .X.+.+.] ( ] (  .X.( (  .X.X./ X.] / (  .! ! | ! ! ( R G F R F F R F R R / / F ! F H [ F U.0X8.F R &.f 1 F [ F F @.hX#X/ F F ! T T R ( R / / X.X.] | / R O.X.X.&.2.&.o.X.O.&.2.>.9.g.7.6.9.k.d.V.I.k.j.V.I.I.I.V.O.x V.3X3XP.R F 0.V.I.",
"'.*X$X>.N ,X$X1X%X1X1X:XrXeXeX>X3X3X1X}.$X_.#X3X3X:X>X3X4X=XV.C.>X2X*X].].&X2X>X=X>X:X>X>X>X4X>X#X@X$X>X,X>X$X*Xg.4.N >.v.>.o > ` #X~.T.Q T.NXeXR.}.W.`.}.@XY.R.'.!.(.(.E.E.W.E.E.CXCXF.CXM.CXz.l.u.u.l.r.y.f.l.l.u.e.e.e.q.q.t.q.r.3.#.*.*.e.rXaX+XD.g ~ $.F O t z.e.] ] 3XMX>XF.F.Z ( +.%.*.+.`  . .) ) +. .)  . .( ^  . . .( | ( R E ( ( ! ( F R F R R F F F F | | F R F ] $.( {.qX2.F F o.F & F V.F F [ 5X).#.X.F E / | / / | X.X.| | ^ / | /  .O.%.o.2.&.&.o.#.>.2.2.g.k.d.9.k.V.k.I.I.L.j.V.P.I.I.V.#.p Z.uX3XcXo.F k.K.P.",
"#X#X].+.W ,X@X<X:X:X@X,XrXeXeX,X}._.:X#XV.e.V.3X>X:X3XeX@Xl.C.$X<X,X&X%X@X@X:X2X,X2X*X<X4X4X2X<X)._.}.@X>X4X4X=Xj.8.m +.a.6.* ; ` l.Q.T.~ .XNXaX:X`.CX/.(.`.W.Q.(..X(.E.CXR.E./.T.F.CXY.Y.F.z.F.l.r.w.l.u.r.u.n.l.u.u.q.f.e.3.t.t.-.*.3.*.&.q.aXfX Xg.g ~ ] b O 5 b.w.] [ 3XMXyXD.D.Y ` %.$.%.X.+.+.( )  .+. .(  .( ( (  .( (  .( ( R H F R ! R ] R | R F F R ! F ! F | F ! ~ ] ~ {.jX>.F F R F = ] V.y F #.5X#X( F F R / / R / / X.X.] / ^ R ^ ^ ^ O.&.&.X.o.2.&.o.o.6.>.8.k.9.y.9.6.V.L.L.K.J.I.P.I.V.8.R F V.5XdXNXo.F 9.V.L.",
"}.].).>.f 1X<X,X,X:X:X4XeXeXeX4XV.>.:X*X'.u.}.:X>X>X3X$XC.].>X).>X4XeX2X:X:X$X:X>X>X=X,X4X2X2X>X>X*X:X,X3X4X4X>Xj.5.m @.a.6.* 4 ` Q.).Y.~ @XNXtX@X@X(._.}./.(.`.].`.(.(.E.W.W.E.W.CXCX^.T.CXb.CXx.l.r.q.e.y.f.n.l.n.f.q.y.w.*.t.3.m.q.m.*.+.l.xXyXL.g.v G $.m O y a.p.+.[ 9XMXeX/.d.Y ( %.%.%.+.+.+. .+.` +.X. .[ [  . . .^ /  .X.| R R R R ! ! F F R F F F F R | / / F F ~ ~ #.>.P.0X7.F F o.F = ] V.F F [ gXuXR F R R / / / R / X.X.X.X./ R T T / X.%.%.X.O.>.>.o.&.2.>.2.7.7.7.+.5.k.L.P.P.K.V.V.V.V.o.O.( >.#XdXmX&.c 7.I.8.",
"~.}.].@.c 3XeX3X9X>X,X4X*X:X,X4X&X_.*X3X~.).3X3X3X3X_.).4XeX>XY.].rX2X2X:X%X].$X$X_._.,X<X>X,X,X=X,XeX4X,X4X,X:XD.2.m +.q.%.= ; ' Y.).].` ).NXaX-X%X`.}.}.W./._.`.].W.M.E.'.W.E.E.CXCXR.T.CXc.CXv.z.f.e.u.r.u.l.l.f.f.y.q.*.t.t.*.3.w.3.*.$.b.xXdXOXj.c F W b , y V.r.+.[ 4XMX1XK.j.Y  .$.%.@.$.%.+.+. .+. .X.X. . . . . .( ^ ( ] | H R R H R F F R F R F R ! ] / F F ! F ~ F [ >..XzX6.F F &.F ; K r.F ,.[ dX5XR F R F |  .( R / ] O.X.X. .^ T T T X.%.o. .o.&.6.o.&.&.o.6.6.d.9.g.k.V.L.P.P.K.I.9.d.#.F X.F V.3XuXNX>.z &.L.6.",
"#X#X~.>.c 3X3X>X>X2X:X&X$X(.*X,X}.~.#X#X).3X:X3X$XY._.rXeX3X,X|.CX&X,X&X&X].@X#X@X#X*X2X>X,X2XeX4X4X4X4XeXrX>X*Xj.8.m W >.,.* ; ) b.].].[ x.vXiX:X}.`.@X(.E.(.`.(.`.E.CXE.W.W.CXT.E.W.W.E.CXv.CXY.F.x.f.l.r.u.x.u.u.h.y.q.>.>.w.q.q.q.*.$.*.a.sXdX6XL.c ] ( z , g b.r.[ { 4XMX:XK.^.Z ( %.%.%.%.%.@.+. . .` ] X.X.X...( (  .^  .] R F H ] R ( F X.R F R R R | R R R R F ! R / ] F OXzX6.F F o.F 4 F [ F $.[ dX5X( F T R /  . . ./ | o.X.( / / W T / X.+.o.X.O.o.&.2.>.8.8.8.9.d.9.k.k.k.L.I.V.9.6.k.7.&.>.&.F Z.sXaXlX>.z >.8.9.",
"&X&X~.` F 3X_.!.$X].&X:X>X}.#X,X&X].Q.V.:X:X3X{.T.{.*X4X4X4X3X,X&X#X2X*X2X*X&X2X>X,XeXeXeX4XeXeXeXeXeX4XeXeX>X#Xx.8.m >.p.t.* ; _ :X:X].) @XNXyX`.'._.@X_.]._._.(._.(.(.!.W.R.W.E.^.W.W.W.F.l.l.CXv.v.l.f.u.f.n.h.l.h.u.e.e.t.t.q.w.t.q.*.+.C.BXjX6XD.m ~ +./ O n u.( [ ] 3XMX>XF.D.N ) @.%.@.+.%.%.+.( ..+.+.+.( ( ] ( ( ^ ( ^ R F ] R F H R E R F F R F | ! ! ! F ! F F F F / F OXmX6.F F >.F 5 F [ F F @.uXrXE F F R / R R X.X.X.X.X.| / / / X.o.X.O.o.%.>.O.&.&.2.d.d.6.9.d.y.k.V.k.V.I.I.V.2.d.d.V.d.#.F V.*X9XaXo.x y.V.L.",
"&X).s.] F %Xe.,.u.$.x.@X&X$X*X:X3X3XZ.).3X#XV.~.3X3X>XeX4X>X4X=X*X&X@X2X:X:X2X,XeXeXrXeX4X2XeXeXeXrXrXrXeX3X<X>Xx.2.N *.u.e.* 4 ] #X:X(.) @XNXtX}.$X;X*X%X%X_.@X.X_.E._._.'.!.E.E.'.W.W.x.l.l.l.z.z.v.c.n.l.l.f.l.l.u.u.e.y.u.q.e.w.q.*.*.#.Y.bXsX/.9.n W +./ o H >.,.[ [ 4XMX>XF.S.Y )  .+. .+.+.%. . .] +.+. .( / ) ( ( ( ^ ( F R F R R R ] F ] R R ] R F R ! F F / ! F / F / F oXzX>.F F ( p 6 H -.F F @.VXuX/ R F R R / R X.X.O.X.X./ / X.X.X.%./ / o.%.&.>.6.5.2.9.d.6.7.y.9.h.9.I.I.V.V.5.>.>.2.V.6.o.F V.dX3XmXo.F d.P.P.",
"}.V.a.>.c 3Xa.>.$.-.C._.].$X>X,X3X3X3X:XQ.V.).#X*X>X4X4X3X).>X>X$X#X:X2X&X:X,XeXeXrXtXeXeX4X7XeXeXrXrXeXeX,X4X'.7.8.M #.u.>.# 4 ' &X$XT.Q %XnX,X7X:X:X-X%X%X(.].@X(.E.(.(.(.(.E.W.E.Y.CXl.l.F.n.v.F.x.b.x.x.l.n.l.h.u.u.y.u.w.w.u.y.t.*.3.#.Y.vXlXOX9.m G *./ O v >.,.( [ eXMX<XF.S.Z ` ) ) `  .%.+.+.+. . .( (  .( ..( ( ) ^ ^ ( R ( ( F R R ] F F R F F F ! ! R | / / | F F ! F OXkX&.f F R z y ] *.F F [ gX5X/ F F T / / / / / X.X.+. . .%.O./ /  .o.%.O.o.6.7.o.&.9.g.d.d.7.y.9.9.V.I.I.V.R F E 2.8.[ ( F V.uXrXBXo.R L.P.P.",
").}.].@.p _.W.Q.$X).].].@X:X:X2X,X&X$XQ.Y.&X,X2X2X4XrXeX2X4X4X<X&X&X2X<X*X:X2XeXtXtXrXrXeXeXeXeXeXeXeXeX,XeX@X].f.5.I *.Q.u., B #.!.#X~.F %XNXpX3X:X1X$X$X#X_.}._.)..X!.!.!.'.E.W.R.Y.D.n.M.CXCXv.l.f.z.x.l.f.x.x.y.u.f.f.y.q.e.*.*.6.q.*.@.v.tXfXqXk.g G | R o a ,.>.` [ eXMX,Xh.d.W ( ( (  .` +.+. . . . .` ` .. . .) ) ) ..) W W W I W R ^ ^ ^ Y W W I I ^ R R R R / / F F R F OXzX>.F F F F v ! ,.n n @.hXuX( I U I ^ / / ^ / X.] o.X.%.o.X.] X.o.o.2.>.6.d.7.&.&.>.g.k.k.k.k.9.k.L.L.V.P.d.o.E 4.o.F [ ] w.3XrXgXX.F V.8.X.",
"T.}.@X*.p ].&X%X$XE.(.:X2X>X,X2X:X|.}.<X*X2XeX4X2XeXtXrX4X2X4X2X*X&X<X2X2X:X&XeXtXtXeXeXrXeX4X4XeXeX,X,X@XT.Q.eXx...I m.CXt., B ~ ].3XZ.F %XNXaX<X;X:X1X$XoX.X}.`.(.).(.!.(.!.E.W.Q.W.CXb.l.f.CXF.l.x.z.u.l.l.l.l.u.q.u.f.u.t.m.*.*.q.q.,.$.v.gXaX6XL.c Q ] T o g a.,.] +.rXMXeX*.6. .+.#.( ( +. .+.+.) `  ...) +.` ) ..)  ...) ^ ) ) ..W ^ ^ W T I I ^ ^ I W I F R ~ / R F F F F OXkX>.F F ] F t G $.g n @.hXaX .U I R / | / | | ] X.o.o.o.] %.o.o.X.&.8.7.7.9.6.>.%.o.g.k.d.k.2.>.k.d.8.V.6.2.V.V.L.2.F ] F V.VX0XNX .t d.I.4.",
"b.v.].@.c rX2XeX2X).Q.2XeX=X>XeX:X:XeX4X2X4XeXeX2XeXtXeX4X:X:X2X2X2X<X,XeX<X2XrXtXrXrXeX2X2X,X,X2X,X,X<Xu.Y.rX2XD.g.U @.l.u.$ B ` T.1X~.F %XNXlX<X-X<X<X&X].]..X].`.'.!.`.`.E.E.E.W.E.W.F.W.v.CXY.l.n.f.n.v.x.r.m.*.q.f.u.u.f.e.q.e.q.*.,.+.W.vXsX6XL.g F X.] o s b.u.$.#.rXMXeX*.6.3.*.+.+. .#.+.+.+. . .` ` +.+.` ( ) ) ) ( ) ) ) ) %./ ) ) ^ G I I I I ^ ^ I F F ! / / G R R F OXkX7.F F #.F 4 ` ,.N n [ sXsX .M I ^ | / / / / X.X.o.X.o.X.X. .X.2.8.8.8.9.7.2.&.o.&.9.g.d.9.7.k.V.8.E y.2.o.V.P.V.9.X.R F V.uX0XNX>.f 7.K.L.",
"Q.z.z.( N tX>X,X:XT.:X2X7X>X:X(.).rX2X<X2XeXrX4X2XyXtXeX4X&X$X2X2X,X,X,X4XeX4XrXtXrXyXrX,X&X2X4X,X,XeX!.!.rX,X&XD.7.U { M.m., 1 ] ~.*X).H %XmXcX<X%X<X<X%X}.}._.}.].`.(.(.E.'.!.R.CXE.E.CXCXv.l.Y.v.x.x.z.x.u.u.*.$.e.f.w.q.r.y.q.u.q.#.@.,.T.mXsXqXS.b G X./ o s V.r.$.+.rXMXeXh.j.W ( #.%.+.+.` +.%.+.+. .) X. . .)  . .( ( .. .) ..) ( ) ( ) W I W W I ^ | I F F R / R R F / F oXzX>.F F q.F 4 G #.G Q ,.bXsX .U I W  .| ^ / / X.X.] ] o.X.R  .&.>.7.8.8.7.7.o.o.o.%.7.6.>.d.8.2.4.y.8.k.V.o.o.&.#.9.>.H F Z.VX5XNX>.F y.y.7.",
"~.).Z.] N aX:X%X>X!.#X,X,X,X$X!.$X4X2X,XeXrXrXeX4XeXtXeXeXrX<X<X2X2X2X:X,XrXeXrXyXrXeX4X,X4X2X,XeXeX,X,XtX4X:XeXD.9.N -.W.u., 1 { b.&X).G $XNXsX$XoX:X:X%X@X}.%X@X}.{._.E.'.(.'.E.W.E.R.CXW.CXD.J.J.z.c.l.x.r.e.n.3.u.q.3.*.q.w.y.p.u.>.#.>.C.dXdX-XS.n Q %.~ o f V.r.>.` 3XMX3Xl.S.Z ( +.%.#.X. .+.+.%.%.) +. . .( ) X. .)  .( ( ^ ( ( X.( ^  .! ^ T ^ W W ^ | R F R ! F R F R F oXmX6.F F ] F 4 ` >.F W #.dXVX .I R ^ / | ^ ^ / ] X./ / o.%.(  .o.%.&.6.8.2.2.o.O.&.&.>.%.>.8.8.&.6.k.9.V.V.O.2.R X.6.X.( F V.uX;XmXo.F 7.9.7.",
"Q.@X!.] N aX,X!.(.$X&X>X>X>X:X$X,X2XeXeXrXyXrX<X<XyXtXtXeXeX2X2X>X2X2X2X,XrXeXeXtXeXeX,X4XeX,X2XeXeX2XeXeXtXtX2Xx.4.N -.Y.u., : >.=X}.Q.F 1XNXyX$X).>X$X$X).}.@X@X_._.`.W.E.(.(.(.(.E.E.Y.CXW.CXY.CXz.v.x.n.u.r.l.u.f.u.u.u.t.*.>.u.l.e.+.#.Q.sXsX6XS.m / ] F O s r.>.>.+.5XMX9X4.%.^ ( %.#.#.X.+. . . . .`  . . .( (  . . .( ) ) ) ^ ) ) ( ( ( / W R ~ ^ ^ T ^ / R ! R ! ! R F F oXzX2.F F #.F ; $.r.c Q [ eXsX .I I ^ | / ^ ^ / O.| / ( |  .X. .X.&.%.&.2.6.o.&.2.>.%./ X.>.8.>.>.k.V.I.I.I.V.y.6.8.8.&.] F V.VX1XlXX.F >.7.k.",
"~.}.T.` c tXtX@X(.#X&X$X:X>X,X&X<XeXrXtXtXtXrX,X,XtXtXtXeXeX4X,X,X,X:X:X:XeXeXeXeXeXeX,X4XeX,X4XeXeXeX4XtXrXtX2XD.5.m ( M.f., 1 ,.$X).C.H $XlXlX@X@X(.h.(.'..X@X@X{._.(.E.(.`.(.(.(.!.E.Y.CXCXCXCXv.x.z.b.l.f.u.n.f.q.e.f.u.w.3.y.u.u.q.$.*.).vXaXqXF.n ~ ] R O y Q.V.] +.rXNXyX4.X.Z ` *.&.X.%.+.+.`  .+.) ) ) ` ( X. .( ( ) ) ^ ) W W W ^ ( W / ! T ^ / T W T F  ./ F R R R ! F ;XzX2.F F &.R - >.,.F W -.xXsX^ I I I ^ ^ ^ / / X./ / / X.X./ X.X.2.>.o.>.2.>.2.2.6.o.( / / %.>.o.8.V.P.L.P.I.L.V.g.2.6.] F V.uXrXNXo.F >.>.V.",
"!.(.~.+.b aXfX,X(.(.$X$X>X:X:X@X:XeXeXeXeXeXeXyXeXtXtXtXyXeX4X2XeX>X<X&X:XeX,X,X4XeXeX4XeXyX4XeXeXeXeXtXrXtXtXrXD.8.M ` v.u., B >.>X$XY.W E.BXlXoX#X(.).'._._.].@X@X@X@X_._._.E./.(.(.R.R.W.E.R.CXc.v.c.c.c.l.l.x.f.q.u.f.y.q.t.u.h.w.q.q.>.(.NXdX7XP.c Q ] O.o y !.V.] >.3XMXyX2.2.W ( %.&.+.]  .`  .+. .) ` ) ) +.+.) )  .) ) ) ) ^ W ^ ^ ) W W q.^ T R / / T ! R ! R R H ! R z ;XmX&.F F ] F 4 ] i.v v $.xXaX .U I I R ^ ^ / X.X.X.| R X.X.X.X.o.o.2.o.>.o.8.8.o.%.%.o.X.&.%.o.o.8.L.P.P.I.V.L.V.9.2.E [ ( r.uX$XmX .z 8.7.I.",
"V.u.V.[ F rX3X$X*X$X:X>X$X%X$X:XeX>X2XeXeXeXeXeXrXyXrXtXtXyXeX2X,X,X,X,X,X,X,X2X2X2X2X4X2X,XeXeXeXrXeXtXrXtXeX}.F.9.m *.Y.q.* 5 $.=X|.Q.H %XvXyX`.).#X].}.@X_.@X-X@X}.]._.`.`.`.`.(.Q.W.Y.E.W.W.CXCXv.v.F.z.l.x.z.l.u.u.u.y.u.u.u.u.e.q.*.*.`.NXsX;Xk.N W X.X.o t ~.Y.#.@.4XMX4X7.%.) { %.$.%.[ +. .` `  . .+.)  .+.X.) ^ ^ ) ) W / ) W ) ^ ^ ) T &. .W ^ ^ ^ ( R F R R ! R R F F ;XzX>.F / X.F 4 [ r.F v $.hXuX .I T T ^ ^ /  .X.|  .X.X. .X.%.X.o.&.&.&.&.&.8.7.&.&.7.6.2.7.&.2.2.2.k.L.V.I.V.L.y.X./ X.X.` C.uX@XlX/ b 6.j.&.",
"b.).V.H F 3X}.{.,X$X$X#X*X:X*X:X#X].#XQ.*XeXeXeXeXrXtXtXtXtXrX2X:X,X4X2X,X,X,X:X&X2X4X,X$X&X2X,XeXeXeX5XrXfX,X[.P.9.c ,.v.*.o e >.$X|.R.F $XNX;Xf.a.E.E.)._.@X%X%X]._.`.]._.`.`.(.E.E.E.Y.E.CXCXF.Y.CXv.v.x.l.l.x.h.u.f.u.u.h.f.u.h.y.t.w.*.).BXdXqXS.b ~ +.| o g W.a.+.+.7XMXyXg.o.) +.%.%.%.*.+. .%.+. .` +.) ( ] ( ^ ^ ) )  .( / W T ) ^ ( ^ W T #.I ^ ^ ( ( ! R ! ! R F F R b oXjX%.b T >.! 5 ~ >.F v >.bXaX| T T R / / / | ^ / X.X.X. . . .X.2.2.&.#.o.#.6.7.#.2.6.o.>.y.d.V.8.o.&.2.&.V.9.k.d.X.E X.] F Q.BX'.qXR z >.k.8.",
"Z.Q.V.F F dX).l.T.v.@X*X:X7X&XT.(.$Xl.` -.,X,X,X2X,XeXaXeXeX4X>X$X,X>X4X,X2X&X$X&X@X}.7X:X].&X<X>X2XeX2X4XuXuXrX X9.c @.Y.>.o e ` ).}.z.F %XNXiX2. .l.T.v.(._.%X@X}.(.(._..X].`.E.T.E.CXCXW.CXv.Y.Y.Y.F.x.l.f.n.u.y.u.u.y.y.l.u.q.y.u.w.y.q.V.bXsX0Xj.c ] +.%.@ g l.u.{ +.2XMXeXt...) +.$.%.%.*.+.+.%.+.+. .+. .( ( ) ( ) ^ W ) ( / ) ) ) ) W ^ *.M %.X.I W  .^ R ! R R F F R F b ;XnXo.F F o.T 5 ~ ,.F F >.BXhXX.T T T R W ^ R T / X.X.X.X.X. .o.&.2.2.2.o.#.8.9.2.&.>.2.>.>.d.k.8.8.6.#.( y.9.y.7.X.>.>.o.R b.5XV.0XX.f X.X.6.",
"R.Q.,.F Z.#Xe.a.*.+._.4X:X(.T.v.(.T.i.-.r.%X2X:X$X>X:X!.<X4X:X@X:X,X2XeXeX,X$X%X$X:X$X&X$X@X2X#X&X>X4X4XeXfXuXrX.X0.I #.l.&., 4 $.T.p.] V.nXnXmX;XO.X.a.l.CX).{.].(.(.`._.@X_.Q.E.T.CXD.x.CXY.CXY.M.J.Y.b.w.y.l.u.q.e.q.u.w.u.q.*.6.w.y.t.u.v._.`.6XI.F W o.o.# g a.e.-.;.2XMX_.^ ( ( %.$.%.%.*.+. .+.+.%.+.`  .( (  .)  .) ) ) / ) ^ (  .^ R I  .) W u.^ I 2.( F T ! T F R / ! F .XqX^ b F >.! 5 >.r.F F ` =X3X/ T T / ^ T ^ ^ /  .O.X.X.X.X.X.&.o.&.2.8.#.X.2.>.>.2.2.y.9.8.>.8.y.y.6.o.R 8.V.7.8.>.y.6.%.] >.@.n g. XF | X.>.",
"V.p.F V.:Xa.[ G [ u.C.].(.m.` M.Q.!.T.T.}.&X2X:X&X>X:X~ $XeX$X$X,XeXeXeX4X7X&X:X2X:X:X2X:X2X4X2X>X>X>X*X,X5XrX}.,.8.4.F >.>.= 5 ,.V.~ V.vXBXbXbXNX7XO. .b.E.'.E.`.v.Q._.@X}.`.E.E.CXW.CXCXCXx.b.Y.V.Y.V.v.l.u.f.w.u.f.6.q.q.w.*.q.m.q.6.t.y.w.+.{ *.+X X^ +.3.o g w.a.w.`.NX$X) C Y ) %.3.*.%.*.%.+.+.+. .+.+.+.%. . .^ ( ( ) ) ~ ) /  . .^ W W ) %.Y &.X.Y X.( F T T T F R R T F F P.I.F F o.T q } w.F H e.V.o.T T T R T R / / | ] /  .O.+.X.X.&.&.X.&.6.7.&.%.o.o.6.6.9.k.h.9.d.y.8.#.] o.>.d.y.6.g.7.h.6.o.F s t t K.OXR >.d.",
"w.F T.@X>.>.] ~ $.l.!.w.$.( Q ).$X].(.w.u.2X<X2X:X:XeX,X>X,X,X>X7XeX4XeX,X:X:X2X2X:X:X,X,X2X,X,X2X*X|.&X=X>X*X!.$.~ k.8.( ] = e $.[ V.nXnXvXvXbXxXvX;XO.X.u.C.V.(.(.).`.@X_.E.(.(.W.W.E.Y.W.v.n.h.b.J.J.c.l.u.u.q.f.h.w.+.m. .3.q.3.q.6.w.6.+.~ ~ ~ ~ OXOX#. ., e ).C.Y.MX#XG v c Z ) %.*.*.m.%.%.+.+.%.%.%.%.%.X.+. .)  . .) ..(  .^ ( ( ^ W / ) &.&.Y %.] ( ^ R T F R R R T F z F F +XP.F ] F y ] ,.W V.J.R F I I R / T / / / / / / / ( / O.o.o.%.X.&.6.8.6.o./ X.2.2.7.g.k.d.V.6.&.2.2.>.o.8.>.%.y.y.d.y.o.F f t y 4 L.-X>.y.",
"F V.{.>.F $.#.@.,.$.w.@.#.` m.@XY.M.].r.M.2X>X,X,XeXeXeXeXeXeXeX2X2XeXeX&X$X:X2X:X$X:X2X:X:X2X2X>X:X&X:X*XQ.).`.r.$.p.j.8.T > e H v.lXvXbXbXhXVXdXhXbX-Xo.| ,.b.E.`.`.`.`.(.^.!.Q.Q.W.W.CXY.^.n.u.b.v.c.p.b.c.q.q.l.w.*.3.+.( 3.6.t.q.q.q.*.#.~ ~ _ Q W OXqX~ o c <.].NX`.) Y v Y ) %.@.&.*.*.X.+.%.%.%.%.*.+.+.+.( ( +.+. .) ..(  .^ / / ^ ^ ( ( X.X.^  .%.^ ^ ! T R R R R T F F z F F .XP.W N f ` $.V.K.M F F T T / / / | / ( / X.X.X./ W  .X.o.o.X.o.6.8.8.&.X.&.6.>.#.2.7.k.9.4.O.y.X.R 2.y.7.o.h.g.&.o.X./ F z y t 4 J..XR ",
"V.~.! K F ` [ >.q.+.*.C.n.` -.].@Xw.l.$X$X@X2X4X2XeXeX$X,XrXrXeXeX,XeX2XT.E.:X,X,X:X2X&X2X2X,X$X}.:X>X>X}.C.C.~.i.$.$.,.y.j.; 4 ,.vXBXsXhXxXhXaXdXVXaXbX-X2.O.e.v./.Y.T.(.(.`.Q.!./.Y.W.Y.CXCXn.a.j.z.l.h.l.x.>.6.u.e.q.u.m.+.+.$.*.q.6.*.3.&.+.( W W ~ ~ 6XP.  v E.NX(.C m C ) X.%.%.%.%.%.*.%.%.*.+.@.%.%.X.X.+.X. .+.X.+.) )  .( ( / ( / ^ ) ^ ( ^ ^ ^ ^ ^ ^ ] R ! ! R F T F F F F b b K./.N f ~ E.J.b F T T T ^ / | / / O./ / / / X./ / ! O.X.o.&.>.7.8.6.o.X.&.7.&.>.>.&.9.V.4.y.2.X.&.d.d.9.7.6.y.>.] ] o.X.F F s z c d.K.",
"'.>.H F F [ $.,.V.,.>.V.{.~.~.{.>X|.`.1X@X}.1X].4XeXeX3X,XrXeXeXyXeXeX,X}.@X~.,X4X2X>X*X,X>X>X}.~.$X&X$X).M.(.$XT.r.r.M.u..XB $ l.hX}.gXxXsXVXVXsXsXhXhXrX<X8.| w.v.l.Y.(.(.W.!.(.'.E.R.u.p.b.u.p.l.p.q.l.a.p.,.,.q.u.u.u.q.#.#.e.m.*.*.*.&.#.3.+.%.( ` ( r.^.  y rXoXn Z F ( ] %.*.3.%.@.3.$.+.%.%.+.+.%.+.X.X. .]  .+.+. .) ) ^ ^  . .( ^ ^ ) W ) / / / W W ^ ^ ^ R T N W ^ ^ ^ T F M N c  X6.4 #.}.` F F R ! R / / / / | / / ^ / / (  ./ ^ / | &.&.6.7.7.6.o.o.%.2.&.6.6.>.7.j.d.j.6.&.7.6.2.k.y.6.8.&.o.%.>.o.o.R F f 5 f d.",
"p.>.[ F F ~ ,.,.>.#.[ w.V.{.$X1X*X$X@X>X*X>X].r.].eXeXeXrXrXrXrXeXeX4X:X#X#XT.@X4X,X}.}.@X#X*X$X#X_._.~.(.Q.#X:X#X].@XQ.b./.B $ a.rX$XvXxXsXdXxXhXsXxXbXdXsXyX8.^ $.l.W.!.E.Y.`.'.(.(.E.q.q.h.l.u.u.*.,.w.-.q.*.@.q.u.q.6.>.*.6.l.-. .#.X.#.#.q.m.m.3.#.[ f.K.. 5 ,XR.c W ] #.&.#.&.*.&.@.%.3.%.%.%.%.+.+.+.+. .X.+.( ) ) ( ) ^ ^ ( ( ^ ^ ^ / ^ I I ^ / / ^ ^ ^ ) ^ I T I ^ ^ / / ^ T T W b J.y.$ #.}.F ~ F F / ! R ! ! / / R / ) |  .|  .| / I ^ &.&.2.7.8.6.>.%.%.o.>.6.6.7.d.k.D.j.g.2.7.6./ >.7.y.7.X.>.>.6.7.7.&./ F f F b ",
"w.r.V.H [ w.r.>.#.#.[ w.V._.#X3X].C.u.T.}.eX3X}.).4X,X4XrXeXeXeXeX4X,X#X%X@X!.W.*X>X>X>X$X_.).1X$X(.M.v.M.E.$X:X&X=X>X~.a./.e = u.vXBXxXhXsXxXdXuXhXbXbXxXhXxX9X9.R *.b.Y.!.T.T.(./.(.E.a.w.r.r.,.r.,.<.-.,.-.,.@.q.q.*.&.*.e.q.#.b ) X.+. .*.7.q.q.m.*.+.v.K.  5 >X`./ X.&.&.$.&.#.*.3.$.%.*.m.*.*.%.+.%.%.+.X.( %. .) ) ) ^ ^ ( ^ T ^ ^ ) / ^ N I ^ ^ T W W W ^ T I T / W ^ / / ^ T ^ / m J.q.X #.$Xm R R R / / / R R R / ( | / / / /  .X./ ^ X.o.&.&.6.6.6.&.X.o.>.5.2.6.7.7.d.j.j.y.7.j.d. .( X.7.d.>.O.7.g.k.d.>.o. .( R >.",
"$.#.#.H V.'.Z.$.#.;.V.V.!.{.#X{.@X(.l.u.}.eXeX$X$X4X>XeXrX4X4XeXeX,X*X].(.z.v.(.>X:X>X*X#X@XR.~.).}.CX!.W._.[.).#X#X:XQ.i.R.0 > r.xXxXxXxXrXrXaXaXhXbXbXbXvXdXsXiXd./ $.l.T.Z.v.Y.C.Y.z.u.w.q.#.$.w.$.,.$.-.,.$.*.,.@.*.*.u.Y.*.R I ( %.*.*.&.#.3.m.m.3. .l.R.. 4 3XR.>.q.3.*.#.*.3.m.m.m.3.3.*.m.*.%.+.@.%.@. .( %.+.(  .^ ) ^ I ^ ^ G T R / ^ T ^ ^ W T T ^ T T T T ^ / R / / / / / W T m J.&.O #.oXT  ./ /  .( R R ! F R / (  ./ / ) /  .|  .o.o.o.2.&.8.o.o.o.&.2.o.6.2.%.X.7.j.d.8.D.L.j.6. .o.h.k.d.6.y.j.k.7.o.>.>.>.h.L.",
">.,.#.#.[ Z.V.>.p.V.~.#X#X).T.#XV.Y.1X@X:X<X:X3XtXfXtXrXeX4X,X>X,X,X$X#X(.a.v.>X#X}.,X}.}.).).E.}.$X]._.]._.T.T.~.).@XM.q.E.B > r.bXxXxXaXrX&XfXxXxXcXvXbXbXbXbXbXpXj.^ +.a.r.u.i.$.$.-.q.,.,.[ ,.1.,.,.-.@.,.,.-.@.[ q.a.p.X.X.T T ( #.w.m.$.[ +.3.*.*.) x.K.O 1 <X`.m.u.*.#.X.+.3.*.3.q.m.3.$.*.*.%.+.%.*.%. .] +.$.`  ./ / ^ G T W I W R ^ / ^ W T T T / / / ^ ^ / / R / R / / / / / ^ N c.X.@ ] %XF E / R / / ! R R ! / / R ^ / / T /  ./  .X.&.&.&.&.6.o.&.8.o.&.2.6.&./ 8.d.D.d.d.K.K.D.g.7.>.7.h.L.d.y.y.6.o.o. .o.7.j.c.",
"r.$.H [ ] V.'.T.a.r.l.#X#X!.V.V.q.y.}.fX,X3X3XrXaXfXfXtX4X&X=XtXeX2X2X4X*X:X$X>X!.C.Q.~.}.T.T.~.$X$X).(.%X$X!.T.CXQ.].M.b./.B = e.bXsXdXuXuXuXxXxXvXcXvXcXbXcXbXcXvXlXR.%.t.w.y.u.x.n.r.a.>.r.V.r.p.,.u.,.r.-.p.v.w.r.'.u./ R W T ) +.*.3.*.q.-.@.+.*.*.+.l.F.. 1 ,XoX*.q.3.` +.+.$.*.3.t.3.3.3.*.%.+.%.*.*. . .X.X.+.%. .( ) ) T W W ^ ) ^ R ) W W I T / X./ ! ! R / / / T / / / W ^ ^ W m x.+.@ ` $XR ( R R F R ! F F / / ~ ! ^ W ~ ^ / X.o. .o.&.X.] X.O.&.8.6.o.X.2.7.&./ 8.j.j.j.d.S.L.L.L.I.V.h.j.V.k.y.o.! G ] >.>.8.&.6.",
"V.-.#.$.V.(.{.T.r.>.V.}.&X#X{.V.q.v.,XdXaXaXdXdXaXfXfXtXrXeXrXuXdXsXdXdXfXrX@X*.@.-.*.M.l.Y.z.T.Q.].@X].$X:X@X(.z.w.T.Q.E./.0 = m.xXsXVXaX2X$X:XxXcXvXcXcXcXcXcXcXbXvXNXjXiXiXjXpXpX7XOXOXoXOXOXoXoXd.-X`..XF.^..X^..X X2.R / / ^  .#.*.+.[ ,.b.F.#.#.*.#.F.D.. B 4X#Xm.q.3.n.f.&.#.$.q.*.*.q.t.*.+.+.m.m.%.*.%.X.3.3.&.+.o.X.( ( / ^ | ~ +.#.( ] ( R / O.%.O./ T R T F T / ^ / ~ %.#.( W c h.X.X ] #XR  ./ ( >.>.#.! R / / / ! T ^ /  .o. .o.X.X./ X.E | 2.8.8.2.2.2.2.7.8.2.2.g.j.j.j.D.D.L.K.L.K.P.L.d.h.>.( ! >.c.d.f.o.V.P.",
",.-.r.V.{.NX;X>.i.>.V.(.~.T.R.Q.b.%XsXdXfXuXtXtXrX4X:X(.!.$X*X>XeXeX=X$XrX&X!.z.z.E.u.#.$.l.l.V.l.).#X%X:X$X&XMXoX[ b.T.-.F.0 ; $.uXhXhX2XdXnXc.eXvXcXvXvXcXcXvXvXbXNXiX$XeXeX:X<X-X).`.'.!.$XoX$X_.R.@X:Xp.Y.T.u.l.x.8.4.O.R | o.*.&.*.*.#.a.aX$Xd.*.%.$.Y.x.. B 7X.X3.q.W.vXR.d.*.$.6.q.q.w.y.*.%.%.m.m.` +.+. .+.$.[ ( +.( +. . .) ( ( ` @.+.X.X.X.o.X.&.2. .T F R T ^ / W ,.'.g.oX3.! c x.( # ] 1XR ( F '.oXI.j./ / / R ! R T /  .+.o.^ W [ ~ F ] +.>.&.| / o.+.o.X.X.&.o.%.%.&.&.o.7.S.S.L.L.K.J.L.L.k.o./ >.K.lXJ.&.>.X.k.",
"C.l.W.V.V.%X#.n a.).}.(.V.T.V.).:XhX3XH s g s a y y r 5 5 4 6 y r r 5 6 y y y y g g H >.w.e.u.>.u.E.~._.:X~.<.:X$.y @.CXT..X> - q.gX<XxX*X].E.Z {.mXcXcXvXbXcXvXcXMX9XG d V j j h j j J J h J K K K _ K ' K } =.=.=.=.;.d.9.o.| %.*.*.,.y.*.n.}.3.I N +.*./.L.  e 7X$X*.*.v.).( W ( *.6.6.q.q.6.m.m.m.&.W d j j V V j 9 V j V d V h j j V j j h h h j h [ O.&. .F T ( | / / / r.v.T y.+.( F y.W @ ` <X/ / T i.w.! F ^ ] | / T T ^ / o.X./ p 8 d 8 8 8 8 7 7 < 2 < < 4 < 2 7 7 4 & ; 5 & a 6.K.K.D.F.F.L.K.j.8.^ =.>.d.#.] h.7.j.",
"r.V.(.`.G ; - g Z.=XW.>.>.V.V.&XvX*X6 O   O     O O O O X O O O . . X X X X X @ . . $ b e.V.$.>.w.e.v.!.$X@X` 2 - s b.Q.(.oX= > r.vXdXvXhX{ 7 h eXvXcXbXvXlXsXmXMX;XG 6 6 s j h h h v h h v v v N n J Z C C C Z G H H =.<.y.9.8.X.+.&.y.u.*.#.v r - G q.*.v.h.O 2 <X/.m.y.@.8 % 4 [ *.,.q.q.q.q.t.q.%.Q 7 $ - - - > ; ; ; ; & $ $ $ - - $ ; < < - < $ 5 L [ X.X.T | | ( ( X.X.W 7 2 : ( +./ f.W # ` ;XX./ / y < # t | X.X./ / T /  .o.%.p X                     O O                     % v 7.L.P.D.D.L.D.f.j.%.a 3 o t y.L.P.V.",
"(.'.{.:X`.[ H C.1X}.V.#.>.p.~.dX}.& O # 4 f F F v F F F g g v F G Z n n F F G G F F t % F p.#.>.l.Y.x.Q.@X&X#X-.` b.(.M.3.R.> : *.vXmXbXvXaX).4XcXcXbXsXbXnXcXNX1XJ 8 ; f G F G G W ! ] ] ] ~ ( ( ( W W / W T W W W N c K ;.f.9.| / *.e.f.3.-.#.Q ` -.-.+./.c.  1 >X}.u.u.f.#.F +.6.>.q.q.q.u.l.t.m.Q 2 o B p c c m b c c b b g g z s z z u z c z f p p g J ,.X.X.%.! T | X.X./ M i I o.+.W x.( @ ] 9XO.| T ) m b ] o.| X.X./ /  . .( y + + : q e e t t p i p i t t t t e e 4 r k f t 4 @ 7 G &.F.F.d.x.j.j.D.y.o.c f >.y.P.oX^.",
"}.,X<X3XeX1XoX$X1X_.).V.w.b.@X~.# O o z >.>.>.r.e.<.<.r.,.>.e.r.i.n.q.u.p.,.e.e.,.>.$.N 4 j p.u.:X).,.~.&X@XC.@X!.Q._.M.M.( O 0 ~ 4XbXvXBXNXMXNXnXNXmXbX*X*XMX%XJ 6 = f #.t.e.e.q.q.t.u.e.e.u.t.y.q.*.3.t.*.*.3.*.&.+./ N K ;.&.X.+.&.u.u.*.m.u.e.q.6.+.q.V.T . : (.oXq.*.l.f.h.y.3.*.u.>.#.w.h.m.Y < , u N ^ ^ ) ) / W W T T W Y Y T Y W N N N N I F n c h J { ] +.~ ~ / T N W ^ / ^  .X.W h.N $ G ~.&.X.( #.%.O.X.] / X.%.O./  .~ y . = c I I F T / T T ^ I ) R R X./ / |  .o.&.| / T k ; < j +.2.X. .6.k.j.t.d.9.d.L.k.d.V.K.",
"v M.C.T.E.C.v.z.z.a.a.<.,.r.;.& O > F >.a.r.u.r.,.>.>.a.p.w.>.6.r.r.,.a.a.r.p.p.p.r.r.>.G r J w.v.b.-.r.s.q.~ #.w.w.Z.Z.1.+   r y ,.].!.3XeX3X3XeXrXeX,X).|.}.} 7 4 c $.e.p.a.a.h.t.q.w.*.u.u.l.u.u.w.y.u.t.q.e.q.*.q.*.&.G H ;.<.-.( r.-.#.#.+.*.@.*.q.i.V   = r a i.i.$.w.@.q.[ ~ *.,.;.,.$.;.Y 3 + i N ( ( ~  .( / ] W T W ~ W Y W W Q W N T T T W T T N g C } J [ { J J G J Q ~ G ~ ~ ' y o t 4 L { ~ ~ ~ ) W G W F W N n [ ' 5 . : N / / ^ / X./ X.W W T ( ~  .X. .X. ./ X.O.X./ R / c e 7 J Q Z C ~ ~ ~ G ! *.X.6.y.>. .t ",
"; X ; $ $ $ % $ $ $ # $ % 3 & X $ 6 s c F F v f g F g g f 6 t 6 p e e p f y y v g y e y r e ; < + $ - % - = $ + $ ; ; - @   . v h $ 6 y r e 6 6 a y 8 7 a y 6 7 + 4 t f f y p t 6 y y y p t p g t g p p p e 5 e e 5 e t s p 4 d j 7 8 6 6 r 2 < 2 e 5 < $     ; n = . 5 a 6 < 7 2 7 7 7 7 7 < 9 3 . = B r p e e t r 6 r e 5 r r 1 B e 6 r 5 7 5 5 5 5 6 6 6 6 ; 8 < 7 5 % ; 7 - < 7 < < 3 @   $ f 5 @ & < 2 < & - & 7 < & - % 7 3   o e w e e t e i y e t p p g p e = : : 4 4 q 4 q q e i 4 4 = % ; - ; - - & - % $ $ $ @ $ O O ",
"~ ;                               O             O O O O @ f 4 X                           .                                 ; W ` t           .       .                   .       .   .                                     X                               X f G c $                           .                               .                                                             5 c c 4                                                       $ : X                                                           O 4 ",
"$.[ g f r e e e e 1 4 4 ; 4 5 y s s c g g c g f F h F F F G h F n N n n c g c f g v n n n Z G g g g p p s t : 5 t r t g t r G ( [ [ g 4 4 6 e 5 6 5 5 4 5 6 t s f v g f f y p g v c v n c g N g p f p g g f f c g f g c n G F v p s y t t e t r e p r r 4 ; y n G W n 5 4 5 4 4 : 5 5 5 5 6 : r p p y s p e p t e p p t p p p v c r c n v s c v g g f y t t e e 5 t 5 4 5 e e 5 1 5 : > > ; t g N F c 6 e : ; : 1 : : > : 5 : : : e r t t p y p p y t p t f b c r e 5 e q e 5 5 5 t e e e 5 e p t r e : - = # * = # $ # 4 4 f s ",
"~ ,.V.'.T.W.V.V.F.R.E.Y.J.F.*.Z Q *.q.u.l.b.l.l.b.a.>.>.#.F ( r.n.w.u.@.u.n.u.M.N.x.l.w.u.-.Z v.CXl.CXCXCXW.CXCXv.l.l.z.Y.W W #.+.~ q.C.z.r.e.a.p.y.V.V.V.'.V.>.( ] >.e.u.6.u.h.p.7.V.7.e.e.e.7.q.q.>.6.>.#.*.*.>.$.$.*.*.@.` *.W.u.u.r.#.*.*.$.@.>./ ( +./ c F W G +.c.u.m.#.%.3.*.*.-.3.m.m.m.T b W ) +.+.(  . . ./  .(  .( ( ] G ( ! Q ~ ( +.W / W ! ~ ( W ~ ,.>./ #./ ^ ] ] ( / / / / X.F b ! H F X.] X. .| X.o.X.o.>.o.X.o.6.R F T / | ] X.R o.] /  . ./ | X.X.+.o.o.X.] R ( | ( X.E X.&.F ] &.V.V.V.V.V.V.V.P.P.'.P.K.e.F ",
"l.3XgXaX3X,XyX<X4XeXaXiXyXBXdX4.k *.W.].].|.$X}.*X$XW.l.Z.V.T.&X>Xx.CXT.>X&X|.@X`.E.].M.w.) `.2Xm.l.'.&X&X_.$X}.E.~.v.-.v.3.p W ~ }.cXBXhX}.<X3XaXxXaXBXsX1XNXtXo.b ] b.!.).(.!.).W.Z.a.l.!.V.Q.(.Q.Y.z.V.p.b.v.u.u.u.h.e.+.q.,XtX&.y.x.q.e.r.q.x.r.$.*.+.h.X.p Z w.yXb.e.n.3.w.u.l.m.m.n.*.l.E.^.| p W ( X.( X.#.+.( ( ( ( ( / ^ | ( ! [ $.Q T W W W ] #.F ( h.x.O.~ 6.( ( X.&.X.X.X.%.&.&.L.W G v K.c.R  .X.>.%.>.6.>.>.&./ >.L.P./ W X.] O.o.] o.X.X.o.&.>.2.o.o.2.6.6.6.o.V.k.y.V.8.6.&.F F L.3X{.OXP.3XzX+X3XcX0X0XaX3XpXV.",
"#X*XrX{.T.$XsXtX=X}.-.Q ~.sXvXxX8.r { C.,.T.#X}.}._.~.)._.}.)._.@X].|.$X].~.].CXM.).Q.m.Y @XaXu.) W M.@X(.r.z.T.Y.Y.i.$.~ K.i r +.fXfX<XgXeXyXlXdXlXxXcXyX(.gXbXeXo.m ! r.Z.T.Q.V.V.V.<.V.Q.T.T.W.V.v.b.l.p.,.e.u.w.u.q.` u.eXpX6.N W ( &.#.$.*.*.$.,.w.] y.q.= s 1X$X .#.t.w.*.$.q.m.q.w.n a.m.z./. .c W W ( X. .( ( ( / ( ( / W ! ! ~ F F F F W N ! +.~ ~ l.u.! F T T / ^ ] / ! W T / / N d.>.t W *X~ F T ( ~ /  .( F F R F ] ] d.j./ F W ( ] ] / | ] X.%.&.&.&.X.o.o.o.6.o.&.y.7.>.2.] F F L.jXcX;XiX3X3X3X0X3X3X+X3X3XK.;X3X",
"$X:X1X*X*X*X}.#X@X$X@Xr.@XrXrXVXlX6.p [ a.T.!.(.Q.T.!.(.Q.V.V.Z.E.CXCXW.T.CXi.M.CXM.{ ) :XsXY.+.+.-.W.$XW.m.l.M.Z.C.l.r.a.v.0 = @.aXsX].>XuX4XdXhXlXcXcXbXcXlXsXmX9X>.F ! ,.w.,.,.a.V.V.V.V.V.V.a.p.e.r.r.e.q.r.w.#.#.[ l.rXyX3.W W W +.#.$.6.@.$.$.,.q.[ e./ X e %XR.$.*.q.-.[ *.r.$.-.*.$.#.+.@.f.P.o.c N ~ ( ( ) / ~ / / ~ / ~ ! W ! T ~ ^ ! W F W Q ] a.h.X.T R T T ^ ^ / / F T T W F b 6.] 4 ] `.F ] ] R F F H ! F F F ! R G ` d.S.X.F ! ~ (  .X.] ] X.o.X.X.o.X.( ] >.#.E o.2.>.&.F F V.pXnXdXcXzXzXjXpX;XqX+X/.;X6X9X.XP.",
"].*X$X#X#XaXoXY.#X@X$X(.M.$X2XeXfXbXy.c +.+.( +.>.] ] +.[ ( +.+.+.` +. .+.` ` +.+.Q +.,XiXT.m.@.m.r.CXQ.l.a.b.].CXl.CXM.T.D.> $ ` V.3XgX4X3X3X{.5XcXcXcXcXxXxXcXbXBXiXy.H ( ] ] ]  .+.>.[ o.>.+.$.@.+.] [ [ #.#.#.+.@.v.tX;X .W M I ^ *.*.*.$.Y.R.y.>.#.[ r.^ . : #X!.*.q.b.(.D.q.m.-.@.m.t.m.@.#.*.#.j. .I / / ^ ^ W T W / W T ! ^ T W ^ W ^ / ( / W [ b.e./ N T T F F T T T / u.d.S.] W M 6.( % ! oX~ ] ( ,.V.9.>.~ G ~ ] / F ~ ] ] y.L.o.~ ~ ( ] ] +.+.#.X.] ] ] ] X.[ O.X.] o.X.[ R ] K.pXBXcXcXjXcXzXxXpX3X3XoXOX3XOXOX3XL.",
"V.].$XQ.~.cXY.~ E.#X].).v.).>XeX>XrXxX<X$X_.:X#X@X*X*X1X1X1X1X1X$X:X&X,X,X$X@X<X:X&XyX:XCXCXi.n.T.b.n.n.l.t.E.fXY.X.z.).Q.F.> , $.).=XgX].>XsX>.V.gXcXxXxXcXhXbXvXcXmXdX.X3X;X<X9X3X;X;X3X3X3X;XoXL.`.^._.oXR.E.R.J.v.7X-X( ) W b G ( $.-.*.*.rX).h.e.~ *.m.T O : @XE.t.r.E.fXf.&. .-.3.m.q.m.m.3.$.+.+.y.f.&.&. .&.t.#.&.X.X.3.o.]  .X.X.*.] / &.%.o.&.g.^ T T R T F R T N x @.|.y. Xo.F F 6.W - H {.+.%.~ #X1Xk.V.~ ] ` ] ~ ] [ / ( ] 6.g.j.9.k.j.9.V.V.k.V.oXoXV.U.;X6X3XqX0X8XqX6X;X XpXNXnXcXcXcXcXzXlXkXOXV.@XU.oX;X0XOX X",
"r.u.}.C.J ~ r 6 l.].#X*X@X@X:X2X,X&X:XrXtX<X4XlXsXgX$X%XgXaXuXaXaXfXeXeXeXaX<XaXaXaX%Xw.l.CXM.(..X!.n.u.n.u.$.( y 1 m.(.Q.v.> , $.3XVXbX!.' $.f ;.fXcXbXcXxXvXvXvXvXbXBXMXNXNXMXNXNXmXlXNXhXlXdXiXaXmXsXpXlXiXiXiX-X;X^.W W T I G ) ( $.q.-.$.<._ p p ` $.3.I O : @X(.-.q.-._ h 1 G *.*.*.m.$.*.m.@.+.+.3.$.@.7.(  .e.#.] ( ] &./ / ( ( ] ] W W ! / T T I T I T ! T T R T U M ~ J j z T ^ W &.F - ! {.~ ] +.{ G t b ~ ] ] ] +.+.] ~ ] %.>.D./.U.U./.U.L.I.U..X+X+X6X0X6XwXwXwXkXzXkXzXzXmXNXnXvXcXcXcXcXbXjXjXoXF V F t oXwX9XU.",
">.l.l.V.~ 5 e *.Q.).].#X$X#X2X2X:X$X@X!.$X2X$XeX*X3X}.'.:X3X3X3X>X,XtXE.`.eX2X,X,X%XCXCXQ.@X(.(.].T.v.v.z.z.$.y ; s b.'.Q.x.= , #.3XsXhX3X<.s v [.gXxXbXbXcXcXvXvXbXvXbX'.V.C.C.V.V.b.b.b.i.r.u.s.C.Z.Z.T.Z.M.M.b.<.b.f.^ W I G W ( ) #.q.q.#.Z r : N ` #.m.G O : _.!.r.m.#.c 1 p [ +.#.m.*.%.$.3.#.+.+.[ W  .$. .^ ( %.( ( ] ( T ! ]  .! T T W T W T N I I T W ! R ^ ^ T T U m e > e N / W %.F - ! T.] o.[ G 5 4 c ! ] ] ~ ] ] +.X.%.$.7.d.] ] ` _ @.! R ] R / F ] #.F *.H ] o.>.>.>.7.V.lXmXlXcXcXcXzXlXjXkX3X-.& $ E ;XOX3XV.",
"}._.R.T.M.z.E._.@X#X_.).#X:X:X>X:X}.#X&X:X2XrX,X3X3X1X#X:X4XeXrX,XeXrX2XeX2X&X:X&X`.n.@X$X$X].].].Q.(.v.u.z.l.$.$.Y.(.%X@Xx.* $ [ =XsXgXrX3X#X=XuXBXhX5XcXcXcXvXbXNXdX,.- 1 1 2 3 5 4 7 7 7 7 j a r d j V V A V V V j -.m.T ^ )  .) ( $.m.m.%.#.( ( ` +.i.m.N O : ).'.*.3.3.#. .@.%.*.%.*.*.3.] $.$.%. .] ] ( +.+./ ( X./ ( ( / ] / | ~ ^ W N F W ^ ) ~ I W ^ / / R T R T R F F F N T T W T 7.^ = ! (.! >.#.] G H ( ! ] +.]  .] X.%.%.&.X.; $ % 2 7 7 < < & 3 % $ & $ $ X @ @ X X @ . . ; 7.lXnXnXnXzXlXjXjXiXpX3XK.P.;XU.>.V.V.",
"!.(.Y.Q.E.!.).#X:X#X].(.Q.@X$X$X$X#X}.~.$X2X:X*X4XeX=X*X3XeXrXtXyXeX:X$X:X<X:X<X$X].`.&X&X#X@X@X$X}.}.).a.m.q.u.b.!.].:X].x.* , [ 3XfX).3X4XsXVXaXhXbXgXvXvXcXbXNXhX[ % 1 t g g g g v v v F F F n n N n n Z G G Z N Z Q %.%./ X.) ( ( #.*.@.+.-.-.+.` +.#.e.) O : ].'.+.*.#.&.$.+.%.*.%.+.*.m.+. .#.#.#.+.&.( X.X.( ~ ( ( ~ / ( ] / ~ W ^ ^ W T ^ W I W T ^ ^ W ! / / ^ / / R T T T R / / / 6.N - F {./ &. .( X.+.(  .] >.%.+. .X.+.*.X.4 o - 4 ; : r r 5 e 5 5 1 6 6 7 7 4 4 4 7 4 5 2 8 y >.lXlXcXlXpX9X0XkX0XwX0X0X-XP.V.L.L.",
"v._.(.@X!.(.#X}..X]._._.].#X&X:X*X@X$X].}.2X$X_.4XeX3X).$XeX4XfXtX2X&X(.].:X:X:X&X$X$X$X&X$X_.!.`.%X@X(.l.r.CXM.T.Q.!.@X].f.* o >.uX|.r.=XuXaXhXgXbXvXBXBXvXcXNXsX` & 4 g ( ` #.#.[ >.>.+.>.>.@.*.*.m.*.[ ( *.$.[ +.` I v ) 3.#. .(  .+.+.@.+.%.$.$.$.$.+.[ I O ; @X@X%.#.#.*.*.*.m.%.+.$.$.*.+.[ #.#.%.$.*.( X.] ( ( ( ( ( ( ] ] ~ ^ W W ^ / / / / ^ W ^ ^ ^ R T / | / / R / / / / ^ T / / 6.T - ! }.!  .] (  .] X.X.+.>.%.>.o.%.#.^ 4 o 4 c F c c n N c N b b F F F F F F F F T T F c r y g X.P.NXzXkXqX9XkXkXqXqX8X+X XU. XL.",
"`.$X<X>X(.!.$X].T.z.T.).).].$X&X$X#X$X$X&X,X2X$X>X3X3X$X*X>X3XrXyX2X,X&X:X:X%X@X].&X:X&X&X@X`.(.W.`.}.E.M.x.v.m.Y.%X~.`.`.g.= o ~ :X3X$XdXdXgXsXgXvXvXcXBXcXNXuXG % ; g +.r.e.-.,.>.r.r.r.p.w.r.e.u.u.u.q.q.w.*.3.$.*.@.Y s @.u.( (  .[ %.] +.#.*.m.+.-.*.%.I . 1 _._.t.*.+.*.3.m.%.m.*.*.%.%.%.%.X. .#.%.%. .+.X.X.] ] ] / / ] ] ^ W W W / W / / / / ^ ^ ) W ^ / / | / / / / | | / T F T T &.F 4 F `.X.X.X.X./ ] X.X. .o.>.>.o.7./ 4 # 5 m c b F G T W T W T T ! R F F R O.X.( / ] ^ ^ W p y f X.pXmXpXlXwXwXqXqX;X+XOX+X8X6XP.",
"%X<X@X$X$X%X.XY.b.i.CX!.(.!.(.].).$X).(.$X*X<X,XeXeX>X:X*X>X3X4X,X2X,X*X%X$X&X<X&X*X*X&X%X`.`.@X}.`.'.CXm.l.T.Q.!.@Xv.l.(.D., o [ ~.$XgXgXlXlXbXcXcXvXcXvXNXrXF % - g [ r.b.x.q.q.u.u.u.z.z.h.p.u.l.u.r.y.q.q.m.$.#.u.7.*.W Z *.$.( ( [ [ X.$.*.#.X.+.%.+.%.I O 1 }..Xq.3. .$.3.*.%.m.*.m.%.%.*.+.+. .+.*.%.( +.X.] ] X.] ( / ( ( ) T ^ T W / / / / / W / / ] / / X.O./ ] | / / / R T W T M >.F % G _.] X.]  .X.X.] ] X.>.>.|  .( e $ e N N M T T / T F N W T ^ ( ( ( ( X.o.X.X.O.&.X./ / F g j f ! 3XkXwXjXqX6XqXOXOXOXOX6XqX+X",
"_.x.*.!..X_.(.CXl.r.b.v.Q.(.l.e.Y.$X#X$X$X#X:X2X>X>X>X:X$X>X3X>X:X<X,X<X(.].,X,X<X&X%X!.!.(.E._.(.`.'.CXu.n..X@X_.`.l.i.`.j.o , >._.}.BXvXcXcXcXvXnXnXnXNX3Xh 4 4 c >.,.u.v.C.u.a.l.u.u.p.a.x.p.f.l.l.u.u.e.u.*.[ $.u.t.m.*.Q v ( +.^ +.] ] 3.*.#.X.] *.t.3. .  1 }.(.5.3.) #.3.2.3.m.2.m.*.%.*.&.+.X.+.%.%.+.( X.] ] ] ( / ~ / W ^ G G W T ^ ) / / ( / ^ / / / O.X.( / / / T T W ^ / ( ! T 6.T = G 3Xy. .]  .] X./ ( >.&.o.>.F > 5 y c m T / T W W W N T T / / R | o.X.%.2. .X.%.&.&.] W F N h 6 s T OXmXzXqX6X6X8X8X+X+XV. X+X",
"G +.l.T.Y.M.E.M.r.m.-.z.E.Y.M.CX'.}.}.#X@X$X:X:X$X$X$X:X>X,X,X>X*X<X<X$X$X*X:X,X$X(.(.m.Y.Q.n.E.CX`.(.E.CXY.].W.E.%XR.u.].X.o $ >.uXuXBXtXvXbXcXnXnXcXNX9Xv & - c >.,.p.u.z.v.u.l.c.h.q.h.a.a.y.n.r.x.l.n.e.*.*.&.q.u.u.e.m.@.W ) $.[  .X.%.m.*.*.%.#.*.&.2.M O B z.].f.%.#.*.3.3.m.m.m.m.m.%.%.3.%.] +.+.+.+.( ] ( / ] ( / ~ W W ^ W ( / W ) ) ~ / / / / / / / ( / / T / / R T T / / ( X./ 6.g & F @X6./ ! ] X.X.X. .X.o.&.F = = n W T T R / T T T T W / / /  .| R ] o.X.o.o.E / X.&.&.( ! / F a y f F 3XkXOX8XOX8XOXOX6X7.7..X",
"$ ,.}.a.!.Y.E.).Y.l.-.W.).CXl.Y.E.%X&X%X).%X*X$X%X$X1X:X=X:X>X*X%X*X*X$X&X<X&X$X(.(.(.E.(.W.E.`.CXY.E.v.CXJ.!.`.#X>X:XF.Y = O B F #XMXgXyXaXdXnXBXcXNX<Xv 4 4 v ] w.p.b.b.x.w.*.n.l.b.l.z.p.p.p.u.r.l.z.f.q.-.m.m.q.r.r.u.q.q.+.( ~ @.+.) #.%.X.%.3.3.2.( C 1 O s s ;.n.2.#.3.*.m.m.m.m.m.m.*.%.$.] +.+.%.%.+.+.( ( ! ( ! ( / ) ^ )  .^ ( ^ ^ ) / / / / / / / / / / / R / / T T T / / ^ X.X.y ; 4 y ~ p.8.6.o.( X.%.>.%.O.F 4 o e z m T / T T T T W / / | / X.| +.R ] X.X.X.X.X.| o.%.6.X.X.y./ F a y g F /.OX+X+X3X6XOXqXqX8XF ",
"; = q.(.@X%X%X1X`.CXCX`.`.E.n.w.v.'.E._.].(.@X@X:X:X:X<X%X$X<X$X_.$X@X%X:X:X:X$X$X_.E.(.(.(.Q.(.].(.)..X).!._.:X:X%XE.n @ $ O 5 j y !.MXmXsXvXnXnXNX<Xn < 5 G @.,.V.V.V.Y.v.x.l.z.z.v.CXF.i.u.z.n.n.n.b.q.t.m.m.w.e.q.q.t.-.*.*.#.` +.3.&.X. . .%.*.&.] J 7 = o y N V { j.6.&.*.*.t.3.m.u.m.3.*.%.( +.%.+.[ X.( X. .~ W / ( ( / ( ( ( ( ) W W ^ ^ ) ) ^ W ^ ^ ^ ^ W W I ^ / ) ^ ^ W ^  .X.e $ ; 4 6 h J u.j.&.]  .3.t.8.m = = y F F T ^ ^ ^ N T ^ ^ /  ./  ./ | X./ /  . .( / X.o.&.%. ./ ( >.6.] n s a g F I.6X6X6X;XqXqXOXx   ",
"Y 1 , @.1XQ.$X@XY.CXT.`.].(.M.l.CXl.m.'._.E.].%X@X%X:X:X&X&X:X:X7X:X$X&X:X:X:X:X$X].Q.`.(.(.v.(.$X$X@X*X%XE.}.>X:Xz.f & & b # 5 ~ y 7 Q.NXMXcXnXMX$Xg < : ! ,.a.b.V.V.b.Y.M.M.v.v.F.CXl.l.m.u.l.i.u.n.l.w.m.-.m.r.e.q.q.m.] *.q.m.#.-.@.$.%.X.o.%.&./ J & > x O r -.Z h :.a.d.&.3.$.*.m.t.m.#.%.%.(  .~ ( +.+.( ~ ~ W ) W ( ( ( ^ ^ ^ ^ ) W Y ^ ^ ^ Y I I Y Y I I ^ W I ^ / ^ | / ^  .| 5 X u p 4 c G a J p.j.&.%.3.7.R : = f G T F W / ( ) N W / / R | |  .( | E / /  .X. .R  .o.+.o.R  .R c F  .F ! z y v n P.kXP.P.wXOXz   p ",
"r.Q ; = m.(.R.CXv.Y.'.E.].E.n.b.l.u.l.E.!.`._.@X@X@X#X&X&X:X&X&X*X*X&X$X&X&X$X$X$X).Q.`.Q.].Q._.*X$X_.$X%X_._._.z.f $ = F +., 5 [ ,.5 y !.mXNXNXoXa ; 5 W w.l.v.V.V.Z.V.v.v.Y.v.b.v.z.b.u.n.u.l.l.t.u.f.t.m.m.t.r.q.u.m.*.$.m.u.u.u.q.+.( -.3.#.%.F h 3 , c z O r a.+.c J B.Q.c.m.3.*.m.m.3.%.%.( ~ ( ( %.+.+.( ~ W ) T W ( ( ^ / (  .( ^ ) ^ W ) Y I I Y I U N Y ^ ^ ^ ^ ^ ^ T / / ! 6 o w R p 5 v $.F v L a.c.f.&.) e : g H Q T W W W I W W ^ T / / R /  .| / / / | X.o. ./  .X.( /  .o.X.R F T /  .T c y g F P.OXqX;Xz   t G ",
"q.-.Y B k _.E.CXCXW.Y.W.E.M.u.CXCXW.'.(.].E.`.%X&X@X@X%X%X#X%X%X*X&X#X%X$X-X%X%X#X).(.`.Q.E.`.@X$X%X)._.).].(.!.T > - b $.] # 5 [ <.H y h #XMX_.r ; 5 W u.z.v.v.T.E.!.V.a.n.l.b.z.l.l.f.l.u.n.z.l.r.l.u.w.m.w.q.q.q.y.q.q.m.3.u.u.u.m.$.@.-.3.#.X.c % > f ] z o e C.r.Q n N.hX,X3.$.*.3.3.-.%.&.*. .( +.+. .( ( ( ! / W / ( / /  .) ( ^ ^ ^ ^ W ^ Y ) W Y Y N ^ Y ^ ^ Y R W I I / D.H $ q m / p 5 F <.` c H A.rXy.| u : n ~ G ~ W T W T W c n ^ R ^ / T ^ / | / T !  . .X. .| ( / R E X.X.X.X.|  . ./ ( F v y g F /.0XT   4 F n ",
"u.r.@.g Y @XE.E.CXl.CXW.(.CXCXY.!.`.`.].Q.T.].@X$X_.].].}.}.@X%X%X%X%X%X}.].].@X@X).`.).!.T.!.].@X].).!.(.@X~.@X/ ; f X.e.] o 5 ` V.$.~ v =XxX#.6 p ! e.C.C.V.v.R.E.W.V.z.l.b.x.b.u.u.i.b.l.l.n.n.u.n.u.q.-.m.q.u.q.q.m.q.m.q.q.*.m.m.m.t.e.t.#.X.| q f F ] m O e Y.u.$.[ #XMX,X*.%.+.*.m.&.+.` ( ^ #.#.( ( ~ ( ( / Q ~ ] ^ W ( ( ^ ^ W W ^ ^ ) ) ..) Y ^ Y ^ ) ^ T T ^ ^ I U W / -X^.f z N T u 5 G <.[ N $.bXNXf.2.I s Z ) ( Z ) ) W T W W W ^ T R / ^ / R / &.T | | ( X.| / / / X.X.X.o.o.X.%.&.X./ / T W b y F o.7.w 5 F c v ",
"M.l.w.Z N ].!.(.E.CXM.W.(.E.Q.W.Q.(.(.!.Y.Q.Q.E._.@X@X`._.`.].}.}._.%X@X_.(.(.].@X]._.@X].Y.T.`.].oX(.].*X$X$X~.T t c >.>.( # e Q r.l.r.G >XlX&.c ^ *.e.W.l.z.v.'.T.Y.Y.v.u.x.l.l.t.n.t.q.r.n.f.u.f.u.r.u.*.m.q.e.e.m.-.q.*.m.*.*.*.3.q.u.u.e.#.( &.x m ~ ] m O t z.l.>.$.$XMX9X2.%.%.-.m.+.+.X.( +.&.+.( (  .( ( ! ^ ( ] ~ W W T ) ) Y ^ ^ ) ..Y Y ^ ^ ^ ^ ^ ^ / ^ T ^ ^ T I T W oXOXT x T T w y G ` +.G $.hXBX6.S.2.Z G G ( W T ) W W W W / W / ^ / / / / / T / / / X.X./ T R o.]  .| X.X.X./ &.o.(  .( X.] G G / k.F c / F ( ",
"l.b.l.Z Y _._.].(.(.E.Y.E.!.E.(.!.!.'.Y.Y.Y.Q.E._.@X%X].].@X}.].{.@X]._.(.Q.T._._.].].@X].E.Y.E.!.].).@X*X*X}.T./ i N ,.,.( # 4 ~ r.C.b.G >XlX&.c W r.a.,.,.q.W.v.l.Y.z.u.u.l.l.u.w.l.u.f.r.u.n.n.u.r.u.u.*.#.q.q.e.3.m.m.$.-.*.*.*.*.q.w.6.>.+.( O.x c ^ ] M O p i.u.>.#.$XMX:Xt.t.( %.*.%.X.+.+.%.+.] ( +.+.X.X.! ^ ( | / W W ^ ) ^ Y ^ ) ) ) Y Y Y ^ Y ^ ^ ^ ) ^ ^ ^ ^ ^ ) Y T ^.^.T m T / p y c ~ H H { hXBX3.4.3.W Z W ) ) W W W ~ N W ) W F W R / / / W / | /  . ./ T R / / ( | X. .R  .X. .o.W R X.X.] %.] ! 4.F f | | | ",
"n.i.u.Z Y `.!.(.W.!.(.E.CXCXM.(.`.`..X(.CXE.!.(.].@X]._.(._.@X`.(.].{._._.(.E._._.(.`.).`.!.Q.!.`.].!.).#X$XC.q.! p F ,.,.+.= ; ~ T.T.b.N :XmXy.n ( ,.*.,.u.w.a.u.a.h.p.*.l.l.u.n.n.u.n.l.r.f.n.u.r.u.f.e.-.*.q.e.q.m.m.*.3.3.#.#.*.3.u.-.*.+.+.~ O.z b W ] z , p v.r.>.$.$XMX>Xx.f.( %.+.+.+.%.+.+.X./ X.+.X.+.] ] ( ] ~ / / W W ^ ^ ^ ) ) / ) Y ^ Y ^ ) R Y ^ ^ ^ ^ ^ ) ) ^ I F .X/.T M T / p 6 G [ F F ,.BXbX#.d.6.v c W n W N W ( W W W / W N W / / / W T / / X.] R T ! /  .R R X.o.X.X.o.] | T ! n T / &.j.e.| o.F f ] %.| ",
"l.M.w.H F p.W.).Y.Q.T.E.E.CXCXW.Q.(.(.(.(.E.Y.T./.(.W.E.(.(.E.`._._._.`.`.`._.Q.CX'.(.'.'.'.!.'.(.(.Q.'.%X}.].M.N u N >.u.#., t +.T.Y.r.n >XsX6.&.( +.q.u.u.u.b.<.q.n.e.u.n.u.l.v.b.r.u.v.c.u.n.n.u.u.u.r.q.w.t.m.*.m.-.-.m.m.m.m.$.m.q.q.+.@.$.#.O.f b ~ X.M o g b.q.@.@.:XMXyXy.2.+.%.%.+.%.*.#. .X.~  .#. .( [ X.( ( ) ( ) ^ ^ ) ) Y R ) ) ^ ^ ^ Y ) ) Y Y Y W W ^ W ^ ( T T N `./.F F T / i t ` >.F H q.bXBX>.k.o.b Y W W N N W ~ W Z ^ W W I I ( / R T ^ ^ | | X./ / / / O.X./ / X.X.R  .o.| | | X.O.] ] | X.( 7.F f %.| | ",
"b.CXi.G F (.z.q.l.E.T.!.(.T.CXl.CXT.E.W.CXE.CXM.CX(.Q.E.CXW.E.CX(._._.`.]._.].(.E.!.!.Q.E.Q.'.(.(.(.Q.(.].].(.n.m e b q.u.+.o e @.T.W.,.b }.eX>.N N ( <.V.v.v.l.u.e.n.n.u.l.b.l.u.u.q.l.b.u.q.n.f.e.u.l.q.u.q.m.m.m.*.%.*.m.%.*.&.*.-.m.*.+.m.*.( | p M ] +.b , s a.,.-.+.:XMXyXt.2.+.+.+.( %.*.$.X.( ( ( +.( (  .) ( ( ) ) W ) ^ Y ) Y Y ) ) ^ Y Y ) ) ..^ ^ Y I T ^ T Y Y T Y T ^.P.F M R / u 4 F [ v F ,.bXfX%.6.] F ^ W Z T W ~ Q W W W ^ ) W ^ ) | ^ W T T ^ W T ^ / T T / ( R R X.o.( / X.X./ ] &.&.F F #.~ T 8.m w R R | ",
"n.z.i.G W ).v.x.Y.CXQ.E.T.T.Y.CXY.E.W.CXCXCXY.l.CXE.T.Q.W.Y.(.Q.!.E.W.(.(._.`.).(.W.CXT.CXW.E.E._.).(.].).].).!.T w m >.u.#.o 5 ] C.V.w.b #X9XW c H _ @.u.w.l.v.n.n.l.l.l.e.q.x.f.t.n.l.n.f.l.l.u.u.u.m.t.l.*.-.m.m.#.m.m.m.*.$.-.m.3.q.$.#.$.@.~ O.z N / / f # g u.a.w.@.:XMXrXd.4.+.` +.+.%.$.#.X.] / ( +.#.( ) ( ) ) ^ W ) ^ ^ ^ Y ^ ^ ) ) ) ^ Y ......) Y Y I T T W T Y I T N /./.N M W / i y H $.F F +.gXgX3.X.~ ^ W Y N ) ~ ( ) ~ ~  .T W I I ^ / ^ I W ^ T T T T T T / / X.R R X.] | ( X.| ] | #.F / ! F ] ] X.m k R R R ",
"w.r.u.W ( !.z.).!.CXY.T.T.E.W.Q.!.'.T.v.M.M.M.b.CXT.CXE.(.E.Y.E.E.W.E.CXY.(.(.E.'.Y.Y.W.CXv.Y.'.(.(.).}.@X).~.).T t m >.a.*.O p [ W.Z.w.N 1XtX%.N N ( $.[ ,.v.q.N ` r.l.w.+.q.a.t.r.l.l.l.u.l.l.u.u.q.+.l.m.*.-.m.m.-.m.m.m.m.-.*.*.#.m.-.*.#.*./ R z b ! ~ z o g <.z.$.@.*XMXyXx.t. .+.+.+.%.] +.X.~ W X.&.+.~ ) ) ) ^ ^ W ) ( ^ ^ ^ ^ ^ ^ ^ ^ ) ^ Y ) ) ^ ^ Y I W T I T Y W T / /.P.F M / ^ f q G @.v n >.sX5X*.W W W T G W ( W W W ~ N ^ / ^ G R ^ ^ ^ I I I / / R ^ / T R / / R ( X.X.X. .R F ] | F ] | / / / T 6.x i T F R ",
"w.a.r.W W z.).#Xl.CXCXY.T.Q.Q.'.E.W.E.W.CXM.n.u.Y.E.W.CXv.l.f.CXW.E.`.W.Q.Y.E.E.W.W.J.T.CXv.W.(.(.).).].].!.).CXI t c >.z.*.O e [ C.C.w.c >XsX>.N W u.$.$.u.i.` W @.[ e.z.h.-.q.m.r.n.n.l.l.l.n.r.q.#.l.q.*.*.3.-.m.q.-.m.q.m.-.-.%.*.*.&.*.$.m.] R z c / +.M o g $.-.[ u.2XMX7XF.x.( ]  .+.%.] +.X.( ! ] X.( / W / ) W ) W ^ ^ W ) ) ^ ) ^ ^ Y ..^ ^ ) ^ Y Y Y T T T I N I T T T oXL.T b F R i t F ` z F $.sXvXq.N G W W T W W W W Q Q c I / ^ I R ^ ^  .^ I ^  .| / T / / ^ ^ ! R /  .+.| ( ! R R R X.O.2.] F 2.7.O.z i T T R ",
",.a.u.N ~ _.E.T.Y.v.CXW.W.W.Y.CXE.E.Y.Y.CXM.CXCXY.E.E.v.n.l.n.l.E.E.Y.`.'.Y.Y.Y.CXW.CXY.Y.Y.'.(.(.).).].].).@XM.M e z >.p.&.o e $.C.Y.p.N *XxX>.N ( ( ( $.r.@.+.( *.N -.r.u.*.+.q.n.n.u.q.l.n.u.w.+.l.w.*.q.-.m.-.m.w.m.m.-.+.%.@.+.+.$.$.*.$.+.~ | k m ( +.m o f ,.a.[ -.2XMX*X^.f.( ` ( +.+.+.+.] ] ( ] X.( ~ ) ( ~ W ^ ) ^ ) ) ) ) ) ^ ^ ) ) ) ^ ) ^ Y Y Y R T T T W W T W W #./.j.N x N W i 5 F >.F F <.fXgXu.+.W W W I Y b W W W I I m T ^ ^ I ^ ^ ^ R ^  .X.X.| / / R R /  .R R ! R R R R F R R X.] O.| ! | &.O.F i F R R ",
",.r.q.N W _.Y.Y.W.W.E.E.W.E.W.W.Y.W.Y.CXCXCXv.CXv.Y.Y.b.n.v.CXCX'.CXl.W.E.CXW.W.CXM.T.CXY.E.!.).(.(.(.)._.}._.v.N w f &.p.#.O e [ b.C.a.n :XBXh.c ( [ @.,.e.+.~ [ +.[ @.+.a.+.@.@.q.i.u.w.w.u.t.#.n.u.m.*.q.e.q.-.q.m.m.m.%.` +.3.%.+.m.*.#.#.@.T %.z b ] X.p = g ,.a.$.-.$XMX;XD.S.` ) )  .+.X.( ( / ( +.] ( X. .( / ~ ^ ) ) ) ^ ^ ) ^ ^ ^ ) ^ ) ) ^ ^ ^ ^ R ^ T W T ^ / ^ W +.#.`.J.M b F W p t G >./ F >.VXbXe.) N W ^ ) N W W ( W I N I R T I U I ^ R I I R ^ / / ^ / ^ R | ( R R R F R F R F R ] ] / F R X.| ! E z w R R R ",
">.$.w.Z W (.v.M.!.(.E.E.W.E.Y.CXCXCXY.W.CXD.v.CXv.v.CXCXv.CXW.E.'.W.x.CXW.E.CXCXCXF.CXE.E.E.R.R.T.T.E.(._._.).M.m q b e.b.#.. e @.z.b.e.n }.xXe.p ( w.,.[ ,.#.` ( [ *.r.,.[ [ +.@.*.m.n.n.r.r.+.q.u.*.m.-.m.w.r.q.q.-.q.q.@.(  .$.-.-.m.%.+.*.$.] | f b ] [ z # g <.z.$.$.@XMX4XD.g.+.Y ) ( +.( ( ! ( +.+.( ( ( ( ( ( ( ) ) ) ) ^ ) ) R Y Y W ^ W ) Y W Y Y Y Y ^ ^ ^ ( / T T / T `.L.c c F #.c 4 F ;.H F >.gXvXq.m I b n T M ) G I v I I T ^ ^ R N I R ^ ^ ^ R T T T T ^ T T T R F R R F F R R R F R R / R ! | X.| R x l R F F ",
"$.#.,.G W E.z.Y.(.Y.M.E.E.W.CXCXM.l.b.CXCXv.v.b.v.M.J.Y.W.W.E.E.Y.M.u.W.E.W.v.b.CXv.l.Y.E.Y.CXCXY.M.Y.E.!.W.W.Q.W 0 c y.z.X.o t $.b.z.p.n !.dX6.z ] $.~ $.[ ` $.@.@.q.u.+.( +.#.@.q.q.u.l.f.m.q.u.*.*.q.q.q.q.q.w.-.q.u.m.*.#. .#.+.+.*.*.*.*.@.^ ^ u m / [ f # c $.r.i.,.].gX:X`.`.%.Q ( ( ( ( ~ / ( X.] ( ( ] +.( ( ~ ~ ~ / ~ ! / ! W ^ ~ ^ ! ^ W W F N I I N T W T R T T W T ~ ^.S.z c ~ F e 1 Z +.) Z m.xXnXq.N ) W Y M I I M I I I I ^ ^ I R T U T R R T R / / R ^ ^ ^ R T R T T I I U m T ^ T R ^ / R R ( | / X.b k R T F ",
"$.[ $.G W v.u.Y.M.n.b.W.E.T.Y.v.F.CXv.v.z.v.M.z.F.M.J.b.n.CXW.Y.F.l.u.W.CXb.F.M.v.l.v.Y.W.CXM.CXY.b.b.CXW.Y.E.Q.W u c @.q.Q # t [ Z.V.r.F $XxX>.T #.$.F ( n F ,.a.n.q.@.#.@.~ [ *.w.u.a.u.r.e.n.w.$.*.u.r.q.t.m.q.q.m.3.-.$.#.$.*.#.X.$.*.#.$.+.W ^ i m / ( z = h b.C.( [ |.MX'.;XL.^ ] ] / / ( ( ( ( ( ] ( ( X.X.( ( ~ ^ / / ( ( ! T ^ ^ ~ ~ / ! ^ W F T I T I T T T T T T T T ( oXK.M v ( ] f B Z r.N b m.sXaXq.b ) ) W M I I I I T T R ^ T I M U T R R T x R / | / / / / / / ^ T R T I I I ^ ^ | R R T R T / / R R x z R R T ",
"` $.*.G ) `.Y.x.u.r.u.v.Y.Y.l.n.z.Y.Y.c.x.z.z.c.F.v.l.i.u.M.CXl.u.u.v.W.CXM.v.CXv.v.CXM.l.CXCXCXCXv.z.M.Y.!.~.E.W u c 3.>.+.# p [ V.z.<.n }.vX6.m ] >.$.] H ` >.q.*.Z +.,.W @.+.*.f.u.u.q.q.f.q.q.m.*.m.r.q.q.*.*.3.$.*.*.#.#.*.*.*.*.*.#.*.$.+.) ^ p N / ( z $ v >.,._ @.#XMX:XOXI.( ! ! ( ( ~ (  .( +.[ ( ( ( ( ( ( ( ~ / ) / ! W ! ~ ^ ! / ^ W W W W T I I T T U N N I N W r.]  XL.m v H F t r Z m.Y n -.VXfXm.Q ) Q ) T ^ ^ ^ T T ^ I T ^ R m M T T T T T x T / / / / | ^ / / / / R ^ ^ ^ | ^ | ^ T T T M T R R R x l T R R ",
"$.( [ G W E.v.u.r.u.u.z.v.v.n.n.z.CXCXl.n.n.l.b.M.b.n.v.CXx.n.a.n.l.l.CXF.CXv.n.l.CXF.l.l.W.Y.CXF.b.v.M.T.E.W.C.^ u c ,.>.] o p ~ ,.b.w.n ).xXf.M $.r.>.+.` $.,.-.` ( W +.#.q.@.u.w.r.u.w.e.3.$.q.q.q.m.w.q.m.$.$.*.$.*.#.%.#.#.*.*.t.*.*.3.$.+. .R u n W ~ k * n ] @.@.,.}.MX-XoX/.( W W ! ( ( ` ` ( ( X.! / ( ( [ X.( ~ ! W W F R ! W ^ ~ ~ / W W T W T I N I T T I N I I W ( %./.j.m v F ~ f e Z #.Y N *.xXVX#.) T N Y T ^ | ^ N T ^ ^ I ^ ^ T T T T T M U T T R R ^ R R ^ ^ / / R T | | / ^ / ^ ^ ^ R >.%./ T M T z z R R F ",
"$.$.$.G Q (.q.,.u.u.a.l.b.z.l.n.l.v.z.z.b.v.v.z.l.v.CXCXCXl.z.v.x.v.v.n.M.x.l.v.J.Y.CXl.v.z.M.CXz.l.v.W.Q.W.M.v.T u g $.w.F , f ` ] a.r.F ~.dXh.F ! ~ ~ $.>.w.>.N *.-.@.+.w.$.+.@.@.*.u.6.*.-.$.m.r.u.r.m.q.-.m.m.*.$.%.%.%.+.$.*.3.m.*.*.*.$.+.^ I i m W ~ p * n ,.w.u.[ }.MX*X<X XQ F G ^ ( ~ ( ( ( ( ( / ( ( ( ( ( ( W W W T F T G W ! ^ ! W T F T W W T I I T T T T W ^ T [ ` .Xj.c n F F f c ~ +.W N *.bXVX .I I M M W ^ ^ I M Y I T I U R T R U T F F x F I R ^ ^ T T ^ ^ / ^ T R R R R T T M M F T T &.y.>.( F x l F T T ",
"$.$.$.F / _.x.q.u.u.u.u.a.n.u.a.b.v.v.Y.M.v.F.v.v.v.l.v.v.l.x.CXv.l.b.l.M.l.b.F.Y.CXCXv.v.v.l.l.l.n.b.T.T.T.T.M.N w c ~ $.] # f @.,.r.u.F 3XaX%.( F [ ,.i.] >.$.m.u.e.e.m.m.$.+.( $.*.q.3.q.e.m.m.r.u.e.*.*.*.3.m.m.*.$.$.] +.#.*.*.m.-.#.[ #.$.W U p n / ( k # v $.p.$.~ }.MX$XOXU.W G / ] X.( ( +.+. .~ ~ X.( ( ~ ~ W ) W T N F W W F T W W W T F W W ^ W W I I T W W T ) W v.z..XL.b n F G f 1 N #.N N -.bXNXu.z M M T T I U M U M I U U M I T U U M x F x F I R T R ^ R I I / R / T T T T M c x x M M T R E R O.E z i R E R ",
"$.] ] F Q K.l.$.$.w.l.a.i.u.a.z.b.c.M.Y.CXv.M.CXM.v.x.CXv.l.l.v.CXF.n.b.l.CXCXl.v.v.l.l.z.M.v.x.b.b.v.M.v.v.C.W.U w c $.~ G > f ` r.V.,.F {.3Xa.Q ! ~ r.,.$.[ ,.q.m.e.r.w.m.$.*.$.e.3.w.e.e.q.*.3.e.r.q.-.+.#.*.+.] @.%.+.( +.*.m.-.m.3.$.#.$.$.W R l c W ! f = g ,.a.{ ( [.MX).oX X! Q ] ] ] / ( (  .( / / ( ( / ( / ! W W W T W ^ W W W F T W F F T W I W T T T T T T W ~ [ u.z..XP.c v n G f t N @.T N *.bXBXm.I U N W W I M M m m U M M I T ^ T I N F x F z N I I I ^ I m M R / R T T T T F m m x m F T T R R F R z w T R F ",
",.$.[ n F Y.x.q.t.w.u.e.w.u.n.l.b.F.M.F.z.z.Y.M.l.v.v.v.b.l.v.l.b.l.n.b.v.v.CXM.u.CXCXu.l.z.F.M.F.M.M.b.z.z.M.T.I q c >.e.G = f >.V.C.<.j #X3X>.m ( #.$.>.>.r.l.r.m.-.q.u.q.7.u.e.y.u.l.e.e.q.*.m.q.w.w.m.+.+.+.] +.%.$.] ` +.3.m.3.-.*.$.3.m.$.W I p c W / z > v w.,.( ] T.BX@X;XOX^ F ! ! ~ / ( ) ( ~ ~ ( ) W / ( ! ! W ! ! W W T W ! ! ! / W W F T N I I I T T N N I W ( G C.].OXk.c c F F x r G *.F N $.hXbX#.) Y G W G W M m m I I I U T R T R U U F x z F U M M I I U m U T R R T T T T T U N N M M M x T R R R x w F F F ",
"~ *.*.v ) (.D.m.+.u.a.q.q.w.u.r.a.z.b.l.n.l.x.a.z.v.F.z.a.l.l.a.u.l.l.l.x.l.l.v.l.M.Y.Y.Y.u.l.x.v.b.l.a.b.b.Y.n.c w f $.q.! , p @.M.z.,.n _.:X) M ( *.>.>.q.w.u.-.-.q.u.n.t.q.u.u.u.u.q.w.m.q.-.m.m.t.w.m.+.+.` +.+.@.+. . .` m.m.m.m.*.$.m.m.$.W T p c / ( p : N a.,.` ( T.xX#X-X XH F T ~ ~ / ] / W / ( ~ ~ T ! ~ W ! W W ^ W W W T W ) ) W ~ Y I I Y I W T T T T I T F N F r.$./.k.x m F T u 4 F r.F b *.dXdX#.m I W W I I W U M I I R R R I R T x F x x z x I I U T m M I T R T T R T M M U F F F F z F F F F T T l l F F F ",
"$.-.-.n Y R.b.q.$.u.r.w.@.q.q.q.,.n.n.u.l.z.a.x.z.b.v.z.l.u.a.a.n.n.l.b.l.l.l.l.l.l.v.b.CXE.W.v.n.a.u.w.u.n.M.z.N e z +.e.X.o q ] a.n.-.n E.tX#.F ( q.q.q.q.w.u.-.t.f.l.n.n.q.u.m.q.r.t.t.q.w.m.m.m.q.m.*.` +.%.( +.@.+.@.*.+.%.*.*.*.m.m.m.-.$./ U u c / / c = g ,.>.~ ~ ).xXC. XP.G Q ~ ~ ! ] ^ ~ W ( | ~ ^ ! ( / / ( W G F W ^ ^ G ^ ) ) / W ) I I I N T W T T T T T F F F v.p.L.j.c x N T f 4 W u.F N #.5XhX&.m I ^ T W I I U I I I I I T ^ x T R x x z x F M I I I U I T R T M M I T N M M x F x x x x x x F F T x l F R R ",
"+.+.-.n Y /.E.@XM.,.-.,.$.q.q.q.w.e.u.n.n.a.l.i.f.u.u.p.a.a.a.z.n.u.l.l.l.l.l.u.u.l.l.v.a.u.a.CXn.r.e.q.u.x.z.l.N w c +.q.X.* p [ u.u.m.v M.@X7.m ( >.*.6.w.u.f.l.l.f.n.n.l.l.r.$.q.w.*.3.-.e.t.-.-.m.m.*.` %.@.` ] %.%.*.*.@.@.@.#.3.3.*.*.$.#.W I p c W / c > c a.,.` _ ).gX(. X;Xe.~ ] ~ W ] ~ ~ ! ( ~ ( / ( ! W ( ( W ! ^ W G N I W ) ^ W W Y Y Y T Y W W I N W / W Q F #.aXE.S.S.m c F R f ; T u.T G [ *X>X#.m I W ) ^ I M m M I I I W +.W x R T F F x x x I U I I I R T m c m U m N x m T F F x F x F z z F F F x w F U x ",
"-.-.+.C ( F.l..X!.l.-.r.u.u.,.q.e.r.u.i.r.u.n.n.u.q.*.*.l.z.x.l.n.u.n.l.l.u.q.r.u.u.-.u.u.q.w.l.u.u.q.u.r.n.a.u.T N ! #.q.X.= u +.l.u.-.@.}.F. .M X.6.*.w.u.u.l.n.n.n.u.n.n.w.m.+.#.3.*.$.r.w.m.*.*.q.m.@.+.+.@.] +.@.*.@.*.*.*.$.#.$.*.+.+.+.#.W M p n W ! z = v b.,.~ T.xXmX}.;XMX0Xe.H ! G ~ ] ~ ! ~ ] / ! ~ ! ! / ! ^ W ! F b m n T ^ W T N I Y ) X.) ^ ^ T I F ~ W b ~ (.yX<X`.qX/ f T T l = H a.( G w.uX$X~ x c M T ^ N c k M I I M n c k T R x T F F F F T R I T T U M c k x I m x M m N F F F F x x z z F F x l l x x R ",
"e.q.Q m.R.N n f.7X_.z.w.a.a.r.w.r.i.u.q.r.r.e.u.r.u.u.u.u.v.z.a.i.w.r.u.u.u.q.q.r.r.r.u.q.u.l.l.u.q.w.u.l.l.a.,.K.oX4.[ $. .* q ( u.<.u.dXxX#.N N  .&.m.u.f.l.u.q.f.u.e.t.3.*.-.+.*.-.-.w.u.q.q.-.*.*.m.@. .( ( @. .( +.%.@.@.*.$.+.+.#.( ] #.*./ S.I.! W W p : g r.$.C.BXMXsXs.z.9XmXwXk.G G H ~ ` ! ~ ! ! ^ ^ ! ~ ( ( ~ ^ ~ F b b Y T Y W Y I I I ^ +.[ ) I T I N m b ,.@X<XiX`.x.iX0XE n F i 1 G l.W [ fXMX>Xm z z p m F m z z m x M M x m U F F x F F F F F I T T I U I U M c m U m M U U m U U x F F x x F x F x V.O.F k x ",
"-.$.u.W.W g h b J.6XoXM.<.r.u.w.e.q.e.e.q.w.r.u.u.u.n.n.r.u.a.a.u.u.u.m.q.q.m.m.m.m.m.q.u.l.l.l.l.3.w.y.u.u.r.>.q.`. X>.~ ^ * e ( ,.*.uXBX3.s y c ( *.e.y.w.u.q.q.u.u.w.$.[ #.*.$.m.q.*.-.q.*.e.*.*.*.*.+.` ( @.@.@.+.+.*.%.@.+.#.+.+.[ [ +.#.] W &.+XI./ W z : v >.v.vXMXdXa.;.<.V.0XmXkX7.F ] ] ! W W W ! ~ ~ ! T ! ! ~ T W T W Y N G Y W Y Y Y Y Y Y W T ) I M I F ,.}.;XyXR.y.p.z.iXpX| c l e Z e.( 4XMX:Xc q t f z N F N x m c x M U M M M k z F F x x x x M U U U I U M m m m x U U U U T U F U U F f F x x F w O.I.E k F ",
"( u.E.W v C h n Z /.lX;Xb.r.q.a.m.-.q.q.$.3.e.e.e.u.e.r.e.q.u.a.l.u.q.q.t.q.m.m.m.q.m.m.u.l.l.l.u.e.u.q.e.w.>.>.@.[ J./.%.( * e ( @.rXvX*.h s p v W *.r.q.m.t.q.w.r.u.u.-.*.q.*.q.m.q.q.e.t.-.+.@.*.*.+.+. .@.@.+.@.@.*.*.@.+.+.+.( ( ( ~ ~ Q F T H [ /.S.T p > g b.lXMXdXs.<.<.1.N.b.3XNXkX8.G ~ W ~ T G ! ~ / / ! W T ! T F T Y W Y I Y ^ I I Y W Y Y W ) ( W I N $.`.:XpXR.q.>.l.v.c.9XwX>.k 1 n -.=XMX@Xp : 4 e p b N F M N m x x M M m M M x F F x z x m m M m M U I U I U N M M T T T T T U F F x F x z i z z l w x V.E F ",
"u.`.+.Z C n C Z v n F.9X:Xa.$.,.r.-.*.$.+.@.-.n.u.*.-.w.r.q.r.u.r.u.r.-.-.#.-.r.u.r.m.f.l.l.n.l.w.q.u.u.q.*.*.q.q.#.+.u.^.4.= u ( 4XvX@.y g n Z W ) ( 3.r.r.r.u.n.f.u.r.m.$.m.e.r.e.r.r.w.w.-.+.-.*.*.` ` @.%.*.%. .+.@.%.%.+.` +.~ ~ ( ( W N N F ! / ] D.P.I > h $XMXaXi.<.,.<.<.<.;.<.0XNXkXc.G ~ ~ W G F / / ( ( ( ! W ! ~ W Y W W ^ Y T Y T T ^ I W W ) ` Q N $.(.<X9XR.t.*.6.r.l.b.d.:X0XT ; c ,XMX`.p e 0 q p c c c F M N N m M I U x x k x F F x k F m x M M m N I T I N T U T T T T U U F F U U x x k k x z x w w U V.O.",
"W. .Z Q Z G Q G F F y x.iX$Xi.@.,.@.#.$.*.*.*.q.q.q.u.w.w.u.,.q.u.r.-.+.-.m.u.u.n.q.m.f.b.l.n.u.u.m.#.#.$.*.*.q.,.,.[ ~ x.d.> ; <.aX-.s j Z ( ( ` +.) m.u.u.u.n.u.e.q.-.$.$.q.r.u.w.u.q.e.e.q.q.*.*.*.+.+.@.+.*.#.#.+.+.+.#.%.[ [ W ) ( W W n v Z Q ( G Z ^.t.o F {.5XV.$.<.w.<.#.[ ] ;.r.9XNXnXv.F H W G ! ! ~ ] ] ~ W ! ( W W ! F N W W T I T W W W ^ ^ W Z Z q.%X6X3XV.6.y.9.6.e.p.h.r.>.%X&.+ N bX'.i e 4 e t x m c k m N m U U I T M x z x m b F m x x F F F F x F T F m F U T T T M M M U U F x F x i f f z z z i x t | V.",
"[ c Z ( +.[ [ ( Q W G N D.pX-Xu.-.*.w.r.u.e.q.q.,.r.q.*.e.u.>.>.r.m.u.q.m.u.l.u.u.q.q.u.n.n.f.q.q.#.[ ( ` $.-.m.*.[ +.>.*.W O ; +.[ c Z / #.*.,.3.m.q.r.r.u.n.q.u.-.#.*.m.#.m.e.w.,.e.w.q.t.m.q.m.m.*.+.$.%.$.$.&.#.] +.#.+.( [ ` ) ) W W Z n n Q ( ( W W ~ m , 6 (.V.r.V.>.>.$.` H [ <.{ $.qXNXzXV.G ] ~ F F ! ( / F W ! T F F G F G ! W W I W ^ T N I Y Y v q.3X3X3XV.8.V.d.8.>.>.u.f.w.F >.M + N '.u e 4 e p z c c p p x N N N T I U m x x x c x m F T M F m x x F F T F F m M T T M M x M N x x x U F x x f l z z z z f w l ",
"` +.[ *.*.( [ @.[ H N G F c.jX-Xv.-.-.,.q.,.w.,.$.q.r.,.q.r.*.*.q.u.a.q.m.u.u.l.f.u.r.e.u.l.x.e.@.` +.` +.-.3.*.*.$.*.*.,.N O = ( @.G ~ #.#.*.w.e.e.e.e.u.u.*.m.w.-.+.m.m.*.t.q.w.y.r.q.q.*.q.q.w.w.-.@.*.*.m.%.$.$.[  .%.+.) ) ( ] ) ) W ) ) (  .+.~ ( W ~ m X y V.V.,.V.-.;.,.>.[ [ @.[ _ <.9XNXzXJ.G ! ! H ! ( ~ T T F ] F F F ] ] ! ~ W W ) Y I M m I N -.:XiX3XV.4.V.V.9.V.L.u.u.f.r.] f.b # c Y.z e u i z c z z z z m M I I I T U M m x m x x F F T x x F F F F x x F x F T R T F M m m M F x x F x F x l z z z z U F F x ",
"m.#.*.3.@.[ +.@.[ H G G N N W.lX;XW.-.@.-.q.q.*.>.*.*.r.u.r.w.u.r.u.u.m.t.m.#.u.r.y.r.r.l.l.u.$.( ( ` #.*.*.*.-.@.$.>.w.u.W O = ~ r.` #.*.3.w.e.r.q.e.u.q.q.q.r.q.q.m.q.w.m.q.m.*.u.r.q.q.m.q.u.t.m.-.3.m.*.*.@.+.m.[ [ ` +.) ) ( +.( ) ) ( ] ( +.X.~ ~ W $.N O p '.!.p.V.-.$.>.>.[ #.] H ` { >.iXMXzXY.F H F ` ~ ~ F W ~ ~ G G H ~ F G I T I W ) N I n N <.>XhX3XV.O.8.V.9.V.I.I.V.j.h.e.6.d.b o c Y.m p c z z c x c m b M M m c m T T I N N M F T x T T T F M x x x F x x x F U T T M x z x M x x z z x F x z z x x F U F F F ",
"*.q.q.6.$.#.@.+.( ( ~ G Z G N /.nX;XM.$.[ ,.@.@.,.$.] $.,.>.r.,.m.$.+.+.$.$.[ [ *.m.w.f.l.u.*.+.W G ( @.-.m.q.q.*.,.q.w.u.W   : ] q.*.3.e.q.q.-.,.,.w.q.q.w.q.u.t.u.q.r.r.q.q.q.p.p.,.u.r.>.u.y.w.*.m.m.m.*.*.$.w.*.+. .(  .~ / ]  .) W W ( [  .( ( ( ( +.$.p O F '.{.V.i.>.#.$.;.#.[ ` H [ ,.H ,.9XNXmXP.F G H ( G G ~ ` G Q W Q ~ F G W F G ] ) Z Z W -.=XhXtX7.&.2.7.y.V.k.V.j.k.h.V.h.d.V.F   n V.z m x x b m m m m N U n m b m T T I I N I T F F M M R T x F F x F m x m F T T T x m x m U F x x f F x x F x F x U U U F F ",
"+.*.*.q.*.+.@.+.( ~ ~ ~ W N n n /.cX.X(.T.C.v.s.l.l.M.v.V.V.V.V.CXM.v.M.Y.M.l.z.Y.T.z.n.u.+.( +.` ( ` #.*.q.-.$.*.@.w.p.n.T O : ` q.q.q.q.q.3.*.6.u.u.$.*.$.q.w.w.u.t.r.e.m.m.f.l.h.e.y.e.e.,.>.m.@.*.m.m.] $.*.q.+.#.+.( ( ~ ( ` ) G Y W ) ( ) W ~ ( [ W  .p O 6 V..X6.V.>.@.[ ` [ ` [ ` $.<.>.[ q.6XNXmX/.! ~ [ [ [ #.#.[ +.[ X.] ~ ] [ [ [ ] ` Q ( m.2XvXiXf.8.2.O.V.d.d.k.6.7.p.k.k.c.K.9.M X n Y.x F m m M m m m c M N n M m m N T N U I T T F R M F T T F x F x F F x z k x T T M x M N M x F F x x F U F F x F F U F F U ",
"q.w.$.*.@.{ q.,.@.[ ( ( ~ N N F Y `.zXcXcXcXvXxX,X,XvXvXbXdXlXvXbXbXbXbXxXlXbXBXvXBXdXn.+.( ~ ( ( #.-.t.-.*.+.-.-.-.r.n.u.) O 0 ( CXr.#.*.-.*.m.q.q.q.-.>.t.u.e.r.t.q.t.m.q.l.v.b.p.e.q.6.r.6.>.$.+.*.m.*.)  .m.*.[ +.+. .( ~ ( ) G Y Y Z W ) Y W ( _ ( ` [ p O y V.%Xe.r.-.` ] [ ` H #.[ ,.b.r.,.l.Y.;XzXOXL.j.x.j.k.c.^.c.V.K.L.z.y.f.h.j.S.c.j.g.q.R.vXtXD.u.V.o.2.V.y.y.8.( _ ` >.j.h.y.x.x   v W.M N M x M Z c c m m U U m N M I I I m I W F M T T F F x M F x F F T x z i x T T T U U N N F F x F F F U x U F U x x U U F ",
"q.u.*.@.p.>X_.w.,.+.[ ( ~ G G W ^ ^ E.jXlXdXdXpXyXdXuXlXgXgXsXsXbXdXaXaXsXlXaX<XpXsXeXz.( ` ~ ~ ( #.*.-.*.*.w.E.Y.u.q.n.e.) O : ) l.u.*.-.z._.b.@.@.*.q.q.q.q.r.n.n.n.l.q.u.M.F.>.+.u.q.>.p.>.+.m.+.u.q.*.-.t.w.#.N ~ +.( ( ( ! W I N Y N ) W w.T.r.( [ [ +.k O t '.R.>.,.>.V.Z.<.[ [ #.$.r.,.$.u.(.#XE.OX8X+XoX-X-X/.oXOXoXOXP.P.L.P.P.I. X XP.XXF.S.P.7XF.D.S.8.o.V.2.7.>.[ H >.h.V.e.y.>.d.M . c C.F T N ] y.d.+.c Y Y m m c M I T T T N b I U T R T T R T x T R x x x U F x x x l x U T T N F F F z x F F x F 2.V.O.x x U U ",
"$.*.u.#.(.lXoX$.,.,.[ [ W Z G ~ +.%.) q.a.>.} [ } ,.+.>.<.#.#.r.t.` { -.<.a.,.( ,.,.<.%.6.&.X.( +.#.#.#.*.-.Q.fXx.+.@.n.u.) X : ) w.r.w.-.,X9X$.~ *.w.u.u.q.r.u.i.b.x.q.[ [ #.[ G [ $.} ~ H F H ) Z m._ Q _ w._ H _ H ] ] ( ! W ) W Z Y ^ ) ( 4X$X2.` ( ( [ p O 5 Z.T.>.>.!.uXL.>.+.$.$.$.] ( $.W..X`.(.<.i.1.,.,.,.$.,.{ @.[ ( [ [ [ [ } [ [ ] [ ] ~ ] 6.K.K.L.V.4.5.2.o.o.] #.J.9.^.&.e.%.7.F . v V.M U N T.`.9.4.m Y N m N I I I G I U c s v h v g f s v s s k x g h h h h h h h a r v ^ R T N W n m M N F c >.V.V.9.z w F F ",
"&.*.u.#.~ +.N y ,.w.*.[ Q W ( q.x.) h 6 4 7 4 3 6 4 & 4 ; = ; & - < < B 4 4 5 7 ; ; j _ *.7.&.[ +.` @.*.m.q.{ _ v r ( w.x.( O 0 ( z.t.@.*.*.W s p @.q.u.q.r.u.u.l.b.-.s & @ @ @ @ @ X @ X @ @ + @ + @ @ + + @ + @ % - j / ( W !  .W W W ~ ) W <.~ p g [ [ #.c O y V.V.#.>.a.V.F N [ $.$.$.] [ l.@X@X^.{ L :.:.:.P :.P =.P =.=.L K :.:.=.:.=.P P P P K P K X.K.P.V.V.V.5.O.] ! } $.G F ] 6.#.y.b . g C./ W W =.Q c u N I I I N Y I W T I z - + + @ @ X @ @ @ @ + $ O @ % @ + + % & $ & + 7 v N T I N W I I M c c _ F t F z F x F ",
"$.*.l.r.v 7 & F r.u.r.$.+.W $.y.` V 3 O X X X @ o @ X X O @ + @ $ + , + @ # $ X # X o a _ 6.8.6.[ Q +.w.r.w.Q a : s $.e.y.W X 1 ` CXw.-.#.h 1 = N *.,.,.r.u.w.,.b.u.y @   X X X X . X o O @ @ X + o o X X X X o X X o = j W ] ] ( Q ^ ( ) W W s 7 ; n ( +.#.p X e V.T.>.>.~ s 7 a #.,.<.,.#.r.!._.R.[ L V 6 f g v v h h h v n n g g g y t y t y e 6 6 4 V L ( L.V.0.V.4.V.o.] J a 4 t X.>.%.7.z . g Z.+./ / s % @ u Y N N U I I W I I c 3         .   O O         O           O       . X 8 h N R M N ) T I b m y & $ 4 x l F R ",
"u.e.q.f.*.G G ,.r.e.p.r.6.+.+.H d & o B p g c g c c g v F g F F n N C Z n n F G g p e = a ~ 6.>. .` -.l.l.e.w.` ~ *.t.u.l.I O e Q -.n.r.q.+.n ~ *.q.q.w.r.r.,.u.q.a @   = f N F F F n F F F F F n n N n n N v N N g g 5 4 g ! F W +.( W G W W ( N Z ( ( +.3.p X y a.h.r.#.#.~ F [ +.,.r.<.i.V.^.^.+.L 8 4 f f f f t p g g g v v g f p f y c g f f m g e < V P &.V.V.0.V.2.2.V.] G m / %.a.+.&.f X s i.#.W T T p p n U N Z I N I I M n %   o : 0 q e t t e e 4 w t 4 t 4 t t t t r i r e > + 8 C R U I T / ^ T N F 4 q F F F R F ",
"[ m.*.q.l.u.r.p.u.q.r.$.u.*.n 9 % X s ~ +.X.+.[ ` ] `  .>.#.#.#.#.*.+.#.+.+.$.$.[ G G g 4 8 K #.) $.-.u.-.-.-.e.w.u.e.6.*.t   5 Z @.#.-.e.-.q.-.,.u.u.p.u.$.u.a.h +   = n ( ] X.` ] ` ! ] ] ] ] ] ) ( ( ( ( ~ ( [ G F N 5 5 j F G  .( Z ) W W ( +.+.( +.+.W > X y [ @.[ [ >.>.>.*.*.y.u.3.q.z.E.{ S 2 > c F F F M c m T T F N N N T G T N N n n N T T m p 5 j :.7.6.T 2.8.V.O.|  .X.&.o.R &.>.= 4 7 { +.+.W I W I I I G I Y Y Y m p %   o r p x m m m c c b M M T F m F F m m F N I M m x : $ 9 G I N x R ^ T T M M F F F F F t ",
"6 n +.G ~ ( ] ( ( { H G *.[ D @ $ g ~  .#.#.+.( ] ] ` ` [ #.#.#.$.+.@.+.` { ( ( [ +.! ! F t a L A Q _ n s G ~ G Z Z J A 8 X   e v 6 s g ~ Q Q Q ( ( ~ H G v [ J &   : N W ] ] ] ` G F H G ~ H G ) ) W G W Q W ) ~ G Q G n g 4 J J s N Z W v Z Z n G H h v 5   o s 5 J ;.;.#.` ` @.@.,.$.@.;.i.1.V - 0 z F F T W F N G W F F b m N G W W G N T W F N N N N z 5 d P { $.<.V.! V.[ $.{ $.{ @.F >   4 ; 7 6 v g p c p y k n s s g g s $   = u c m c c m m m b c m F M M x F F z M m c c k z k k r = V V e 5 v q g f e q k p 4 w : X ",
"g $ o o     X X X X o o o $ .   o = - = > ; > = & = # $ & = ; ; = + 1 ; = > $ $ $ - = = $ = X @ + @ X @ X + o X X X @ $ O   X v Z : . O O . . X . . X X   X         = - > - - - # O @ $ = $ = $ $ $ $ > 1 - = = # 5 4 $ = - # $ $ X @ o . o . o X $ + . .     = F 4 + ; ; ; $ & - & & - % % + ; -   = > - > $ ; - = > ; = $ # # $ $ ; = = > ; > = $ = = - > % # 4 8 8 8 6 6 & & 5 7 5 7 6 %     4 y X . . . . + O . . + X o , @ +     , * * = # o * = X # # o o O o o # # # * # o o O o o o + X X X   O .   O         . O O O O ",
"_ n -   X X X X . . . . X   . $ 1 - + = X X o o o o + 4 4 $ $ + - > > @ o + $ $ # # $ = = $ = $ O O O O X X o o X X X   O + p N v v 1 X O O . . . X . . X X X X O + @ + % = # $ 4 - > 4 4 = = 4 : ; 1 ; - : ; - 5 y 4 4 6 t 6 = O . .   . . . . .     . X X $ e a F 4 @ O O O O O O         . . X X . . . . X X X X X X o o X X X # # $ ; 7 $   X o X     . O         O O X X o             O @ y f y O                       .     O X o + # = $ $ = = = # * o , o .     O         O                                     O X ; ",
"[ G F F N F F H Q ~ W Q Q W Z W H c F J F F F G Q ~ H ~ +.Z Z Z G H G G ~ W H W Q ) Z ( ` ( Z Z n v g G Q N W G N Z v g s c Z ~ F n f g g h F n Z N n N n c c n F G F F F H v N G G G Q Z g Z Q ~ Z Z N Q ) Z Z W G G Q Q ( Q W n n n n n b b n v c g c s p c g F F F 5 f f f F n b c s c g s y C n p c c g g N N N F N N g c b C U C m m c c c v Z N c s M Y c s s p s n h s n n a n g h j 5 p c c n n v g g c f p p s f y t y 4 t f F p f F y F F f F F F g F F F f t f f f f 4 t t f z f t f f 5 t y t 4 t w t t w t t w 4 f ",
"#.`.:X:X<X3X3X<X4X,X>X$X>XaX%X^ ` V.Q.V.Q.T.V.{.l.e.q.z.-.l.b.z.Y.V.V.`.C.(.).!.Y.z.T.~.Y.l.m.$XrXeXeXeX,XyX%X,XyX2XeX7XE.{ c Y G ] #X3X#X#X}.@X).}.#X`._.`._.v.G [ z.V.i.b.V.v.a.b.l.u.l.M.CXT.C.x.u.u.u.r.l.m.-.*.q.u.m.@.` M.@Xx.u.l.u.q.u.h.u.f.y.x.f.3.c v F F a.$X).R.'.V.v.z.x.z.l.f.x.J.X.W Q [ $.*.+.[ $.! ~ +.#.>.[ >.+. . .*.+.` ] +.( +.+. .X. ./ 3.n.u.m.3.2.%.%.t.+.+.+.&.#.d.X.z F F $.r.o.o.#.X.&.] o.X.o.>.>.>.V.o.R R R ] O.E ! o.o.! &.o.V.! >.] ! V.o.&.&.&.O.V.2.2.5.V.R ] V.2.2.V.o.V.V.8.9.V.V.V.V.V.V.U ",
"1XyXh.,.a.C.W.V.v.Y.z.x.(.1XMX%X! #.,.r.,.a.r.V.l.[ +.$.Q $.u.b.l.,.r.r.[ r.u.q.#.#.*.-.@.<.tXNXBX).@X4X:X7X-XtX2X$X:X`..X XB p G *XfXT.z.Y.V.V.M.Y.b.$.q.T.u.Y.&.F ] q.>.q.u.u.w.a.u.-.r.n.l.l.r.u.w.t.3.*.m.X.#.q.3.t.[ ) W.sXa.q.#.+.#.+.q.@.+.#.,.@.^ ^.X.e J u.xX{.a.b.V.$.w.z.z.C.q.*.*.%X;Xg.W Z ~ [ [ q.Q Q @.>.#.( $.,.Y m [ @.[ ) ` ` Y ;.) N n M -.Z.7XF...2.*.( ^ ) W ]  .W W 8./.N c F 3Xp.x R F F T F R / / | R T V.U.O.F F F F F U F F F R R U F ! G ! ! F F R F R R R U U U U ! V.2.X.U U U R R R R R R U R V.o.",
"(.r.$.+.#.[ @.,.*.>.*.$.t.*.%XMX-XG @.r.>.b.a.b.a.V.l.{ ( Q w.s.b.,.w.,.[ ] +.#.,.,.-.+.u.eXBXvXaXW..X,X#X)._.).).%X(.{ %.D.= = ~ 3XV.$.] >.q.r.,.,.t.#.e.*.#.z.R.8.M F #.,.q.>.*.@.+.@.q.r.u.m.,.q.m.-.m.*.X.#.#.t.*.[ Q (.xXn.N ~ Z W W X.@.W n ( @.Q p 8. .O a V.3X'.>.>.#.] [ -.~ ( @.n ] W T.6XG.^ c W ( ( W ] #.+.Q G ( v U C Y Y Y C Z Y Z G Y m C w.T.7X`.T I Y ] Y N n W N N N N I o.T 5 F @Xz F F f b c b b b b c c c f 6.U.4.f F z z x x x F x F z z F F f f x F F z f U z b i z ! V.R f f f f f f U z z U z x z i U ",
"l.,.,.q.,.w.i.q.q.q.u.q.m.m.m.tXMX<Xo.~ +.$.>.,.[ ,.<.,.m.r.<.l.r.,.>.[ $.#.[ @.-.*.@.C.jXBXbX2X:X;X<X7X$X].~.T._.}.).Q.Y.x., , F |.V.>.x.r.w.l.e.q.*.q.w.*.3.m.!./.9.T ( q.q.q.,.>.#.>.u.n.m.q.u.w.$.3.q.q.$.#.$.#.+.` @XbXr.N W W ~ ~ W ( [ ( [ #.$.[ (  .M O y ,.{.>.~ >.$.;.@.+.[ [ ( W ( ~ $.E.6XP.o.W W G ( ( ~ ~ G ! W N Y Y H ) H Y Y ) Y g b ) s.~.yX/.( ^ U m I T ( n n W W T W F / x ; c h.z b x b b b z c z c m c z z f ] +XV.F x x x F x U U F x x x F F x U F F z x f z f f F V.O.f f x f f x x b x U F F U f x U ",
"y.q.r.,.Y.hX4X<.r.u.e.u.u.m.$.Y.tXMX9XV.%X1X*X*X>X$X1X>X,X<X:X<X3X>X>X>X:X:X:X:X:X$X$XvXNXhX:X%X<X<X:X:X}.Z.E.,X%XE.(.}.%X3., X F Q.b.p.l.(.fX_.q.-.#.+.$.3.3.#.h.z.z.9.N ] +.X.+.+.#.] ] ` [ ` ( ]  .+. . .X.]  .( ` &XxXu.n Z N Q W ( [ ( ~ Q.@Xu.-.[ @.$.z . y >.e.>.>.i.).J.@.+.[ ~ W ~ ~ ( +.G u.6XU.&.~ ( ( ` ( [ [ [ ] ( +.+.( @.+. .` ` ` ` ` r.(.eX^./ W N x m m U I ) q.x.R.W N N T u 4 c >.z m c +.T.c.>.b c c F F c i x i o.+XV.! F R F F F R R R E o.| / O.| R / / E O.| R ] V.| b x f x f f f f f V./.V.#.b f f U ",
"q.y.q.+.T.3Xt.~ ,.u.u.v.F.v.u.m.b.oXnXmXNXNXMXNXMXNXNXNXNXnXmXtXdXMXNXNXNXNXNXNXNXNXNXnXvXlXfXiX4X7X7X$X).s.E.@Xf.+.CX:X@X2., o F r.r.b.#.$X;X5.G q.q.*.q.w.q.q.$.[ >.a.(.`.{.%X@XoXW.`.]..X].`.`.`.!.R.E.'.Y.R.E.(.$XtXq.Z Y n G W W +.{ ~ [ %Xj.7.W @.+.` k . 4 ,.Q.#.] Z.-XE n W +.~ ~ ~ / ( G N c Y.6Xj.d.d.d.t.y.7.7.2.7.d.9.4.9.9.9.4.m.t.3.m.m./.dXk.k W m k x m I I I ;.E.O.K.R F n ( p & c w.f M c !.oX4.2.b m m m x f f f x f E U.V.8.V.V.5.V.V.V.V.V.V.V.V.I.P.P.I.P.P.V. XU.V.O.x z x x f w w w f b V.V.8.2.f z f U ",
"+.l.e.,.n v 5 g e.p.h.v.W.Y.K.n.l.V.-XmXcXlXbXbXlXxXlXdXxXxXtXeXsXcXdXlXjXnXnXcXnXcXnXNXvXbXhXfXeXeX7X:X.XN.` v y y Q.4X:X7., O F T.>.6.Q G n B y *.r.u.u.l.u.-.>.$.+.r._.W.`.#XQ.'.z.E.W.CXv.CXY.v.u.z.c.n.u.f.v.l.u.( Y Y Z W W W ( ` ` ~ W ` n 5 5 +.+.$.U . 6 r.b.! ] @.` h 7 b ( ~ ( ~ ~ ~ G N ( $.u.K.K.x.F./.K.P.D.D.^.L.t.S. XF.7.H.F.H.S.D.F.jX%XU I R I m U R ^ Y T Z C c e c W N W e ; f >.b N b _ J q > c m z z z k f f f i f R | R F O.R O.5.E x O.O.O.O.8.O.o.O.&.&.O.2.V.o.i x f f f f i f f x x 5 ; 4 w z f f f ",
"h.y.u.e.~ 2 5 @.t.b.F.CXF.Y.!.(.E./.Z.~ H F ~ ~ Y ) ) Y Q ) W ( | ~ F ~ ~ #.` ~ ` ] *.;XBXcXsXyXeX7X<X<X-XZ.1.v u q.:XeXeXq., O F @.<.>.e.F 4 4 N *.r.f.n.u.u.u.q.>.*.*.*.+.[ ] %.-.m.*.( ( ] ] +.W G ( W G ^ W W ^ W W ) G W Y W Q ~ ) ) W W v 2 1 n ( ` +.m   t >.V.] ! Q 6 7 r G ! [ [ ! W W W W Q W ) ( ( Z ( ` G _ [ $.,.H Z ) ' ) _ A Y C Y A Y ) %...m Y / I I ^ I Y T n 1 - B W ^ I ( e - s m.N Y m k 3 = 5 x z f z z p i z f l f t t z f f i i F f i x x x i w w i i i x i w t w f z x x z z f f x x f ; > = w f i z U ",
"&.f.q.t.q.-.q.e.u.v.CXx.J.W..XoX%Xx.a ; = > ; ; - = % : 1 2 1 1 - - 6 4 4 & < & % % 3 N  XvXfX7XyX7X7X<X:X}.).T.Q.$X4X2X>Xt., O F ,.] >.>.>.[ [ $.m.r.n.n.l.x.h.u.>.*.@.#.#.#.#.$.+.*.( { %.+.+.[ W ) Q M N ( [ [ ` ( ( W W ^ W W ) / ) W ( ( Q W W W W [ ( l   4 r.V.#./ [ / F F W ~ +.( W W G W W I W Z b c b n n c f f n v g c c s v C s C c a r r 8 v ....../ I U U N Q W N m v ^ ) ) W I i - s m.N N m m m z M c f p z c m f f z f t t t x x z i f x x x x x i z z z z z i z z z z f f z x x x x z x x x z f t f f f f x x ",
"#.q.q.w.t.r.u.u.n.D.c.z.Y.Y.R.`.c.7 3 4 y g g c c V c C g v Z C n F F f a F F g g a B < g (.jX4XeX6X,X4X2X4X:X$XeX7XeXeX2Xm., o v <.] e.r.p.,.>.m.r.u.r.l.v.v.n.u.q.*.*.*.$.#.#.[ +.+.(  .+.+.+.( ) ) N b W ( X.+.( ( ) W ) W W ( ( W G Q ~ ~ W W ( W )  .( p . ; >.y.#.^ G ~ ! W F ! ~ ! W F G W Z I W n m m b c c m b m c p m v c k k l s Y s l u p s d C ....R I U Y W W G N ) T G ^ ^ I I u = p m.Y I m m U M m m m c m m m z i i f i t f f z f t f x x z z i i z x z i i i i i i z z w i z z x x z x x x z f U b x z f f z ",
"~ -.q.u.e.u.u.f.l.v.CXc.x.CXF.d.a 3 - c ~ ] ] ` ` +. .@.) ( ] +.~ #._ H [ X.H ` +.W C 1 6 Z @XpX;X-X;X,XeXeX7X<XyXeX$X2X:Xq.O , F ` +.>.r.,.,.,.w.n.r.l.v.v.x.r.,.*.>.>.*.+.#.[ +.%.] ( ( +.+.+.( ( ) N ) ) ) ` ( Q ^ W W W Y ) ) / W Z ~ W Q Q ) ) ^ ( )  .k . 4 >.e.` F W F b W T W / ! W W T W I W W N b M M N N F T N N N N m m m m k Y c s c s k k p a A ..I I T W W W W T Q W Y ^ T I U q - p m.N m m m n m c m b m N m m z x z f z z F x z f t z x x x z x i i f x x i i i w i i f i i i f z z f z z x U x x x f z f f x ",
"( *.,.u.f.f.u.f.l.c.v.F.h.y.&.8 ; - g ] #.>.] $.%.@.+.+.` +.+.*.>.F ~ $.$.[ #.>.@.` ( Y r 6 c /.-X.X-XeXyXyXeX7X7X4X:X<X_.3.o o n r.$.p.r.$.$.>.q.r.u.x.v.n.u.f.q.m.m.m.3.$.+.+.#.+.( (  .+.+.( Q ( ) ( [ ] ( )  .( W G W W W ) ) ) W G W ~ W W ( W  .X. .*.k O ; <.,.~ ~ ! T ^ ! ! G W ! W ) W W T N F I n N G W W W T T T / N m m m c c M c c c k c m c r d A O.R I ^ I Y M G ) b T T M b I e + p m.b m c m m m m M b m I M M x x f f f z f F x z z z x z z z f w i i z i f f z i z f w i t t i i z z z z x x x x z z z f f x ",
"e.@.+.u.l.r.f.l.x.v.c.l.K.o.7 $ = b ~ ] #.#.+.+.` +.+. .` ) ` { ( H #.>.$.[ >.$.@.+.@.` ) r 6 V D.6X7XdXdXfXfXyXeX$X<X*X(.q.  o c u.#.l.q.>.>.>.-.m.q.q.m.) +.r.m.*.-.$.$.*.#.$.+.+.+.] ( [ ` ~ G ) ] +.+.] +.( ~ Q Z I W ~ W W / ~ ) W W ~ ` N n W ( +.#.q.u O 4 >.>.! ( ~ ~ / W / W W ! W W W N G W W Y M M G I W W G N n N N N m c k k c s c m c m N m k r d Z ..5./ W U U U N Y I N M M ) i $ s z.^ m m n U m b M M M c m M F z f f t i z x z z z x z x z f z z f f i z x i f x i i i f w t i f z i f z z z z z z x z U ] b ",
"u.Q q.l.u.u.l.c.F.Y.z.J.,.8 $ > g Q ~ +.#.$.>.] ) +.%.+. .+.@.%.( #.#.>.>.>.@.[ @.@.@.*.@.) s a C K.dXlXVXdXlXdXtX<X<Xc.+.t.  = c p.e.e.e.q.$.>.q.r.r.@.Z *.X.$.*.3.+.$.$.+.+.#.#.@. .( ( [ ( W N [ @.+.] ` ` ` ( W W W W ) W T ) / W I W ) Q W b b )  .W T y O 4 >.V.F ! ~ / ! ! / ! W / W F n N F W N M b m N T T W I I m M M Y m C s s k k N m m Y m m m c p 8 v  .o./ I I M Z G I I T T ( u = s m.c m I I Y M m m m m x c M z i i f i f x F f F F z f i f f z z z z z z x F / x t f i i w w w z z z z w z z z x f z n F ! b ",
"l.x.M.z.n.f.v.CXv.J.K.u.7 @ % c ~ W ] #.>.>.$.+.+.+.@.+.( @.*.%.] #.[ [ @.[ $.>.%.$.` ` ` ` +.y B C (.lXVXVXxXxXdXtXeXeXY.W O $ b v.a.>.r.,.$.$.t.r.q.#.#.#.+.$.$.@.$.#.+.+.+.@.@.+.( ) ` ( Q Z W [ ( ( ` ( ) ( ( ) ) W ^ ~ ) ) Q W N W W W W ) W ) *.#.W ] k O 4 #.V.F ] / ~ ! ! ! W W W F T N T T W N N N M I G I G I N m m N m x U m x M N m m Y m Y N m m m y a s  .O...^ I I U I T ^  . .> = s e.k M Y U U M c m m N M M I F x f t f x z z z x x x x z i f x x x z z i i U U f f w z w i f z z z x z f z b x f f b F ] / U ",
"6 &.(.@X!.F.Y.J.F.n.m.7 % = c Q +.+.) +.@.@.%.@.%.@.+. .%.@.@.) ~ F ] ,.+.( #.$.$.*.#.*.-.*.` Z r 8 c `.dXlXjXsXVXaXsXtX$.;   = y W #.*.e.u.q.>.>.*.@.@.w.u.+.w.$.@.&.+.[ +.+.#.+.+.+.[ +.( G G ( X.( ( ( W Q ~ ~ ~ W W W ~ W ( ( ) G W Y W ( +.t.D.l.*.O.c + O e V w. .X.W G ^ ~ ^ ! W W I N T T I I n M Y I M b I G M M N N m v N I m C U U c U N N Y m Y m m x s a V ..I ..R T I T ^ ( | q , - e H W I U m x m m m U m m m c U U c k k k c l i z x F x z x x f x k k k i f i i k w k l k k z z w x z w f f f z x x R O.5.E $ ",
"2 1 f.,X4X%X!.x.4.@.8 - - s W ( %.@.`  .)  .` *.@. .` +.@.%.` +.#.[ #.` ( +.+.[ $.3.3.*.#.` ` ` G y 5 c ^.0XyXiXsXbXfX#.- o   = y & f e.e.p.q.+.+.@.*.&.] >.x.q.+.+.+.+.@.+.+.#.+.+.( ( ` ( W W ( [ ` ` W G W W W W ( W W ~ W Q ( ^ T W ^ ] m.h.CXCXx.3.c + + o e s V _ &.^ T ^ ] ! ! ! W W W W W W I T Y Y G b m N b I ] ) I b m m m m m U U C c m Y Y Y m m m m m s r v ..I ^ / I I W / q + = = p p j N m x z k m U N m c c k m m U m m m k k f l F x F x x z i k k i i f w t i k i f z z x z z z z x f f z x U R 5.V.V.E $ = ",
"n 5 1 D.pX7X%Xc.Q 8 & ; c W +.` ) %.@.+.) ) +.%.+.@.+.+.+.+.@.%.#.+.] ] #.+.+.#.$.*.$.*.$.+.[ ( ( ] y 6 p f.7XjXbXsX#.- . : O = n a $ g *.>.>.] ( @.*.@.$.[ +.$.[ [ ( [ ` ( ( ` [ ( ~ ~ ( ( W ~ +.[ [ ] W W Z W G W W N Q W W G W G W W W [ F.(.W.W.t.s + - r o 1 +.W d _ %. . ./ / / W W W W T I N N W I I I I b I [ m.) T N M m m m v N N U m m Y Y m N Y m N N m z p a v W E R R ^ R q   : : - c n ; V v x c c c U I N c c k U U m m m m m c F x F x z x z z f i i k w f q w t i k w z k k k f i i f f w f R 2.V.V.V.F # $ t ",
"G N 7 - _.dXoX*.8 % : v Q ( ` ( ) X.+.@.+.` +.+.+.@.%.+.` %.@.+.` ! F >.*.*.&.#.+.+.*.*.$.~ #.@.( $.( a r g R.mXsX&.- @ 0 m O = v G y % v >.X.~ ~ +.#.#.+.+.+.[ +.[ ( ( ( ~ ~ [ ( Q +.~ ( ( W ( +.) ( ] ~ N W Z W Z Z W G N Z W W Y G G Y ( M.:X9Xx.u = - c u o e ( ) y d Q ( W ! ( W W W W T N m n N W Y I N N M [ +.M N N b N U I n U N c k m Y m Y m N N m N n M b M s a h  .R  .+.t X = k > = N ( r 5 h h c U c U N U m c U c m c m m m m U x f i z f z f z x i k i k i F i i i z k x z k i i i i w f f f O.V.P.V.O.o # t F ",
"~ Q H 4 c ,Xx.h & 5 N W ( ( ~ ( +.@. .+.+.+.+.] ( +.@.@.+.+.%.+.#.~ F ] #.>.*.+.#.$.#.$.*.$.q.+.#.r.-.( g r ) @Xf.e - e Y N o ; G [ G s 4 n q.] [ +.+.+.+.$.+.@.#.[ [ [ [ ~ ( +.` ~ W G ~ ( ( +.+.) ~ ( Q I Q W N W G ~ W W G Q ) W G I W [ X.%XeXm B < c Y e O 5 { ( n y J ;.( / T N T W ~ W N m N N N W I b W ( N m N m m n N n m m n m k c k x m m m m m m m U U m Z M z a n &.&.M o = r k : ; N ] c t e J [ I c U c m m c c z x z z m M m m x z z x z k f f w i i i w f F k i i x x i k i i z w w f f w f F V.V.V.t X t f z ",
"~ ( ( g c c.z.! t G ~ ~ ( ( ( ` `  .`  .+.+.] ]  . .+.+.+.( ` +.o.] ~ ] +.%.*.&.*.*.#.#.#.#.( ( *.@.( ,.#.Z ` f.^ k B Y ^ N O : G ] ~ _ p a >.+.$.*.#.+.+.+.&.@.+.+.[ ( ~ ( [ [ ( W N W W ~ ` X.` Q Q W G Z W W W I Z W W G G Q W ) W I W ` q.u.u. .i p Y W u X r ( ~ G G #.n.u.n c m F W W N m m b m I N m I W T n I m c N N I Y m n U c k c c m c m c s c c m n U m m M N c v W m x : : i M 0 > n ] c c c u.z.m c k c c c m k k k p z m m m x f z z f z z k k i i i i k f t w k i f f F y i i z x f f f z f b 6.] &.q > f k k ",
"( [ [ v N p.l.W c W ~ ( ~ +.( [ +.` ] +.+.) ( +.@.) _  .` ) +.+.+.+.] +.#.#.[ +.*.#.+.[ ( +.-.q.-.*.,.-.a.` -.(.m.l p W W N o : n ~ @.[ g g >.[ +.#.+.+.#.` #.#.[ [ ] [ ( ( +.+.( W W W Q ~ ( +. .Q Q ) W W Q ) Q N I W W W W ~ ) ) ^ W W ) u.M.q.^ x s ^ ) y O 6 [ +.G W w.z.m.c k m W ( W N c b n N N W X.W N N N n m n I N N n n N m g c m I c c m c k k m m m C m c m N N N c x x : u k c 0 > g [ b f N a.u.c l k k k c c k k k z m m m x z z k x k i k k w i i f z i i i i i i i i w t e i i x f f w f f U e.&.R t : k F x ",
"` ( [ n N l.b.W f G ~ ( ( ~ ( `  .+.] +.+.(  .{  .+.+.(  . .+.` +.] +.$.+.+.+.#.%.*.+.( ( #.$.*.$.q.+.( l.v.u.Y.%.k u Z W Y o 0 F [ ,.$.F f ,.+.$.$.+.+.+.( ` ( ( [ ( ( ~ +.[ ~ ~ ~ ~ ~ ~ W ~ ~ ) W ) ( W W ) ( ) W W Q ) ) ( ( ) ) W G ( ) n.).E.^ m k W ) i o e ( ] H Q q.v.f.z z N W W W W X.( n N ~ +.T n I I I m c N I N c m Z m v m m N I m m m c m N m c m U c k m m N W c M M q u i c e > g ! z c G u.u.m l k z c k k k k z z x s z z z i i k x i k k k f i k z k k i i i i w t 4 w 4 t w i f w f w w R r.2.R t q z F w ",
"[ ] ~ n G J.a.W z ~ ` ~ ` ~ ] ] ( ( +.` ( +.%.+.+.%.@.~ ( +.+.( ` +.%.+. .+.@.%.+.#.+.[ #.+.+.$.$.+.+.*.$.$.n._.+.c t W W T o : H [ $.$.N c n.*.+.+.[ +.` ` ) Q ( ( ~ ~ ( ( ( W W ( ( ~ W ! ! W W W W W Q ) ( ) ( ( G ) Q W ) ~ ^ W W G ) ) u.Q.z./ c f T ~ f o t ~ [ Q ~ p.Y.c.c m F N W ] ,.$.G F ~ #.F M M F n n m c N N c c U n m n n I m v N Y C c m N c c m m k s c ) ) c n I m u u k p : ; c ~ c m N u.n.m y k m m k u k k k k k z z k z l i z z z x k k z x f l f k i t i l p w t e w w t t i k t t F R V.>.X.t e l F i ",
"[ $.[ F F p.[ b f G [ [ H ! ] ] ` (  .) ) ( +.@.@.$.+.%.+.+.X.] +.%.+.+.+.` +.+.[ [ X.@.$.+.+.+.$.*.#.m.-.( $.n.X.m t N +.T O : N [ @.+.n c ` #.[ ` +.+.[ ( ( ( ( ~ W ~ G Q ~ W W ( ~ ! W ! ~ W G W W Q ( ( ~ ) ) ~ ) ) ) ^ W ( ( W W Y T G r.~.a.E z t F F p # f ~ ~ T Q p.C.e.m b m +.>.[ G c G Q M b M F F b M M M n I m n m I n M m n U I N N m U m m m U m m m m k ) I m m b z k e i x x : ; N ( m n I u.w.c i z z k u u k z s i x z f z z z z z z k k z z x f x f z k t t t f p i y w i i i w i t i i q F V.&.R t e F i i ",
"[ [ [ F G V.h.~ F ] ~ G W F ] ] ` +.( [ %.`  .+.*.+.+.%.+.+.+.+.+.+.+.+.+.+.` [ ( ( X.$.-.+.@.*.$.$.+.*.#.` @.u.X.x u ~ ~ n O > F [ +.( v N r.+.[ ` [ +.+.( ( +.[ ~ W Q W Q ~ ~ ~ W H W ~ ~ W H G W Q ( ( ~ W ) ( Q W W W Y G T ^ G N G W W w.].h.R x f F F i # g ( <.H ( u.v.*.! +.*.[ W n n b c b c M b b b m M m b N N N m N Y n m b N m m v N I m m m N m c k C U Y Y c c c T 3.^ 0 i x x : 4 g ( N n N ,.u.m p z k k u u u k k k k k l z z k z x z i k F l z i x z t F w w w i i t t w t f k i i w i i i R V.X.F t 4 i k w ",
"#.[ ~ F N a.a.| M q.[ ~ +.~ ~ ] X.[ *.) G ` +.%.@.%.+.` X.( [ ] ] +.$.) ) $.+.) ( ` ] +.#.%.m.$.$.+.@.@.+.+.e.i.W m u n H W . : W #.#.( v N q.Q W ( +.+.[ +.#.[ ~ ( W W ~ ( W G Q ~ W W ( ~ W ~ Q ( ~ ( ( W G G W N I W W T G Y N N N N W W m.CXa.R z f F ^ f # g ( [ ( #.u.v.b.u.*.G n W W N m m M M b b z m b M m n I N z z N m c m m m I m m m N N m m N m c k m c m k k m +.t.[ z e p m c : ; g ~ N I N r.i.z z z k l p p k p p l k k f x z z z z z k i i i f i k i t i i t t t k t i i w i i i w i i i l F V.] &.t 4 F k i ",
"( [ [ G N e.r.T z ] >.{ +.~ +.o.( +.%.` Y ( +.@.%.+.+. .+.m.*.*.$.%.$.+.` $.%.[ { +.` %.+.+.+.+.*.*.#.+.+.-.q.3. .k i N @.( X : W #.#.( c N $.( Q ( +.[ +.+.` ~ ~ ~ W W ~ ( ! G Q ( ! ~ ~ W ~ ~ Q ~ ~ W Q Q N Z ) ) W Y W W Y N N W N N W W <.T.z./ x f F F 4 # c H Z ( +.u.!.C.G c N N F F F c f N M N c f c b M F N F N x z c s l c C m z c m c Z c k m M n M c m k s c Y +.W c v z B i m k 0 ; m ] F N T w.r.z z x s k p k u k u i l z k z z z x z k F l l F z l i t t i l f f k k F t t t w w w t t i i i F V.e.R 4 4 k k x ",
"[ [ [ G F b.e.T z G @.[ G ] ` ] ( ( ) Z Y ) +.+.+.+.+.` [ [ #.*.+.$.m.t.%.-.-.)  .+.+.( ( [ +.$.#.$.+. .` +.+.*.X.k e W ( n . ; G [ #.[ v Z #.( ( ~ ( +.` ( W Q ~ W W ~ ! ~ ~ ! ~ ( ~ ! W W ~ ! Q ~ W W W ) ) Q Z Y Z W W Z W Y N W Q W W W r.z.+.R m e b F t # n ` *.( W r.b.t.n G N F F F F N b m c m m c b F F F M b N N N c z s m m z s c k c k k k m m m M W m s c N m k u b b z 1 e k k > ; n ] T N N i.l.m s p k p u u k k k p i l k p k z k i z l k F i z z i t 4 i i i i k k w q t t w w t i w i i l F V.>.X.F 4 l k l ",
"~ ( [ G ! b.r.F f ! G F Q ] ~ ] ] ] ` +.+.Y )  .` +.+.) ) ) W W ( [ ` ` ( *.*.` +.+.+.] ` +.+.( ` #.#.`  .( G ~ W m r N [ N O ; N +.#.+.n N $.W W W ~ ( ~ Q W ~ ! ~ ~ ! G W ! ~ ( ~ ~ ( ( ( ( H G Q Z N Z W ) ^ Y Y Y Y W W Y W W W W W G W $.z.w.E m t c ` c , c $.i.G N n.z.%.x b F F M c M N m f c b b N N m F W N b M b T F m Y Y m c c c i p k k C p p z m m s U N c k c m b z k 0 0 l u : ; G [ c N I i.z.N p l p i u k k k x k p p i i l i z k i l t F F z k i t t w i w w f k t q t i i i i i i w i e F i.[ O.t 4 w w z ",
"( ] +.W ! T.p.F x ! ! ~ / ( ~ ! ) ) ` +.$.u.q.` ) ) ` ) W W Q Z W ) ` ) ( [ ( Y ) +.( ) +.+.[ +.( +.` ( ` +.(  .N x i N ( G O : n ( ( ~ n n $.W W Q ( ~ ~ ( W ~ ~ ~ W G G W Q ~ W G W ( ~ ~ ! W G N n Z W W W G Y Y Z W W W Y W W W W W G T r.b.z.| x t F G e * c H G v W i.W.3.z c z N N c c m f f N F F M b b F N M N c c N F Y Y m m c k s p u u p k p p s m c m n v m g m m b k p 0 0 p p : 4 c ! z m N r.a.u u s k l i p p k l p k i i l k z z k i F w w i k t i i y i f y k f i k i w i i i i w t t t e F V.] F q 4 k k z ",
"+.[ [ W N C.i.W x W ( ( ( ~ G G G ( ( ~ [ [ *.y.e.[ W ~ ~ ( W Z W W ( ` [ [ ( W ( +.[ ` +.` [ X.` ( (  .[ +.*.m.W k u N +.+.t 4 Q ~ ( ( v N *.( ( ] W W ~ W W ~ ( G N G W W N W G F W ~ G W G G Z Z Y W W W Y Y Y Y Y Y Y Z Y Y Z Y b n Y n m.CXa./ x t F F : # g ~ #.g ~ i.Y.3.c z c N m c f z u i M I Y b c N n M Z Y c n N Z W b z k l e e u s I i p c p k z z c z f c c c b F m z q e k c e : s ` c c Y w.w.u u k k k u p l u l u l k k k u k s k s k k s u p i p u u z k p k l u k k l i u u i i u t i q F b.&.( e 4 p x m ",
"*.$.( n n w.r.N c W ( [ ( W n n ~ ~ ~ ~ ( ( ~ ~ #.q.+.W ~  .Q W ~ Q ( ( ~ ~ ~ ( +.+.+.(  .[ +.[ [ ( ` ( (  .@.#.N l w n [ ( $ 5 Q ~ ( ( v v [ ( ~ N n G W Z ~ ( ( Q W ~ H G G G G H G N n F F G ) ) W W ) Z Z Y Y N N Y Y Z v c c c c Z Y N $.z.v./ z q F F q > b G v F ` r.b.2.Y z c m c c f p s s m n Y b m m m m Y Z M Z m m N N m z u e u u W m z s s i y p c z f f m z f m W m x : e z k B > v ) k c v m.m.c k s k s u l p s p u k k c k p u l k p l k s l k i t e p p p i p l l k k i u u u i i u w t q F b.6.6.4 4 u b N ",
"+.] [ N c r.u.W c N ~ W ~ W W ~ ~ ! ( ( ~ W / ( ~ ) ~ / ( ( ~ ( W W ~ ) W W ( [ ` +.+.+.+.[ [ [ [ X.] ) W G ] @.W u : N ( f   e W Q ( ( b n { ] G n G W N Q ( ( ( W W G N N W G ^ ( Q N n N F W ) ) Y Y W Y Y N n c c Z Y Y c p s c n W Y C l.(.a.T k e ! G y ; v F F ~ ` e.x.^ m c k c m N c c n I m b N n c m I Z N Z Z m k z m n b s p p u ( m u s z k c i k f f z f p f i f p k z : t c c 5 - s Y k k c m.m.m p p k k k p p l p u s k k k u u u p l l u l p f f t w u i l p k k k u l i u u w u i w t i t F C.$.] e 4 i p p ",
">.@.[ N G C.a.n p W ( ~ ~ ~ ( ( ( ~ ~ ~ W W Q ~ Q ~ ) ) +.(  .( ~ W W ( ~ ~ +.( ~ ( ` (  .[ ( ~ ( [ ) Z b N ( $./ u : m H F o 5 Q W ( ` c G e.Q ~ ~ W W G ( ( Q ~ ~ W Z G F G W G ! F N n n N F Y Y Y Y Y Y Y Y M c v I Y Y v g n b Y ) Y Z +.CXe.T l f F F y - b G Q ( +.n.n.| N c k c n I n n Z m c m M b z c Y M N Z c c m s c z z p p u +. .u u e p z z N c u f f f t i t i r p x > t v Z 5 - c ) s l c m.m.k k p k k k s u p u r l k k k p p l p p u l p u w t u u u i u p u k u u u p g k u u i u w i p Q Z.$.( 4 : p p p ",
"[ { ,.Z G b.r.c p W ( ~ W ) ~ ( ( ] ( ~ ~ W ~ ~ Q W W ) G ~ ( W Q ) W ~ ~ ) ( (  .( ( ( ( ` ~ Q ` ) W Z n n W ` N i 0 m +.( = > F ! [ +.c n *.[ ( ~ Q ! ~ W W Q ~ ~ N G W G F G Q W Z c m N n N Y n n Y Y Y Y Z Z M Y Y n M v U Z Y Z ~ ` Z ` a.*.T u i N b 4 = g #.~ G F i.l.*.F c z b I T b m U c s v n m z s M N n z m Z c l k l p k e X.( s p e m m k z c c p z z f p p u p u x l : : N ( : l Y Y k p c m.N.c p p l k k p l u u u k k p u u l s k k l p l u e u k k u e u u k u u k p s s k i i w t w f c Q b.&.] e : p z p ",
"s.w.Q n n n.w.c p F ~ W W ~ ( ~ ~ ( ~ W H W ~ ~ W ) W ^ ( ~ ~ ~ ( ) Q ) ( ( ( ) Q  .( ( ) W W W ( ) ( W N b c @./ u q I W c O : G H ( H g N u.+.Q W G ~ [ W G N W W G W W W G G W W I N G N n n Y Y U Z Y Y Y Y Y N Y Y Y N m Z N Z Y W W Y -.M.&.T i t c N p # g [ ] G N <.z.*.M b F N N N c b v c c z n b z z c m c c n Z s l u k s e ] ) u k r n 3.z p p p y z c b c z z c k p z x q p W N > h C ` m c v m.w.l p p s k k k s u p p k s u u u u p u l u p p p u u k p u u u u u u u k m c l l i w t f c g v H s.&.*.t 4 p z l ",
"H F _ N N l.q.m k N W ! ~ ~ Q ~ ! Q ! W W W W W W W ) ( ( ) ( ( W W W W ~ ( ( ( ) Q W W W Z W W Q Q ( W G W W q.( u 0 N Q N O : G ~ ~ H c n [ W W W G W W W W c c Z N W G Z W G Z W W W W G T W Y Y Y Y Z Y Y U b Y Y Y Y n c m m n W Y U n i.!.l.N z t G ` b # c G G ] W <.z.#.c c c m m c c c c m n c N I b z p s z m n Z m p s k B ( ) u s i z q.m p p e r i f c c c c n n c u k x 0 e i i q 2 C  .k s m m.m.u p l s c k k p k u p N p l u l s p u u k u k s l u i p i u u l u u u m C s u p f x f n F v g ( s.$.( u : p z l ",
"~ ( [ n G x.q.c k N Q ~ W ! W ) ~ ! ! W ! W W W W W W ( ( ( ( ) ) W W ) ( ) Q ) W N W G Q W Z W N G Y n b Z ` +.I u e N  .G o : G ~ ( ( v N [ W ~ W G W G G Z N N N N Z N G G G n N n W W W W W W Y I W Y Y Y n c c b Y Y M m v n n m Z v Z -.b.y.T z p H ~ e o c G ] ~ F ,.x.! p f c z c b N f z s c c c m N m z z z m M m c p k e ( %.u p p k 6.N i e p p i i p z z k c N n c t e i > w p x : B m ) k k v m.;.u u l k m m k s p u p p p u u k k p y l r l u u u u p i i u u p k p s c m c u p p N g b N N z ] s.&.W u 0 p z z ",
"( [ [ n Q $.u.m i G W W Q Q ) Q ) ) W ) W N W ) Q Q ) ) ) ( ( ~ ( W ) ) W W ) W W W W W Y W Y Z N b N G Z n ^ *.M u 0 I ( N o ; ~ [ ~ Q v n +.W ( ~ W G W Z W W N G Y N G G W Z Z n N N Z Z W G Y n Y ) ) Y Y m s c b Y N Y N I I c k m m N m.z.-.I k k N G q * v ` ] W N -.v.X.z m c k m G W v z z s z z m N M m z z p p p p f t W W p f f f *.~ p e W *.f p c c z c f c z N m p 0 w 0 u k k e l C ^ p l c t.M.p B u k m m c l u u p u p k p k k k k u u u u u k u u u p u u p k k c m C c w g N u c z c c n ( a.$.X.e : l z k ",
"( _ [ C ( u.-.k u N W W ) ) Q ) W Y W ^ Q G W ) ) Q ( ) / W ^ W ^ ) ( ( ) W Q ) ) ^ Z W W W Z W G N W ) Z N W ( m e e Y Q I , : W ~ ( ] c N $.q.+.Q Q G W Z Z N n Y G G Y Z Z W W n n N N W G I Y Y Y ^ Y ) Z m b m Y N N b b M n z s k c Z n.(.+.I k p c T c = c ` Q Z n #.M.e.z c c N N c c G z u p k c N Z Z z p p u k z p u ~ ! u z z p #.] r c +.+.m z p p z m c z z c N p u u u 0 u k k e u c Y k p C w.m.u u l s k s k c p k l u u k k k c s k l k s l k k u u u u u u l C c k m v l k k c i c n m n c ~ z.&.+.e - s s N ",
"( ~ ~ N Q Y.w.x i W Q W W W W W W W G W ^ W ) ( ( W ) ~ ) Q W W ) `  .( ) ) ( ( ) Z Z Y Y Y W ) W G G G n I ( ) k > 0 I ( N o > G ~ ~ ` c c [ ~ N G N G Z N I G W ^ G N n Y Y W W G Z N W G N G Y Y I Y Y ) Y N Y Y Y N N b c s c c Y c c c b.T.$.x k p N T p = s Q +.W W [ l.q.z f z n m c n W Z p i z s n W b c z c p z c i c N p p p f #.$.y W t.W r p z p k p p p k z c k i u y e = e l z u r V Y u u c *.;.p u s l p c p u p u u B u k p k s l k s l p k s k u u u u p p u k u k C Y m c c I n N N N c r $.M.( ) B - c N N ",
"( W ~ G +.u.q.R ( ( Q Q W Z Z ) Q W Z W W ( ( ) ) ) W Z Z W ) ( ( ( ) W ) ( ) ) W N N Y Y W W ) ( T Y N c c Y Z x m m G ) I o > G Q G ` n [ [ v N N N G W Z N G W W Y n N W W Z W W W Z I Z N I Y Y Y Z Y Y N N n Y I Z M N b c k Y ` Z b z.4X].{ x m f T M p > r ` ;.Q ( Q.].+.c f z z c b N G ) Z n Z Y n ) x x n m f p p N n q u p t G &.N #.*.N p k p p p i i r i u p k p p e u 0 1 p z x e B s N l U H T.M.u u p s c k u u u u B p s k k k p u l p r u k k p p u p l p u l k p l Y C U C c v W N c p 5 $.tX2X@.R q : v n n ",
"( ( W a.Y.+.<.oX+Xu.+.( W Z W Q Z W W Z W ( Q G ) W W n b I ) ) ) ( ` ) W Y W ) W Y Y Y Y N N ( ( ) W Y N b n Z X.G.H.( W n , = F ~ ~ N T.$Xv t v N N G ! W N W Z Z G I W Z Z W W Y Y W G I N N Y Y Y M Y Y m c n N n U c Y b c Y -.{ ) Q.xXMXeXH 2.+X+.n W p = c Q ` W !.MXbX+.p M b m z n m m b b b b b N I c k m c p p c c b n p e N ~ c >.W f b m z c z i u p p u i p p p p p r E O.m c z : B n Q Y _ &XMXCXB u p k c s p B B u p k p s k k u u u u u B k s k p u p l p p u v c m Y v p k U p p c k p +.aXMXfXW n 5.N g v N ",
"[ ~ u.(.W n _ a.0X+X7.) Q W W Y W W n Z ) ` ) W W W Z W G G W W Z ) ( W b b Y ) Z Y W W Y Y Y Y ^ W W Y Y Z n n Z 3.XXG.Q c o > b ~ ! (.eX~ p p c N N T W G G Z b Y W G T N T W Y Z N Y I G Y N Y N Y Y Y N c c n I Z Z b M b m ) { Z Q.vXMXtX+.Z v c.6X3.c q > n Z W E.MXhX$.p c N G N v N c c N c c m m m k k c c k p z f f c ~ c c W N F g t p z g z p p f z k p e i u i p p i e m 4.5.x z : B n Q Z ].NXCXB r B k v c k p B u u v c s m u l u u u u B u u l l p p p p u u u p k c v k c s k p i p i [ fXMXtXT e p X.8.N g v ",
"( l.(.( n c C J r.iXP.%.) Z W Z W *.n.m.[ N N N Y W W W W W W W W Q W Z N Y Y T Z Y ) W N Y Y Z Y Y b N N N n N v s +.XXS.W o ; N ~ %X,XW c n g c N N W W W N N Y Y W Y Y v N Y Y N N Y G Y Z I Y Y Z Y Y Z m c m v n Z W C ` Z { Q i.xXMXaX( v v g v x.6X7.e = t Z C.MXjX+.p s c b N N N Z N c b z k c c z k c c c p c x f z p p c +.( F c f f i f f p i p c c k p i r B e i p e e r x 2.5.k : e C Q ].MXCX0 e B u s s s k p p u s v c v k k k s l l p u u B u p k k p u k l p u k s l c c k g c k p ` >XBXaXW 4 t g n X.0.W c ",
"r.T.] ~ F c f F Z m.8XP.2.Q Q W G Z ) *.r.q.+.` ) ( W ) W ) W Z W W Y N N Y Y W W Y Z W Y Y I ^ Y N b b c g Y Y v c s  .XXP.> : G !.1XF c c c c n n n H G W W W ) W Y N Y Z N N I Z W Z I N Y G Y U n Y Y N m c Z Z U n C W $.` Y w.rXMXtX] v b p g H c h.0X6.X y i.MXsX[ s z c m c n c N N c z s v z b z k c x N c f z c c p p t ( ~ f z b f t i i f u u u f p k p k u q e u r e e r p p O...B s s !.NXCXB u B u p p p s p B u p s k s k k c c u e p l u B u u p k l u u u k u u k v p l k u c c r #.4XNXrXW e r e t s b E 5.W ",
"l.{ G G b s s c Z s m.;XXX3.Q ) G G G N ) W +.t.Y.l.#.) n b W W W W Q ) N n I W W W Z Y Y Y Y Y ) Y m m n Y Y Y N s p v  .G.0 $ +.~.G c n v c c v v N I W ) W Q W ^ W b I Z Y n n Y Y Y n Z N I W Z Y Y N M b s I ) n Z Y Z ` Q T.sXMX,XW v n c s g J n r q.4.O r Q.aX/ p c s c M b N c c c s Y Z Y c z c z z c c c f p f f p e ! ! t f p f p g c p p i y u p p p z z u r t e e e e e e e p ^ u e n >Xn.p p e r i r y p s i e u p k k s k u s k u u u u u B B u p p e u e u u e u y z x p t t f e $.uXMXaXW 5 4 : t c g h v N O.",
"G n g Z n g c c N Z z X.-XF.$.( W W N G ( W Q Z Y [ l.l.q.) v W W W ( ` ( W Y n Z Y N Y ) ^ ^ Z W ) Y n Y ) Y n z c y Y Q m , : G { { Z c v N Z N n N Z G W Z Z W Z Z c b Y Y m c m n U U Z m Y T T Y N b b n m c m m N b b Z Q.BXMX>XN p c h c g g n n c n : o e #.] g k p c N N N N m c n c W W v m s z c z z p u u t u u p T N c m f p i f F N y p p l p p z y c c p u u e e u u u u y s N e e C +.r c p p r i i e y i y p p c k k u e k k k p p l u u B B u k i e p p l u e p p z k t w p e +.tXMXaX[ v e ; q t g f v n c N ",
"W c N G N c c v n N Z v  .oXD.3.Q Z G W Y W W W N Y Y W #.u.*.Y W Y Y W T ) Y b N Y W ^ Y Y n Z W Y I Y Y ) Y s s b n Z ) n O 1 G } C Z W Z W G W N v N N G N N N Z n b b b b b v n m C m Z Z m G G M n C C ( Z n b c M m Z ].NXMX>XW f g g c v c v c G v W 0 O t [ F n p c N I n M m c b Z b b c c z c c z s s f t e e t p F m p c z i t t f g k u y p c c p p r x n k p p u t e e i y s Z W : 1 g G r p t p p y e y p y e p k p s z u w k m k k s s k p u u u i e u u u e p e u i c p e 0 : ] tXMXdX( p y r e 4 u p u c r c c ",
"G F W Z N N v N Z G Z Y c X. XF.q.( ) T W Y n b N Y W N Y Y ) W Y N b G Z I N Y Y Y Y n Y Z U Y Y n Z W b b Z m c Z Z W W N O > N G G W N W W Z W Z N N W W N N b N n b b b b c m n n m m Z k v n b N Q b W Q Z ) m M b C @XBXMX,XZ f y p c g p n n Z H Z Q r . e _ N p c N N N b c c m s n Z b s m Z b b v z z c p u t u f z p k u p p u t i z p i i p p p p p u p c c i p p e e e y u Z Z s 0 e c Q i t u p g p u i p i y k k l u k k u k k p l l k p u u l p i i p u e i p p u u k k q : [ aXMXsX/ e e e e q e u t e q e p c ",
"F N ! G Z N N Z G Z T N G n W /.^.m.) Y Y G n m Y W I Y W ( W Z N b N Y Z N N N W Y z c Z Y n m Y n I ) m c Z I N G W W W N O > c _ [ c c N N W W G W Z N Z N Z Y N b M Z N c c m Z Z c v v c g v Z n b C ) C Z n M N N ].NXNX7XW k u p c c g g b G ~ ( Z G e   e ( N z m N N n n m s s k s c m c n n m c s z z z f z z f p f z u u u u t w p c p p l z c k i e u u p f u p u u e e u c n Z Q 0 s N { z p p g p p p u p s c v v s k k z c z s i p k p u l p p k p s l u u l p i e 0 u k e ] aXMXsX/ q t q q 4 q u i p q u c p u ",
"G F W W N N W G n n W W N N v #.^.S.*.N Y G n b I Y Z N Y W N Y N c b I N T N W ) Y I n Y Y n c Z Y ) Y Z m v n M Y Y N Y N . ; c Q W c v m c n c n Z N N N N N Z Z Z Z b c s g c c c s k g m k z c c g c b z c v c Z #XBXMX*Xc p p p c N n c c n G ( _ ) v e O 1 ( Z b n N I N b m z z m c c s s m m c p k z z b n g p i i k t t e u p p e p c p u p z p i q e e t p p f i p f z i i g Z Z Q > 5 n +.u f p g p e r u s z s v W m z m M b z z z s y B u k Z Q m p i u r y u 0 e e 0 e i >.fXNXaXW q e t t t p e e e i e k c N k ",
"! W T n b n Z G Q G G W G W W G X.g.d.#.T Z W W W W I n Z W W Y m c m G I Z T N Y Y b b Y W N g M n Y Y Y I I n Z W Z M n s O > v ] W N G N v N n N N N I G v v Y Z W t.CXM.T.E.Q.T.E.E.T.CXM.Y.CXM.CXCXCXl.b.l.b.M.$XNXMX*Xm u p g n N n c n n c N ~ _ W W e   B Q G W I N n N n b b n n c z z z c v b z z g c N n z p p c f t e u p c N F g p i u i i r e B 0 q p u f f p p c g s g z z v N > > c ~ p z p z p u e u c k p n N p z m Y I I U ..) ) X.X...m.u.o...2.3.X.2.%.3.t.2.2.3.q.3XNXyX .u e q u t i p w 0 0 B p c x m c ",
"W W m F [ z.<.Q G W Q W G W N G W  .f.d.( Y ^ ) W Y Y G ) ) Z N N M G W W W W F Y T c s Y Z m c Y Y N Y Y n Y u.l.) n b ) z O = v (  .W W 3.E.q.G v n W G I n N I W m.}.MXMXMXMXMXBXbXMXMXNXbXNXNXBXmXMXxXBXhXjXlXhXMXMX<Xb z m n c c n G n c *.z.@._ ( b M e . e Q Z N N G r.u.( n m W N b b s s m Y W Y I c z m z z p f c g i i u k n c N c p p i i e z u 0 0 u p p p z p f c W w.+.z p p k 0 - c ! p p f W a.m.m p c b c b b p i Y +.( 5.9.9.H.H.G.S.g.{.F.XXF.P.U.P.8XXX8X8X8X0X6XoXdXyXX.k u p t e p u u p k [ 3.c p k c k ",
"W T N W M.yXj.Q W W Q W W W v N (  .( +.[ W W W Z Y G G G W ~ G W N ~ G W ( ~ H Q ( W n I I Z N Z Y Z n U Z @..XJ.` b N G g O = c ( X.) ( #X.X*.H N N Z W W c N ~ 6.Y.<X:X#X_.}.%X`.(.'.E.!.(.E.Y.E.`.'.x.R.l.E.v.x._.`.R n m c T G m m W Z Z ].^.5.Z Q C z 0 O e Q W N G q.:X7.+.n c c c c b c n n I +.T W n g v n n v v n v c c p g N c c b c c j p z c r e e i i f f z c s ` !.c.R.c p p u > = b ` p p c ~.1Xd.^ i c b c z s z G T ) I %.[ I W ^ M ..^ r. .%.2.X.&.X.4.%.o.o.6.7.j.8.6./ M z u t e p p u u p e.F.3.+.u c N k ",
"~ W ( W _ ~ g y T ) ( W W Z n N &.q.C 5 - ; ; ; 3 - $ - 2 < 6 6 6 8 7 8 8 8 y 8 6 a j Z ) ) W Z n n Z m c n { ~ A j c Y n z O > c ^ ( ) Q { Z a g W G N Z N v W *.J.-Xa.d A j J A V V V A A A _ K P K A K _ _ K A H J K Q ) I c W W G N Z Z _ ' C a s Q W T e . 1 W n W ~ { $.h r p m m b v b N U n I k y 2 < 7 8 7 8 8 8 d 9 d 8 8 8 7 8 8 7 7 8 7 7 j Z l e e u i p f b p z { <.c c p p y 0 = : v { p p n -.) k B s b N z p k c ) T I W h 8 a d V a j h 6 6 6 a a j d 6 a a 6 j 6 7 8 7 t x k u u t p i u p c H n p e q x N W ",
"W / ( W s 8 3 y ) (  .~ W W Q W  .Q %                                                 6 W ~ W W m c n m c n v a 8 1 N G W i . > c W Q ( W h 8 3 v Q W N n N G +.f.R.[ 7 % @ + % 3 $ % - ; 3 2 2 3 1 2 1 2 1 2 e 6 6 7 V =.` R I I ) N N N b Z h d 2 t W N W r . 1 W c s W C 8 8 - c N T b z m n c m m r $                                 .           @ 9 v l e q t u u y u v n 6 r = t c y e = > v #.z c m r & % : c N Z c k c N b N ` 0   . . O O X + O O O O . . . O O . . .   O O   . 8 p k z f p f p u p c 5 7 1 = i p m p ",
"Q ` ~ ) Z r y W ~  .( ( W W  .~ V &     X = > ; : : > : : 1 5 5 5 5 5 e 5 e 5 e r e : + r G W Z n Y n m m Y Y v s m M N ) v   = v ) G W ) Y y v ~ ( ~ N m N +.f.Y.,.7 .   # - > : > > = - - < = : B 1 1 > = ; 1 1 : : ; a =.{ W W W m n c c Z b s y c N b Q 7 . e G N b N n h y g m W F c z c c c m 2 @     $ > ; 5 5 ; ; 5 > 4 4 4 : ; ; ; 5 4 5 1 : $ + 8 h p u p i t e y z b y : - s v p i $ > c ( m c n p : ; c b Z Z k k Y N b Z 6     . O $ = o o o o o O . O O O O O O O o # # o O @ j n z N N c p f p c t - o q p n p e ",
"` N Z +.( ( ( ( ( ( ~ N c m ( A &     : s g c c n n n N n m N N N F F n b N N W Z N g e $ 6 W N F H Z n Z ) ) Y ( ( W W _ d   ; g W n N ) ) ) ( ( ` +.W b I +.t.` 7 . . 5 g v n b Z c s k s c s n Z Z n g p g W N v n p : r P { ^ ! I c z v N N n n m N c K - O e Z J m N m N W W N n N c N N v m r .   o e p g g g g g f c c f c z p p f f g c c z p p : = 7 V x p u p k k e i p p e i z c e + 1 r ' N N c c n b I W W Y m m H Q Z -   X = 5 e r e : 0 e u i e ; : : e > 0 : e e 5 e r > X . V g k c f p r p g l u i i p v v s ",
"d G I W W W G G W G W Z } K J @   . > s G n G Z N G N N W N T F F G G G F W W W W W N n g > y _ Q _ C G ~ _ ) Z ` _ ' P P %   4 y j v g c W ( Q ~ ~ ` _ _ } ` _ <   + s Z Z Z W Z Z n v n Y Z W Q H Z Q n n Z Z n Z Z n g 5 e K <.[ N G Z Q Q _ G A } } A.L   X y 5 A Z Z W Z Z Z Z C n C G Q K d .   , p c c n n n v g H g F c c c c n C c g c v n p v v p : d J g j h n g p a s s h s e r $   t 1 C h n n c G N n Z Z n c H H C o   X q p t p p r e r u e e 0 y e y B 0 e u e t r 5 r t : $ + V j ; 5 a e c c c p i e 1 p s = ",
": 1 - o $ = - - = = = = : & 3     = = 5 y g r h p e > ; : > ; ; 5 e 4 4 5 5 5 5 e 5 1 : 5 : X - - < ; : 1 - - 1 : ; - 7 $     r v 2 $ = % : 1 1 ; ; 2 e a j j 2     - y e e e r e 1 e e e p p g r e p s v j s s e r e s h r 1 - 8 y 2 6 5 6 a j d 8 L L D @   = g 1 < 6 % > 1 > 1 > < 1 < 1 < j @   O : 5 5 6 e r : : r 5 4 5 4 : ; ; 5 6 5 > 5 1 - = 5 r 5 : - 8 2 8 8 8 8 8 8 7 7 7 7 % @   O p t + 7 < - - $ $ = = = - = 3 - o     + > > > 5 5 > # > : + + s c p s y * - ; - 1 = = > > ; +   + < o o + O o $ $ $ o o o o X   ",
"h : O                             O O X o o + $ = o   . X o o # $ ; X . $ X o $ @ $ = $ $ $ = o                             - N Z p X                             .   . . O O X . o X @ . . o + o X 1 - + o + + = + + ; ; = 1 o                             . 5 v s -                           .     .   O X X X o $ o X X X X X X . O                                                       : p j 1                         .                       O . O - 1 - + - : .                                                     X ",
"Z h p 5 1 e 6 ; - : ; 1 1 1 : r u y s s 6 y s s u u y v r g n h n g g n ~ h F v v H G n G h n c y 5 - ; ; 1 5 e 5 1 5 : r y n Z n v a e r e r e 5 1 ; - ; ; : e r e 6 e e r 6 y g g y g g v c v v v v n f f g v F F N v c n v f r e : 1 5 5 : = $ = > ; = : t c v v v 1 ; ; > : : 1 1 : ; 1 1 B e r B p c p p y s v s k s s c c z s s c s y s s g c z c c b s s e B r r r e 1 B 1 B 1 u r : 6 r y c v y y e 6 5 5 4 4 ; 4 4 ; 4 4 4 4 4 4 4 4 t 5 t t t t t c s s f f s y y t t e e 6 4 4 4 4 4 4 - # = > $ = - - 4 : ; ; ; : e ",
"N e.E.Q.Y.W.T.T.T.M.E.W.Y.E.b.W ;.m.n.m.N.Y.w.v.E.Z.(.T.!.W.T.T.z.T.T.T.C.Q.T.Q.T.E.W.Q.Q.V.<.Z.T.~.T.!.!.M.s.C.z.z.z.z.*.W G G G G v.`.~.).E.E.W.T.Y.T.E.(.T.*.[ ,.a.a.a.l.z.a.a.h.l.u.r.*.u.l.x.l.l.p.a.h.u.6.r.>.q.u.w.6.+.p.z.D.f.u.u.u.e.e.6.6.q.t.t.W g Z Z Z +.v.i.r.r.q.m.t.m.e.7.+.3.m.( W ) [ ( ) ] +. .( ] `  . . .) ` ` W -.3. .+.%.+.X.$.[ ) *.` ` t.3. .X. . .X.X. .%.] +.m.m.I s g n Q >.o.X.o.o.&.+.( +.] ] ] ! ] F c F R H R F ( ] ] R R ( ! | R /  .| |  .X./ | | | / ] o.T ] #.] ] %.o.&.o.2.2.6.7.6.%.d. .p ",
"!.2Xz.u.n.z.CXCXz.l.Y.l.l.M.1XS.' )  .@.m.i.i.u.z.`.u.m.u.r.e.t.*.q.6.a.,.q.q.r.*.y.*.q.&.C.VXvXR.V.l.v.F.l.r.l.u.l.f.T.^...1 g N @XfX!.W._.v.'.T.!.}.:X=X$XNX7Xy.+.*.q.e.r.a.p.w.q.r.X.X.( 6.*.6.>.$.+.>.>.$.] %.+.] X.X.[ ).BXMX1XY.R.f.t.f.c.f.u.q.f.F.6X( e N q.aX}.n.q.m.+.[ $.q.l.w.r.t.E.+X2.W M N N Y ^ W ) Y Y ) Y Y ) ) ( Y N W ) ) ) ` ) Y N m k Z #XBXl.I T T I Y Y I ^ W m ) F.P.l t b >X:X/ T ^ T ] ] Q +.$.W ~ ] K..X .4 x F x f f m $.] [ F l m F x x z F o.( F T R M x M M x b.>X/.X.o.X.X.O.| ] | X.X.3.f.d...",
"q.q.c e p s z g z s s z c z W /.S.Z c ' ) ) +.Z s [ Z s c b b s p c c c n c c c c p k e ( 5XaX[ g f p y c n n c c g N G +.W O - _ T.,.N c n c c N W #.*.( ( b.eX-X2.n n W W ! ^ T T F N n m N M m N M m b n n v c n N c ` $XBXMX%XI N W n c c m n v g N G  X| O y W.%X0 p i p y i p i c p y e p S.+X9.s y z k s U n B k Q u s c g v Z b k k c M G v u p i n $XMXJ.u u e r u u u e e B B k m +.l # H 3X^ q e q 5 e f t f y t t g c L.;X| * 4 4 4 e t h c v 4 4 t 4 4 4 4 t f p p u i q 4 4 4 ,.rX3XR t t 4 = 4 4 > : t p s : e x ",
"c Z b v b W ( _ W N N N Z N n )  XS.) c Y A c s n y a s c m v z f f v v b F F g c c p -.uXtX( c b c N N Z W Z N n G ~ H ( N O * G W n W G b N W W G G ] Q G ~ ,.;X-Xk.Q G G F W ^ F F N m m n m m b m n c F F F n n b +.eXNXNX%X~ W W ~ ) n v C H G N Z n m.m   r W N g s z s z z z z p u u u k p d.+XG.U l p s s s k v N u Z p v c c z k s Z c z p p y Z >XMXCXe 0 B e u e e u k g s s e y H - X v ~ i e e t y t p u u t e f v t t L.wX9.- 4 4 4 q q q 4 4 4 4 4 q e e 4 t f f 4 4 4 4 6 ,.rX9XT t w 4 4 > 4 4 5 t c v p e p i ",
"W b v N w.2XR.( W Z W G W W W v  .^.S.@.*.m.w.i.w.q.m.-.-.*.-.*.#.$.>.>.>.>.,.<.w.-.<.uXaX) c b c b c N N N ) ].(.~ W W Q c O o n ( Z N ) u.#Xx.Q G W ~ ( ( W q.u.oXqXK.[ >.p.a.a.u.u.y.u.u.p.u.u.u.e.q.,.w.r.r.,.$.r.uXMXNXoX^ W W G W W v W q./.c.` n v Z r O e N p p p ~ W.Y.$.v c y y s s c z s 9.8XF.) C U Y Y Y Y C Y Q Y Z G M M m U Y Y M b c W :XBXf.0 e 0 B e p e e v i.R.u.m p s p = @ y F t t t ~ l.h.T p p t e u p p b y j.kXg.f f f f f z f f k F c c F b c b F n b n f f >.3X3XF 4 q 4 4 > 4 4 4 c l.c.( g r u u ",
"` N N Z s.>Xu.I n W G W ) ) Z N A ) G.-XvXbXnXvXvXBXmXvXsXxXvXvXaX3XdXvXdXbXNXBXvXvXVX$XW c c p p c N N N n l.#Xt.W N Q W z   o c ~ W W ` >X-X .G W ~ +.*.+.T ~ @.$.;X6X/.yXvXvXnXcXvXnXvXvXnXnXvXcXlXbXbXbXlXbXxXdXuXNXNX/.F F N G G Q Z W Q ]./.u.( ) ~ Q e   e N c p p u.uXD.%.b b b m m b c c z s j.8XXXl.f.u.l.t.w.f.f.f.n.h.h.h.f.d.y.f.f.f.f.q.F.aXf.B e e 0 e e e u B i.@X7.g.c k l l > o p ! t p t T.oXy./ p p i u u t t q p t k.6XP.k.k.9.d.k.g.S.k.g.I.L.k.L.L.K.L.I.P.K.k.L.}.;Xx 4 4 4 4 4 4 4 4 4 v.(.2.| e p u k ",
"G G W W j s : ; N Z N W W G Z N Z u m *XbXVXVXVXVXhXsX:X&XuXtXtXtXaXgXlXeXdXlXlXcXcX@XN k p f p g c N N N Z Q Q v 1 n ~ ( n   # v W ~ Q G H V 7 a ~ [ +.6.*.X.( [ y.j.oXmXcXmXMXNXmXMXNXMXNXNXnXnXmXcXNXnXgXlXmXxXNXMXNXE.m W F N I G Q ) Q Z _ K a 0 ( [ ` r   : n Q c m W { n : p N G N M b m c b g y 8.P.D.R.x.F.x.D.n.D.n.D.h.h.d.j.j.f.j.f.f.f.f.E.y.e i e q q e e e u k Q H y > 0 k c s - O 5 G f z f [ G p : t p t t t t t 4 q t k 9.P.I.k.g.S.k.S.I.I.I.I.P.S.I.P.P.I.P.P.P.P././.W : q q 4 4 4 4 4 4 q G J u > e i z n ",
"W Y Y Y y $ . 1 N Z G T G G I N m s p Y ) ` ) ` ` ) Y ) ) %.) ) ! ] ~ ~ +.[ ] [ #.#.c c c z c c m m n I N N b 2 < 1 N W ) z . O Z @.Z W Z g 7 3 C ( ` 3.3.*.&.2.@.3.y.v.W.M.Y.Y.C.b.z.J.'.Y.J.z.v.J.R.v.3.q.f.v.z.J.'.c.T b N T I N W ( ) Z Z V 9 2 c ` ` { p   5 W *.v n c a 2 - p b N M M b v v c s p y s M ) Y c m +.Y ) Q { ) Y U ` Y m c k c W W I l u u u q q e e e e p p < % + B k k p - O r Q l p p e & $ $ e t u u p p t t t i t q p z z p z z f z z z b c f f c z u x k z c z w : q q q q : : 4 q q : > % o , q M N t ",
"n Y Y n n y y Z W W Z Z b Z b b m c c v c c m m N m c m Y Y m c f f c f m F M c b b c z c b c z s m n Y N N M s p b Y T ) s   o v ( ~ ) ~ W v n ~ W ) ( %.3.*.m.t.f.e.H 7 7 6 8 8 6 8 d a a h j j a a d j h V V J V h J ] x f N I M W ) W n Z Q c N ` ` ` $.p   5 b W N N c s e y z b N n b c m c k u p z p p u y u e e u c u C n i s Y s e B w u v s B u p y u e 0 e e e u r i e : B u p p l > . y ( c i p t 1 = : e u p f f u t p f p t q 4 4 q q 4 q q q 4 4 4 4 4 q e q : q e : : : 4 q 4 q w q > ; 4 q q q 4 > = 4 e e e p ",
"Z n c Y Y W ) Y W G N N N N b c m N N N N N Y N Y N N Y Y Y m v c z M b M M F F F m b b N c p p p s m n N N N G N b Z G W p   o c [ ) ) ( ( ( ( Q Z c Y +.$.%.m.y.*.G 7 < 2 7 5 6 6 5 6 6 j a 6 a a d a a a a a 6 a a h =.[ x c z z W ^ I I W W ~ [ ` ` $.;.p   5 N I n c p c c v c M N N b c m z u u k k p p s c c u u u u u u p e w Z s e u p p v g g y p p k i 0 e u u y u 0 u l u u p k c :   e W s r i p p t e u k p p p r u i p i t 4 5 t u w 4 e u t 5 4 q u w 4 w e w q q q : : > : 4 q e q 4 : > q q : t t q e e 4 t p ",
"Z c M Y ) Y W Y Z N N I N N N b N Y Y N Y Y N m m N m N N Y v m c f M F b b N N N c c b m c p u l s c n M n I Z n N I W W c   o c ( N W ( ( ~ ( ) n m )  .X.X.2.7._ 7 & 1 e p p p s g c c g s c c c c g p s z s p p t 6 A K y.R s Y ^ Y Y G W W [ #.#.*.m.<.y   1 m N m c c c b N M b b b m c c s y y k k p p s c c y u e u p u u e p u u p p u e p g g s l u k p e e u k l u u u u u u l s s > . 5 W p z p i i u r i p k p e e t t e u w 4 4 t t 4 ; e 5 w 4 4 e u e 4 e e e q 0 : q q > > : q 4 q w q > 4 q 4 4 e e q f b t i ",
"Y Y W W Y Y Y Y Y Y Z Y n v Z I Y Y m N Y N N C c m N N Y N m N N c N N b m b N c p c n T n c p s s z b N N N I G M N G { N   o v ( ( G (  .( ( ) W T ( X.%./ ) h 6 ; 5 c N N v n N C F G Z Z Z c n I n v b v m c n c s a A =.*.I N Y N I W W ( +.*.*.q.w.-.y   : G ^ c z m m c b b b b m c c z p p p s p p p p s p u p u s p l u y p y e e e u 0 0 u p u p u k k k k u i i i i p u u B k s l =   6 ~ N c t e e u e i f z p e u u t t t q q t q e 4 4 4 q t q 4 u e u u e q q q q q e : : > : : q t t 4 : 0 q : 4 4 q 4 f f f f ",
"N N W I Y ) ) Y Y Y m m M m n Y Y Y C m k s N m s c m c c v Y N F b b b c b m c t p c N m c c b m m s m N N N N M N G Z Z p   X z ~ N N ( ( ) ) I N I W ] 3.^ V 8 < 5 c N Z Z n b G N N n v n c p n N N Z v c c c c c c p g J K q. .x m I I R ( $.q.,.,.q.-.s   : n M z c c c c m m M b m m c z k k k u p p s k s l p p s u y p s p k k i e B e B B B r u u k k u u k l i e i k p u u u u u B >   r ` v t r i i u p z p l e q p z i p i i t f t q q e q e t t w e q e u e q q q q q 4 4 q : : : t u w 4 ; 4 : : 4 q f t 4 4 p f ",
"( ` N n Y Y ) Y Y N Z m v n U Z N N N N k c m N c c m C v c v Y N N N b b c c f p p c c z p c c m c m c N N M N b M I N N k   o v W Z _ ` ~ ) ) ^ N z n  .Y C 8 3 5 p n W W N N n W N N n m c c c N N b c N c c c g c n g g d A =.w.R z b W ) ( +.,.-.*.+.<.s   : v c k c m x c c b b b m c c z c c s u u p k p p p p s k u u y p p k p i e e 0 B B e e r p k k u p z z i i p p p u e u k e e >   6 ` v p w u k c c z p p e q p z p f i f p f i e q e q t t t t w 4 q e e q : : 0 0 q w q q 4 4 q t 5 4 ; q e 4 4 t e c f y g b ",
"W ( Y T I N Y m Z Y I n m m m v N N m C m m m m C N m U s p l v N M N b c m c c z c c z p p c s p c b b b N T G b M N N  .k   o N [ ` #.) ^ ) ] ( Y I T Y h 7 - : s n N N N N n n n n N n c c c v N N c m N b c c v n c g c p a A K #.I m T W ( *.*.#.+.+.$.p   : v c k m m c c b n c m s p s c k s c s p u p p s u u u p u u p p p p i u e e u u u u e u k s p u k z z k p i i p u u k k Z m 1 X e @.c u w e p m c p p t w i p p p i e i t t t u t q t w t q q e 4 e e u : > > > : : q e e 4 4 q e 4 q 4 e w 4 4 w e 4 f F F c ",
"g ) ( ] W b s c Y W N N N m m C I U C U c N N N m Y Y Y c s p s m m m v b M b b m b N c p f k c c s m Y Z ) Y n I n U I C % . $ v Q &.X.W  .( ) /  . . .C 8 3 B k c m Z C c C m v m c c n v m b N b b n b c c c v Z c v C Y C k s A A { o.Y I  .#. .) ) ( Q =   : j n M I I m v m m m c s k s u p k s c k k p p u u u p p u y p i y u u r u e u p p y u y z s p i i p c x k u u p p z m z m h + # e A j u w q e p z u u u e u p p p u t u t t t t t q q q t q t t q e q q 4 > > 4 e t p z u q q 4 4 q t u e 0 0 q 0 q e c N c = ",
"1 ; n ^ T Y c M N Y Y W Y N v m m C U C c m k C Y Y Y Y Y c u c m h m m M n N N N n m k z c z m c c n n m Y m m Y U I C @ X O * y 5 G ( ^ ( ) N T %.#.h a 2 y s s C c N U m c c m c c c Z c c c b b M N b m c c N m k k C Y m m s p A A m.o.I  .( W N M N 2   O : r V n c U m m m g m c k k s s p k s k s p p k r 6 e k k y u y u e e i u p u y i y u u i p p k i u 0 u c x k i z m z z n e X O - g y V j w u i i e u p i p u t u f i t t t i q e 4 e q q q 4 t q q e f w w q q u w q q e e q 4 4 4 4 w u e 0 > 0 e i n n c o O ",
"a > - v W Y Z Y N Y Y Y Y N N m c m c m c U c c v Y Y Y Y m m v v m c s m n b N b N n c c n n M c m U v m m m m I m D 3 , 1 . = g 4 $ n (  .W  .^ N v 8 1 y c b m c m N m C m s c c s c c c m c m b N N n c c m m C v k g v m h v h k V A m.o.^ W I M h 7 + = O ; v v A V z M c k k c p s k k k k c k c c k s k p r u p p u B r e e B e p u u p y u e e u e u u e q q u p u p k m m c s 6 @ , $ $ a b 5 V a w p p e u u p p u e e u e q q t t q e e w 4 4 q e q q 4 4 e 4 4 4 4 4 ; ; q q e q q q q 4 ; e e 0 e q i i v n X O = ",
"v g - 1 n I N Y Y Y Y N Z I N Z c c m c c k C m Y v m Y m v v m v v c c v m v b v c W c N N I N g m m c v m v Z m V 6 > r y O = g c 5 ; Z ^ ) 2.( a 8 2 y c m M C m C c c U m C c c m m z s s c c b N N m n Z c Z N m c v m v m c m m c V A m. .I I N 8 . 1 : . : v c s A C m c g k k s k g k g k c s c c k k s p s p u p u B B B e 0 y c e p p i e B e u r e B e q e i e i u i k k z e @ o e * # p F q 5 V a w u p u p i u t t q e e e q q q t e e 4 4 q e q q 4 4 4 4 4 4 q q 4 q q q q q q q q q 4 : 0 p p n p u 0 c =   > : ",
"Z b p 1 r b Y Y Y Y Y N m v n m m m m c c C c m m Y m v Y m s v m h s c M g s z c z s y N ( N n v U v k m v Z m A j : s Z h . = n H c 5 6 _ W W s a r s g b b v k m g s g Z m m v m Z m c c s m m m m Z m Z m s N m Z v v c k v v c c m g C ' -. .v 6 o B k > O 1 c c c g =.} n s p u k k u k s s s c p u p y p s c p u s u B u y e e N y u y y u e B e p e e B 0 r e q r u u e B k r @ , B y $ * y Z u r r J A p k u t e e i e e e t t e q q t e 4 4 4 q e q q 4 q e 4 4 q 4 > : 4 4 q q q q 4 q q 0 > w p N r f u u :   = : 0 ",
"Y Z n b u Z Y N N N m v m m c c v C m c m m m c v c m Y v c u s m c k m c p y k s l k s s c N W I C c k g k m m i > e b C c O = g N f y 1 { $.C V a p c v g c c s c s c c m m c U v m g m c m c m v v m N m c m m g c v v g v c m c c M n I C ' ` s ; : c c >   B v v c z H B.Z k s u p s y k s u s p u e e e p c c k p p y r r y e N i u u u u e e r p y u u r e p e 0 q e u e e c 1 * B p l * + r b k p p _ -.z u u e 0 q r i e e w q t q q t e 4 4 e q e q e t q q 4 q 4 q 4 4 4 4 q 4 q 4 q e w 0 q u : : q i p e * = > : q ",
"Y W Z b p Y Y N c v v m c c c m N N C m m m N m v k v N Y c u c c s c c g s p y s p p p p c c c N m v v m k v v e = : m Z g O = g N c c p G ( H V p g z s v v c s k c C c c k Z m m v m c c b c v C m I m m c c m c k C c c v m m c m n n Q I ) N c a r c s > O e n v z g W ( Z u u u s s p p y p p p y r B B s k k p y u u u u u z y e y r u u r e r i i p u y r i e : 0 e e u k u : = s p 0 * = y N y k v G T e 0 e : 0 0 e e t t t t t e q e e 4 q q q t 5 e t q t q q 4 q 4 q : 4 q : 4 0 q : : : u e : > q k i : > ; q q q ",
"N Z N v p n N W ) c k v m s c b N N N m Y m C N c k N m Y v c c s c s s g s s u u y s z g s c c c Z m v g s v k 0 = 0 b N z . * g N n c c N W W p z c s z c s k p k c c g c c m Z v v m b m v b c U v Z m h c k g m v s k k g m c v n Z Z W Y ( N p e e z c >   e n N c v ) +.Z e e y k u u y s y y p p e B r p p p p u u y y y p y B r u u r p u e e u p u y i i i e : e e r u u a 0 * p s 0 * $ y n l i g W I e e e e 0 : e e q t e t 4 4 4 w w t q q e t w e q t q q 4 4 q q 4 : : 4 q 4 q 0 : : > q i > u p u i u = : q q i ",
"n N v z s M N Z +.*.( Z c c p s m N N v m m C m v v m Y N N c s s c s p s s p i p p c c s p p c v c s c g r p g e * 0 b N u . * s n b n n W W H c s z c m g s u s C g v m m c v c c c v c c m b c c c m s c k c s m c s s g g g c v G H ) n Y W n k B e g m > . B c b b b Q +.W e e u u y p p p p u p r u r u p p u u e p u u u u e B e y i u r e B B u e e y u u u e w e e i e i 0 > = e p e * = r b p i z ) N p p u e e 0 : B e e e q q 4 4 q q e q q e e q q q t q q q q t 4 0 : : : e : : : 0 0 : : e c c : e c p = : e : e ",
"Y n v g p N N N v N +.m.` c p s c c v m c c m c m m m C m v m c s c s p s c p p s p c p r t p g s c s c z y z Q i , 1 m b y . > c c f m n m Q Q g p s c g c p y k k v m m C g c c c c c c v b c c c m c Z m s c k c c m m m c k s m v ) M n ) ) n k B u z c > . 1 v W Z N Q +.W p e B e y s s y y p s p p s p k s u r e e r u r e p p p p p y u e B e e u u e e e e t t e e e r e y : * 0 y c = - y b k y c ( W c y y e e 0 B B q q 4 4 5 e : : q q q q q 4 : q q q q q q q 4 4 e 0 : 0 : : > : q e 0 : : p y e m N c - : : : 4 ",
"W Z c c s b b N N b z s ) $.[ W s s c m c c c c m v N N m v c s s s s p p s y p s p c p p p g g z s p c s s v Z y X 0 c n g   = c c c k z c ~ _ c y s g s z s s k s v c m s s m c c g c m N v c k c C k _ Z c g s p s c v c g k c v c m k Y +.@.m k u e g c > . 5 n Q N b ) @.) p u r p s s p p k p s s g k p p k p p u e r p r u u y p p i y u e B e e e u e B e : e e e e e q B e > = 0 i i * ; s Z p i b ` Q z p p u e e e e q e q 4 e 4 : q q 4 q q q : : 4 t q 4 q 4 t t 4 e e : : > > : : : 0 : : e : > e N s p : ; 0 : e ",
"b n n b z v c c b b v v p c [ ` )  .C c c c c c v m m m m v c v k p k p y p p p p p p s p s p g s p s z s z s ` p , 0 m N z O * g c c c p m W Z g p g z s g c s s s g v h s k g c c c g c c c s s c c c u p c c s k s s c s k v v c c c C c Z ) c s u 0 s z > . 5 N N c c ) @.W u u y y s p y s s s c p c c p p u p p p u p k u r e u p p i e u e e u y e e e B : : 0 e 5 t e q e r : = : i u = - s Z b i v Q W g p s r p u r u e t e 4 w e : q q q e q 4 : 4 4 q 4 4 4 4 t t q r e 0 0 : : : 0 : : : i e : : p Q c e > : : e p ",
"n Y Z b p s g c v b v m n s s m Y Y @.+.N c s c c m v m m v v m c s s p p s z p s c c g c p p g p r p p p p c Z B * 0 v n s O = n c v s s N +.K C s c v s c v c c g c c c c c c c c c p c g g s s c s c s c c c c s k y h g s s c n c c v C v Y Z p e 0 p z > O e Z N c c ) +.W p i p p c z p s C s k p s s p e u p u s p u p r u u r y y r e e B e p y B 1 B B B e 0 0 0 u i e e p ; , 0 0 0 , - p N c p c Q Q s r y i r e e e u e 0 : : 0 : : 4 e e 4 4 4 q e t 4 4 q q q q 4 q e r p : 0 0 : e : : : : : : p N c u = q e c e ",
"b N M s k v N Z b b c b m c p c m s s Y Y C Z c v v v m v m v v m v m v s s s p p c c g p g g p p r r p p y p _ e = B c c y . : N N m c s b ` Z b z v g s c v g v c g c s k c s s s g c c p c s s k r p c m c c s k k m v k k u s n c m m m n v m k B 1 s c > O 5 n n c c Q @.Z u e p s p s c c g g p p k p u e p p p p k r r u u u y u r B 0 1 1 e u B 1 1 0 e 1 e e : 1 B e y y k : , : : : , - s N p k z ( ` u 1 r r B u e e e w : > : : 0 0 4 4 q q 4 q q e t e 4 q q 4 4 4 : 0 i : : q : : e e e : : 0 : : g e p = f p e 5 ",
"g v b c s n Z Z g b b b c p u s c c s p u C M c k c c m m v v m v U m m k c z s p p p g g g p p p e p p p y r _ V ; : z p i . = v n z k k b ( Q z g b g g v c s c v c p p s c s p c c g c c c c p y r p c c c s k s h v p k r r s m c s c c k Y Y p B 0 c N > O e n n m c W [ Q B B u y s z c s y y u s p p k k y u u y u u u y e u u u B e e B B B u e B B B B e : 1 B : : B e i e : = : 0 0 , = s N k y p Q ( 0 B e e B e e B 5 q : : > : e 0 4 q 4 q 4 q t e e 5 q q 4 : ; 4 : : : : e q : : e p e e e : : r c s e # : t e 4 ",
"g m b g Y ) ` C g v m c s y y c c c p s y c s l s c m v v m v m m Z v c k c c z p p c c g p p e r p r r y p p b y - : p v y O > Z b p i p c { Z s z v g s v c m s s s s u s c k g g c c n g p p u y p s c c c p c g g k k p u r c b m c s s k c Z l 0 0 s s = O 5 c N z s ) [ W p u y Y W s s s u r r u p p s s u r p p e y k y e y e e e r 1 1 B B B e r e B e 1 : B B B 1 : B e y : = : 1 e = = g Z k p k ( Z : 0 : B e 1 0 0 : e : : : : 0 e q q 4 q 4 q i 4 4 4 4 q q : : : > 0 : : 0 0 q : e r q ; : : : e c N p $ : e e : ",
"u c m k Y ' Y v s m m c k s s k s c p s s k c p k c c c v c m m C m v m m v c k k g c k p s y u y p p p p y u c B = ; p C u + = v N g g p b H Z c c c g g c Q +.Q Q c s g g v g c p c n n c s p p s s s m m m s s p p k k s p y s m c c s y p N z p 0 0 s v 0 O e v n k s ~ $.Q p p Z n y p y y r e u y p p y y y y c i s m u y i e e e e e 1 B 1 1 B e B e B B 1 1 B B e e B e e r ; * 0 e B = = g N p p g ~ W 0 > e r e : : e : 5 w : : : : q q q 4 q q q e q 4 4 : > : u q : 4 e 4 4 4 4 q 4 : : > q : q 0 : p n y , ; e e B ",
"s s Y ' ' Y v m m c s m v c k s s s s p c k s c s g c m m c s h v m v m g m m g c v c c k c p e y s s s p y y C u = - y k p , = c Z c c f g Z G v g s p g n c s c G n v c y y y p c s c b c g p u p s c c s s s p p y p z s s z z p s c p u p v v i 0 1 p p > X e c c p c ( -.` s u e u r u e r r e y y p p u e e c e s Y u y u y r e r e e e e e e e u e e e e B B e e e e e B e B > * 1 B B + - s Z W p g G W 0 : e e : : : 0 e 4 4 q q : 4 5 q : 4 q q e q : 4 4 : : : q 4 f w > 4 4 q 4 : 4 4 q q > : e q 0 c m e = > B 0 e ",
"s k s Y Y m N k s k s c c k s k k l u c p c s c g c c v Z c k s c m s s v g g m m m v c p p u u p k c k p u N ) B - : l m p X = n G c c g H ~ Q n c n v v g s t r s v G ~ ~ [ #.Z v g c c p p r y p g m c p s g s s s p s p z g p p y s p p u s C i : 0 C c = . 6 n m c v ` *.~ p B e y s y e e B e y y p y e e u r p Y y r e r r e e e r r e B u y i e u u e e u e e e e e e e e B > = B e y = > s N p e k ~ ~ u q r 0 B e q : : q q q : : q w q : : 0 e e e q q 4 : : > e f p 4 > 0 : ; : : 4 4 e t : : r e e n n p = = 0 0 : ",
"s u v k p Y v s s c c s k v c c s u y c p p k s s c k c v k s k c v k c c m v g v m c k s c s c c k c s u s Y Y u ; : k v p O ; n n c s p Z G _ n n +.G c g c Z ( [ ,.,.<.,.-.$.Q v c c s p p p s s s c s s p p s c p p s z k s s s p p s n s s g i ; B Q s > O r c G G c [ $.N e e y r y e e e y y r u y r u p e e s y e e r B e r e B e r e e u u y y y e u e u u e e e u e e e u : = B p g = = a v i e p W F c p 0 e e e q 0 0 e : p q : q e e 4 : e e 4 e q q 4 4 : e p q ; : q : : q 4 : : : q q > 0 r : q c s p , = e 0 : ",
"c u s c u Y m c k c m c c k c k s s s k c s u B m c s c k g k g v g g g g m g v v v c g m v c c c c c p p { H { y = : s c s O - W Z g c p s Z _ C c N g v ( ,.$.` [ u.e.,.F g f c z c p p p p c g s z s p y p p s z p y p z s y z c s s v g g n C i 0 0 u s 1 O e Z Z p z ( -.~ u B u B r y s r y y r e r e y r e r 1 e e B 0 s v y e e e r u u e u y u u e e u r u e u u u u r e y 1 * 0 r r , : s v e e p ~ n p e : r e q 0 : e e 6 G p 4 ; q w : p t ; q e q q 4 : u t 4 q : : q 0 q q : 0 : > ; : : : 0 : e z c i o = q : : ",
"Y s k s u C m v s s m c k s s k p c c m c c y p c c c s c m g s k k c g k g g c s v k m v m s k c c c u u c ) ;.v * 0 s Q C O = Z Z c s s N Q { Z t p g s g p t r s c c p p c c c c s p s y t s c s p y y p y s s s s p p s s z g c s z g z g b c p : 0 s C 1 X r Z n p p ~ -.~ y u B e e p s u y u B e e y r u e B p r 1 p Y Y p e e e B B e y r u u u u r e e u u e e r e e u B B ; * : e B 1 > s v e 4 t _ { u q q e e 0 : c c c N f W e > 0 4 5 g p ; : e e 4 e f ; ; ; : q : : q : : : 0 0 q : > q : : ; 4 c m e * = 0 0 : ",
"p u v s u m N C s c c c s u u s s s c c c c k c k c m m Z m s s k s c k k g v k k k k g k s k c c c k l p s H ;.g = B Z Q Z O = Z b g g p Z _ ( c p p s g p g s p s p c p c k c c c g p s s s p s p s s y y y p p p s p u y s s g s i p s z y u p p ; 0 c u = , y c z s s Q -.Z y p B r y s s y y e e u y e e 0 p N s p W ) s B r e r e B e e y r B r y u r u u e e u B e B e e B e > * : : e 1 : a v e 5 p ~ W i q e q : : : y G c c ( n ; : : g n c r v t > q 4 > : ; w > : q 0 : 0 : 0 r : i e y 4 q > > : 5 g M i o = > q e ",
"p k v Z s m c m v v m s s p p u k k s s k g m c c c m C v m g k k v s k g v m v s k g s g k c c k s c V s Y ( @.s = 1 C ~ Z o , v v m c k G Q _ v y p g c g p y y p s c c g p p g s p p p g g g p p g s y p s y p p s p r y y y s p y p s p e r s k ; 0 s p = o u c c s k ` -.Q u u e u s c g p y u r y y B e C N c Q +.c B B r e r e e 1 e y e e 0 B u r u u r y u e e e u e e e 0 * , > : 0 = = p n 5 5 p ( F 0 q e e 0 : 0 : f c g a ; 1 c g G G e v N 4 > q q ; > 4 e : : : e q : : : > > q q q 4 ; : p t g g M k o = e g z ",
"p s m v s v k m m m v A m k k u k k k s s k v c c g c v m g s s s k g k s C m m s s k s v Z C s p k Z Q c ) +.@.s 0 1 W C C , * c G n f f n ~ _ v r y c g g s p s s s c c p p p p p y y y g g g s p p p s p p y p s p p r e u y s s y s p u r e s p ; : s p > X r N c z s ) -.` y e u y p s g p p p t t e c n c G +.N e 1 e 5 e e e 1 e r e r e r B B B e e i e u e e y y u e e e 1 * , : 0 p = = s v r e g ( N 0 : e e 0 e e v v n y = = y n G p 4 y y 6 4 ; ; q : p G : : > p g : p e > > > > : : : ; - t g v e p p , * B : 0 ",
"Z Y Z v s Z m s Y H H k l c k s k s c c k c v k k s k g g k u y s g s k p k c s s k p p k s n m C Y Z u c ) ) <.c = 0 Z ) Q . , v c p c p T ` H n r u k g z s s p s p p p g g g g y s y y y v g y y y s p y p p p s s p y r y s s s p s y u e e h u : 0 k s > O e b c g c W *.) p e e y p p s p p j y p G N W +.W 1 : r e e 1 e e B e e e e r r e B r r u e e e B e e u e e e e B 1 $ , - 1 p $ = p c r e p _ ~ e : 0 B e e s n F 5 y 4 4 p g g 4 4 F y 4 ; 4 4 : 0 r e e q : e 4 e n e r > : : : 4 : - - g v c n b k o o > : : ",
"Z Y A Z s v r c H v v c s k k s s p s c c c k c s p s s k y e u r s g k u p s s k s C p p p u s ) _ Z C Z C ) ;.s = 1 Z ( Q o o c c p c p N ~ J n p s s s s s s y t p y y h c c f p g g p p g g y y s s r p p p s y p p i y y s g s k p y y r a s e > B p s 1 O u v v z s ) #.Z s y y u y p y u t y g H ( $.W r : 5 e e 5 e e e e B B B 1 e r r e e e e e B e e e B e e B B B B e 1 * o > B r , = s g 1 e p _ [ 0 : : : : s g p n e f v G g t t 6 f c - > - e t e c 4 e u e q > : q > : e : 0 : q : 4 4 5 c v v Q c B + * : : 0 ",
"k p l C v ) c s Y A s s s s s k k k k k c k s c k s p u p u e 6 r k s k p p c c C p C u u k s k C Y Z ) m N H @.s + 1 s C W O o v v k p p ~ ( Z v p s g g z s g y p s a s g g s f f j g s p s g s p g z p y s s s s p s y i k s z s u y p u y y y B : B p e : O e c b g c Z #.^ s s s p p r e e e e ( $.( y : r e e e 1 e e e e e B r B e e e r e e e 1 e e B e e B e B e B 1 B e B , X : r r = # p s : : s H ~ e : : : : p : e 6 e n n g n g c c F v 4 = 4 f t p p = : : q e : : r 0 = 0 q : : 4 t y f 4 y t f W g B O # : : q ",
"c c c N v ) Y c Y ..v s s k k p k p p k s k c k k s p s s s y r u k s k p s c p k Z C g s k k g k Z k m ( ;.*.*.s w s ~ ` ~ . $ c n s s c Q [ J g y s s g g g g y s p y s s g s y g g p g p y g g f g g p p g s s s s s p y s z s p u u u p p y s e 1 e p s e O e s g m s -.t.] c k k s u e e B c ( W y 5 e r r r r e e y e r e e e u u e r 1 e e e B y r 1 e e e e e B e e B B B 1 = , B y r = = p v e 1 c @.G 5 5 1 : 1 : e g : 5 g g N n b p s F h 4 - F s t v : > : e p : : p e : : q : > : ; g F N > > 6 p.r.W q # * > q q ",
"N ) ' { Y m c v ..%.) C s s p s p s p s k s s c s p u k k s s u r k p s k c k s C Y s k v g g s v v c { s.D.d.A H H.0.m.Q C O = s c c W ,.3.H C s p s s g g g s p t p s p s g s t g j y y t p p y j y y s s g s s y s k p p k s s y s s y s p a V Z e e p s B O B g c s M.BXW.h Z U z p s y u B v p 5 r p e e r r e e e e e e r e e u y y e e e 1 e e a e : B e e e e e B e e B B r u l u e B * : g W s g '.dX[ ; : r p : > : y g p g g c g c c F F F 5 s F c y g > > > t e ; 0 p p i r 0 : : = > p G g - e `.bXaXW 0 x u > q q ",
"Z H @.%.c l B r v ....) C s k v k s p k p k k c s k y u k k p s k p p k s p p s Z v k p v h k p s A _ w./.K.H K _ { G.G.+.v O - z z Q f.u.Z d s r r p y s v g s p p s c c c c g y y g y p t y a y g s p s a s s s p s s p s z p p s s s s s p u a V Q c u e 0 X 1 v C !.MX$XZ C A H U U p r e r e t t y r r e e r e e e e r e r e e u y u e e e B e B e 1 : s g u p e e e B B 1 1 e y U z B e r e r C s !.mXF.2 : = 5 r p = y g t t g g c n r g F g p F F v v n ; = > = : = : 0 t p p g e 0 i e 4 y 6 5 r _.nXNXV.; > u x w : 4 ",
"Y +.m.m r B 2 B u Y ....+.Y h k p s s k p s s k k p p p p p p p y r p p p p p m v Z v Z Y c k u k Y m.S.^.' ) _ { :.1.G.G.I o = v G y.x.A d p e p j y y s g s p s g v v v c v g g g y g s r t p g y y p g p s p k s s s y s s s p p s y y y y r e a A { m u e X 1 g CXMX%Xv v Z H A C U k y y y y s y p r y y e r e 1 e r r e e r e e e u r e e e e B 1 1 1 p c s B B B e u B 1 1 : 2 s U k e c 1 r v F.nXf.- : > = : s c g y g p g c N c g p c s f v v c 6 c F g > = p e = > : 1 e e 1 : r g e 5 y 4 c #XmXMXE.o * # $ z x u : ",
"@.m.c B e e B B r g n X.7. .Z c p p p p y p p p p u y s s k p p p r u u u p u c Y Z Z Z Y v v s _ q.f.K.' H A A _ ;.1.' H.H.- - Z 3.Y.Z d a y y y s y p s g c s g v n v v c g g g s s c s p y s g y y y y y s s s s s y y a s k u s s r r B u a u a r V _ m e X : u.NX_.v C C A H H K H U x r u y a t r s s y r r e e r y e e r i r e e u e r e e e e 1 r g g v e e 0 e 5 5 e : : 1 : 1 y N p e e a n.lXn.- e 1 : > 1 v n v z c s n N n s g n c c c c n y a b v ) b s v B > > > : 0 : : : p B ; 4 4 g <XNXMX(.$ # # 5 6 f p k t ",
"%.c r u e B B e y s c Q ^ / ] Z p r e r e y i p p y i k s p u u p l r r s p r r c k s m Z v s  .S.Y.x.{ _ v v Y Z ' { ;.' %., = n m.Z s h s y y s a y y s h g g g v v v g c p g c c g g s s g s g g y r e s s s g c s s s s u a s r r r u r B B y y r r V H 0 X - n.%XC H A Y H _ H H H H ..Y p y y r r y y p r r e e i p e e e r i e e e i e e e 0 e B e e B e 1 B : : 1 : : : B B : ; e e c : - s ].z.; e 1 B 1 : c z s s s s c n n t n v v N v n c p g G N s 1 g v n B - > : : 1 0 : : e r : ; c eXNXMX'.# , # # ; y t > > q ",
"C C u s s e B B y s c g s ..2.%.N r e e e e e y p y p s p y y r u p u r s s l s v s c s c v ` x..X`.;.;._ Y v v C _ ' _ C g X , c Z s y y y y s s y r a g c g s v v v h g g s g s c c s h c c s y s j p y a g g g h s p s p y y p r r y s u r 2 B s a u a V : , B H ' s H _ H _ _ H Y H H _ R U p r u p s y s y r u r r u e B r r u r e e u B e B B B B 1 B B 1 : : 1 : : 1 1 e e 1 : s g s Z ; - v A h r : 0 : y p n s v n v n n p g p c v n Z n v g g F n F e e n n Z B 0 - : > : 0 : > > e 0 n 9XNXNX!.# O > 5 4 5 y ; # e e ",
"l c p s Z s r e p a y s C m ( 4.%.b y a r e r p p p k p p r u u r s u c s h s s v p v Y s ` x.oX@X1.;.=._ A v v C _ H C Q s X X v Z s p y u y s s y y s s g g s g g g v c g g g g s s s c c c c s s g g s p s s g s s s s a r y a p a a a r a r r c a y p B - X 0 { ' h H H _ H ' H H H H A A ....g a p p p y r r r e e e r y r r r t e e u y e e e 0 0 B e B 0 : : : : B 0 1 e r : ; p r C z = = h Z s s e : : y v v s c r e p p s c g c c G c p g n g v n v v n v y s 0 B > > > : 0 > : : : c >XmXNX(.$ X X 4 5 4 6 e e 4 = : ",
"g k u c c g p u g y e s h s c / 4.X.N p e r r t u y s p u y l p s s k s c v s s s s p s ` x. X`.;.;.;.{ ' H H Z A Z A _ ' g . + s b c s s p y y i p p s s s s g v h h c c c g g s s s g c c s s g h v g h p s s s s s s s y s s p s u u y y y r r a r a u r 1 O B Z H Z H H H _ _ _ ) H ) H K ' 5.E s p y p y e e e r e e y y y e e e r y e t 6 e B 1 B B r B : : 1 : 1 : e e e r e ; e n C r + y v v r e 1 1 0 1 e e r p B e e s N c s p v g c G n g g n N N e c c e - : = : 1 : > 0 - > = p 1XBXmX'.5 e 4 6 4 e 5 t > > e e = ",
"g p u C c C C g g r p p u u B I %.3.%.c y t p t y p p p u p s s v s k c s s v c c k s H F.oX`.;.1.;.{ ;.' _ A _ _ Q _ _ Q k . , s b z s z z p r s y y i s p s h v v v c g g c y s s g v v s s s v v c g g g s s s s s s a s s a a s a u s s y y r r r u s s > X B Z ` A Y H Y _ ) H _ _ _ _ _ K H 5...z s y y e e e y r r r v p e e e 5 t t p e r r B 0 B 0 1 : : 1 e B B B 5 : p e : s Z s p + 5 s v 1 0 1 B B e B : e e a c s s c v e y v c g c p y N v G 5 e s r e = 1 0 1 B - - = - $ r *XBXmXC.4 4 y g f f r : = = ; p p e ",
"u l p p k v v C y r y y e e u v b  .o. .v s j p p y s a p s s s s s c v v c m C v c ) x.;XoX{ { { { { { ;.' ) H ' Q _ { _ p . O y v s k z s s c c s y k z y s v v v v g g g c g g g v v v c s s g h s h h s s s h c s s y s s a y s a s a p s s r u a s s C - . : ` ;.C Z A H H H H _ _ _ _ _ H H K 4.O.s p r r r y r s s e y r r t e 5 r f g e e e 1 B B 0 : 0 0 1 : 1 0 1 : B p e : 5 Z s p = r s v e e : : : r p ; : e c s s s p v p c s s c g n W n G F g b g s p e s Z 1 1 - , * * e $XmXBXY.- - # y v v 6 5 > $ $ = p p : ",
"s C s p p C v s s y y r e e e r p p ^ 3.T.@X@X@X#X#X$X$X$X@X}.@X].].].@X@X].@X].@X].CX7X-XB.;.{ ` _ @.@.{ _ Y v C _ _ { Q y . O e C g p s g v Z n v s s g u r g h v v v c c c c g h g c v v s h s v g s s s s s y h s s r u 6 u a y y s y s s s r u s y s h - , > ' ;.Z Z Y v C A ) _ H _ ' ' ' K J _ d. .v v n v Z v C Z c s p h v t g g v c e B e r e B 1 0 1 : B 0 0 1 B B e 1 : 1 1 g v r + ; s A s : : y e 1 : : : r p e 1 1 p c c v Z n v t v s y y v 6 g n Z G C Z Z z c k s k c ].mXcXM.; - > $ 5 g g y > % $ > r e e > ",
"g c g G ( ' H v s y u r y r p p e y g v.NXMXMXMXMXMXMXMXMXMXMXMXNXNXMXMXMXMXNXxXMXNXjX@XN.1.1.;.{ ` { @.{ H C Q ` H _ _ G s . X r C c s v Q +.Q Z h g g g t r s g g v n c c c n n c g c n n g g s s g p y s s s s c s r r e r r r r s s s s s Y X.W h y y g :   - H ;.H H H ' _ C H H H H ' ' ' ' _ K } 3.X. .$.-.] ) ( ( ) W Y W ( G G J H N c c k s i e B B B B B 0 1 B r 0 : Z ( s r s s r = 1 g g 5 5 y G ~ W e : : e 5 r r r g v v n v c s c m c c I T I ^ W ^  ./ O.o.3.y.f.d.S.F.7XxXu.> : = = , > t y > $ N / t t ; o 4 ",
"f g n n <._.&.n g g s y p g v p p c W ~ >.*.*.*.*.$.q.r.u.u.u.u.n.w.i.i.i.n.u.r.l.M.M.1.N.1.;.1.;.=.' _ ' Z ` @X^.X.C H H p O X r n c g Z b.F.o.v s g v y r p g g g v v v h g C C v n C v c v c v v n j s s C v C C v g r e r r r s s s p V Z W.l. .s s s h :   = ` ;.H H { E.D.^ C C Z H ' ' { =.=.' ' ' ( ] *.u.] -.-.#.[ ^ Y W W N n F b c b m m k k p 0 e : e 5 : 0 e r 1 G !.j.( e i e p = = a Z 5 p y u.@Xw.v 5 e e e e : p N n n n p p p z k p p x m k M N x M c n k u I m ( I I W ] ; ; 1 , , = = - 4 $ H E.g.T 4 4 o $ ",
"g n F n H ~ m p s v g s p s s p z g h r 5 5 7 5 6 r y a j s j a a y 1 e V C V A A ' ' ;.N.i.1.<.<.;.{ _ _ C { +.c s b G Z B . O e s v n C ' N e 1 v s g g y p y r s n r 6 6 2 2 7 5 6 a d 2 5 7 7 2 r 6 6 6 6 a r 6 r s y u r 6 r s y s y s N _ C g B s y v 1 O = ' ;.C H _ { A e C Z H _ ' { { =.{ } ;.' ' K L A L L A A A A A A h V h j h h j a a a j N p B : : : B 1 r e r _ ' k p : e B e o # y G t g g H W k e : s c e p c g n v n g y 5 7 2 2 2 2 < < 2 3 5 < 8 7 6 6 < - 2 7 & % ; 1 e $ o + = = = = = ; } { M t e g 4 = ",
"g g v n t 6 - $ g b v v v p y p h h @   .     . O O . X o X X X + + + @ o + @ o + + % j 1.Z.N.1.;.;.=.{ { Y C V 2 - G _ Q y   O s g r v v a 6 & ; s s c g a g s y s a @       O                                 . . . $ v c e p p r 6 y g C s d V 2 ; p y s : . = ) ;.H H Z V a 1 A _ _ ' { =.=.;.{ 1.A + + + + $ $ $ - 3 + - + $ $ $ $ o o X . O O . % A C p 0 : 1 e e p : r s a 6 % - e : B + $ y C p v g a r 1 + e n p 1 e c G n G n g o     O   .   . . O .   o 5 O + + + + X @ + + $ 8 8 - o , # ; > $ = 4 4 6 5 . ; g g c ",
"g t N n t % X e v v v v c p u c d %     . # # X o + o o X X X $ = + o + , + + + X X X . d N.N.N.;.;.=.' { _ A a 2 v Q _ C s   + p v y s g s 7 ; s s v g s r y p s 7 X   O + + = = $ % > $ $ $ = = = - - > - + $ > ; - o 3 v s y u s y k s v s e 2 1 y u r v 1 . $ ) ' ' H H V p Y ' ' { =.;.=.;.;.1.D     O O o o o o o o X + o o o # $ < ; o + o o o O $ V a e e 5 t r 1 : e t 1 + * : 5 e r o # y _ c c t 5 < X = c n 1 p c G n N n : O   O X O O X X o O o o X = o , o O O o X X O     . 7 7 = o = : ; > > t 4 # X . e N g v ",
"v v g g g t y c v c v N p u s d $     $ e y 5 r y y p h t 5 p g v s r c c g y p r e e - % s ;.N.;.{ { { ;.` ) H Q _ Z n ( 1   + 5 v g s s g c g s c c h y e p a 7 .   $ e e e r y e t 6 r r t r p y y p s y e y y s y e = 3 s p r p s h s s s s s c a y C a , . = A ;.s A H H _ ' ' _ ' ' Q =.;.B.a   O : e 1 e e B B 1 B e r e e e e y y r g 5 e 1 1 : o X 8 h t r p g t p t e : : : : e 6 5 X o ; { N e 5 y y 1 e s y g c c Z v v 5     $ r s ; : > ; ; - 0 0 i 1 B : 1 : 1 e > > > ; $ . . 7 6 = : = > * 4 6 4 ; 4 t n N N 4 ",
"6 G G v p f n c b n v h h v 7 X   . ; p p y g c c C n g j p c Z v v s s n s g g s s s s - X 1 { ;.N ;.1.$.' ` { ` ` G C h X   = ; 7 Z g r p g v c s p g j p a 7 .   $ e p y t y g g y y y g y s p s s s y y s v y y p y r $ % j V s h C s g s C h c c V K r . + ; $ H _ _ ' ' { =.;.' ' { g =.1.1   O 0 e e e y e e r s s y y u r e y v p y y p y 5 : e 4 = X 8 j t p t p p r r 1 0 : e r 5 X   $ $ : v g 5 g n g e e p n g Z c N :   o : s c v r - : > : e e 1 r r y p p B e 1 : ; : : : - o   < : - 1 o o 6 4 4 e y g c n g ; ",
"X ; g 6 : ; e 5 4 4 5 : < 2 X     # 4 5 y y g p a y y s y r g g y r y 1 e y s s s p 6 u B ; X < ' ' K ) C s a s s C v 8 X     > : $ < : + = ; : : : : 2 7 - - O     $ ; : 1 : 1 t 6 5 y y a 1 5 1 5 e 5 B y 3 a e B 1 - - 1 , $ 6 : ; ; ; 2 6 e e 6 B y r O   % : + , C H V A H A _ ' P ' =.B.a   O = > 1 1 r r r 5 e 1 e e B 1 4 5 g v y 5 e e e : - 5 6 5 o X 2 5 : - = = = = = = = : - o   X ; ;   $ 5 ; f f y r c g g t f j =     5 a g s r t : B e e B r i e e y e : ; ; : 5 ; > = = = $ X . $ X X O . = # ; y y g v e $ $ "
};
