/* XPM */
static char *Metal_512[] = {
/* columns rows colors chars-per-pixel */
"512 512 256 2 ",
"   c #030302",
".  c #0A0906",
"X  c #0C0D0A",
"o  c #080705",
"O  c #120E09",
"+  c #0F100D",
"@  c #12120D",
"#  c #1B150C",
"$  c #141513",
"%  c #191712",
"&  c #171815",
"*  c #1A1A15",
"=  c #1C1D1C",
"-  c #161819",
";  c #0E1011",
":  c #231D14",
">  c #211F1B",
",  c #291F14",
"<  c #22190D",
"1  c #1E201E",
"2  c #22211E",
"3  c #2B251C",
"4  c #2A2318",
"5  c #34291C",
"6  c #3C311F",
"7  c #1D1E21",
"8  c #1F2121",
"9  c #1F2429",
"0  c #242423",
"q  c #292723",
"w  c #262826",
"e  c #2A2926",
"r  c #252729",
"t  c #26292A",
"y  c #2C2C2B",
"u  c #282728",
"i  c #332D24",
"p  c #312E2B",
"a  c #392F23",
"s  c #2E302E",
"d  c #2F3027",
"f  c #32312E",
"g  c #3B342C",
"h  c #3A3226",
"j  c #2C2F31",
"k  c #272E33",
"l  c #2E3132",
"z  c #2D343A",
"x  c #343433",
"c  c #393633",
"v  c #363836",
"b  c #3A3936",
"n  c #343739",
"m  c #36393B",
"M  c #3B3C3B",
"N  c #383738",
"B  c #302F30",
"V  c #201F20",
"C  c #453A2B",
"Z  c #433C34",
"A  c #413E3B",
"S  c #493E32",
"D  c #523E29",
"F  c #42321D",
"G  c #3E403E",
"H  c #42413E",
"J  c #4B443C",
"K  c #4B4236",
"L  c #554839",
"P  c #574630",
"I  c #64523B",
"U  c #3B3E41",
"Y  c #363D42",
"T  c #2C3642",
"R  c #3E4143",
"E  c #3D454A",
"W  c #3D4853",
"Q  c #3E5166",
"!  c #434444",
"~  c #494643",
"^  c #464846",
"/  c #4A4946",
"(  c #434649",
")  c #46494B",
"_  c #4B4C4B",
"`  c #484749",
"'  c #534B44",
"]  c #514E4B",
"[  c #594E44",
"{  c #4E504E",
"}  c #52514E",
"|  c #5B534B",
" . c #5B5246",
".. c #4B4E51",
"X. c #454C52",
"o. c #4D5153",
"O. c #4D555A",
"+. c #4A545A",
"@. c #535453",
"#. c #595653",
"$. c #565856",
"%. c #5A5956",
"&. c #535659",
"*. c #55595C",
"=. c #5C5C5B",
"-. c #595758",
";. c #504F50",
":. c #65584A",
">. c #615E5B",
",. c #645C53",
"<. c #715F48",
"1. c #5E605E",
"2. c #62615E",
"3. c #6B635A",
"4. c #756656",
"5. c #555D62",
"6. c #5B5E61",
"7. c #545D68",
"8. c #4C5864",
"9. c #5C6164",
"0. c #5D646B",
"q. c #59636A",
"w. c #5C6874",
"e. c #5F707A",
"r. c #646463",
"t. c #696663",
"y. c #666866",
"u. c #6A6966",
"i. c #63666A",
"p. c #65696B",
"a. c #6B6C6B",
"s. c #686768",
"d. c #726E69",
"f. c #6E706E",
"g. c #72716E",
"h. c #7B7369",
"j. c #646C73",
"k. c #6B6E72",
"l. c #646D78",
"z. c #6D7173",
"x. c #6B747B",
"c. c #67727A",
"v. c #747473",
"b. c #7A7976",
"n. c #737679",
"m. c #75797B",
"M. c #7C7C7B",
"N. c #787774",
"B. c #706F70",
"V. c #605F60",
"C. c #403F40",
"Z. c #817E7A",
"A. c #84776A",
"S. c #867256",
"D. c #7E807E",
"F. c #82817E",
"G. c #89847A",
"H. c #948675",
"J. c #A48D69",
"K. c #C8AC7E",
"L. c #6B7884",
"P. c #737C84",
"I. c #787E85",
"U. c #6A7B92",
"Y. c #596E85",
"T. c #7D8183",
"R. c #7B848C",
"E. c #76818A",
"W. c #7B8894",
"Q. c #6F8495",
"!. c #798FA6",
"~. c #848483",
"^. c #8A8986",
"/. c #8C8C8B",
"(. c #868888",
"). c #908E8B",
"_. c #92918E",
"`. c #99948A",
"'. c #858C94",
"]. c #8B9398",
"[. c #949493",
"{. c #9A9996",
"}. c #9C9C9B",
"|. c #969898",
" X c #8F908E",
".X c #A09F9B",
"XX c #A3998D",
"oX c #9EA09E",
"OX c #A2A19E",
"+X c #AAA49B",
"@X c #B6AB9D",
"#X c #8A98A5",
"$X c #969DA4",
"%X c #8B9BB1",
"&X c #9AA2A8",
"*X c #99A8B5",
"=X c #94A9B9",
"-X c #A4A4A3",
";X c #A9A9A6",
":X c #ACACAB",
">X c #A6A8A8",
",X c #B0AFAC",
"<X c #B1B1AE",
"1X c #B9B5AA",
"2X c #A5ADB4",
"3X c #AAB2B9",
"4X c #B4B4B3",
"5X c #B9B9B6",
"6X c #BCBCBB",
"7X c #B6B8B8",
"8X c #AEB0AD",
"9X c #C0BFBB",
"0X c #BFC0BD",
"qX c #C1C1BE",
"wX c #C9C5BB",
"eX c #D1C6BB",
"rX c #A8B8C5",
"tX c #B6BDC3",
"yX c #ADBDD1",
"uX c #9AB0C4",
"iX c #BAC2C8",
"pX c #B9C9D4",
"aX c #B0C6D4",
"sX c #BDD4E3",
"dX c #C4C4C3",
"fX c #C9C9C6",
"gX c #CBCCCA",
"hX c #C5C8C9",
"jX c #D2D2CE",
"kX c #C6CDD3",
"lX c #CAD3D8",
"zX c #D4D4D3",
"xX c #DCDDDB",
"cX c #D7D9D8",
"vX c #CFCFCC",
"bX c #DEE0DE",
"nX c #E2E2DE",
"mX c #D6DDE3",
"MX c #CAD9E3",
"NX c #DBE3E6",
"BX c #D8E9F4",
"VX c #E3E5E4",
"CX c #E5EAEB",
"ZX c #EAECEC",
"AX c #E7E8E7",
"SX c #EEF0EE",
"DX c #EBEEF1",
"FX c #E4EDF2",
"GX c #EDF1F2",
"HX c #E9F5FA",
"JX c #F2F4F4",
"KX c #FCFDFD",
"LX c #F5F9F9",
"PX c #F1F0ED",
"IX c #E1DFDA",
"UX c #807F81",
/* pixels */
"U m.jXnXjX6XfX;X8XcXnXIXIXzXIXIXnXIXvXAXCXSXZXnXnXVXVXJXAX&Xp.E d d G 9.D.G.`.{.{.oX+X8X;XoX{.oX1X;X;X;X8X;X;X8X;X;X;X{.{.;X[.f. X;X;X8XoX^.D.{ ^ 1.d.D.}.-X;X}.@.N.^.G.^.).}.{.`.D.2.t.~ { 1.[.zXgXgXgX;X8XgXgX;X^.-X;X;X:X;X-X;XOX-X_.5X;X5X5X1X|.G d _ } G { | H G g.oX{.5X4X+X>XOXr.$.N.r.u.N.M.M. Xv.u.~.~.a.N.I.a.M.(.) m t d } ,.%.} t.3.g.1.d.d.1.f.1.1.r.a.u./ s.r.2.M.M.t./ u.N.=.2.2.1.u.a.u.{ a.D.r.~ r.@.%.@.] _ / _ _ #.$.%.@.$.r.2.=.=.} ~ G v n.vXI.j.x.n.n.V. Xk.=.s./.*.i.b.a.=.=.=.=.2.=.%.=.-.v.R.R y M b f b H / #.1.D.wXfX>X]./.^.D.|.gX8X:X:X7X>X>XUXN.(.-X4X4XfXfXCX].w.8.G 8 G G G { O.1.1.$._ $.G |.{ 1.1.R ) &.1._ 9.X.! ` *.! ! ( ( ^ ) _ _ _ ^ _ o.R _ R ( C.( / @.` R ! M ! ( M b G G g G f v g / 1.] G R.].E.e.j.p.1.*.+.*.O.$.{ ) o.1.{ ) ^ G G _ @.9.c.( B b M M A x G H H D.D.o.*.o.R m R Y m ) o.! ! M b &.' / _ } } %.b { 0.c.X.n ! ( R G G R G ` ) ) ! C.U U C.( R R Y m U E _ ) ) ( ) O.@.o.E 1...E R O._ ( o...O.+.*.*.E G G +.5.5.5.5.*.+.{ E G G s d y G +.e.!.&X&XW.$XoXW.!.#X&X&X=X3XrX3X*XW.D.3XlXD.D.D.#X3XD.^ E +.",
"M 5XcX_.}.5X<XqX0X0XzX).G.cX5XbXnXxXIXcXzXwXD.0XAXbXCX8XnXSX2Xq.G 0 w G $.D.D.D.[. X{.+XoX`.D.{.D. X XoX+X;X+X-XoX+X_._..X+XG.d.`.oX}.[.;X;X X2.@.t.D.^.-X}.D.v.{ #.).D.g.D.F.G.g.2.{ J ! { OXJXbXN.1.4X8X|.iX8Xb.#.a.OX:X4X;X(.D.D._.}.oX;X8Xy.$.|.D.G G G } J } G @.5X4X4X6X<X8X:X+X_.M. X~.^.{._.[.(.F.M.M.M.N.UXZ.~. X Xz.o.n 9 t ! %.%.%.1.2.r.9.d.v.1.2.2.u.v.%.G v.} =.g.g.=.M %.r.2.%.=.2.t.u.y.=.$.@.&.&.=.@._ ] ^ _ } @.&.=.6.1.9.9.9.1.-.} _ H G 1./.|.p.$.) ( ! ..@...;.;.@._ _ ) r.=.6.=.%.=.2.%.%.f.$.y.m.t w H x c G } 1.-X5XD.D.a.y.a.1.p.D.&XD.|.|.|.$X$X'.I./.6XfXoX;XzXjXmX3Xe.W k 9 1 G G G / { { { { 9.9.+.E _ ) ^ / R ) _ _ ! R ! ! ( ( ! ( ^ R _ _ R _ $.G ^ ^ R U ! ! U H R C.C.M b n ! G v f f f c ] #.J G D.&X8.5.1.&Xz.j.1.*.*.{ { E E @.{ G G @.1.G G / G { L.U B U C.M c ~ } `._./ E m n z k k y l l ^ ^ M G s x H M b } H ~ } $._ +.w.+.U m n x v c G ! R ( ! U U Y ( ( R R U U U ) ) E ( ) ) ) X.) X.) ) R n ) E ) X.o.o.+.&.&.G G E X.O.5.5.+.+.E E G G d d d G X.+.W.aXe.W.pX&XW.W.D.&X$X=XrX3X=XrX3XD.W.=XD.D.*.D.+.8.#XrX+.E ",
"F.fX0Xb.OXjX5XdXwX4X5X{.1.D.+XnXIXcXIXcX0X5XoXbXcXAX;XG [.SXSX0X1.s k t G _ 2.y.u.D._.{.{.D.G G 1.D.`. X-X+XoX;X8X{.F.^.{._.D.D.[.[.).`.OX{.oXG.F.D.D.u.D.y.1.d.2.g.^.D.h.f.u.y.%.{ H / r.4XLXGX{.^ G N.:X|..X{.g.D.D.|.{.;X:X[.f.G.[.{.{.oXG.{ G / D.+.1 # G G { v |.6XfXjXqX8X:X8X&X{.[.[. X X[. X X[././.~.F.Z.~./. X/.[.;X'.W m w 9 G / / } { 1.2.g.1.K G t.u.u.u.u.r.s.t.r.r.a.2.2.1.1.-.1.d.r.1./ } &.%.%.=.=.-._ / ] _ -.@.$.=.9.1.1.1.=.=.@./ H G 0.8Xz._ p.{ ( ! ) -.&._ _ ) ..@.} } &.V.#.%.=.#.1.1.g.y._ l I.z.$ 0 x G / #.^.NX[.(.b. X/.D.a.f./.].D.[.-X&X,X4X,X<X7XdXzX=.x qXjXIXnXiXe.+.G w w G G G J G { { 1.r.} ) { ^ ) ) ^ ) / ( ( ! ! ! R ! ! ^ ^ ^ ! R ^ ! ! ( ! ! ! U ! ! ! R C.! U U M b v ] G f d v ] #./ ) x.E.W.8.5.1.@.O.q.*.+.W { E E G G G G G _ u.G G G G v o.~.n b ! v p H h..XG ) R R m n z s l v M ! { v x G r.v f ] H b M #.G G n E L.+.M m f s f m R R U ! R R C.! U U R R R ) ( ! R ^ E R _ ) o.X...) E R E E X...o.o.X.o.o.+.) { { +.+.*.+.{ G G G G 3 d G E q.W.Q.].G k &X*X[.W.W.W.W.oX&X*X;X!.!.G.Q.D.D.D.D.D.Q.D.5.8X$Xl ",
":X0X6XgX0XwX5X5XwXwX8XdXwXvX_.6XcXnXcXwX{.bXwXbXbXZXG.O.jXAXVXGXiXw.R k 8 G J y.D.D.D.{.`.D.J { D.D.`.D.oX8X8X8X8XOX[.{..XG.D.F.{.`.{.>X>XOX;XoXoXoX).h.D.D.v.^.D.g.^.G.D.g.1.} / H { a.0XLXcX:XoX$.G D._. X_.^.D.^.D.)._.{.{.{.M.D.[. X-X;X^.u.D.1.D.9.1 + @ G / G 8X;XqXqX5X4X{.{.OX;XD.}.[._.[././.[./.(._.F./.[.[.~.=.g.}.dX|.X.z w t v / _ { 2.2.d.{ * } 1.i.u.y.r.r.2.r.2.2.u.2.1.%.1.t.u.u.r./ G } $.2.=.=.=.&.@.) _ @.&.1.-.1.=.*.=.=.-.@./ ! G 1.>X&X1.{ $./ ( / o.&.#.@.;.@.@.} { } $.=.@.} %.#.%.%.2._ _ M 0.].; $ - G ~ _ 6XbX1.).1.G G `.D.1.D./.D.$X<X>XqXvXdXtX9XdXcX|.}.IXvXcXzXVXiXw.+.G w d d G G J { $.$.$.{ _ / ^ ^ _ ^ R ) ! R ! ! ! ! ! ! R ^ ^ ! ! ! R ! ! ! G G R R ! R ! U U U C.M M A v G d G } } H @.E.W.L.e.w.1.R G O.9.O.+.E E E E E E $.G / 1./ G x 1.1.d n (.+.x b q e H D.r.) R E R n z l n m G v y z b ( M G s H _ b ~ H m G R R m E l.7.U v f s v M U U M U U U ! E U R E ( ( ! R R R R ( ) o.X...o.o._ ` O...) ..o.X.X._ o.X.E { +.+.$.O.+._ G G G 0 G G E p.#XaXe.y.>XW D.].!.W.W.W.W.!.!.|.D.W.D.!.D.D.D.D.D.D.D.Y ^ +.3X+.",
"8XvXwX5X[.wX0X4X8XwX0X8X;X+XD.-XvX0X0X0XvXbXVXxXcXbXbXcXbXVXCXVXCXkXz.G z s v { 3.D._.;X;X;XD.{.D.D.D.{.oX;X;X8X;X;XoX+X}.D.D.).;X;XoX1X8X+X;X;X;X-X;XOX`.^.D. X(.D.).F.g.1.$._ J @.z.fXLXgX&X XT.D.N.~.D.D.~.D.D.D.g.{.oX{./.`.^.D.}.)._.+XD.G G J oXj.1 o o w H J qXzXdX6X5X1.H / N.a.N.^. X[.[. X/./._.~.[.^. X}.).N.-.UX[..XfXR.X.n k s G ^ } 1.1.@.G d 1.1.=.r.s.r.=.-.r.s.2.2.y.r.=.u.r.2.2.2.@.&.&.-.=.=.r.r.&.} _ ! @.-.=.9.=.$.-.$.@.} ! ! G m.>X9.{ _ { { _ ) { $.$.$.&.&.@.} } { @.%.$.{ ] } @.1.1.2.=.@._ z.%XX X X 2 J ! mXcX1.N.f.}  .g.D.1.y.D./.[.,X7XdXgXzXgXjXvXxXPXPXIXgXfXxXIXZXiXe.W G k w G G G J { } @._ { ) ) / ^ ^ G R ! R ! G R ! ! ` ! ! _ ! ! ! ! R ! G G R G G R R R R G R U b ! } g d G } } / 9.W.%X#X#XE.e.q.X.R O.*.+.X.{ G ) E E ^ _ $.R G G l _ 9.^ G v T.j.t d 3 d h 1Xy.R ^ R m z l v G G G m n n n n n n G M M ~ H G M R U M G R O.e.5._ b v M R m M G M m M R ) R m ) ) R G G R ( ) ) ) ..o.o._ X.) ) ) o.) ) ) ) { ) ) o.) +.X.X...{ X.! G G G G G E q.=XrX=XD.G 5.D.=X!.!.].W.D.E.D.W.#XQ.W.Q.D.W.W.W.W.Q.D.^ d D.&XaX+.",
"8X}.4XjX2.).vX_.D.0XwX6XOX X X1XjX1XdXvXvXwX1XcXcXbXbXbXbXCXZXAXVXCXjXx.G z d G %.u.G.oX;X`.G.D.D.R.G.G.+XoX{.oXoX`._.{.G.^.).^.OX+X{.oX+XoX_.)._.{.{.{.{.`.G.`.G.).G.v.2.#./ _ 1.D.zXKXcX>X&XT.m.z.z.v.u.f.F.v.N.F. X[. XD.^.D.F.F.[.}.^.oXD.G s f.}.x.1 o o 1 G ! hXzXfXqX<X^.^ / 1.N.F.D.(.^. X/./.[._.~.^.[. X).Z.M.~.[.{.[._.5X|.O.m k s m / } 1./ { ] 1.1.1.-.-.%.=.%.=.=.r.r.2.y.r.r.1.=.%.%.@.@.%.=.-.=.=.=.#.@.$.@.=.-.%.&.$.@.#.@.} ~ / ) j.6X}.*.@.o.{ { { { { *.$.$.#.%.&._ _ &.} $.} { G { @.} 1.3.t.%._ (.&X; o X 3 G ^ ZXcXy.D.oX XD.1.y.D.f. X X[.>XtXqXgXgXeXzXzXcXnXnXnXjXqXjXbXAXAXzXE.+.G k w G G G / { { _ _ R ^ ) ) ^ ^ ^ ^ ! _ ! ! ! ` ` ^ E ! ! ! ! ^ ! R ! ! G ! G R G M G ^ G U M M f G G } { J p.!.].!.%XQ.Q.E.e.q.*.*.{ E { E E E E E { { { ^ z v G G G G / z T.z.0 8 d d G 1Xu.) R R m z l d G G G H M n x n n m R G l M m M G U M M M U E E q.q.W H M M M M m b m m ! E G U ) ( U G G R ( ) ) ) ) o.) X.) ..) _ ` ) ) ) ^ G G E W _ X._ ) E R ! G G d G E W D.!.=X=X=XuX].D.Q.&X*X&X&X&XW.D.D.D.W.oXW.D.D.D.D.W.W.W.D.D.D.D.=X=XD.",
"8X1Xh.8X8X8XwX5XoX;X{.oX{.+XdX6XcXvX0X8XpXwX;X;XhXzXcXbXnXVXAXAXCXnXVXmXD.m m G J 1.y.D.D.D.D.D.D.D.D.D.D.D.D.D.D.N.y.a.D.d.N.D.D.D.g.1.D.D.u.y.u.D.D.h.D.g.z.D.b.v.2.1.} { { 1.T.bXLXbX3X}.'.m.p.z.i.r.r.r.N.D.D.{.oX[.^.^.D.y.r.t.b.[.{.}.OXG.D.[.].T.-   o 1 G H vXzXfX6X:X8X[.D.D.g.a.g.b.(.(.^.^.[.[.~.m.(. X XUXUX_._.{.}.{.{.[.[.0.R s l G / $.%.{ { 1.{ { @.} @.} @.=.>.2.2.2.y.2.%.$.@.@...} @.&.$.=.-.%.%.-.@.&.#.-.@.@.@.} @.{ } / { / T.&Xz. X1.{ { { { @.$.$.*.$.%.-.-.-.} _ %.%.o.] J H / ] #.1.2.u.2.#.*.L.7   . 1 G H SXcXT.a.f.f.y.2.D.D.r.f.D.UX}.4X9X9XfXgXcXzXIXZXZXnXcX1XvXAXAXAXZXrXD.8.G G d G J J _ / ^ ^ ^ ) ^ _ ) / ^ / { { _ ! _ _ _ _ _ _ R ! _ ` ! ! _ ! ! ! H ! G ~ ! ~ H ! M v b J @.{ ^ 1.e.#XW.!.].W.E.Q.e.w.q.+.{ { E { { G E G } %.%.1.) G G G G G R n x.z.= 1 w d G eXu.) E R m m m z H H H / ~ R m m G R R R R m M M M G M m G M ! M R O.q.) R R M M m m M U E G R ( ) ! ( ^ R ! ! E ( _ ) ) ) _ ! ! ! ( ( E ! R R G G R _ _ ) ( ! G m M b G G { W D.%X!.W.#X=X&X=X&X#X=X#X=X!.!.Q.D.W D.Q.!.D.D.$.*.*.D.!.!.W.W.!.&X=X3XD.",
"y.jX0X;X6XvX0X5X1XD./.>XT.$.{.5X5XjXwX;X1X0X0X;X0XcXbXbXVXVXAXAXAXNXcXNXcXx.R R G J { { { $.G $.{  .$.1.1.$.1.1.o.1.1.1.1.1.9.1.1.1.o.1.{ $.1.1.$.} $.@.} { 1.} #.%.%.@.} #.y.|.CXLXzX7X&XD.m.n.i.a.y.$.1.~.f.v.D. X{. X_.v.1.9.1.$.1.v._.{.oXoX X`.D.x.1     1 v ! hXcXgX5X4XOX{._.u.u.D.2.1.u.M.^.^././.Z.M.M.Z.UX~.(./.).}..X|.oX|.0X/.X.R k d v ^ G ^ ) / / ^ _ / ` ~ / ` ] } { @.} } { _ { _ / _ _ _ { } @.} } @._ } _ ] _ / / / ' / / } _ R.2Xp.1.&.$.o.{ { o.$.$.1.$.*.1.=.-.=.$.} %.#.1.1.+.) G / %.2.u.u.t.r.X.w.7   o 1 G / SXbX(.D.f.f.D.D.D.D.D.z.y.i.[.tXqX;XgXzXzXzXVXAXVXnXIXjXnXAXAXCXbX8X3X!.8.E G G G E J ^ _ / _ _ ^ ^ / ^ ^ { / { / / ^ ! { { _ _ _ ^ _ _ ^ / ~ / ! / / / / H ~ ! ! H ~ ~ ] @.] G z.c.q.!.Q.W.!.W.E.D.Q.e.q.O.E E G G ^ E J  .%. .%.} { { / _ ^ _ ^ v D.z.$ 1 w d G cX2.G ) E E m m G H J ] } _ ^ ! G m Y m U U U M M G R M M M G G R ( R *.5.) E ! G M M R G G H M H ! ! ! G G G G G H H ( ` ( ! ! ! ! ! ( ! ! G G G R ^ ) ! ! ! ! ! G M M G E { D.!.Q.D.E.#X&X!.=X=X&X*X=X&X&X#XQ.D.D.D.W.D.D.G 5.D.+.+.D.{.W.D.&XrX&X=XW ",
"D.xXjXcX8X0XdX0XD.oXGXFXmX&Xf.oXwXwXzXvX;X-XhXzXzXzXbXbXNXbXCXAXNXnXbXwXnXnX|.o.1.u.a.d.p.f.a.f.D.D.1.1.0.1.1.a.f.f.v.n.D.v.v.n.f.a.u.0.1.1.p.a.D.1.y.1.9.1.$.$.&.&.$.*.1.m.7XLXDX8X2X&X(.j.p.j.9.i.u.=.V.N.z.v.~.{._._.D.f.oX7XT.a.O.1.D. X{.oX_. Xq.D.-     1 b H fX6X6X6X5X;X+Xb.0.6X7X}.s.%.V.b.~. X^.I.~.N.a.^././.|.(.[..X}.[.)./.I.s.0.R y l m R m ! R R U U C.A M U M C.! C.` ! ( ( ( R ` ` ! ` ! ` ` ^ _ ^ ^ ^ ! ! ! ( ! E ! ! ! _ { T.&Xr.o.&.@.@.{ { o.@.=.*.=.1.*.$.*.1.$.$.1.{ z.iXE.e.*.W G } 1.2.u.u.3.$.'.-   o * b / SXNX/.D.v.f.D.h._.AXiXW.E.U.l.-XtXdXdXgXzXIXVXAXVXVXnXnXVXAXAXPXnXIXPXzX#Xp.W G G G G G G E / ) ) ! ( ( ! ^ ^ ^ _ ! ^ ^ ^ ( ! / ` ` _ / ` { { _ { { / { { { / _ { _ _ } } / / =.T.q.q.c.E.Q.Q.Q.Q.Q.Q.D.Q *.) E E J G G $.D.G.D.z.z.p./ o.o._ _ ) N N.n.X & 1 e d F.g r.{ R R R R G  .h.u.-.o.8.X.! U M C.M U U C.( ! U C.M G G G G ! ^ R E j.O.E G G G G M b G G G R m R R R G G M v G R E G G G G R G E R R E R R G E ) _ E ( E ! G E ! _ +.P.#XE.P.E.I.R.$X#X#X*X*X*X*X&X#X].#X$X#XR.D.D.o.D.R.W.pX!.q.8XW.D.=X=X&XrXD.",
"G.zXvX0X8X1X8X+Xt.zXGXmXNXiXD.1.0XcXzXlXvX+X5XbXcXbXbXbXVXVXbXnXnXVXcX+XwXnXZX8XfXbXNXNXVXVXVXcXbXbXlXvXbXxX7XlXFXCXCXCXFXFXNXcXCXNXNXNXmXmXbXVXNXbXNXCX>X7X>XD.zX].4X0X|.cXLXcX&XD.'.(.z.p.9.6.*.9.k.=.s.u.v.(.-X;X_._.h.}.FXbX'.z.z.G y.D./._./.oXW.D.- o   1 b { 6X_ _.hX5X;X-Xg.}.CXNXkX X=.A s.~././.^.Z.M.v.[.|.|.[.'./..X}.[.[.[.{.[.k.i.*.9.9.$.&.O.o.o.+.` ..X.&.*.o.&.;.&.5.@.&.o.&.&.O.*.O.*.o._ &.&.O.{ { O...5.6.-.&.9.o.O.o.O.(.&X9.{ _ @.} { { { @.$.1.$.&.=.#.&.$.$.$.$.2.2.gXzX>X$Xj.Q.W _ $.1.y.u.2.9.R.-   o % b _ JXcX/.n.v.f.f.D.8XKXNX%XQ.#XI.[.gXgXdX9XzXjXIXVXVXnXVXAXZXAXAXPXnXAXnXSXbX$XD.e.8.O.@.O.+.{ E E X.X.o.O.O.o.X.+.1.*.O.o.&.....o...O.o.*.o.) ) ) ) ) _ O.=.o.o.{ { o.../ _ o.0.w.w.L.E.E.Q.Q.Q.D.Q.Q.D.e.D.5.{ G G G { / %.1XiXW.E.#XtX) { @._ _ / M I.L.X 1 1 w d N.1.$.( G _ E m H @XoXa.i.8.!.7.( U U U M U U U C.! ! R G G M R ! R R R G ) w.1.+.X.W X.O.O.&.O.*.5.9.0.*.9.5.*.+.+...*.+.5.5.5.9.8.9.9.w.q.5.5.9.q.7.1.5.+.5.*.+.9.+.0.q.E.W.U.P.L.P.'.R.W.$X#X&X*X*X*X*X#X*X#X#XW.T.D.K D.lXW.!.CXAX9.D.!.D.&X&X!.=XD.",
"8XcX.XOX5X1X0XG.1.8XGXNXCX8X#.G {.jXvXvX0X-X7XbXbXbXbXbXNXbXbXVXVXVXVXwXcXAXSXLXJXSXSXSXGXSXSXCXCXGXSXGXSXFXCXFXGXJXGXGXGXGXSXSXGXGXGXGXGXSXSXFXFXFXSXGX3XvXNXpXLXxXGXGXGXJXhX'.T.x.z.n.i.6.6.5.&.$.y.u.v.M.~.[.8X{.^._.3.dXVXtXz.) f.G 1.D.G./.D.;XoXD.-     & v } bX;X7XdX0X8X;Xg.;XKXiX&X X} f &.b.UXZ./. X^.UX/.[. X). X).|.[.[./.)./.^.N.hX>Xz.7X&X~.D.{.~.Z.M.I.~.[./.I.~.[.i.$X;X[. X/.(.I.(.>X(.v.I.v.B.m.(.:X(.B. Xp.6.&XD.(./.9.T.$Xs.$.{ _ _ @.o._ o.o.{ 1.$.$.&.$.$.1.$.@.$.2.b.GXiX;XD.*.!.+.J 1.y.u.u.2.D.E.+   o % f / JXxX].D.f.f.D.D.+XKXmXW.q.2X$XUXxXcXjXfXdXzXIXnXVXnXnXAXAXAXPXAXPXSXAXIXAXbX].E.D.e.j.q.8.5.W X.1.0.*.O.&.q.7.w.T.X.q.q.O.5.5.5.q.0.q.0.0.p.0.O.6.9.9.0.0.&.O.O.o.o.o.&.&.&.R.'.L.Q.W.W.W.Q.Q.Q.D.D.e.Y.8.$.+.{ ^ { G } 4.6X7X0.c.#XlX) / { _ ! _ m '.I.X 1 e 1 c ^./ _ y G { m G ] IX6Xv.V.8.rXw.( U C.Y M R U C.U M M ! G G R ! ! ! G G ^ { +.+.1.q.9.9.5.9.p.+.O.5.+.w.q.q.q.O.*.q.E.l.x.q.w.c.E.E.W.q.].W.E.W.z.e.E.D.L.L.x.x.W.L.*XE.'.w.l.L.W.R.E.I.].Q.E.].#X*X*X*X=X*X#X#X!. XD.2.G D.2X!.rXBXFXX.D.3X=X=XaX8X=XD.",
"oXcXwXwX0X8X5X{.3.u.wXbXD.,.G G `.0XvXvXvXvXwXxXbXVXVXVXAXVXbXbXxXnXNXSXCXVXJXbXbXLXSXSXGXGXSXSXGXCXSXCXSXZXZXSXFXFXGXSXGXGXGXZXFXGXCXFXSXFXZXFXFXGXCXFXJXCXCXSXNXJXGXZXFXvXR.T.'.(.j.a.6.5.-.*.O.=.y.k.a.N.^.-X;X}.G.).1.D.8Xt.{ G G d %.D.D./.D.{.oXD.-     & v { bXqX6XhXqX:X;XG.| qX].1.@.y q =.B.M.).}.$X X/./. X/.).UX/.[.[./.~./.^.^._.<X4XoX[.{.~.[. X~._.[./.|.~.r.v.b.>Xi./.$X|. XM.B.N.M.[./.M.I.v.>.a.g.R.z.k.s.a.r.0.*.n.z.i.9.p.1.1.$.@.@.@.{ { @.$.{ { $.{ { 1.$.&.$.@.o.t.t.+XwXu.} G G G } %.3.u.f.y.1.E.; o . & f { PXNX}.(.m.f.D.G.D.wXM.C.x B.,.^.cXcXjXzXgXzXAXeXjXIXIXIXAXPXAXPXAXAXZX0XIXbXaXW.Q.W.z.q.D.z.5.j.z.w.1.5.8.q.D.W.].0.x.x.w.c.j.j.x.p.j.x.I.(.z.i.j.j.T./.c.j.p.0.5.5.5.*.O.+.Q.Q.U.Q.W.!.W.Q.D.Q.Q.Y.D.D.q.*.*.o.{ { { { ,.H.b._ O.z.'.^ 1.@._ ! ( N  Xm.X 1 2 2 d ;Xa.E l x v ) _ H G.d.} C.X.l.) ( Y U U U U ! U R ! M M G G E ! E R G G G ) G 0.G G { 0.E ) o.` ! T j.+.) ) W R Y U O.z q.G ) X.) X.@.0.0.z.z.a.1.o.X.e.p.j.E m.0.o.&Xj.#X%X+.E.P.E.I.E.#XW.D.D.].*X*X3X*X=X$X&X$X#XE.1.C D y.D.D.tX|.G W.{.W.0X&X!.!.+.",
"`.bX`.{.wXdX5X-X3.L  .{ G K 6 } 0XwXcXcXhXwXzXxXbXVXVXVXVXVXbXbXbXbXVXxXCXjXjXbX-XJXCXnXSXSXSXGXSXJXSXGXJXJXJXLXLXLXJXLXLXLXJXJXLXJXJXGXGXGXGXSXSXSXPXPXJXGXGXGXJXZXCXPXLXGX>XR.R.T.p.0.6.-.6.6.-.9.r.s.N.T. X|.-X-X~.D.g.Z ' G d d 1 d u.D.F.^.^.}.(.c.-     - b @.jX4X0XfX6X,XoX).J H _ H e 2 q r.9.v.).-X}.[.[.[.)././.UX^.^.^./.~.^.~.~./.F.-X<X:X}./.F.(._.[.}.).}.~.v.UXs.v._.UX/././.n.v.T.b.b.M.M.N.a.i.r.a.g.a.a.k.a.a.#.p.f.a.p.u.1.1.1.r.=.*.$.o.o.@.{ o.{ o.{ o.$.1.@.$.{ { 2.a.L [ K 1 1 1 f { #.2.2.u.1.y.W.+   . * c { JXNX>X/.T.n.N.N.3.L L C 3 i ' .XdXjXxXIXIXIXIXeXjXzXfXzXIXnXAXAXPXAXAXzXwXvXMX].].8XD.y.D.D.1.D.4XT./.T.~.m.M.R./.3X(.a.N.=.M.[.(.~.b.z.a.(.^.~.N.D.D.T.D.M./.|.|. X>X&XhXl.Y.U.L.W.!.W.W.Q.D.D.Q.D.Y.e.e.D.5.$.+.+.+.{ / K h d s G x ! o.{ { ` ( b m.z.X * 1 % x 5X! G m n m ! ` ) c i 3 q A j n Y M U C.U C.R M ! M ! H M G R R ! R G G G ) R / G G G G G M U C.` ) O.` X.) _ ;...` R ) R ( y._ M ! _ { _ G 1.R E _ ! { ^ M N.-._ @.=.a.6.$X*XL.R.W.I.W.W.].D.E.W.#X*X*X2X*X#X*X&X].D.1.G F F K d G d G $.G G 5.3XpXaX$.",
"oXAXD.d G G.wX1X^.J h 4 5 d G OX0X8XzXfXvXjXcXmXbXVXVXCXVXbXbXbXVXnXNXnXGXzXf.1.G H 1.y.1.y.t.d.d.D.u.y.2.a.g.d.g.g.D.^.g.D.D.D.b.g.g.g.u.u.d.d.h.h.D.h.D.h.D.D.d.2.1.u.oXLXcX/.T.z.p.p.6.=.i.r.i.s.p.b.~./.[.|.[.[.G.N.N.' d 2 1 * 1 { f.D.G.{.{.oX/.x.-     & c %.cX0XfXqX5X<X.X_.d.f 2 3 * $ M s.u.G.[.-X|.[.|.[.[.[.).~.~.^.~.~.(.(.~.~.(.).{.{._.^./.~.~.(.~./.^.[.~.v.UXv.UX[.^./.~.(.M.v.b.M.a.v.b.B.t.u.s.y.g.a.a.g.a.u.@.r.p.y.u.r.$.&.&.1.=.=.$.@.{ { $.o.{ { { { $.$.$.@.$.o.1.u.} d : $ $ 1 G { %.y.u.u.{ D.$X+   . * c } SXCX:X{.~.M.N.M.g.] a 4 # q A.,X6X9XxXVXVXAXjXgXxXgXfXzXIXnXPXPXPXPXAXZXCXmXD.G G G G K G G ^ G { / { _ / ~ H H J H H / J K / ' ' ' ~ K K / ' J ~ J J J J J ~ / / ~ ] @.a.&XW.Y.U.W.W.Q.W.W.D.Y.D.Q.D.D.q.*.5.*.*.*.5.$.' g 4 @ # * f _ { { _ ^ ! ! p.i.$ 1 1 * f 6X2.n G M m m ! ^ v - @ @ ; V n m m U C.! ! n b R R R b R G G E R R G G G E ! G v G z v M M M U ( R R ) ) _ ..) ) ( ! ` { { ^ R / @.` ^ ! f R { G H _ d c _ ^ v ] / _ %.r.&.*XrX5.L.'.].W.D.D.D.].=X*X=X3X*X*X2X&X#XR.D. .G d 4 : * 4 $.{ { +.D.sXsXaXD.",
" XIX1XD.1.y.wX8XoXG.} G G  .{.vX0X8X0XdXcXzXcXbXbXCXVXVXVXVXVXCXAXAXAXJXjX1.G d q 1 q g w d d d d f G d d x d x f d f v c c g c c b c c g g h G K K G G G G h G G J H G 3.OXLXiXT.P.N.z.r.6.9.=.r.r.a.M.~.^.[.|.{./.D.g.d.u.J d 3 3 J 1.g.h.g.^. XOX/.L.-     & G #.vXiXhXqX5X;XOX X/.3.x * > ;.u.u.M._.[.}.[.[.$X[.[._.[.(.UX~.~.~.(.).~.F.^./. X_.D.D.^.~.~.~.^./.UX~.Z.UXM.M.~././. X/.(.(.n.m.M.a.k.M.g.s.u.s.r.a.a.a.a.a.t./ 1.u.u.p.2.$.$.&.=.=.=.=.$.{ { { { { { { o.%.$.$.$.$.$.1.2.1.{ d 1 q G ] } 1.r.2.u.1.o.R.- o o % f } ZXCX4X|./.D.N.T.M.g.' C H d.}..X9XgXxXzXIXIXxXgXgXeXzXxXxXnXnXPXAXPXAXPXcXp.w d G G 6 G K K K K G S C b Z c S g C h C K Z b C C H Z K H K K Z Z Z S C C Z Z S Z Z Z Z c g %.8X'.Y.#XW.W.W.Q.e.D.D.D.8.D.D.*.+.5.5.9.5.$.{ H 2 1 2 e b _ { _ { ^ ^ M z.p.$ * 2 = f 0X2.v m M m m m M M l 8 - V l n n N M E C.U b U M ! M U ! R M ! R ! G G G R R G G z G G M M m U R U ! ! ! ( ) _ ) ` ! ` / ! ! ! / _ ^ _ / b G / ! ! G G ^ / / / / _ } ,.%.>.-.$X&XY.W.W.D.e.D.W.].*X*X*X*X=X*X*XW.E.&X].D.9./ G d d ^ X.D.$.D.=XaXaX3X+.",
").D.1.{.;X{. XdX-X+X+X).XX5XdXcXvX5XdXxXzXzXbXbXbXCXVXCXVXVXVXAXZXnXLXiX1.E G G d w w d d d d w d f d d d x x d c d d f f f x c c b c c G d G d G G g G g g d G ! / J J N.D.[.LX>Xm.m.a.k.6.=.-.9.2.9.a.D.(./.|.[.(.G.M.N.v.d.u.1.%.1.N.N.2.2.a.a.G.n.P.7     - G %.vX7XqX0X4X;X.X_._._.v.@.u.g.b.(.(._.{.}._.[.{.[.[.[. X X^.UX~.M.).v.F.M.(./.^._.{./.F.F.^.^.~./.~.b.g.).UXZ.(.~.[. X^.UX^.N.b.N.u.u.n.N.v.k.u.y.a.a.v.a.a.r._ %.z.f.9.1.{ { $.$.1.*.1.*.$.1.&.{ { _ { $.&.=.$.$.&.$.} #.#.#./ G G J { #.%.1.y.y.%.J D.= o o * g } JXvXtX>X X(.N.N.D.D.G.M.^.[..X.X9XgXgXxXxXVXIXjXzXjXzXIXIXIXPXPXPXnXPXjXy.G G d d h G K C K K g C c C c h g g g c b c K H K K H K H Z K Z b C Z b b Z b b b b b Z x p f J 3.u.tX].L.!.!.W.D.e.D.e.e.D.+.5.+.D.9.q.5.5.*.{ { ! G G G G { { { { _ R R z.k.; * 1 * x wX*.G G G G M M G M M m n n x x m N Y R ( C.U U M U U U G G G G R E R G R R R ( G G G G M U x m R U U U ! R ` X.( ` ! ` { G _ ! G ! ^ H G G _ ! R H f G ! ! / _ H A c A #.%.2.&.$X=X'.].D.5.e.W.W.&X&X*X3X3X3X=X].D.!.&XW.D.D.D.1.+.D.D.D.+.D.3XrX3XrX&X",
";XG.;X5XdX0X0XvX1XD.8X0X1X0XjXIXwXwXcXcXcXIXnXnXCXAXVXVXCXVXCXAXAXLX0X1.G G d d d 2 w d d d k G d d d d d d d f f f x d B B x x f x G x G G G d b c c f b c v H } / { } 2.2.2.{.JX&Xk.k.9.r.-.*.-.>.k.M.UX/./.}..X[.[.^.Z.Z.Z.v.D.D.u.g.d.1.g.D.h.N.1.E.8     * H } vXqX5X5X:X-X_./._._.).Z./.N.UX).[.[.}. X).[.|. X[.[./.[.)./.~.~.v.=.v.F.^./.(./.[.[.~.^./.^./.^.Z.M.~./.^.~.~.^.).^.^.UXM.b.b.v.r.s.B.N.M.B.u.v.N.v.z.f.a.s.@.1.f.y.9.%.$.o.$.$.1.1.*.*.=.r.$.@.{ _ { &.$.1.$.*.$.$.$.} #.#.{ _ { #.#.$.%.1.t.t.%.s.$X-   o * f } JXiX4X8X/./.(.n.b.Z.~.(.(./._.>X6X4X6XcXnXVXzXxXIXcXxXAXPXAXAXSXZXZXzXj.l x s 0 0 p f g c d h d g f i f f d g d f f c c g b g c c g g f f i f f d f f f g f p f y q q b } 4.4.u.2X!.L.W.W.Q.Q.Q.D.D.D.8.8.5.5.9.9.5.5.*.+.$.$.{ ^ ^ ^ { { { _ { 1.R ].m.; = = = d 4Xr.M ! M G ! R ! G G n N x Y B m C.U ( R C.M U C.U C.C.G G G R R R R R R R R R G R G G U R v M M U M U U ! ) X.! ! ! ! R G ) ` R R ! ! _ _ G G { G G G E { { E E G G G / #.%.2.1.D.2XW.#Xz.W.#X].$X=X=X3X2X3X*X&XW.].&X!.].D.D.D.D.q.D.W.oX$X=X*X7X!.D.",
"5X8X/ _.cXvXfXfXzXfXwXwX8XoXwXIXjX0XzXcXnXnXAXAXVXAXAXAXVXAXCXAXGX8X{ G G d d 0 G G J H J J G } { { { ] { / { #.%.=.1.%.#.#.,.r.g.2.t.2.#.}  .} %.} } #.#.@./ { r.3.2.1.} ] 2.d.vXJX&Xa.i.i.6._ o.6.i.M.^. X_.[.}.}.-X}.[.[.).^._.).G.D.2.N.^.F.2.-XD.x.8     1 H / jX[.-X5X:XOX).Z.^._.[.~.^.^.UX~.).).UXUXUX).[.[.).]./.|.[.'.).~.M.^.~.~./.^.^././.[./.~.).^.~.^.~.UX~././.~.Z.I.^.~.(.M.b.b.N.u.s.a.s.B.M.s.N.b.m.N.v.a.a.u.2.u.a.p.1.$.$.$.$.1.1.1.9.1.1.y.*.{ { { @.&.@.&.$.{ $.$.$.$.$.o.{ { $.$.%.1.1.%.%.r.=.6.x.7   o 1 i } JXqX4X8X(.(.UXN.n.n.M.^.[.[.[.<X<X4XfXzXbXxXxXVXxXxXnXVXPXPXSXZXLXiXw.z x f y w x b m b M v G G b G b b v v v v v M v b b v v v x v v x x f x f f x x f f f x x B x x A / 3.4.h.3.8X#XY.Q.Q.Q.Q.D.Q.q.q.q.*.*.*.5.$.+.$.+.{ { } / { { { { { { { { ! &XI.; = = & c 6X/ ) ) ! ! ! ~ { ^ M G m U N U C.C.( U R ( C.C.M ! U ! G G G R R G z G R R R R R G R R ! G R R ! U U R R ( ..o.) ! E ( ! G { ) ) ) ) ) E { W _ { E E { { O.+.{ { G G G c / | %.1.*.z.*XW.j.].&X&X*X*X3X=X3X*X%X&X*X*X#XW.].D.D.#X3X!.W.=X&X$XrXrXW.D.D.",
"8XcXD.`.bXfXzXwX5XfXvXfX0XoXdXcXvXjXbXbXVXVXVXAXAXCXAXAXVXVXbXJX&X{ G G s s w G } 1.1.1.,.2.2.u.1.1.b.v.u.b.^.F.^.^.^.G.d.v.h.Z.).}.`.F.D.%.} y.t.b.b.Z.g.g.u.3.b.N.3.g.D.2.%.g.).).xX[.z.i.i.&.&.-.6.B.M.~.[.{.}.}.}.}.}.{.|.[.{.{.[.D.g.1.N.g.2./.D.E.7     1 ! ^ gX~./.<X-X-X/.N.Z.).}.).~./.~.^.(._./.(.UXUX[.[.[.[.[.[.[.[./.~.(.^./.^./.^.^.~././._.^./. X~.b.M.Z.I./.(.(.UXM.~.~.UXb.B.B.u.r.u.u.a.s.B.i.N.m.b.m.a.=.y.y.1.y.y.r.=.=.=.=.&.=.1.1.9.y.1.r.1.$.o.{ { @.$.1.#.o.$.$.#.&.$.{ _ { $.1.r.r.r.1.=.1.@.) j.9   o & d ' JX>XzX7X(.(.I.n.n.UX^.(. X}.-X-X:X4XdXgXzXxXVXxXxXIXIXxXZXPXPXGXcX0.t x s e q x M M U C.C.G ! G G R G G m v m G M G v H H M x v n R M M M m M G M M n x b v M n x n b ! ~ | 3.3.h.2.&XW.L.Q.Q.Q.Q.Q.e.D.8.9.5.*.O.*.*.+.{ ^ { %.G ^ { { { { ( R _ ^ T.P.X * = * M 4X/ M ! ! ! f H @.f d R M m C.C.U ( ( C.R R m C._ M R U E G G E G G G G R R R R E G ) R ! ! ` @._ ) R R ( ( _ ..X.) ) ) ) E ` ) ) ) E ) { W _ { E +.W X.+.+.{ O.{ E G G G G / #.1.1.} z.*XR.&X*X&X=X*X2X3X3X=X&X*X&X*X#X XW.D.Q.{.&XrXiX!.$XaXaXaX=XrXD.",
"8X0XvXCXcXcXzXwX8XfXvXjX1XoX5XdXjXcXbXVXVXAXAXVXAXVXbXVXCXbXSX XG G k G d y G 1.3.D.f.1.D.D.D.y.u.t.g.b.2.{.[._.G.{.{.).F.b.N.Z.D..XOX^.D.D.t.%.=.b.^.`._.D.d.v.D.v.a.a.D.G.D.t.2.=.F.dX|.j.p.*.5.B.-.s.n.~._.$XoX}.-XOX.X|.-XOX{.oX|.G.G.2.} g.N.OXT.c.7     1 A / zX4X-X-X}.).^.g.M.[.[.[./.)././.^.UX).~././.|. X/.).).[.).~.^.~.~.(././. X/.[.^./.[././. X|./.~.n.~.UX^.^.(.~.UX~.~.I.b.u.a.r.V.r.s.u.r.N.a.u.B.n.N.a.r.r.9.9.u.p.y.9.r.1.1.1.=.9.t.1.y.r.9.=.=.&.{ @.1.1.$.@.#.1.*.&.$.{ { { @.$.9.a.u.1.r.2.1.@.&.5.8   o 1 h / LXzX3X$X~.(.UXZ.UX/.[.[.[.}.&X-X-X:XtXdXgXcXVXnXxXVXAXAXIXPXLXlXq.t t d d w c M R ! ! ( ` ( ( ! R ! G G G G G R M G G G _ ! x f m M R R ! M ! E M U m M U M b n v n U R ~ H } | 3.3./ 2X].e.Q.Q.!.Q.D.e.e.9.q.9.5.+.*.{ ^ { } { ^ ^ { { { { ! ! { R ].I.X = = & x 5X$.b R G G f b G b f G M C.` U M ( U ! ` R M U ! R ! U G G E G G z z G G G E E { R R R ) ) ) ! o.) M R ( ( X.) o.) ) X.) ) ` X.X.E ) o.E { E E $.*.$.{ +.} @.$.{ { _ E H G G / } #.1.} j.&XrX=X*X&X*X*X3X=X2X3X*X*X].W.D.!.Q.!.!.=X&X3XD.tXsXkXsXaX=XD.",
"8XbXcXbXbXbXIXjXvXvXwXfXwXvXfXwXcXbXnXCXAXAXAXVXAXVXbXbX0XCX_.G G G w d d G 1.g.f.D.D.D..XG.D.G.D.^.g.d.~.{./.}._.;XOX{._.^.UX/.^.(.oXoXXX).D.D.G.~.-X;X-X~.v.s.D.D.D.D.D.d.h.D.%.%.2.).mX$Xi.=.i.n.-.6.B.UX(.[.}.'.[.}.|.}.-X-X&XoX[.^.[.D.g.b.~._.z.L.7     1 A ] 5X&.:XOXOX~.^.h.M.{.[.[.[.[.).).[./.UX).[.[.|./.(./. X_. X/.UX~.(.M./.(././.^.F.Z.(././. X{././.UX~.~.~.(.(.(.M.UXM.b.M.N.v.r.r.6.r.r.t.B.a.i.a.v.n.p.r.y.y.r.y.u.a.a.y.u.9.1.y.1.p.s.r.r.1.=.=.=.=.@.$.=.@.o.$.$.=.$.@.{ &.&.$.y.1.m.a.$.t.1.2.%.r.x.8   o > e _ JXAXtX&X/.UXUXUXUX(./.|..X}.$X-X>X<X4XtXdXgXcXVXAXAXVXAXAXZXkX9.t d y w t l G G R ` ) _ ` _ _ ` ` ) R H ! ! ! _ R R ( ( ( G v v M R R R ! R ! R C.R ( R R U M m n M E R ! H ~ | | %.| 2.:XW.E.!.W.E.D.e.e.q.9.1.5.&.{ _ ^ } o.+.$.*.$.{ $.) E ! / ! $XR.+ * = @ b 7X@.M G G G H ~ { H v G C.] C./ M U U ! E ! n v ^ ! R R E G E G G z z z R E E { ) E ^ R ) X.( R / _ b / ! ) ) X.o.&.X.o..._ ..o.) X.o.) E E { +.+.1.$.{ E ..o.o.+.X.{ X.) ^ E G ] %.| 1.=.j.rXrX2X*X2X&X=X3X=X3X3X&X#X].W.*X!.oXrXaXaXrX3XlXlXsXsXaXaXD.",
"8XVXcXbXcXbXbXzXvXzXvXwX5XfXvXjXIXbXnXAXVXAXAXAXVXnXNX8X0XD.s G w G 0 d { 3.D.D.D.)._. XoX[. X[.^.{.g.d. XG._.+XOX}.{.}..X_.^._.(./.OX:X:XOXG.).^.(.;X-X).Z.~.a.D.D.(.(.D.u.u.D.M.r.#.t.1X4Xn.=.p.6.;.9.s.n.UX(.).[.[.|..X$X>X-X&X`.{.).^.2.). XG._.o.O.9   o 2 ~ ;.zX[.>X-X[.|.{.b.Z.[.[.[.|.}.[.[.[.).(.(.[.[.[. X/./.|._. X X~.UXZ.~./.UX~.I.M.M.M.M.~.~.(._. X/.^.~.~.^.~.~.~.M.M.UXM.I.N.n.u.r.s.r.r.a.a.a.t.a.z.a.z.f.f.y.1.y.u.a.p.y.r.r.r.y.u.t.9.r.1.9.i.=.1.$.$.$.$.@.$.$.&.@.{ @.=.=.=.r.r.p.1.H 2.1.2.2.&.D.W.7   o = p / JXCX7X&X|. X(.'. X X|.|.$XoX-X-X>X<X<X>X5XhXzXxXAXZXAXPXAX5X$.t y d e q l G E ! _ X.` _ .._ _ _ ) ` ^ ! ( ` ! ! ( ! ^ { _ ! M b U ! ! ! R ! ! ( ` ( R R E R U M m m G R R G H / } ,.| %.%.3XW.E.W.Q.E.D.e.j.q.5.*.+.X.o.{ { +.$.$.+.$.$.{ { ..( { U 2XT.. = - @ b 4Xo./ ~ ~ ! ] H J c v G ~ C.] ! ! ( U U ) ` M R ! ! ! E E E G G G z G G G R ) ..R G R R ) ) ) ` ` M 2.@.U ) ) ..o.&.o._ o.O.O.&.O.` o.) E { X.O.5.*.O.E ^ X.o...{ E +.) ....^ G H / %.2.>.6.p.'.=XrX%X&X].=XrXrX=X=X*X&XW.&X3XrXaXiXpXlXpXaXlXlXMX3X=XD.",
"5XVXcXbXbXcXcXcX0XcXcX5X1XvXfXwXcXbXnXAXAXAXCXAXVXbXFXSXD.G s w w 0 d J %.t.D.`.`.{.[.oX-XoX).D.[._._.D.g.F.[.;X:XOX[.{._./._.Z.b.}.+X8X8X8X[.^._._..X[.b.~./.N.D.D.D.^.^.D.F.)._.G.2.#.} ~.$Xv.s.p.i.6.V.k.I./._.|..X|.}.oX-X-X{.F.|.[.).^.D.M.{.[.R.j.8   o 8 A / gX-X-X-X-X-XOX^.^.[.}.[._.|.).[.[./.[.(.). X[.}.[.[.[.|. X X(.Z.UX~.(.Z.M.b.n.M.M.M.T.Z.~.(./. X/.UXUX~.UXUX~.UXM.~.UXZ.M.M.v.u.a.u.i.g.k.u.i.a.v.z.f.f.u.r.9.u.j.a.p.a.u.r.y.y.0.r.r.r.1.r.i.=.=.$.$.$.@.@.$.$.&.$.{ @.$.*.$.i.u.p.1.1.1.%.1.2.{ n.&X7   o > e ] JXnXiX>X].'.'.'.].].$X.X-X-X>X>X:X<X,X-X>XdXhXzXcXAXJXVXtX5.y y x d t s G ( ` _ X.) ` _ .._ ) ) _ _ ( ! ( ) ( ^ ! ) _ ) ) ( ! R R ! ! ( ! ( ( ! C.C.U U ! R U U m m R R G R R H / } | ,.2.$.oX].Q.Q.D.Q.w.j.0.9.O.+.@.X.o.*.*.*.+.{ $.$.{ *.6._ _ R &XP.o * * $ b dXr.! ~ M H / H H f G / ` C.~ M ( M U v ! G M R R ! ! ( E G G G z G G G R E ) E R R R R ) ` ) ) ( &.%.M ..) ) ..o.o.o.O.o.o.@.O.o.) ) ) E { +.*.*.*.E G ) { ....$.E { $.o.....R G H } 1.-.,.6.7.2XlX#X*X#XW.3X=X3XaX*X*X=X&XrXaXkXlXkXpXrXrXaXlXlX=X=XD.",
"8XNXcXxXbXcXcXcXD.;XAXjXcXfXvXzXbXVXVXVXnXAXbXbXVXSXJXD.w s t 0 1 w 1.%.D.d.D.{.OXoX{.OX-X{.[. X_.|.[.G.~.F.[.;X;X+X{.}._./..X/.^.;X8X4X1X8XOX_.[..X-X.XZ.g.^.Z.d.G.). XG.F.).F.^.{.^.t.] }.[.[.v.k.s.5.V.r.s.UX/.[.|.|.}.}.}.>X_.b.^.D.^.{.}.[. X_.T.x.9   . w c ~ vX-X4X,X:X:XOX}.;X-X[.}.).[.[./.].[.[.[./././.[.[.[.|.|.[.[./.UX(.~.~.b.v.v.b.b.M.M.~.M.(.(./. X).UX~.~.UXUX~.UXM.UX~.UXN.n.N.B.n.a.a.a.u.u.a.v.a.v.f.u.y.9.r.a.a.a.a.y.a.9.a.p.s.1.1.1.*.=.9.=.$.$.$.&.&.@.$.=.=.{ @.$.*.1.1.1.y.1.1.2.1.1.1.t.{ &.w.9   X > p / LXdX3X&X|. X X[.[.[.|.$X-X>X>X2X:X:X>X3X4X6XgXzXxXVXKXdX&.y q y y d v G G _ _ o.{ .._ ` _ _ ) o.) ) ) ` _ ( ( ( R ) ` ( ! ( ! ) ( R R R R ( ( ! U C.( ( R ! R U R R G R R G G G ! ~ } ,.:.%.{ #XW.L.Q.Q.e.c.e.q.{ +.{ &.O.*.9.*.{ +.{ { +.*.6.o...! $XE.o * = $ b gXr.! / M M ~ v H G ' { ~ ( ^ _ M v ] t.%.G ` ! ! ) _ E E R E G G z z G G E ..{ ) R R ) ) E R ( ! n M o...X.X...o.{ O.O.+...o.O.O.) ) X.E { O.*.+.O.{ E _ X.) { +.+.+.1.q.&._ { H G G | @.#.-.=.p.iXiX#X2X*X3X=X*X=X3X*XrXrXaXhXkXsXsXiX3XlXlXsXlXMXMX#X",
"8XCXbXjXvXbXcXbXnXbXbXbXVXzXjXVXnXVXVXnXVXbXbXbXPXJXD.G k t w 1 q @.u.g.G./.D.G.{.OX.X}.{.M._.[.OX:XD.g. XF.[.8X:X-X.X{..X}.{.[.oX:X4X4X4X4X<X-X_..X;X;X[.Z.N.g.3.D._.^. X X/.r.v.}.}.v.H / %.^.zXI.i.i.6.9.6.v.(.^. X|.}.oX[.M.u././.^.M.G.D.t.D.}.x.D.9   . t A C.qX.X7X<X<X:X-X:X>X:X}.|./.[.[.).[.[. X~.~./././.[.[.}.|.[._./././.(.b.g.N.b.M.Z.~.b.D.T.~.~.(.(.[.~.M.~.~.Z.~.T.~.M.UXM.N.v.k.n.b.a.k.a.s.s.s.f.f.a.f.p.y.i.r.a.a.k.a.p.f.a.s.y.u.r.1.1.=.9.9.2.=.$.&.@.i.=.=.=.$.$.$.$.1.1.r.y.y.i.u.s.2.@.2.u.1.R.w.w   o 0 p _ KXhX<X2X|.'.'.[.|.[.].|.$X-X:X3X>X-X2X4X7XdXzXzXmXJX$X8.Y y y q w m G ( ^ ..;.;.@.o.) ) ....../ ( ) ` ) ) ( / / ( ( ! ( ( R ( ^ ! R R G ( E ) R G G E R ! E R R R R R ! ! ! U U U ! ^ | }  .1.J '.].c.E.L.c.c.q.5.O.o.*.9.5.$.{ *.$.{ +.+.*.1.{ $.) &Xm.o & & $ M cXa.E H G G G ] G G G f H } H v M / / H / / R R ( E ( ( ) R G G G G G R R _ { E R ) E ) ) ) R ! R ) ) W ( ) ) ) ..&.&.&.O._ X.o.+.) G ) ) +.&.*.+.O.{ E ^ X._ X.+.$.5.5.q.@.{ W _ E G G / } @.%.-.6.lXpX&XD.!.3X=X=XiXaXiXpXaXpXiXpXMXsXsXpXMXMX3X3XBXW.",
"iXVX;Xh.d 5XCXbXbXnXbXbXnXnXbXnXAXVXnXbXcXnXcXPXZXD.G l w w 9 d G d.D.G.[.`.D..Xg./.OXOX/.^.^.~.[.:XD.^.g./. X<X;X{..X.X.X}.}.).,X5X6X4X4X4X:X:X;X{.-X;X-X).Z.b.a.v.D.^.G.^.^.d.d.[.G.%.@./ | =.UX[.s.9.0.s.i.i.n.UX^./. X[.[.(.~.{._.}.~.1.G H ~ [.].9.1   . w A C.vX}.^.~.4X:X:X,X:X-X.X[.[.|.[.[.[.[.(.UXUX/. X X'.[.|.|.}.[.[.[.[./.n.a.s.B.v.M.M.^.N.M.D./. X~.).I.b.T.I.~.~.~.~.UXn.N.M.N.N.v.b.a.v.g.t.i.y.s.y.p.a.a.s.r.6.u.g.v.t.y.p.y.p.y.y.9.1.9.r.6.1.*.=.=.=.$.9.$.=.$.o.=.1.=.1.r.r.i.a.y.s.2.>.%.u.1.$.T.m.9   o > p @.LXvX^./ &X&X/.'.|.].].|.[.$X:X-X-X>X:X2X6XfXxXDXAX].` C.B f q y b G ^ ^ _ ;.o.o.@.&.o.) ......` ( ` ` ) ) ( ( ( ( ( ( ( ! E ) ( R R G ( R ! ) R G G R R R R R R ( ! E R R ( C.! C.U ~ / _ } J } { D.E.e.E.L.c.q.w.5.9.9.*.*.+.+.5.5.O.O.$.$.W { *.E 2Xj.. * % O ^ :X( { G G G G G # d G G b } f f G M / l v ! E ( R ! ( ( E ) R R G G G G ) @.E ) o._ ) ) ) ) E ) ! ) E R ( X.X.) o.*.O.O._ X.E ...._ E E E o.O.*.5.*.*.O.1.+.o.&.O.9.O.1.q.X.+.$.o.) ! G M ] #.} =.-.9.lXpX#XaXaXaXaXiXpXaXpXpXlXcXMXlXlXlXMXD.$.W.sXCXW.",
"{.JXhX} #.vXNXVXVXVXVXVXNXVXnXVXAXnXbX0XcX}.jXAXg.G s y k w d G ,.1.u.N.D.d.u.D.g.2.F.}./.g.(.M.d.+Xf.f.g.D.~.+X;X;X;X-X.X.X}.[.OX5X6X8X<X1X<X:X<X:X;X;X.X~.~.M.~.N.D.M.b.Z.b.g.y.%.a.} v.u.#.2.-.v.<XUXi.9.5.6.i.B.UX(. X X[.-X/.N.[.[.}.oX[.D.] [.].q.8   . w N Z zX;Xd.v.,X[.[.-X>X:X|.[.|.}.|.[.}.[.(.UX/./. X[.[.|.|.|.|.[. X X[.[.~.N.B.v.s.g.v.~.b.M.(./.^.(.(.N.b.M.M.I.I.~.~.~.a.N.UXM.N.a.B.v.v.f.s.s.r.r.y.y.s.p.y.i.6.u.z.v.9.1.f.r.s.p.y.1.=.r.r.=.=.9.6.=.9.-.=.1.=.1.=.*.*.1.r.i.u.s.a.9.=.%.#.=.y.t.$.j.W.8   o 0 p ] KXhX&.-X8X]./.(.|.|.|.|.|.$X$X$X>X2X<X-X4XdXgXCX3XW x B g d d m G ! _ { ..@.@.o.@.@.+._ _ ..] ` / ` ` ( ` ` / ` X.` ( ( ! ( ` ( R R R R o.^ ` E _ R R R R E R ! R G R R { ! U ( C.U H ~ ~ ]  . .] @.T.x.c.L.e.L.x.w.j.0.9.$.+.O.*.{ O.$.*.+.{ O.*.X.mXc.. % * + ! fX&._ ( G G _ k d J ^ ^ G f e b } v ( ! R ! R R R R E ! ^ R E / G R R R _ ) _ R M ) ) _ o.E E ! R E ! R ( ) ) _ X.o.@._ E ) ) ) X.( E E ) +.+.1.5.+.*.q.q.o.X.9.9.9.9.0.9.o.@.&.*.+.X.G ~ H / @.} %.@.9.pXBXsXpXiXaXaXsXlXpXlXMXMXmXsXtXlXlXD.G w rXBX9.",
"G wXGXbXSXCXVXNXNXAXAXVXAXAXAXAXAXnXwXD.D.).0X$.G s k w w d ] 1.1.f.u.y.f.1.y.h./.^.b.^.}.b.G.a.1.{.1.1.f.b.^.(.-X,X,X-X.X-X:X:X-X8X5X:X}.-X<X4X4X4X-X:X-X).F.)._.N.g.N.M.M.u.u.a.g.2.N.M.[.^.u./..X,X5XB.i.6.6.6.i.k.M./.|.[./.~./ g.(./.~._.dX^.&X|.*.8   . 0 Z p vX4X@._.5X.X.X.X}.-X[.[..X[..X|.[./.^.)././.[.[.[.|.}.$X[.).[.[.[.[./.Z.M.~.k.a.M.^.D.m./.(.(.~.~.~.D.D.F.M.b.~.^.M.n.v.Z.n.N.k.M.I.f.v.r.i.r.9.s.r.1.y.i.y.=.z.v.u.%.1.y.i.y.y.y.9.6.6.i.=.=.1.=.=.r.9.1.r.1.1.=.$.$.=.=.r.y.p.f.y.=.@.%.r.t.1.p.].c.- o o 0 p @.LXJXNXNXrX|.'.'.(.[.(.(.$X$X.X-X:X>X4X4X3XiXtXW.X.U g u u s m R ! ` _ _ o.o.@.@.;.@.;..._ ` ` ( ` _ X./ ( ` ( ) ..` ( ` ( ^ ` R R R G ( t._ ( ) ) ) ^ R R R R R R ( E R _ ! U ( C.M U U ! G } } } } H D.n.w.E.Q.E.L.x.w.9.$.O.*.$.+.{ O.{ ) O.9.+.W.KXj.X % % ; G AXz.X.) G @.H l 1.#./ ) _ _ M M { v n E E E E ! E R E ) E R { E R R R E ) R ^ z G ) ) { ) ) E M R ( R R ( ) X.X.O.O.O...) o...) ) R ( ) { +.O.5.9.5.*.*.+.+.*.9.0.0.0.p.5.5.1.+.*.1...{ @.^ H ' | ] @.} 1.jXNXlXlXpXpXpXpXpXMXMXMXMXlXMXpXMXaX*.D.FX*XG ",
"q H jXJXNXAXCXVXAXAXAXAXAXAXVXAXAXnXfXy.4X/.^ v x d d 1 d ] 3.2.2.h.^.a.%.1.3.D.{.{./.N.D.F.D.t.@.d.=.N.f.v. XM._.4X,X;X.X4X,X4X<X8X4X<XOX;X7X5X4X4X.X;X<X-X}.-X[.D.N.g.F.v.2.a.N.(.%./.).~.:X/.^.[./.-X:XR.6.7.6.6.B.v.I./.M.(.oX~.m.[.>Xa.1.m.<X*XO.1.8   . w Z u ;.{.9X6X4X-X,X}.}.|.~./..X$X}.}.[.[.[.[.[. X/.[.[.[..X$X}..X|.]. X[.'.^.I.~.Z.a.'.~.^.~.(./.~.UX~.I.M.UXD.M.N.N.^.n.N.M.n.N.N.N.Z.I.z.v.s.1.y.9.9.1.&.=.r.a.a.a.v.r.r.i.r.r.i.s.r.=.=.9.r.=.=.=.=.-.9.9.r.p.9.$.*.=.-.@.$.r.i.a.a.2.>.>.s.u.y.n.0.E W 7   o > f ~ OXVXKXGXpX*X].(.(.~.I.(.'.|.$X.X2X:XtXtXdXmX'.` N u B u B b C.` ) { _ ) @.o.o.;...o....._ X.` ! ( ..) ) ^ ` ) ` ) ) ( ( ( ( ! ! R R R M M R ) E ) ) R R E R R R E ( E R G R C.C.C.C.U C.! G / ] / J #.} { 9.c.Q.L.L.c.w.0.*.O.$.{ +.X.+.E E 1.+.D.HXW.E $ # * $ H vX~.o.W R G l G m y G ) E R G x t m R R R E ! E ! R R ( ^ R E R R R ) G E { G R ! ( ` X.) ( E ( ( E ( E ) ) ) o.o.*.&.` E o.) ) E ! W ) +.O.*.5.q.1.5.O.$.$.9.0.0.1.0.0.*.5.1.5.q.q.*.&.{ { H H ' ] ] } { 1.lXBXpXlXaXaXpXlXsXMXMXMXmXcXpXMXlXaXBXtXG & ",
"3 1 ^ cXJXNXCXCXCXCXCXAXAXAXAXVXVXZX0X8XvXG x y w f w G { 1.d.2.2.d.oXh.u.g.1.M.{..X[.G.~.g.M.v.2.~.1.d.g.u..Xv._.4X,X,X<X<X4X:X8X5X<X4X4X4X5X5X4X<X;X:X8X;X:X[.[. X~.M.v.t.a.2.2.^.a.F.(.M.;X/.>.UX+X[.-X.XP.6.5.5.5.9.N.n.I.[.}.oX{.|.oXt.1.|.'.G k e - o X w A p u B -XVX/.}.:X[..X[./. X).|.}.|.[.}.|.}.}.[.(. X}._.[.[.[.$X|.[.[.[././.M.(.^.UX/.(.(./.(.(.(.(./.UXM.M.~.T.M.~.(.M.a.M.M.M.b.N.UXM.v.a.a.u.f.s.r.1.%.1.i.a.z.v.a.r.a.a.s.s.s.r.9.=.1.r.r.6.=.-.$.*.1.r.u.a.9.=.$.{ =.@.$.9.y.a.y.r.2.d.g.y.T.(.E s z t   o 2 p H ,.F.dXKXGXiX$X(.'.s.M.'.|.[.[.$X>XtX6X9XlX].;.N p u u u N R ( _ _ _ ) ..o.;.;.;...;.@.;.) ) ` ! ( _ ` ) ^ ( ` ) / _ ( ! ( ! E E ! R R R E ( _ ( ) ( ( ^ ) R ! E ) ) E ( _ ! C.U U U U ! ! G ^ J ] / J K G 1.0.c.E.L.L.w.q.O.{ O.{ { +.{ ) @.+.D.SX!.k G @ @ & @ ! | u.o.O.W R G G m G E ) ( ( G G R m Y R R ) ( E R R R ( R E R G G E ) _ ( ( ( E E ! ) ) ) ( ( ( ( ) ( ! ) ) X.o.O.&.) X.) ..X.E ( E ) ..+.5.5.9.5.q.5.q.5.5.0.0.q.q.w.9.1.O.5.1.w.0.q.*.o.` ~ ^ A ~ ] ' { @.y.lXFXMXpXMXMXlXlXlXMXlXMXpXlXkXMXCXpXG & & ",
"4 w 2 J zXJXNXZXZXAXAXCXCXAXVXAXAXAXSXfX) G l y w w f } t.u.2.1.u.u.2.D.G.N.2.1.b.{./. X}.M.N.N.[.+Xg.N.1.2.{.F.[.4X,X4X<X<X4X:X;X8X4X4X<X4X<X<X<X<X4X4X<X:X;X[._.{. X~.a.y.u.v.^./.v./.d.g.[.2.-.,.UX.X^./.:XB.5.6.5.5.9.~.'.|.}.|.}.&X}.f.^.].R 1 1 1 ; o X d C.c i q B -XzX/.}.:XUX XUX(.).[.}.|. X}.$X|.}.}.~._.$X|.). X|.[.[.|.[. X X^.M.[. X].^./. X/.(.(.(.(.~.(.~.D.T.M.I.~.UX~.a.k.N.b.N.v.~.M.v.a.z.v.u.a.y.9.r.i.s.z.a.k.a.r.p.k.s.p.r.=.=.=.=.6.6.V.9.=.$.$.=.r.r.y.p.1.@.^ @.$.&.=.y.y.y.y.f.f.N.|.R.E l > y 8     > q H %.2.b.;XLXJXrX#X/.(.(.T. X.X[.oX>X>X;XfX].&.C.u u 3 u N U ( ....o._ ..o.o.;...;.@.o.;.o._ ` ! ! ( ! ! ` ! ! ( ` ( ( ( ( ) { ( ( R R E ) ) E ) _ E ( ( ) ^ ( R R ) ) ) ) E ( U U U U U ! ( ^ R H / } ' H J :.u.1.c.L.c.w.5.{ o.o.o.+.{ ) { q.E.NXW.t w G ; + 1 + { K <.u.1.8.E R G G R E ) ) ) E R R Y U U R E ) ) R R R E R G R R R E E E ^ E ^ ) ( E ` X.) ) ( ( E ) ) ( ) X.) o.o.o.) o.o...o.) R ) o.X.{ 1.1.9.q.q.q.9.q.q.q.q.0.0.0.q.q.1.q.w.z.w.9.5.&._ ^ ` ! H J ~ L o.] y.cXHXMXNXMXMXsXpXMXlXrXiXNXMXBXpXG = + & ",
"L 1 2 1 R vXJXVXCXZXZXCXAXAXAXAXAXAXfX@.x l s y w s #.2.f.h.%.u.u.d.1.2.d.2.2.f.F.G.b.{.}.D. X/.;X;Xg._.2.g._.g..X4X4X4X4X<X,X,X<X8X<X5X4X7X;X:X:X4X4X4X8X>XoX-X-XOXOX_.N.d.u././.b.N.~.F.g.N.b.UXn.Z.|.,.d..X<XB.5.i.i.&.n.(.|.-X;XOX[.oX|.T.z w 2 1 8 ; o o d N A Z V V u ).dX-.[./.[.UXUX(.(.[./.).[.}.}.}..X[.)..X|./.[.[.|.|.|.[./.'.~.(.[.[. X^./. X X(.~.UX(.UX~.(.~.M.N.b.UXN.Z.N.v.a.s.a.v.~.M.z.u.v.v.a.y.a.a.u.f.i.v.v.u.i.i.i.a.a.s.6.=.=.r.r.6.-.9.9.=.*.$.=.i.1.r.p.r.$.@.{ @.@.-.s.y.u.v.N.D.>X'.U y q & 7 7   o = q ~ (.C 3.a.[.DXLX2X'.'. X'.[.$X$X-X&XtXtX].&.C.u u V B A N ` ) ;.@.&.@.o._ @.;...o.o.o.;.o.o._ ` ! ^ ! ` ( ( ( ( ( ` ! ( ` _ ( ! ! R ! E ) ) ) ) ) ) E E E ! R R R E ) ) ) ( ( ( C.! ! R C.! ^ ^ ^ ^ / ] #.2.3.#.1.D.e.w.7.o.O.O.$.O.{ { +.+.W.NXE.k d 1 w . @ & . $._ : L G.z.Q E R R R ( W ) E E R R U m R R ( ) ` E R R ! R R ^ E _ _ R G ) ^ ) ) ) ) ) ) ) X.) ( ( E ) ) ` X.X...@.X.E ..X.o.X.) E ( ) o.+.O.5.5.9.5.9.q.q.q.j.w.w.0.0.9.+.q.5.q.w.p.0.1.*.O.) { &.^ H J J ^ L { p.cXHXNXNXcXpXlXiXtXW.lXNXCXiXG & + + & ",
"D.G @ 1 2 d 0XLXCXZXZXNXnXVXCXVXGXfXo.G s y s d x %.y.1.u.D.u.3.D.>.3.D.u.1.d.G.8XoXG.G.-XD.^.-X;Xb.(.;X} OX{.u.<X:X;X,X,X<X,X:X,X<X4X4X:X9X4X4X4X7X4X4X,X,X4X4X4X<X;X-X).UXZ.N.~.(.~.Z.UXZ.d.t.Z.N.#.}.Z.Z.`._.fX(.i.B.s.UX(.'.[.>X-X|.-XP.B 0 > > $ v 0   . f G J d.G 4 0 1 D.cX-XoX{._.D.T././.(.^.}.|.[.}.}.$X|.{.}.|.}.}.[.[.[.|.(.M.I./.^. X[.T.UX(././.I.M.Z.I.~.^.~.I.M.b.I.n.M.M.n.B.a.k.N.I.b.N.n.B.k.a.s.p.s.s.f.f.a.y.y.9.9.f.a.p.u.=.=.r.y.r.6.-.V.=.6.V.V.6.V.V.V.i.>.=.=.@.;.&.=.r.u.v.D.).0XR.E d 4 * @ ! r   o 1 1 G wXK 6  .d.F.bXJX*X].].'.|.-X$X-X$XiX>XE v y 2 3 y v C.( ` ;.o.-.@.&.&.o.;.{ X.{ _ { { { o.{ ( _ R ^ E ^ ^ R ^ ^ ^ E ( ^ _ ( ` ( R R ( ^ E ^ E E R R R E R R R E ) ( E ! ( E R R R G U C.( _ ) G G G J L 1.G d %.1.5.5.*.X.$.+.$.+.{ $.+.].pXq.G d 2 k k + 1 1 . y.t.@ * G D.D.+.G G G E E ) ) E E U m m R E ( ( ( E R G R { ^ ) ) ) R G G E E _ ) ) ) ) E E { { { E E E { E ) { +.o.) E o.+.) o.+.E E ) X.*.&.6.0.0.5.&.0.j.i.j.w.w.9.O.5.7.j.j.0.0.i.6.7.9.9.9.1.O.+.G b K J J { _ y.cXHXNXMXpXsX2X2X3XmXHXiXG & @ X & d ",
"D.y.G 1 2 1 G jXLXCXVXJXZXVXAXJX0X1.G G l s d G 1.1.3.t.1.1.u.D.u.D._.{.OXD.D.).OX;XD.t./.D.D.;XOXm.:X{.b.;X[.~.<X6X;X,X;X<X:X;X>X>X<X,X,X4X4X6X6X4X7X<X-X4X4X4X:X<X;X-X-X-X}.OX[.).^.~.Z.UXUXd.g.N.>.~.~.u.G.).{.gX:XL.UXR.[.'.[./.:X:Xi.B 0 > > % 7 E 9   X v J G 8X1.G * w 1 1.CX0XoX{././._. X[.[.|.}.'.[.[.|.[.[.}.|.|.}.[.|.|.[./.M.(.[.(./. X/.~.^.~.^.N.i.~.M.~./.~.Z.UX~.N.Z.N.N.N.B.a.g.n.M.g.N.n.v.a.v.s.=.v.f.z.z.z.a.t.r.y.a.a.f.p.9.i.s.s.r.V.6.6.6.=.V.6.=.6.V.9.6.=.1.1.=.*.@.=.a.b.D.}.hXx.m d 4 * % w 5.t     1 d f `.L G G L 3.D.bXJX*X$X].|.-X&X&X7Xn.) v q 2 1 s M ! ( / ..@.&.@.@.o.@.@.o.{ _ { ! _ X.{ X.{ _ ! ! / R / ^ R G R G H ^ ) _ ^ ! ( ( ( R R ^ ^ R R R E R R U R R ! ( R R R U R R R G M R ( _ _ E G G _ E _ { d G D.G 1.$.D.D.9.5.*.8.y.W E.iX5.k 9 1 1 E +.+ 4 3 . y.D.1 0 : F <.D.1.E E E G R E ( R Y U U U E ! ( ) ! R R ( _ E ) ) E R G R R E E { E ) ^ ^ E { W { _ E ) R R ) ) ..) ) E ) @.) { $.{ +.1.&.5.7.9.0.9.*.) 9.j.w.w.i.6.&.( ` i.7.6.q.l.6.7.j.0.w.l.p.9.1.{ G G J J J J ^ y.pXHXmXlXNXtXpXNXHXiXG 1 $ X + G +.",
").g.L d 2 d 1 G xXLXZX&X5XJXCX6Xo.G G s x s _ 1.f.y.u.G.).2.r.^.D.{.;X8X;X8XD.D._. XD.t.D.G.G.8X;X}.5X[.<X:X<X{.:X6X1X<X<X,X;X^.}.4X{.,X,X<X4X4X7X9X4X,X;X<X,X,X4X<X-XOXOX;XOX{.).UXM.~.^.(./.~.b.s.s.v.] t.Z.{.A.}.dX2X(.[.[.[.:X:XtXk.B q > > % = C.o.8   X x G 1.G.{ J d 0 d 1 ) vX0X-X{.|.oX}.{.|.}.$X}.}.|.}.[.|..X}.[. X[.[.[.).^.~. X/.(.~./.[./. X(.UXN.N.UX~.T.~.(.M.UX~.UXI.b.N.v.a.B.B.M.N.s.N.N.b.a.v.a.9.a.f.g.f.v.f.9.y.y.u.p.v.y.i.s.i.i.r.6.-.=.;.V.6.V.6.-.-.V.=.-.9.9.>.r.2.t.v.T.:XiXO.W c 4 * $ t G X.7   o 1 d G D.{ 3.J G  .2.N.zXLX2X].{.-X>X<XT.o.m e 2 2 f A ! ^ _ ..;.o.&.&.o.;.;.@.;.{ ) / G ! / _ { _ ! ! ! ) ^ _ _ ^ G G G R G ( ( 1.X.) ^ R R ^ E ( R R E ! R R G R E ! R R R R m m R M R R ! ( ) { G G E E _ J G / / G $.1.$.2.D.1.D.8.q.q.W.pXE G 0 1 8 G W *.@ w d o p.D.G G w 4 d ,.d.a.+.E E R R E R R E U U U ( ( ) ! R ( _ R ) ) ) E R G R R R R R E G R ) E $.O.{ { { E G G E E { ) ) ( ) +.) X.+.*.O.q.q.*.9.0.7.6.&...0.w.0.q.5.O.*.( ! q.0.7.q.i.5.7.k.j.j.j.j.9.5.*.{ G G G L / L { *.tXGX3XpXlXCXHXlXG 1 & X . G q.w.",
".XD.3.1.d 2 d 1 / nXLX3.oXJX{.@.G G s G s } r.#.} r.f.D.D.[.{.{.D.-X;X;X;XOXoX;X/.oXD.1.1.D.D.7XwX0X0X-X6X<X,X+X-X6X5X<X4X4X;X^.{.,X/.[.-X,X4X,X<X4X7X-X[.-X;X:X:X:X-X;X-X.X{.~.~.).).^./..X[.[.UXB.M.u.-.>.{.9X4X.X>XdX-X'.$X:XUX-XL.B u * % % V n &...7 o . c J K G 1.} G d d G d G vXfX-X;X4X;XoX}.}.}.}.}.}..X$X[.|.}..Xn.(.[. X/.I.UX[.(.~.~.(.~.[./.'.M.r.b.~.~.(.T.~.~.UXUX~.N.N.n.M.B.a.N.~.s.-.a.n.N.k.a.N.u.s.v.z.g.k.a.r.9.a.p.p.f.y.s.i.u.i.6.6.*._ ;.6.6.-.6.6.-.V.-.-.-.=.r.a.M././.oX6X0.) _ 2 % $ w G H X.7   o 1 g G [./ @.1.L G I h.G.IXLX3X|.>XtX'.) M s 2 e b G U _ _ ..o.o.;.@.@.;.@.O.@.o.{ ) ) ^ ! ! _ _ _ ! H / _ / ) { ^ G G G H ! G ( _ G _ ) ( R R R G ! ! ( E ! R R R R E R R R R R U m R R ! U C.( ^ E _ } G G G G G G G } } 1.y.u.+.5.D.D.W.NX5.k d * 1 k G +.1.$ q d X $.u.d G d d 3 d K D..XE E R Y U R R R Y U U E ( E R ( _ R E / X.) E E R G ^ ^ ) R G G E { E { { E E E E E E E E ) ) _ E E { +.{ +.O.5.1.q.0.q.7.0.5.&.@.q.l.7.q.5.*.q.*.O.0.0.....j.7.7.i.j.0.0.9.O.1.$...{ G G G ] G H / @.iXJXlXNXFXNXE 1 1 + & k E 8.w.",
"{.`.G.D.L f q d e / VXCXzXhXa._ G G d f @.f.d.d.1.d.D._.oX8X8X;X{.+X X8X{.;X8X8X}.4X;XD.G.5X8X:X5X-X6X8X0X6XOX,X1X4X1X-X<X4X:XOX[.-X-X^.Z.UX-X9X4X4X-X>X[.}.-X-X-X-X;X>X-X[.a.B.UX~.{.[.{.[.[.-X/.b.~.k.B.r.N./.).:X6X:X,X;X,XtX>X7.T B > % % V v X.&.R - o . y G  .u.d.] 2.] g d G G 8XPXfX7X4X:X-X$XoX.X}.oX}.$X.X|._.|.[.[.(. X[.~.N./.b.~.~.~.~.^./.[. XM.p.k.M.~.~.~.(./.(.M.UXb.N.M.b.n.g.n.N.u.@.r.n.z.v.z.a.a.u.z.a.f.f.a.p.r.a.a.a.p.a.s.p.s.r.6.-.( @.i.V.6.V.6.=.6.=.$.$.*.%.r.a.-XvXfXlXx.E E y * # 2 M _ G { 1   o 1 d G oX} J / %.L K 4.5XvXLXFX&X>X(.5._ x 2 0 f H G ! { _ @.o....._ ;...;.o.;.o.{ ) ^ ) ! ( _ _ _ G ! / ` _ ^ ^ _ ! G G ! R G ! G G R ) ) E R R G E ! R ! ( ! R R R R R R R R R G R R M R G ! R R ) ) ) E } y.G G G G ' } 1.D.oXy.*.D.=XFXD.G t 1 1 s G E *.*.@ q d + } u.G G G d w 0 d G +XeXJ ( n n R E R U Y U R ( E _ ) R R ^ _ ) E E R R R R E ^ ! E G ^ X.) ) +.{ ) G E ^ G R ) ) { o.) E ) { X.+.*.*.9.*.9.9.q.q.*.*.5.*.0.7.q.0.0.q.w.0.q.j.o.6.0.q.q.j.e.0.+.*.q.0.1.1.O.{ G G G G G ] u.{.iXNXFXFXD.8 & @ & G G E 8.q.",
"_._.1.J 1.1.d w f y gX0X0X8XD.! G f l { t.G.^.D.f.G.oX;X8X1X8X8X X X8X8XoX8X8X-X_.{.8X8X:X8X0X>XoXOX^.OXqX6X6X5X5X4X4X;XOX6X4X;X-X:X[..X~.UX[.;X4X>X>X:X>X-X-X-X.X.X.XOX}./.2.d._.~..X-X}./.}.;X-X/.b.k.N.M.M.u.(.4X<X,X4X9XtX,X/.8.C.u = % V C._ _ 9.) 8   X t G %.G # 1.u.1./ G G %.fXJXbXfX4X:X-X}..X}.|.$X.X.X|.|..X[.|.[.[. X'.M.~.n.k.N.M.I.^.(.^. X[.B.UXM.M.v.M.(././.~.UXM.I.M.N.n.b.n.I.a.s.r.>.B.v.N.N.a.v.f.a.f.a.u.u.z.a.a.p.i.a.z.k.a.i.i.-.U *.r.i.i.6.V.6.V.=.-.{ $.$.$.=.v.dXzXZX].W.#X8.y * 2 v G _ H O.-   X 1 d G {.%.} / / #.| G.ZXJXSXLX$Xq.#Xj.! y q x H ^ ! ^ _ { o.@.@.;.;.;.@.;...o.;.{ ) ) / _ ^ _ _ / ^ ! ` _ ` ^ _ H R ( ! ! G G G G ! R _ ) ) ^ R R ( ! G ! R E R R R R R R R R G R R Y R E { E R R R R R E $.G G G K G J L D.H.`.D.$.q.sXrXq.G = 0 l G E E 5.+.+ 1 w + $.u.G G G G G s G H.wXjXD.Y M n Y R R m R U E ( ) ) R R R ^ ) { ) R G R G E ^ ) E E R X...+.{ E { E ) { +.R E E ) ......) E { +.O.&.&.O.0.q.5.9.0.*.*.q.5.*.6.j.q.0.5.0.0.8.5.7.l.j.j.j.j.1.5.9.*.0.c.w.1.1.O.+.G G G J d.+X1X7XFXHXNX5.1 @ & G W 5.q.W E ",
").g.d y.@X,XJ d f f dXbX5XoXD./ G G %.t.d.D.}.^.G.;X;X7X8X4XoXoX;X8X8XoX-XoXoXoX+X8X8X4X4X8X5X5XOX8XF.;XqX0X9X1X5X4X4X4X:X5X<X-X;X,X).{.}.-X-X-X>X-X<X4X<X-X:X-X{./.|.[.}.^.s.G.[._..X}..X-X.X/.}.}.UXb.^.|.UX[.}.4X4X:X4XtX6X4XL.Y.;.T V u C.` $.$.f.o.- o X 0 d ^ ] #.D.h.d.1.K G | fXZXAXvX8X:X>X|..X[.|..X}.-X}.}.|.(./.[.[. X~.N.(.v.~.UX~.UX/./.^. X/.B./.UXM.N.I.(././.~.M.UXM.~.b.M.N.N.b.v.i.s.r.a.k.v.n.N.g.f.a.a.a.s.u.a.p.f.u.s.a.s.k.i.r.=._ i.s.6.r.s.V.V.V.-.-.o.{ &.$.$.1.b.qXIXGX6XW.rX!.E e f G ^ / G n.- o o 1 g K ;X%.} } H G ] `.LXSXGXLX].6.*XL.( v M M M _ ! _ _ { @.@.@.@.@.-.@.@.;.;._ _ { _ _ _ _ ` ( ` ^ ! ^ ( ! ^ / ^ ^ ! ^ _ ! R ( R ! E ^ ^ E ^ R R ! ( E E R ! R R E R R R R R R m R G R { ( ^ E R R { E E G G G G G G G / %.3.D.D.+.D.sX3X&XE w G G E E E *.*.. 1 w X r.D.G G K G G G { wXeXIX`.m E n Y R R R Y ) X...` ! E R ( E { ) ) E G G R G R ^ E E ) _ ..) ) X.X.E +.+.^ _ E E ) W o.o.) E X.1.*.9.O.$.0.0.9.5.q.0.&.9.0.w.0.i.w.q.O.7.6.5.*.p.l.l.i.j.5.+.0.9.*.1.x.c.p.0.1.1.G G G 1.+XvXIX0XCXHXSXf.1 1 G W q.q.e.D.D.",
"{.G.1.1._..X%.G f e gXJX>X_._.1.] y.u.D.g.N._.}.8X8X8X8X0X7X4X5X;X{.8X5X+X|.5X8X8X4X5X8X4X5X5X0X5XOXM.5X5X4X4X4X5X1X4X4X4X4X1X-XOX9X<X-X.X}.>X7X}.>X4XtX6X7X,X;X-XOX{..X{.).^./._.[.UX~.[.-X}.~.;X[./.^.[..X X|.:X7X6X4X,X4X4X9Xs.7.w...T B ~ ` 1.r.j.O.- o . s K G ).d.u.g.N.N.{ G $.fXAXAXgX>X-X-X}.[./.|.-X.X}.&X.X|. X|.[. X X~.^.I.N.~./.~.UXI./.[.[.UXN.~.~.^.M.b.~.(./.UXN.M.N.~.UXn.M.b.g.g.a.r.u.u.a.N.a.v.n.v.z.a.s.p.p.s.a.z.a.s.z.u.u.u.=.o.s.i.r.i.s.i.6.=.V.6.&.;.{ $.#.{ 1.N.8XxXSX7XU.=X=XX.f b G / / ! 1.-   o 1 g G  X2.} } } / ] H.JXGXJXLX|.5.$XL...H ~ G ! ^ { { _ _ @.@.@.&.o.O.@.o..._ _ _ _ $.{ R { ^ ! ^ ( ` _ ( _ _ R R ^ _ _ ! ! R ! ! H ! G G ^ R R ( ( ^ ! E ! R R G G R R R G R R R G G R ^ R ^ R R R ^ ) E G G G G G G G G G 1.D.1.E D.BXpXaXq.G G G E E E +.+.+ 1 4 X t.D.d G G G G G 1.wXIXVX8XU R n Y R U M E ) @.( ! ( ( ( ( o.o...) { G G R R R ) ) X.) ..) +.{ E G G { { ) X.) ! ) X.o.o.) { +.+.1.5.5.q.q.0.0.*.5.9.*.o.0.j.q.6.q.&.o.0.0.7.j.x.L.l.j.0.p.e.D.j.*.j.j.0.p.j.0.*.+.J G h.eXjXzXoXCXGXHXq.1 d E q.q.D.q.q.Q.",
"XX.X[.G.b.g.1.b f f lX6X(.}.:X(.D.F.M.F.`.{.{.OX:X<X5X5X5X6X6X5X5XOX}.<X;X{.:X6X4X4X1X;X;X5X6X0X0XoXF.9X4X4X8X4X5X4X4X4X4X4X4X8X-X9X6X,X4X>X|.UX X-X7XtX9XtX4X<X>X-X-X-X|.[.[./.}.-XOX>X;X[.}.}.:X;X^.^.>X>X.X-X4X9XqX9X4X6XqXqXj.w.U.+.k d H 1.r.p.z.*.&   o w G H G.N.`.D.D.D.@.H _ hXDX:XtX:X}..X X(.[.$XOX}.}.}.}.}.}.}.[.)././.[.~.(.~.'./.UX~.^. X|.a.~.~.(.^.^.I.Z.^.(.UX~.M.~.M.~.b.b.n.N.k.N.u.s.k.s.a.a.a.z.z.v.a.i.y.a.f.n.n.a.f.z.y.a.V.*.a.r.9.r.i.s.a.9.>.6.=.=.@.$.$.&.{ 1.D.+XfXJX8XQ.yX%XX.v G H / / ! O.- o o 1 d } 0X] } } } ] ] G.JXJXSXLX].6.&Xe.6.^ ! ~ ~ _ r._ _ { @.@.o.@.@.@.o.o.` _ { _ o.{ ! ` { ` ! ! ! ! ^ / ` ) / ^ _ / ^ _ ^ E G G ^ G R ^ R R ! R ! ( ( E G E R R E R E G R R R R G G R R ^ ) ^ R ) ) ) R R R R G E G G G E } D.1.+.2X$XpXsXD.G G G G E E 0.1.+ 0 w . r. Xd J G G G G 2.cXIXnX;XR n n U U R ` &.o.! ! ^ ! E ( ) _ X.) _ ) R R R ^ E E _ ) ) X.X.+.^ ^ E X.X.) +.+.E E { { +.E G o.o.W 1.1.5.e.0.q.9.*.5.q.5.X.O.0.j.9.O.o.O.*.j.j.x.x.L.n.j.k.L.D.E.q.+.1.1.w.c.z.j.q.&.{ G %.8XAXcXiXbXHXJXe.1 k +.p.D.Q.D.D.q.",
"OX{.{.).`._.2.G b d dX4XZ.-X;X_.{.}.[.:X<X4X;X[.;X5X7X6X6X6X4X:X4X4XoX<X5XoX}.:X0X4X8X4X4X4X6X5X4X+X4X0X6X4X1X4X5X,X,X6X5X8X4X4X4X4X6XqX6X4XUX>X4X;X4XqX9X9X7X4X,X.XOX;X.X.X-X-X:X,X:X>X,X;X^.~.4X;X$X:X,X:X>XoX<XtXdXdXqXdXdXdXx.w.e.+.m G ] 1.u.b.z.o.=   X d G } N.2.{._._.b.@.C.] jXJXOX4X<X}.[.|.|.|.OXOX-X-X$X|.[..X$X[.[.^./. X~.^./.^./.(.(.^.[.^.a.^.I./.~./.UXM.UXUXUX~.~.~.I.M.UXM.n.v.v.v.k.y.s.s.g.n.u.a.a.a.u.u.s.a.z.z.f.f.a.y.p.-.6.p.6.r.i.r.u.i.r.r.9.r.i.9.=.*.$.$.} 1.N.vXZXPX<X'.aX#XE b G / } } { @.9   X 3 c 2.t.H 1.#.@.] ] ).LXGXSXLXT.W %Xq.o.M M R ! -.@._ o.o.{ @.o.o.@.@.o.{ _ o._ o.@.^ _ _ _ ! ! _ _ ^ ( ` _ _ _ ^ ^ ^ ( ^ ^ _ R G R ! ^ H G G E E ( ( ( R G G R R E ^ G R R G R E R R G R R R E R R ) R ^ R ) R E G T G G G / %.1.^  XaXaX3Xq.G ^ G G E E 1.9.+ 0 d @ } y.G G G G G G y.zXnXnX.XR ( m Y R ) b ! / _ E R E ^ ( ) _ ) ) ) ) ! R ) E _ ) ) ) .._ X.+.^ ^ ^ ^ ^ X.{ { { { E { { +.D.+.X.{ O.5.5.j.0.q.9.*.9.j.*.) O.0.w.*.O.O.*.*.l.L.j.7.P.x.j.L.I.D.E.c.q.&.0.x.j.z.j.0.5.{ G } XXwXwXtXNXLX0X+.y G { *.e.W.E.!.e.",
"-X+X{.^._._.u.H c s dX4X}.4X4X-X;X-X;X6X5X7X<XOX4X5X5X6X6X6X~.[._.oX5X<X<X[.OX:X;XoX:X4X4X6X6X0X0X;X5X6X9X,X).;X,XG.[.0X6X,X,X1X4X6X4XdX6X}.4XdX7X:X4X7X7X7X5X4X:X)./.OX{.OX:X,X;X,X,X,X,X:X}./.:X:X<X<X<X4X:X:X4X9XqXdXdXdXgXgXz.8.+.+.z G ] 2.v.m.z.$.=   o x G | OXG.).D.G.N.} H _ jXPXbX4X:X}.|.|.|.|.>X-X}.&X.X-X.X|.}.{.|./.|./.^.'./././.(.UX(.[.a.^.~.^./.^. X~.~.UXUXM.Z.~.UXZ.~.Z.M.b.N.j.v.v.u.6.r.k.v.k.v.u.p.u.a.a.a.v.v.v.v.f.y.=.i.p.6.r.V.6.6.i.i.V.r.9.r.r.9.=.#.$.@.@.1.h.fXJXJX8XL.=X%XX.v b / { { _ { 0   + 1 f %.D.#.%.%.{ } } ).LXJXZXLX X+.%XL.+.! ! M ! _ _ _ o.{ @.o.@.@.&.o.;._ } @._ { { { _ ..@./ ! o._ { _ _ _ .._ X.^ _ ^ ) _ _ E ^ G ^ H ^ R R G ! ! ^ ^ ( G R G E ^ E R R R G G G E E E R R R R R ^ ^ ^ ^ R R R G G G G G E O.D.8XD.5.BX=X!.D.k G R E ) X.+.G @ w d @ D._.G G G G G R u.IXIXnX.X) ) m R ) ] A ^ / _ E R ! ^ ^ ( E ^ ( ( ) ) ) X.{ ..) ) ) ) ) X.+.^ ^ E E { +.{ ) +.{ X.X.+.+.$.&.+.o.O.*.9.p.q.0.9.9.9.0.5.*.O.5.6.*.) ..+.q.l.L.x.l.k.L.L.I.P.L.E.E.0.w.c.P.x.j.w.*.$.) G } `.wXIX0XFXHXlX+.t w E q.D.e.D.#XD.",
".X:X`.{.OX{.d.~ b f :XdX;X6XfXdX5X6X6X6XqX0X6X8X6XdXqX0X6X<X6XfXt.f.4X<X:X{.<X4X).D.,X{.4X0XqX0X1X8X0X6X5X4X{.;X`.F.OX<XqX;X[.OX6X6XdX>XUX7X6X6X7X,X4X,X7X5X<X>X[.^.Z.UX.X-X>X:X>X;X4X4X4X,X>X4X>X,X4X4X4X4X7X6XqX9XtX9XqXdXqXgXx.q.W W G f / 1.f.N.v.&.=   . x G @.;XD.).F.^.G.#.! ;.vXLXgX<X>X}.OX|.|.-X&X-X-X}.-X-X&X-XOX-X|.[.|.^./.)./././././.r.N.M./.UX/./.'.[./.~.UXM.M.I.M.UXI.b.I.M.M.M.u.u.k.u.2.r.v.a.a.a.N.a.s.u.k.a.v.v.v.n.$.{ 1.v.s.a.a.r.r.r.i.r.r.r.9.i.6.-.$.$.&.{ } 1.N.cXbXnXiXL.=XW.X.M b J { @./ _ y   X w d / ^.1.1.1.{ } } `.JXHXSXLX$Xp.rXW.*.A ! C.! ^ @.{ _ $.{ @.@.@.@.;.;.@.} _ @.o._ _ ..@.o.../ ` @.{ { o._ _ ..{ _ ^ _ _ ) _ ^ G E ^ E E R ^ ^ ! E R ( ( ( E R R E ^ E R G R R G E E E R R R R R E ) R R ) G E G G G G G G { 1.D.9.D.BXlXrXq.G ^ G G ) X.{ E + 2 d # f.D.G G J R G G u.cXnXnXG.) @.n { &.H / _ _ _ ! ! E ) ! E E R E ) ) ) ..X.X.o...) ) ^ X.o.{ X.E ) +.+.+.{ { +.+.+.X.{ { +.+.o.$.*.q.0.q.q.0.9.0.9.q.0.p.9.5.5.9.O.o.5.q.j.x.P.L.L.x.x.I.W.E.D.c.z.x.T.x.0.c.c.1.+.G G } ).eXIXiXCXGXJX9.9 k E q.D.j.E.#Xw.",
".X,X;X+XOX_.M./ v x gXzX4XhXfXfXfX4X4X6X0XdXqX6XdXdXdXqXdX6X5X4X[.a.oX:X8X;X5X4X).^.4X^.oX6X0XqX;XoX0X6X5X4X8X4XoX;X5X4X9X4X{.OX6XdX:XM.7X6X7X6X4X5X/.[.,X4X;X}.^.b.N.B.).}.-X-X,X-X4X4X4X4X<X4X<X,X4X5X5X5X6XdXdXqXqX9X6XdXdXdXm.w.7.O.m n H @.y.N.s.) 7   o v G %.wXG._._.G.D.1.H { vXJXZX<X X[._.>X-X}.>X>X}.-X-X-X.X&X-X$X[.>X[.(.)./.[.|././.^.M.v./.UXI./.(./. X/.^.UXn.N.Z.Z.UX^.N.N.UXg.M.N.a.k.u.9.u.a.a.y.a.N.u.s.a.a.z.a.v.n.z.a.=.6.V.B.-.;.-.r.s.i.r.r.9.V.y.9.@.@.{ 1.@.} 1.F.ZXwXfX0XL.#XQ.W d G G } { 1.v.s   + q b q / u.*.%.@.{ } ).LXJXZXLX$Xc.rX#X5.A ! ! ~ _ _ o.@.@.o.@.@.@.@.@._ ] _ _ _ _ _ _ @.@..._ _ { o._ o....._ _ ) _ ) _ _ ) X._ ^ R ^ ^ ) R R ) ^ R ^ ^ ^ E _ ^ ! R E G G G G R R ^ ) _ R R R R E J ) R E E ^ _ E ^ E G G K { 1.D.D.*.MXMXrXD.G ^ G R ) X.E v $ 0 d 1 1.D.G G G G G G t.cXIXIXH.r.v b @.b b / ( X.E G _ o.! ( E ^ R R _ ) X...o.o.o.+.) X.X.{ ) { X.E E +.+.+.X.$.*.+.*.+.{ +.+.o.&.+.5.5.5.q.0.q.1.q.w.c.j.w.z.q.+.7.9.0.0.w.l.x.P.P.I.I.P.I.W.E.D.j.j.T.E.P.j.j.c.0.5.^ G _ 1XnXjX1XSXFXLXw.w s E X.1.q.E.W.D.",
";X.X<X4X+X_.d./ v x gXzX7XdXgXfX<Xa.-X6XqXqXdX6XdXfXfXdXdXqX6X5X5XOX:X4X4X5X4X<X8X8X-XoX;X5X0X0X5X5X6X4X4X8X8X:X:X8X4X4X6X5X.X+XgX-XB.6XdX9X4X9X7X5X.X.X7X<X;X.X~.g.N.^.).}.;X4X4X;X,X9X9X9X4X4X:X-X<X5X7X7X7XdXiXdX9X9XqXdXfXdXP.w.w.+.n v G / $.z.(.&.-   X f G ~ <XN.F._._.F.#.J { vXJXAXdX|.UX_.:X>X-X-X-X&X-X-X-X-X-X>Xs.[.}.~./._.[.|.|./././.|./.|.~.UX(././.).~.^.(.N.n.I.UX~./.I.B.b.a.a.~.g.B.u.s.i.u.n.u.u.n.a.z.f.a.a.f.g.v.a.r.s.u.s.n.;.] s.-.@.@.&.V.=.9.s.1.*.$.{ $.@.{ $.^.cXVXJX;XE.%XW.$.G G H / } #.$.1   + 0 f b {.u.1.$.$.1.} ).LXJXZXLX$Xx.aX#X9.! ! ! ` _ { { @.@.@.o.o.;.;.) ] _ ..@._ _ _ _ @.;...@._ { { ..o...o._ ..) ) ) ) _ _ { ^ E ) E ^ E R { X.E R E ) E ^ ^ E ^ R R G R R R R R E ) ! R R R G G E ) R R G G { ^ E G G ^ / /  .D.D.*.MXsXaXD.d R G ^ ) ) W G + 3 w G D.%.G G G G G G r.IXIXvXD.$.^ q q q ! ! _ _ G m G M ! ` ) E G E ) ) ) ..o.o.o.o...X.{ ) E X.) ) { { $.{ { *.*.E D.5.{ { +.+.&.+.1.q.1.*.9.9.9.q.q.c.j.j.w.9.1.9.9.9.e.x.0.L.I.U.L.L.L.P.I.E.e.L.T.R.E.P.E.j.j.q.*.R G { XXeXeX-XCXKXtX0.d s E R +.c.W.W.e.",
".X,X<X9X<X{.u.~ v x hX6X-XdXdX7X~.~.8X4X5X6XdX0XdXfXfXfXdXqXdXdX6X0X5X6X5X5X6X5X4X4X5X5X6X6X6XqX6X4X6X8X,X;X+X{.}.5XOX:X:X4X;X;X[.B.4X6X<X9X6X6X5X5X5X5X<X,X4X>X[.N.^..XOX:X-X:X:X<X7X6X7X6X7X4X<X:X;X4X6X4X9XdXdX9X,X4XqXdX7X-Xx.w.w.+.n n G / $.v.T._ =   . v H ' F.).G.^.^.D.%.! { vXPXZXhX[./.>X-X&X-X>X-X-X.X-X-X-X>X_.V.:Xn.~. X X[.|.[.|.^./. X[.[.UX(./.'.)./.~.UXUXN.M.M.M.~.^.~.N.k.v.u.UXM.B.N.k.a.s.g.u.y.a.a.a.z.z.f.f.a.z.z.u.r.s.r.=.-.r.s.r.s.r.=.o.` V.9.*.1.&.@.@.{ @.%.D.jXAXSX&Xl.aX*X*.G g } { %.G a.G   + 2 f H :Xr.1.=.&.@.} ).LXGXZXLX X0.rX%X9.! / ! _ { @.{ @.@.{ o.@.o.) _ ....;..._ _ _ o.......] ..;.;.@...o._ ) o.o...) _ ) _ _ ) ) _ / E R _ ) ) _ R ^ ) ( ) _ ( ) R E G R R G R G ! E R R R R E E E E ^ ) R R R ^ G ^ G G ^ $.$.G ^ 1.pX=XsXq.z G G G ) E E G & 3 3 * $.y.J G E G G G r.cXZXwXu.$.! b G G G ! ! ( R R G R ) X.( R E ^ ) ) ) ......o.o.....) _ ) ) X.^ +.+.+.+.+.+.+.+.*.5.+.+.+.1.X.o.+.+.5.q.&.9.9.y.w.c.c.j.0.0.0.9.j.c.j.l.j.L.I.P.P.L.L.L.n.E.E.W.W.R.W.x.E.x.c.q.{ G G H XXeXwX8XmX Xz.q.k w E p.q.9.E.&XE.",
"+X,X5X5X<X[.g.~ c x qX$X-X4X4XoX~.OX-X4X<X7X5X6XfXfXfXfXdXdX0X6X6X5X4X5X5X5X5X5X6X4X8X:X6X6XqXqX0X4X4X4X+XOX8X1X4X5X;X:X}.`.9XD.s.9X6X9X4X6X6X6XqX5X4X4X7X7X4X,X:X.X>X,X5X4X:X4X;X-X4X6X6X6X9X9X4X,X>X4X6X6X9XdXdXdX7X4X7X6X4X-X5.q.Q X.n M #.y.f.N.z.) -   . x H / .XoX{.{._.G.1.! { vXDXZXlX-X X&X.X}.|.>X>X-X-X&X.X$X<XB./._.[.Z.v./.[.|.[.[. X/. X>X).UX~./. X/./.~.~.UXN.I.Z.I.M.~.~.M.N.B.N.v.B.B.N.z.z.u.k.u.a.a.f.f.v.v.v.z.f.a.a.s.s.s.i.i.i.r.r.V.9.r.s.t.s.i.y.&.&.1.$.$.1.#.1.D.nXSXPX2Xl.rX=XO.h G G J } J f.t o + 0 d / [.%.=.%.%.1.}  XLXSXGXLX[.j.%XW.6.! ! / _ { o.$.&.$.@.@.@.&.;.` ;._ _ ..;._ o.o.o._ _ _ ........O.o.) ` ) { o.o._ ) o..._ ) { _ ^ ^ E { ) ) E ) ^ ( ) ) ) E ^ G E E G E G R E ! R R ! R ! o.G R ) ) ) R ) ^ E G G G ^ $. ./ G *.NX=XaXD.G ^ G R ) 1.0.X.$ 0 G & t.y.G G G G J G 3.IXvXwX+X1._ R ! R ( ) ! ! R E E ( ) ) ) ^ ) ) ..) o.X.o.o.X.X...) ) X.) X.{ { { +.{ { +.+.E D.5.5.*.*.*.o.X...1.+.5.1.*.1.9.0.w.j.c.0.w.9.0.0.c.L.l.c.l.L.P.I.I.L.L.x.x.L.x.E.W.W.m.E.R.x.x.w.o.R G H `.1XwX5XpXd *XD.k s o.z.x.w.E.].R.",
").;X1X5X,X.Xg.~ x x zXdX:X4X4X.X.X.X:X4X:X5X-X4XdXfXfXfXdXqX6X5X6X0X4X<X6X1XoX:X5X6X;X[.<X6XdXqXqX4X4X4X4X5X6X6X6XqX6X:X:X_.u.a.9X9X4X4X9X6X9X,X~..X,X6X6X6X9X4X5X,X>X4X5X:X5X9X6X,X<X6X9XqX6X4X4X-X-X4X4X4X5X0XqXqX5X5X<X;X6X6Xi.w.w.X.m G $.u.z.b.v...1   . n G L 8X X[.{. XG.r.G { wXJXAXxX>Xn.~.>X|.[.UX-X-X-X-X}.-X-X-.-XZ. X|.UX X).[.[.[._./.UX<X~.(.~./. X'.~.I.~.Z.M.~.T.~.M.M.~.I.M.v.n.B.a.a.k.k.a.v.f.r.a.y.a.f.z.N.n.z.p.a.s.i.y.s.i.r.r.r.r.6.9.i.V.i.a.i.i.@.-.-.$.{ 1.=.r.D.5XzXJXqXE.aX$X5.x v J 1.@.| %.0 o + t d { <X9.=.&.@.} } _.LXJXSXLX X0.pXE.9.R ! _ { { o.@.1.$.$.$.@.@.@._ _ ../ _ ] ` ;.o.;..._ ` ` ..;..._ ..) ) _ ..;.;....._ ..) _ { ) ) ) ( ) ) ) ^ ) ) ( ` ) E ( ( E R E R G R E R G E ) G E R G R ^ _ ^ R E R ) G G G ^ ] $.$.@.1.1.HX*X3XE.m ! R R _ ^ q.1.+ 0 2 @ %.D.G G G b H H 2.IXnXIXG.1.G 1.*.G ) ) ) ( ( ( ) ( ) ) ) ) X.{ o.) o.o.X.) X.) ) ) X.X.) ) X.o...o.+.o.*.+.+.9.*.*.$.1.+.$.X.o.*.*.5.*.*.O.9.w.j.c.c.w.j.w.0.j.c.x.x.x.x.E.E.E.E.W.x.j.x.E.T.R.W.W.R.W.Q.D.e.p.{ G G L 9XnXwXoXSXbXNXc.k l +.j.D.W.E.R.W.",
"a.G.<X<X,X+Xv.~ x N zXiX/.4XtX4X-X4X>X4X:X:X,X9XfXfXdXfXfXdX6X;X6X0X5X<X4X;XoX+X8X{.oX(.:X-X9XtX9X6X4X:X6X5XqX0X6X5XfX/.M.d.2.6X9X4X4X9X6X,XUXZ.}.:X,X:X4X6X9X9X5X5X5X9X<X:X5X9X6X9X7XqXqX6X6X4X-X1X4X).[.;X4X4X4X5XqX5X:X:X5X4X0.l.P.8.m M { y.v.b.f.o.-   X f G | 1X>X). XG.D.1._ } iXJXCXmXqXN./.OX$X.Xr._.>X}.$XOX>XUXn.}.UX).}.[.}.[.[./.|.|.UXB.[.M.(./././.(.b.M.M.UX~.M.~.~.M.b.UXZ.b.N.N.a.B.a.t.v.g.n.a.r.a.a.f.f.a.v.v.N.k.a.s.y.s.y.a.a.i.i.9.9.r.r.V.r.r.i.r.-.-.6.1.*.1.*.r.t.{.nXAXtXE.yX%Xo.x c G / { { { w   X 0 d ~ <X-.-.@.} } %._.LXSXZXHX}...2X&X+.! H / { o.@.&.$.-.-.&.o.o.@.@.o._ ) ` ` ` o.;.;.o._ ` ......;.....` ) _ ........o._ _ _ ) o.o.) ( ) _ ) E _ ) ) ` ( ` ) R ( ! { ` G ` ( R G G G G G E G E ^ E E ) ) ^ ) E R G ^ _ / J t.=.=.*.NX].2XE.M H ! R ^ z +.&.& 0 3 + %.5XG G G b G G 2.nX,X`.F.$.{ { O.R E ) ) ( X...X.( ) X.( ) ..X.o.o.o.o.) X.X.( ( ( ) ) ( ) ( ......o.o.*.*.$.*.5.5.+.+.+.1.X.&.*.5.O.1.5.*.q.j.e.c.c.c.p.p.w.w.c.x.x.x.L.E.E.P.E.E.W.I.c.E.R.W.R.'.W.T.E.D.0.5._ G G { 1XIXwX XbXLXGXc.y z ) z.c.x.W.W.R.",
"<X,X,X,X-X{.N.C.x A xX-X$X7X4X4X4XtX<X4X:X,X6XdXdXfXdXdXdXqX6X5X6X6X:X4X4X8X;X>XoXg.M._.%.F.fX5X4XdX5X4X5XdXqXqX8X;X-XF.t.{..X5X4X4X9X9X-X^.}.>X}.-XOX.X:XtX9X9X5X9X9X9X5X>X5X6X6XqX6X6X6X6X7X4X[.M./.OX:X:XOX}.4X5XqX6X5XqX5X5Xk.l.L.+.m m } 2.u.n.u.{ 8   . s G | oXD.`. XG.D.1.E y.VXZXCXmXhXhXtX X/.|.P.UX$X(./.|.>Xs..X(.^.[.[.}.[.$X)./.).|.B.$X~././.[././.(.F.I.M.~.(.I.~.(.I.M.N.UXM.M.N.v.s.s.s.i.v.v.a.i.s.s.f.a.a.f.z.v.a.u.a.a.i.r.a.k.u.9.r.V.V.s.9.r.9.9.=.=.=.=.=.1.1.*.1.u.4XSXAX0Xe.=XW.o.c g G $.{ J { 9 o + t d ] 8X%.%.@.@.@.#.[.LXGXSXLX>XO.T.iX*.H H / o.$.@.&.*.&.#.&.@.{ o.{ _ @.) ` ` ` ;.o.;..._ ..;._ ..;..._ X.X.` ...._ ) _ ) ......) X.) ( ) E ^ ) _ ) ^ ( ( R ! ( ! ( E R O.E R R R G E R E G ^ ) G G ^ ) R R ) ^ E H ^ H ] / { / _ 9.MXBXFXx.m ! R ! G G ..m 1 0 d @ 1.+XG G G G G G 1.cXH.XX_.{ ) m k R ! ) E ( ) ) X.E ) X.( E X.o.{ o.O.o.) ( ( ) ! ( ( ( X.( ( ( ) o.X.9.5.*.+.O.O.+.*.*.*.1.+.&.&.*.1.1.q.q.9.w.c.c.x.j.0.0.z.j.j.w.m.L.E.R.E.E.L.P.I.P.P.E.R.W.W.W.R.c.D.e.8.+.E G G J 1XIXwX7XHXNXLXx.k x +.0.c.T.R.'.W.",
":X<X-X;X{._.g.A B C.AX:X.X:X5XdX.X:XdX4X/.-X9X9XdXfXfXdXdXdXdX5X5X4X@.<X5X8X:X+Xv.1.d.2.%.8XqX0X4X6X6X4X6XdXqXqX<X(.F.} a.4XOX_.qX9X9X4X6XdXfX4X-X9X-X-X,X9X4X4X9X5XtX9X9X:X4X9XqXqXqXqX7X9X9X4X{.}.:X-X.XOX-X;X5X9XqX9XqXqX9X1Xi.l.L.8.n b } >.r.D.f.o.8   X f G #.} y.^.[. XD.1.J 9.VXGXZXcXdX<X,X:X(.N./.|.[.[. X.X|.B.-X(.(.[.|.}.|.|. X(.[.UXn.-Xb./.|./.'. X/.M.M.UX~./.(.(.^.M.F.N.M.I.M.v.B.a.a.u.r.u.f.y.y.p.s.z.z.f.f.v.v.z.u.a.f.9.y.a.k.a.r.r.V.V.p.V.V.r.>.=.=.r.6.=.$.=.*.1.N.jXAXPX7X].%XW...x v J } } } { t o + d d H OX=.&.{ @.} #._.LXGXSXGX0Xy.L.I.7.H / _ { @.&.$.=.*.@.@.;.{ } @.o.] _ ` ;.....o.-.o.` ` ;._ ` ;..._ ..;._ _ .._ ) ) ) ) o.{ ) { ) ) ^ R R E R E ^ ! ( ! ! ! E E R _ _ G E E G G G ^ G E G ^ ) ) ^ R R ) R R G ^ / { ] G #.$.@.z.NXpXmXm.m ! G ! _ G o._ * w 2 + D.8XG G G G H G #.jXPXSX,X_ E G R R E E ( ( ..) ( ( ) ` ) _ ) o.O.o.O.X.o.) ( X.( R ( ( ( ( E E X.o.+.O.O.5.$.O.{ +.$.5.9.O.O.*.o.X.O.1.5.9.1.1.q.c.c.0.0.9.0.0.p.*.0.c.E.E.R.W.E.W.W.E.I.m.W.R.R.R.W.Q.D.w.q.+.E G G { D.wXnX4XGXJXJXE.s v ) q.c.x.x.x.R.",
";X:XOX}..X[.v.A x x [.cX.X:X4XqX7XtX9X7X4X4X6XdXdXdXdXfXdXdXdX4Xd.%.{ h.8X5X5X}.D.~.g.} D.7X4X4X<X6X5X<X6X6X0X6X^.r.F._.4X1X:X(.6X6X9X9XdXdX9X9X:X9X,X,X4X4X,X4X7X4X9X5X5X4XtX9XqXqXdXqX6X6X9X9X9X9X:XOX;X5X6X6XdXqXdXdXdX9X5X6Xx.7.l.8.n n } a.2.a.m.o.9   X v G L $.G.`.^.G.D.,.G y.NXGXCXbXfX:X$X4X>X'._.}.}.-X[.:XUX X}.[.[.[..X|.}.[./.[.|.N.}.^.~.~.'.|.~./.'.~.Z.b.~./.'.(.(.F.M.b.m.~.UXv.n.v.z.k.r.s.a.a.y.y.s.k.a.k.k.z.v.f.p.f.a.1.a.s.s.u.0.=.i.r.r.=.2.1.6.r.r.9.9.1.1.$.1.1.D.zXZXnX'.#XrXW.+.b b / J @.} G 9 o X t G G 5X3.$.-.@.} $.`.LXGXGXLX4XT.iXe.O.! ! / o.o.$.-.-.-.*.@._ o.@.@.o.....;.o.;.;.o.@.&.....` ......;.....;...X.) ` ) ) ) { ) ) o.o.{ _ R R R G E R ( ^ ^ ! E ! E R R X.G R G G G G G E ^ E E ) E ) / ) R G ) E G G G ] / J E r.@.q.iXe.MXD.v G G R / G a.j.+ d 3 + f.8XG G G G G G %.cXIXIX1X..U Y Y R R R ( ) ..) ( X.( ( ( ` ) ..o.O.o._ o.) ..X.) E ( E E R ( E { o.o.o.*.9.+.+.+.+.+.q.5.9.9.5.+.o.9.q.1.*.9.*.9.q.j.0.0.0.9.9.o.9.o.j.E.P.R.W.W.'.R.W.T.c.x.T.E.e.E.W.E.j.*.+._ E G } L G.cX7XHXGXJXE.t l +.p.w.x.c.D.c.",
"OX_.{.+XOX`.v.H x N UXcX5X5XqX9X9XdX<XOXdX7X6X9XdX0X6XqXdXdXqX5X4XF.] %.8X4X5X4X:X<X%. X<X;X4X4X6X0X5X6X6X6X4X{.N./.0XqX<X<X:XF.,XdX9XqXqXdX6X4X6X4X,X9X-X;X9X4X9X4X<X4X,X:X9X9X9X6X6XqX9XqX9X4X5X<X1X<X5X0XqX6X6X6X6X6X9X9X5X4Xm.l.l.X.n n / t.f.2.r.o.8   @ v G ] 1XoX[.oX_.D.1.J r.bXSXSXbXiX>X-X-X-X}.[.[.-X}.$X>XB.>X/.}.}.}.}..X}.[.[.[.}.^.|.UX~.~.~.^.(./.~.M.UXv.T.(. X/.(.~.I.M.v.~.~.N.N.v.v.v.r.r.r.p.s.9.a.B.a.B.v.v.v.f.a.f.p.p.y.i.s.s.s.$.-.k.6.9.9.2.1.i.y.9.1.$.*.o.%.1.G.bXnXZXiX+.l.W.7.v A b G } 1._ 9 o ; e v b ;Xy.=.$.@.$.#.[.LXGXGXLXT.j.tXw.O.H ! / o.$.$.-.&.&.&.*.] #.&.@.@.;.o.@.;.o.@...;.;.&.;...;.;.;...;._ ` .._ ) ` ` X._ { X.{ O.) ) ) E ! ! R R R ( ! ! ` ! R R G R G R ^ R E G G R ^ E ^ _ ^ ) R ^ E ) ) G G G { _ J { { 1.~.( i.MXiXBXm.v ^ G G R R *.1.# w w + u..XG } J G H H %.jXIXnX<X) U Y U R E E ( ) ..X.) X.( ( R ( ) X.o.o.o...&.&.o...( ( R R R G R E X.X.o.*.*.O.+.{ +.O.$.+.1.9.5.1.5.X.1.9.&.&.*.q.*.0.0.0.9.0.0.9.E O.j.P.E.E.W.W.'.W.'.E.R.c.L.m.x.q.D.1.9.$.E { 1.@._ } `.IX+X7XJXJXJXE.t d R O.c.L.W.w.m ",
"+XG.-X-X+X_.v.H x B 4XxX<XtXdXtX6X6X9X4XtXdXqX6X5X6X5X6X6XqXdX6X4X5XD._.8X5X5X4X0X~.f.5X<X4X5X0X6X0X5X6XqX<X~.F.4XgXqXqX1X<X_.F..X9XqX9X9X9X6X9X9X,X4X4X+X}.:X4X<X,X,X.X.X;X7X9X6X9X4X6X7X7X9X9X5X1X4X6XqXqXqX6X5X5XdXqX6X6X4X5XI.q.l.+.z x _ %.y.f.a.{ w   @ v G  .zX8XOX.X+X[.r.J p.CXFXZXbXfX>X:X>X$X].[.|.-X}.>X(.UX}.].}.}.}.}..X$X XUX.XB./. X/.'.(.~.(././.^.I.b.n.~.(././.T.~.Z.b.k.M.b.M.M.N.m.n.u.V.s.a.s.r.u.v.i.k.n.n.f.f.f.f.a.f.y.r.i.r.9.y.i.i.r.=.2.r.9.i.s.2.-.$.$.@.1.1. XxXAXCXkXW.=XW.X.c M b G G H { t o ; d d G 6Xt.1.$.#.} @.`.LXGXGXLX/.p.yXL.O.! H / @.*.@.*.*.@.&.#.*.$.$.&.$.o.@.@.o.o.o.;.;.o.;.;.;.o.;.....) _ ....{ _ ) ) ) _ ) _ ) ) _ _ ( E E ! ! E E R E ! ! R R R R R E ^ E G G m G R G _ / E ) ) R ) ) R _ E G G $./ G _ G $.|.! 6.MXMXBXx.G G G _ _ ^ 1.1.$ d d + D.{.G J } @./ G 1.wXIXnX1X;.R U U R ( ( ( ) X.....) ` E ( ( X.) ....o.O.o.O.o...) ) R R G G G E ^ ..o.*.*.*.{ { +.O.O.O.1.9.5.5.O.+.O.q.X.&.*.0.6.9.0.c.0.j.0.j.x.l.x.x.P.E.W.R.W.W.'.W.W.L.I.x.x.e.D.9._ G G E 1.@._  .).d.D.wXSXGXLXE.k l R G 5.z.*XW.^ ",
"[.oX;X-XOX_.b.H x x 7XZXqX5XqXqXtX6XqX7X6XdX6X9X4X-X;X4X5X5X6X9X8X}.4X4X8X8X4X0X;Xu.}.<X5X6X5XqX0X0X<X6X;Xb.{.dXfXqXqXqX6X4X[.t.[.9XqXdXdX6X9X9X9X:X-X-X.X}.-X:X:X+X-X_.N.:X9X4X7X4X4X6X9X9X9X7X6X4X6XdXqXqXdXdX6XdXdXdX9X6X<X5XM.j.c.8.z v ;.&.f.{ { o.9   X c G } 1.H {.{.OX{.r._ 1.vXJXZXbXiX4X4X:X-X}.[.-X$X-X>XB.-X/.[.}.OX}.|.}.|./.n.Z.V./.^.[././.~./. X/./.~.~.~.T.~.'. X(.T.M.b.M.~.T.M.R.b.M.m.a.s.s.z.a.s.i.a.a.N.v.n.z.a.z.v.z.a.y.r.r.9.=.r.y.r.r.9.=.1.2.2.u.9.=.$.1.1.1.1.D.nXZXZXlX2XaX%Xo.v A ! ! M z G y o + y G ! 6X1._ $.#.@.#.[.LXJXGXLX^.-.rXL.=.! ! ! @.*.*.;.@.&.#.*.-.&.$.$.@.@.;.;.;.@.o.;...;.;.O.;.o.o.;.....;.;..._ .._ ) ) X._ _ o._ ) ( ( ^ ! ! ^ ^ ! ^ ( ( ) R G G o.R R R R E E R G E _ E { _ ) R ^ R G ^ R G G E G G } J G { =.o.i.MXlXBXE.m R ! ^ ) ) 9.0.+ w d + D.{.G G J G.h.G 1.jXIXIX1X) U U U U R E R ) ....) X.X.) ) ( ....X.o.&.o.o.+.o...) ) ( R R R R G E ..&.+.+.*.$.W E $.$.O.5.O.9.1.+.$.1.1.O.O.*.0.5.*.j.0.c.0.0.c.x.l.l.x.E.W.E.R.R.R.R.W.T.m.x.E.x.8.D.p./ G _ _ +.{ G { 1XcXcXhXGXGXLXE.w s E 1.0.z.w.p.o.",
"[.5X;X-X.X[.b.H v v 6XbX5X4XtX9X9X4X6X9X7X7X7X,X:X.X/..X:X5X6X6X5X+XoX>X;X;X8X4XN.OX5X4X5X5X5X6X6X0X6X/.%.{.fXdXqXqXwX0X6X5XdX{.-.^.5XdXdX5X:X,X:X.X.X|.}.-X.X,XOX.X;X{..X4X9X<X4X9X4X5X9X9XdXdXtX6X6X9XdXdXdX9XdXfXdXdX6X1X4X4Xk.j.w.O.n n x ^ _ 1.f.o.0   X s v #.1.H ).+X}.[.V.` ` M.AXDXxXdX2X7X<X[.[.>X>X-X:X[.I.}.(.}.|.|.[._.|.[.[.[.;./.$X~./././.(.M.UX/.(.(./.(.(.~.(././.(.b.M.M.~.b.F.~.T.b.M.N.s.k.a.v.p.s.s.z.n.n.v.z.u.a.f.f.p.y.i.r.r.1.$.9.a.9.1.1.9.=.r.u.r.-.$.$.r.1.1.g.0XZXZXhX*XyX&X8.x G ~ } { / &.z   ; d G H fX1.{ @.#.@.#.`.LXJXSXLX/.&.yX$X&.R ! / o.&.@.@.@.&.&.&.#.*.-.*.@.@.o...;.;.o.;...;.;.;.o...;...;.......` .._ ..) .._ _ ..( _ ( ^ E ( E E ^ ^ ^ E ^ E E R E 9.G R R R E R E _ G G E { E _ ^ ^ ^ R E R R ) E G E G _ _ { G R { x.NXlXBXE.v ^ G ^ o.) p.f.+ d w & y.g.d 1.v.D.J G 1.jXcXnXqX) E U U Y E ( ( ` ....) ..X.) ......) ..*...&.......X.) ) ` E R R R E ) o.o.o.O.O.O.&.+.+.{ O.1.*.5.9.*.O.&.9.0.7.j.j.5.0.j.0.j.l.p.l.L.c.c.x.x.R.W.E.R.E.E.T.x.9.p.n.p.5.j.{ _ O.1.1.$.E / %.jXLXjX0XHXLXLXE.w s E 1.q.j.8.5.W ",
"OX8X-X;X_.F.N.H c f 7XVX<X<X6X5X,XtX4X4X4X;X;X,X7X<X}.^.:X4X5X6X8X[.D.G.oX8X5X[.`.6X7X5X6X6X5X<X6X_.t.a.4XfXqXdXdXdXqX5X6X6XOX;X4Xs.^.dX9X6X,X,X,X:X,X>X:X-X:X4X-X,X4X9X9XqXdX5X9XqX5X5X9XdXdXdXfXqXqX9X9X9XqXdXdXfXdXdXdX4X:X5Xi.x.L.X.m x ^ $./ f.M.o.w   X f v ] 4XOX+XOX-X{.t.C.B.$XcXJXmXtX4X,X>X|.}.$X$X[.;XM.|././.}.|.[./.[.}.[.|.}.B.-X~.^.~.UX(.(.Z.UX/.^././.(.(.(.~.[.'.~.T.n.N.n.m.D.~.~.M.n.n.B.B.k.N.B.i.s.v.n.v.a.a.f.a.g.a.u.a.y.9.9.1.1.1.u.s.i.2.r.r.=.s.s.-.*.%.@.-.1.G.cXCXPXgX*XyX%X8.v H ! } 1.M s 8 o + g G / _.%.%.$.@.#.@.{.LXPXSXLX_.6.rX*X0.G ! / o.@.*.*.*.#.-.@.&.$.$.*.@.o.....@...;.;...;.&.&.;.o.;._ o.;.` _ ....) ` _ ) ) ` ` _ _ R ( G R ) ! E ^ E ^ ( ^ R R o.) R G E R E R G E E _ G E _ E ) E E R ^ G E R E G G _ _ G G 1._ G c.BXMXBXT.m R G G E ) @.@.$ w d 1 @.N.d d x 1.H G 1.vXjXnXqX) ! U Y U E E ( X.X...X.) ) ......X.) ..*...&.X.X.` ` ` X.) ) ! E ) ) X...o.o.&.&.O.+.$.$.+.+.{ +.*.9.5.O.5.9.w.w.p.0.j.0.c.0.0.l.0.j.x.l.c.L.L.P.W.E.E.x.5.E.c.9.9.x.j.0.x.9.9.9.y.5.E { ^ } wXnXqXfXFX0XNXT.9 d E O.*.*.D.R.j.",
"8X<X<X;X+X^.u.H v v 7X7X-X-X-X/.4X6X4X6X4X<X,X7X5X<X:X^.-X4X4X5X5XoX^.{.oXF.`.D.6X8X4X4X7X4X6X5X~.r.~.-X;X5XqXdXqXdXqX6X6X9X1X5X9X;X).9X6X,X4X4X9X4X<X,X,X,X,X6X4X:X7XdXqXqXdXqXdX9XtXqX9XdXdXfXdXdX9XdXdX6XqXdXdXdXdXdX6X5X:X8Xn.j.L.O.m m $.u.y.1.M.&.9   X d G J 4X<X8X:XOX[.t.C.s.VXDXAXzXtX,X[.UX|._. X[.-X2XB.:X[.[.}.}.|._.[.|.|.|.)./.[.)./.~.^.^.(.UX(.(.(.'. X(./.(.~. X(.T.N.n.N.n.N.M.~.I.M.M.n.n.k.p.N.B.9.a.n.v.N.a.f.z.v.n.p.a.a.y.y.2.9.i.i.i.u.i.r.u.y.2.i.r.2.=.*.$.=.1.{.PXAXSXlX*XrX&X5.v H / { ! ! 0.y   + f _ L D.t.] ] { } #._.JXSXSXJX|.@.*X#X5.! H ^ o.o.-.-.$.&.&.@.&.@.@.@.@.&.;.;._ ` ..;.;.;.;.;.O.;._ ;.o.;...` _ ) _ ) ) _ ) ) ` ^ E E ! _ { R ( ^ E ^ E ( ^ ( _ ( R ( G R R ^ ^ E G G _ { _ _ { E G E ^ R R R G G E G R ^ ^ G 1.1.G x.BXBXHXP.m G R G _ ) 1.G $ d d 1 3.F.H d d x G H 1.jXcXxX5X( E U Y U U U ( X.) ) ) ( X.........) ......o...X.X.( ( ) ) ) ) ) o.o.o.o.O.O.O.*.) &.O.5.*.O.+.*.5.O.5.9.0.0.p.l.j.9.0.j.w.w.j.j.0.j.m.x.x.x.P.L.R.R.E.P.x.E.z.5.9.j.P.p.n.c.c.z.0.9.&.{ G { {.+XG.>XbX&XiXE.k s { p.e.*.E.W.D.",
",X<X;X;X<XF.2.! x v dXvX^.^.F.b.{..Xn./.:X4X:X7X5X4X,X-X;X4X5X6X5X5X8X8X;X~./ [.5X4X4X4X5X5X<Xf.M.5X0X8XOX-X0XqXqXdXqX9X6XqX9X5X4X4X5X6X4X,X5X5X9X4X4X4X6X:X9X9X9X7X5X9XdXfXdX7XdX9X9X9XdXdXdXfXfXdXdXdXfXfXqXdXdXfXdXdX6X4X;X:Xn.j.x.+.Y M $.a.f.y.b.&.0   X f G ' OX6X5X1X+X XV.C.i.CXDXVXzXdX}.(.(.}..X:X>X:X>X[.>X-X-X|.-X}.[.[..X|.|.[.[..XoX)./.)././.(.(.^././.(.'./.~.(.(.~.M.N.m.N.v.v.M.T.b.n.I.M.M.N.B.k.v.r.a.v.j.a.n.v.v.z.z.f.f.v.y.a.a.y.y.i.y.r.t.r.s.i.y.i.=.9.=.=.$.=.2..XPXAXZXcX=X3X%X5.v H J / / / T.m   + s J 2._.G 1 { 1.} #.[.LXSXSXLX^.o.2XW.+.H ! / _ ;.&.-.%.&.@.&.&.o.@.*.*.@.o._ ` ..;.O.;.O.&.;.;._ ) _ .._ ..X._ ) ...._ ) ) ` ( ( R ! ! ) o.! ! ^ R R ) _ E ) ( R ( R R R ( ^ E { G E E E E E G E G R R R ^ ) G G G R ^ R R R G G G c.HXmXBXT.m G G G _ G z.D.+ w w 4 G #.G G G G J H %.jXcXnXfX` ` ! U U U U R ( ) ` ) E ) o.o...o...O.&.&...X._ ` X.( ` ) X.) ) X.&.&.O.o._ o.+.&.&.&.*.5.1.+.5.5.5.5.5.0.j.l.l.0.9.+.0.j.0.c.w.0.l.x.l.x.L.P.L.E.R.E.L.E.E.j.9.q.*.9.9.c.L.c.x.w.*...R ^ / ).qXgX5XCXJXJXc.l k W 9.T.c.Q.W.e.",
"+X8X:X}.D.G.u.! v l dXfXa.v.t./.-XN.Z.;.s.{.;X,X4X4X;X,X<X4X4X5X0X0XfX4XoX2.D.,X8X4X4X0X Xm.v./.qX6X7X6X6X6X0XdX9XqXqXqXqX9X9X-X,X,X,X,X-X4X5X5X6X4X,X9X6X6X6X9XdXdX9XdXfXfXdXdXdXdX6X9XdXdXhXdXdXdXfXdXdXhXhXdXdXdX6XdX5X4X7XdXj.w.x.O.m U @.r.u.v.u.o.w   . v G #.+X8X5X<XOX^.3.C.t.NXFXAXmXdX-X[.-X4X2X2X4X<X>X:X>X|.OX$X>X}.[.}.OX[.|.^._.OX$X[.).[.^././.(.(./. X X~.'.'.~.T.b.m.b.z.N.a.n.n.n.I.b.n.M.M.n.N.p.B.B.B.B.a.k.z.v.v.z.f.a.f.p.p.i.a.a.a.s.i.r.y.y.s.0.t.y.1.-.=.=.-.=.i.OXAXAXPXzX#XW.W.5.v M ^ ^ ] R z.l   1 G G u. .] 2.2.] { @.`.JXSXSXLX_.&.2XE.o.G H ` _ ;.@.@.@.@.;.;.@.-.-.&.&.o.;._ _ _ ..o.@.@.o...;.) ` ` ..) _ .._ _ ..;.) ) ) ) ) ( R R R E G ! E E R R ^ ( ( ( ` / R E R R ^ ) E _ E G _ G _ E _ ^ G E G R _ _ ^ G G G _ R R ^ E ) G j.NXBXBXT.s R G G G G o./ @ d x 1 u.D.d / G G H G 2.cXIXnX0X) ` ( E U E ! E ( ( ( ( ( ) ..o.o.+.@.+...o.O.....( ) ) ........X.&.&.&.{ ( E ) o.5.+.*.5.+.5.O.6.5.5.*.*.5.w.l.j.w.0.*.0.j.j.j.j.0.x.x.j.x.U.E.I.I.P.P.R.W.E.*.1.R.0.x.j.0.E.x.1.1.+.) H G ] +XnXeX4X;XNXJXj.9 l W q.q.c.#X].D.",
"+X;X;X/.1.a.2.H v x ;X[.t.=.2.} ` ;.;.V.>.d. XOX<X>X-X,X4X,X4X<X5X0X0X4X}.D.:X:X<X1X5X{.2.v.:X0X8X5X5X5X5X6XdXdX9X5XqX4X5X9X9X4X4X4X:X;X.X,X4X5X7X,X,X4X6X9XdX9X9XdXdXdXhXgXdXdXqXdX9X7XqXdXdXhXdXfXhXfXfXdXdXhXfXdXdX4X4X5XqXgXn.q.j.+.Y M { 2.a.2.~.a.1   @ v b 2.OX+X5XOX{.^.>.C.s.AXDXVXcXkX2X-X:X3X<X<X4X:X-X:X>X-X|.}.}.-X&XOX}.[._./.OX|.[.|. X[.[./././.(.^.[. X~.~. X~.n.B.a.k.v.M.v.v.b.b.b.M.M.m.n.v.N.B.k.n.I.B.v.B.v.f.v.g.z.u.s.a.y.r.9.p.z.s.s.s.t.i.a.y.r.y.r.-.=.9.$.=.r.}.PXnXPXlXE.'.U.+.v M G / / ) c.t   & G { G #.d.2.] ] { #.oXLXJXSXLX_.*.&XW.o.! ! ! / / .._ ..o.o.;.@.;.&.&.@.@.o.@.o.o.;.@.o.;.;._ ...._ o.` _ ) ` .._ ` .._ ` ( ) ) _ R ( ( ^ E ^ ! R ! R E ) { ! ^ ) ^ R ^ R ^ ) ^ E G E G E E _ E R E E ^ ) _ { E G @.E G R G J H R G j.BXBXHXT.G H G G R R o.9 1 d G q f.h.G K H G G G u.cXIXVX0X( ` ( E ! R R ( ( ( X.( E ( X.....o...O...@.&...o.) ) ..o.@.o...{ o.O.&.o.R X.) O.O.X.$.$.+.*.q.0.9.*.5.O.5.0.e.j.j.j.0.9.0.j.O.w.j.l.x.p.l.I.E.E.E.W.L.q.c.p._ ! y.{ ^ &.O.x.D.c.0.*.o./ G } OXvXIX8X7XJXJXE.y x 1.j.c.E.#X!.e.",
"-X-X.Xf.1.d.t.H v f 6XcXr.>.} _ -.] -.-.UX)./.OXOX-X>X,X4X6X5X9X0X0XdX0X:X5X1X4X5X+Xb.1.{.}.}.OX<X5X6X6X6XqXfX0X9X9X+Xr.9X9X6X6X5X,X;X.X4X5X5X4X4X:X4X,X6X9X9XdX9XdXfXfXfXhXdXfXdXdXdX9XdXqXdXdXdXdXfXhXdXfXhXdXdXqX6XqX6X6X^.^.z.l.j.+.U M } 1.f./ @.=.=   $ M b / vX5X9X+X^.^.-.M s.AXDXNX<XhX>X,X4X4X4X4X<X2X>X:X>X>X{.[.OX-XOX}.|.}.Z./..X[.[.|.[.'.[.[.[./.(.(.(./.UXUX~.UXN.p.u.b.I.N.M.v.n.~.M.m.M.M.n.n.n.n.B.N.n.B.B.v.n.f.v.z.f.p.a.f.s.p.s.a.y.r.s.p.y.y.a.y.1.r.=.%.1.r.-.2.r.{.nXAXZXmX#X*XW.O.v M G ^ / _ D.-   + G 1.G G.t.1.1.H } 1.}.LXSXSXLX_.-.rXW.o.! ~ / ] / ) / ..;...;.;.;.-.;.&.@.@.;.o.;...;.;..._ _ _ _ ....` X._ ) X.` ` ) ) ` ( ` ` ( ! ( E R ^ E ! ! ( ^ R { _ _ ) ^ E ) R R E E G G E E G E / ^ G E ^ J E ) _ _ E E { E _ G J E G E G 0.BX2XsXE.l G G G R G { G & d d w @.h.G G G G G H a.IXIXnXwX( R R R Y U ! E E ) ( ( ) ( E X.X.....o.O...@.&...X.) X.&.O.&.X.X.X.{ X.) ) ) o.5.$.+.o.+.O.5.9.0.9.5.*.*.5.0.j.j.w.l.j.p.0.p.9.0.z.9.0.0.j.L.P.W.E.E.I.j.1.E G G H G R &.j.E.9.$.9.&.{ _ G / .XjXnXtXbXLXCXw.G G 1.e.D.W.#X#XE.",
"oXoXD.3.g.).g.G v y fXxXb.(.d.r.N.s.t.,.Z..X[.;XoX[.:X4X5X6X6X9XwX0X0X;X4X4X5X0X^.1.D.+X4X4X}.oX4X<X6X6XdXdXwXdX5X5X:X-XqX9X4X<X:X.X;X4X5X5X5X4X,X:X4X7X6XdXdXdXdXfXfXgXgXgXdXdXdXqXdXdXdXdXdXdXdXfXfXgXdXdXdXdXdXqXqX6X5X6X4Xy.! P.e.O.Y G _ =.N.~.y.&.7   @ G H J fX5X5X:X).~.-.A s.CXDXVXtXkX4X<X4XtX<X2X4X:X>X>X:X-X.X|.OX$X-X}.|.}.^.|.|.[._.{.|.[. X[.[.UX^././.(.~.~.Z.I.v.v.M.M.(.M.m.v.n.UXM.M.M.m.v.b.N.n.n.n.a.g.v.k.n.a.f.f.f.a.z.a.a.s.p.a.y.y.r.s.r.p.a.s.9.r.s.=.=.=.-.9.s.[.AXAXPXcX2XrXl.X.v M ^ ^ ^ 1.'.1   - J d 2 oX} G { ] } %.oXLXSXJXLX_.&.*X].o.! H _ ] ../ ^ ;.;._ _ ..@.&.@.o.o.&.;.o._ ..o._ ;..._ ....) .._ .._ _ ` _ X.` ` ( ( ) ` _ E ^ ^ R ( ! ( ( ^ X.{ R R ) _ ^ ^ ) R R ^ ) R G E G G _ E E G _ ^ E E E ^ ) R E G G E G G E E E G D.HXaXlXD.s G G ^ ^ 2 0.x.+ d G G / D.G G G G G H 3.IXnXnXwX) ( R U U Y U U ( ( X.) X.` ` ) ( ) o.o...+.&.o.o.o.O...&.&.o...X._ ) ) o.o.o.*.O.+.$.+.+.1.5.1.j.q.*.+.+.9.0.j.c.j.l.l.c.z.w.w.w.c.c.l.p.l.E.I.I.E.E.P.W.E.1.) ^ _ &.1.9.0.9.*.) ) { +.o.^ ] XXwXxX8XpXLXAXx.l l 0.D.x.D.W.#Xc.",
"+X{.}.{._._.g.H v l ;XwX2.H :X.X[..X{.[. X-X[..X}.-X4X4X4X<X6X5X9X9X-X-X4XdX2XA.A.{.:X4X4X7XdXdXqX6X6XdXdXfXdX6X9X9X9XdXqX9X9X4X,X,X,X:X4X6X5X4X4X4X:X4X9X9XdXfXgXgXgXgXgXfXeXhXdXdXdXdXdXdXdXdXdXdXhXdXgXdXdX6X6X9X9X9X4XdX.XOXi.7.L.6.m R @.1.~. XM.&.1   $ b G { G.G oX8X`.D.1.G y.AXSXCXlXcXfX7X7X6X4X>X:X:X>X:X>X-X}.}.-X}.-X}.}.}.}.[.[.[.~.[.[././.(./.(.~./. X~.UX(.M.N.I.UXb.I.I.M.M.b.v.M.M.n.N.t.B.I.m.v.v.n.a.v.k.N.N.k.u.u.a.k.a.k.z.a.a.s.y.r.i.u.f.a.=.2.1.r.i.r.=.1.$.1.r. XZXxXnXmX&XyX#XX.m b G ! ! o.0.x   $ d d G G.$.%.} { ] #.oXLXPXSXLX[.1.].E.+.! ! / ;._ ) _ _ ] ] ..@.@.@.@.@...&.@._ ) _ @....._ .._ &.o.o._ _ _ ..) ` ` ` ` ` ` ( ( ! ! ! ) E ! ( U C.! ( ( ! ! ! ! ` ( ! ! ( R R R R R R E R ! E R E R R R ) E G $.$.G E G G G E G { G D.BXMXBXD.G G ( G v v ! G - G / d J h.G / / G G G y.nXnXnXfX;.E R U M Y U R ( ( ) ) ) ) X.( ( X.....o.o.&.&.o.o.o.&.@.o.o.o...) _ @.*.*.O.*.&.o.7.&.5.7.q.j.w.9.O.*.O.0.*.0.c.c.c.c.c.c.j.c.p.w.l.j.w.x.E.E.Q.E.L.L.Q.W.D.+.E 1.E &.9.O.{ $./ J X.1.&.) { _.@XcX8XbXSXqXx.s x 1.D.E.w.q.x.{ ",
"F.-X,X;X;X_.M.G v y =.5X-X/.v.}.4X,X,X-XOX.X>XOX:X4X4X,X-X5XqXqXdX,X.X9XdX'.A.[.(.[.4X6X9XdX6X9XqXqXdXdXgXfXdXdXqXqX9XdXdX9X6X4X4X,X,X4X5X6X6X4X4X7X4X4X5X9X9XfXjXgXgXfXdXdXdXdXdXgXdXdXdXdXdXdXdXdXdXdXdXdX9XdX9X4X6X6XdXUXI.zXUX8.7.U R R @.g./.~.N.*.8   & b G 2.jXG.7X;XXXD.$.G D.CXCXCXcXjXpX7X3X7X4X>X>X3X2X:X>X>X}.[.$X-X}.[.}.}.-X|.[.[.).[.[./. X[./. XUX~.[.~.UX~.M.s.r.u.v.~.D.~.M.T.M.M.i.v.=.n.M.M.N.f.v.v.z.z.N.v.n.n.a.i.p.a.p.p.v.z.p.y.i.s.9.y.=.G =.9.=.r.r.2.2.=.1.2.2.(.0X:X4XcX*XpX#Xo.n b G G _ R @.R   & G G G {.%.$./ { } #.+XLXJXSXLX|.1.m.c.y.! ` _ ;.;.@..._ _ ..] _ ] ;.@...;.o.@._ _ ) o..._ o._ o.o._ ) _ _ X..._ ` ..) ) ) X.) ( ( ! ! ( ! ( ! R U ( ( ! ! ( ( ! ` ( R R U ! ( ! ! R G R ! R R ! E E ) ^ E _ E _ E E E G G G G E E G D.MXsXBXe.k G v v _ / 1._ + G G 1 { ).b G G d G G 1.nXnXAXfXo.R U Y Y Y U U ( ) X.) ) ) ) ) ) ........o.O.o.&.o.O.&.&.o.o.O.o.O.&.o.&.o.&.*.7.5.0.5.6.j.j.l.0.9.O.9.*.O.O.1.j.l.L.c.c.j.l.x.c.j.p.w.j.P.E.E.I.P.R.L.D.E.c.q.q.q.E *.c.j.9.( H @.^ 9.1.X./ _.5XcX2XcXZXnXc.w y E 0.D.c.q.W G ",
"D.+X8X1X;X.Xd.v x y v.gX}.5X:X~.<X6X/.Z.}.,X,X:X6X9X4X5X4X9XqXqX9X,XgX,XM.).9X7X.X:X,X6X9XdXdX9XqXqXdXdXgXgXfXdXdXqX6X6XdXqX6X9X4X-X:X,X7X9X9X4X4XdX4X5X4X|.dXgXgXgXgXgXdXfXfXdXdXdXgXdXdXdXdXdXdXdXdXdXqXqX9X6X-X{.9X4XV.Z.dXfXP.O.7.Y m E %.d.~. XM.@.1   & b G { .XvX4X;XoXD.{ G 1.CXFXSXNXgX0X7X8X4X3X8X8X8X:X>X-X-X}.}.-X}.[.UX[.}.|.}.|.).).).[.[.[.|.[.UXI.^./.(.~.(.~.~.M.v.r.r.u.n.~.~.I.UXN.M.m.I.v.N.z.a.v.v.n.v.n.n.n.N.B.i.s.i.a.a.a.v.a.u.1.r.i.=.$.$.9.=.=.s.r.2.=.=.#.%.2.^.zXVXJXkX3XpX%X+.x M H ^ ` R ) t   $ d G G oX$.} { { } 1.+XLXSXSXLX{.-.1.=.=.( ] _ @.&.} { _ .._ _ ] @.;.;.o.o.;._ _ _ _ _ ...._ _ ) o._ o.o._ _ _ .._ ) ) ) _ ) ) ` ( ( ! ( ( ( R R ! ( ( ! ! ( ! ( ! E R U ! U ! ( E R R E R R E ! G E E E _ ^ _ E E E G G G E G G G +.W.aXaXBXD.G ( G G R G o...1 d v d / ^.f d f G G G ,.nXAXAXfXo.U U U Y U U ( ( ( X.) ) ) ) ) X.....O.O...O...o.&.O.O.o.o.&.O.o.o.&.O.X.o.*.8.7.i.0.0.7.j.j.0.0.9.O.=.*.o...9.0.x.x.j.l.j.L.x.0.0.1.e.0.c.P.E.x.k.n.c.x.z.9.5.x.w.0.c.c.w.0.1.H c m m ^ E / `.AXjX7XcXLXLXj.w y R q.x.E.q.+.^ ",
").D.G.{.{.{.b.H x u .XAXM.:X6X<X:X-Xb.Z.Z.[.4X6X9X9X5X9XdXqXqXqX4X4X[.UX4XfX6X6X6X6X:X6XqXdX9X9X6XqXdXdXhXhXgXdXqXqX6X,X9XqX6X4X4X4X4X4X4X7X6X6X9X9X4X4X4X5XgXgXgXgXgXgXdXdXdXdXdXdXdXdX6XqXdX6XdXdXdX6X6X6X7X6X/.-X{.C./.jXtX9XM.8.7.O.m G $.r.t.~.v.$.8   & v G L %.;X0X8XoXD.%.d D.CXCXCXCXvX5X5X>X2X7X4X4X8X4X,X-X$X-X}.-X-X.X}.[.[.|.|.[.).[.[.[.[.|.[.[.UX(. X/./.(.(.~.UXM.(.(.~.z.u.a.m.UXUXn.N.n.M.n.B.z.a.n.v.N.k.k.v.g.p.a.s.s.s.s.v.s.j.z.a.i.y.u.-.r.r.1.=.r.a.r.=.1.2.%.%.1.oXAXAXDXhX2XpX#XO.x M ! { ! o.m.t   $ d G J {.1.1.%.} @.1.oXLXSXSXLXoX=.p.&.z.@.) ..@.@.@._ @.;._ @.$.o.;.@.o.@.;....._ ..;._ _ _ _ ..o._ { { ) _ ) ) ) ` ` ....) ) ` ( ( ( ( ( R ..o.C.( _ ! ( ! ( ! G R R M U ! R R R R R ! ! R R R G G E E E ^ E _ J _ E G G G E E G G R.MXrXMXD.G ! G G ! G 1.@.1 v f 2 H 1.G G c g G G 3.nXAXAXjX..C.U R U U E E ) X.X.( ( X.X.X.) ........@.&.o...O.&.o.o...&.@...o.o.O.O.O.*.7.0.w.0.0.0.j.j.0.q.9.O.6.9.o.+.9.0.c.x.e.0.l.c.x.9.&.+.e.q.0.w.5.O.i.v.L.p.W { ) m.Q.E.W.].R.p.R G G #.1.G G _ G.AXVX2XNXLXLXc.w d G o.x.R.Y.D.D.",
"D.1.b.[.-X[.v.H x y qXfX-XqX6XdXqX9X9X}.b.Z.4XfXdXqX7X<X4X5XqX5X9X-X.XhXdX6X9XdX6X6XdXdXdXdXdXdXqX9XdXdXfXfXfXdXdX9X9X9X9X4X6X9X5X5X7X5X5X6X6X6XdX9X6X4X9X9XdXgXjXgXgXdXgXdXdXdXdX9XqXdX5X4XqX7XdX9X6X6X6X6X7X4X-XV.N }.gXdXdXgXn.x.I.q.Y Y @.2.u.N.i.a.=   $ v J { {.D..X8X}.D.%.G 2.CXCXCXCXcXtX3X3X8X7X7X4X4X4X:X>X}.}.>X}..X}.}.[.[.[.(.[.[.|.[.|.|.[.~.[.(./././.(./.^./.M.n.M.~.~.M.D.~.(.~.M.n.a.u.n.N.v.z.v.n.b.m.v.a.a.s.B.V.>.t.s.p.B.p.p.a.p.a.a.a.r.r.r.u.r.$.s.=.%.r.2.=.1.1.OXZXVXZXlX*XpX#X*.v m G / ( { z.o.  + d G } +Xf.%.%.$.1.#..XLXSXPXLXoX&.p.x.O.O.0.T...#.@.@.;.] ..@.*.o.o.-.@.-.o.;...;.;.;._ .._ X.;.@.@.o._ o._ ) ) ` ` ` _ ` _ X.` / ( ( ( ` U i.n.C.! ) ( ( ` ! ! G G G G R R R ! R E ( m ( R R R G R E R ^ ) ) ) E _ E G G E E G E G E.BXsXNXE.G ! G ! ^ R 1.&.& d f 1 N.[.G G G G G G #.wXZXZXjX@.U U Y Y U ! ( ) ..) ( ( ( ) ) ) ..) ..o.&.&.o.o.&.&...O.o.o.o.o.o...O.*.9.5.q.0.i.7.i.j.w.0.7.9.*.5.5.=.o.O.9.0.j.l.x.l.j.w.l.e.o.9.D.E.E.c.&.) 6.1.j.0._ j.&.n.W.W.W.E.E.R.0.R _ v _ G G ~ {.IXcX*XCXPXLXm.9 d G o.j.W.W.W.R.",
"G.N.g.^.XX{.d.M v y zXVXfXgXfX6X4XfX,Xr.OX5X9XdXdX6X6X4X4X9X9X9X6X9XdX6X9XdXqX7X6X9XdXdXdXdXdXdXtX6XdXgXhXfXfXfXdXdX4X.X.X9X9X9X9X9X6X6X6X6X6X6X9XdX9X7X4X9XfXgXgXgXgXfXgXdXgXgX5X6X6X9X6XqXdXqX6X6X6X5X6X6X4XdXA.C..XfXdXdX,X5XI.l.I.7.Y U } 2.M.F.v.v.=   $ v G G 5X{.+X1XOXF.} G D.CXCXCXCXmXqX4X,X<X4X4X7X7X,X>X-X}.$X-X}.|.-X}.}.|.)./.).).|.|.|.[.UX(.).)././.UX(.(././.M.M.M.D.~.M.N.M.~.~.~.M.m.v.j.i.p.v.N.N.M.M.z.u.u.=.=.-.-.r.s.k.k.a.s.p.a.z.k.p.i.6.i.a.s.=.s.@.%.2.%.%.2.2.-XZXNXCXcX2XpX%X5.v b M ! ( ( o.G   $ d G ] 8X%.1.%.$.@.#.oXLXSXPXLX:X! *.m.) z.&.&.@.-.&.@.o.o.@.&.@.@.@.@.@.@.@.o...;...;._ _ @.@.@...o.o._ ` ` X.) ..` X._ ....) _ ) X.( ` ` / ( &.o.) ( ;.! / ! ^ E R m G R R R ! G G G o.R R R G G G G G R E ) ) E E E G E G G G E G e.MXpXpXD.G ^ G ! ^ G 1.$.& y y 1 v.h.H G G G G H %.jXPXPXjX..( U Y Y U U ` ....) X.( ) ) ) X.) ..&...O.&.O.o...o.O.O.X.o.o...o.o.5.5.6.9.7.0.0.q.q.0.w.j.5.5.*.*.&.O.O.*.*.9.j.j.p.j.i.w.j.z.0.j.x.j.q.z.c.5.&.9.j.9.*.j.&.9.E.W.x.c.x.c.z.0.9.&.m R G ] ,XeXwX8XFXLXLXE.k y _ 9.0.E.E.E.c.",
"|._.d.a.b.^.u.M x p lXcX<X6X6XfXdX-X_.OX-X5X4XqXtX9X5X7X4X5X,X4X[.-XdX9X9X6X9X9X5X6XdXdXdXgXdXdXdX6XdXfXfXhXfXqX6X9X<X-X[.9X9X9X9X9X6XqX9X6X6X6XdXdX9X9X9XdXfXgXgXgXgXdXfXdXdXdX9X9X9X}.,XdXdXqXqX6X6X6X9X9X6XUX` -XfX6XtXgX/..XM.l.L.7.m M ;.u.D.v.=._ 1   $ x J / D.`.8X4X;X^.1.G D.CXSXCXCXNXdX4X<X<X3X7X7X7X2X-X-X-X.X}.$X[.-X$X}.}.|.).|.[.[.|.[.(.UX[.[.[./.(.~.T././.[.(.T.T.D.(.~.f.N.T.~.M.n.M.M.n.v.m.b.n.n.M.a.a.f.r.s.#.@.] r.k.k.k.i.s.s.t.s.a.a.u.r.9.p.z.r.y.%.{ @.=.2.2.2.:XCXNXZXzX3XkX%X5.v M M ! ! _ s.m   $ d G ] oX2.1.1.%.%.1.}.LXJXSXLXoXT.R.*.p.R ^ ^ @.-.*.@.&.@.o.@.] @.;.&.@.@.o.@.;.o.o.o.` ) _ @.@...;.o._ _ ` _ o._ ` ` _ ..` ) X.X.) ` ) X.` ` ` _ ) ! ..=.E ) ( ! E G R E R ! R m G R o.o.R R G G G G G R ) ) ) _ _ G { _ G G _ G G D.BXsXaXe.G ! ! R _ G T.D.; s d w ] 1.] J G G G H 3.nXAXJXzX..! U Y U E ( ( X.@.X.( ) ) E ( ( X...&...@...&.....&.O.o.....) ....o.*.*.5.0.7.j.0.0.0.q.q.0.1.+.O.5.*...o.O.*.q.0.w.0.*.p.j.j.j.p.1.0.0.1.9.w.*.*.x.j.x.z.9.*.1.q.p.p.*.z.j.0.9.9.1.{ ( { %.@XAXIX;XFXLXLX(.t s E 1.q.D.z.0.9.",
"^.`.G.D.g.u.=.A x x cXcX9X[.4XdX6X-Xd._.-X4X7X9X9X6X6X5X7X4X_.N.| 9XqXqXdX9X4X4X9X6XdXdXdXdXdX9XqXdXdXgXgXgXdXhXqX9X9X9X9XtX7X6X9X9X9XqXqXqXdX6X6XdXdXfXdXdXdXfXgXgXdXgXdXgXgXdX4X6XdX-X,XhXqXdXdX6X7XqXdX9X.X>.4XdXdXdX9XdX6XjXk.x.l.6.Y M / =.v.M.k.o.=   + v H #.8X,X8X8X;XG.%.G 3.AXNXSXCXCXiX:X$X:X<XtX7X<X>X}.-X>X-X.X-X}.-X-X.X-X.X|.}.|.).).UX/.[.[.|././.~.(.~./. X/.~.~.T.(.(.T.N.s.M.~.I.~.M.b.n.n.b.n.n.M.n.=.=.v.p.r.*.t.r.i.k.v.a.t.s.r.9.9.y.a.r.r.s.u.f.a.r.&.%.#.$.u.u.2.OXZXCXPXtXtXyXW.9.v M R ! _ $.s.l   $ d G H ;X2.} 1.1.#.1.}.LXSXSXLX{.p.z.|.O.R ~ _ { @.&.*.@.&.&.@.@._ ;.o.&.@.@.&.o.@...@._ { { o...] ..) _ _ ` _ { X...` ` ..;...) _ _ ..` _ _ ..) _ ../ ^ ! ^ ..` ! ! R R G R R R R R E R ` O.R Y G G E G G E E _ G E E G G E E E G G q.NXNXMXD.G ! ! G ( G b.f.+ y s 3 } 1.G { H G f.] u.nXAXSXvXo.( U ! R R R ( ) ) X.) ) ( ( ) X.) X.....o.X.O.o.) ..&.o.) ) ) ..o.*.O.5.5.6.7.0.0.w.0.9.7.q.q.*.o.O.*.o.&.O.O.9.q.0.*.) 0.x.j.w.1.X.z.c.9.z.x.j.O.c.c.E.c.9.O.+.@.) o._ { 9.9.9.O.o.{ ( G #.wXnXjX;XCXPXPXT.t x { 0.5.5.0.z.w.",
"^.[. X_.D.f.1.G x x zXcXdX/.<X6XqX6X}.v.;X4X6XqX9X6X9X6X4X;XG.~.:X6X6XqXdXdX<X4XfXdXdXdXgXfXdX6X6XdXdXhXgXhXdXhXhXdXdXdX9X,X4X9X6XqXdXqXqX6X4X7X9XqXdXdXgXdXdXgXgXdXfXgXdXdXhXdX,X4XdXdX9XdXdXdXqXdXhXdXdX9X5XdXgXdXgX9X).4XgXdXm.j.L.5.G G %.u.M.(.F.{ =   ; f H %.3.] 5X1XOXG.,.b k.JXCXFXDXhX:X-X-X-X,X6X4X:X:X-X$X-X.X}.>X-X>X-X.X-X.X.X|..X[.).(.|.[.).[././.^./.~.(.[.[.I.(.D.(.~.~.M.v.T.I.M.(.UXN.n.b.m.N.n.m.n.N.s.y.f.a.a.r.>.s.i.-.=.=.=.6.s.p.r.y.i.i.y.f.a.a.2.=.%.#.#.a.g.u.oXJXAXbXlX2X*X#X5.N A R _ _ { &.v   & d G G wXD.{ 1.1.@.} oXLXSXSXJX&X) I.tX&.! ! ^ @.@.@.-.@.-.&.@.@.;...@.o.o.@.@.@.$.O._ _ o._ { { @....._ ! ( { o._ _ _ X._ .._ _ .._ ) ) X._ _ _ o.o./ ( ! ( o._ ^ ( ( G G R ( E E E R ^ E E o.) G G E E G E E { ) R ^ R ^ G ^ R E G D.MXNXHXD.G R G E { v { R 1 w y w $.N.G G G G / H 2.AXZXPXzX..( U ( U E ( ( X.` X.) ) ( ( X.( ) X.o...O.X.( ..) o.*.O.o...) ) ..&.&.&.5.*.9.q.q.q.9.9.q.5.5.O.{ +.+.+.+.*.*.7.p.9...o.9.p.*.0.y.*.9.1.5.x.x.x.j.x.P.c.0.9.&.9.1.) / { O.9.5.+.+._ R o._ { wXPXfXoXNXJXSXx.9 d +.x.1.q.D.q.5.",
"`.[.}.oX).).2.G x v cXxXvX4X-X-X:X6X{.}.;X;X5XqXtX6X7X6X5X-X.X:X,X9X6X6X6XqX6XqXdXfXfXfXfXdXdX9X6X6XdXdXgXdXgXdXdXhXdXdX9X4X6X6X6X9X6X6X9X9X6X4X6XdXdXdXdXdXdXfXgXdXfXfXgXdXdX6XdXdXtXdX9X9X6XdXdXdXdXdX5X4X9XgXdXdXdXdX5X5XfXfXn.e.L.7.v G 1.g.~.^.(.=.1   $ c G a.^.1.0X8X.XG.=.b B.DXZXCXDXcX2X-X-X>X>X9X4X>X:X>X-X.X}.-X>X-X-X-X-X}..X-X|.|.[././.[././.[.[././.[.~.(.[. X~.(.D.T./.(.F.D.D.M.~.(.M.M.m.M.b.v.n.v.f.a.r.9.y.n.k.&.=.k.v.r.k.i.6.] -.9.s.a.a.r.y.z.f.f.f.a.=.$.{ 1.1.2.{.dX:XDXvX&XrX#X7.M C.! { ( $.1.!   & e { / ).N.] 1.1.#.{ +XLXSXZXLX].i.2X7.+.! ! / _ o.@.@.&.-.&.&.o.@.o.@.@.@.o.o.@.*.@._ ` _ { _ X._ .._ _ ( _ @._ _ .._ ) ..) ` .._ ) ` ` _ { _ ) _ o.o.` ) ` / &._ ^ ( ! ^ E ^ ^ ( ! ^ ( ( R E 9.W G E G E _ E _ R ^ E ) R E G ^ G G R.MXiXBXD.G E G ) _ v 1.@.& y s 3 u.[.f G G / G H #.4XnXPXjXX.( U ( ( E ( ( ` X.) ) ) ( ) ( ( ) ........) X.) ) ..o.*.*.o...o...o.o.&.o.+.5.5.q.q.0.q.5.9.*.5.+.{ O.*.5.*.5.O.o.6.O.*.0.0.*.j.0.*.&.w.1.c.m.j.P.l.P.E.c.*.{ 1.0.{ o.X.1.9.1.1.O.{ ) ^ G #.+XwXxX/.&XKXLXx.y s $.D.*.q.z.e.5.",
"D.).,X+X`.D.g.G x v cXAX9X:X,Xb.M.-XOX-X:X:X5X0X6X6X4X4X4X}.-X:X4X9X6XqXqXdXdXfXfXdXfXfXfXfXdX9XdXdXdXdXdXdXgXgXdXdXdX9X9X4X6X9X6X6XqX6XqX7X4X9X6X9XdXdXdXdXdXfXgXdXfXfXfXdX5X5X9XdXdXdXdXdX>XdXqX9XdXdX6X5XdXhXdXgXgXgXgXfXdXdXx.j.L.5.G G $.r.b.~.M.*.8 o + M G u.wX<X;X8X}.D.#.v v.JXAXDXzX7XfX$X[.$X>XtXdX,X:X-X-X}.}.>X-X>X-X-X-X|.}.}.}.{./.UX(.)././.[.).].[.[.[.^.'./.UX/.D.D.(.~.~.M.D.UX(.(.N.M.N.M.m.n.v.v.B.f.y.i.y.n.v.u.a.k.N.a.p.B.a.p.a.r.-.-.9.p.a.y.g.a.n.f.2.%.@.@.@.N.oX5XnXLXvX3XaXW.5.N A ! { _ { f.1   $ d d G [.J { 1.1.1.} {.LXSXSXLX$Xp.j.5.O.! ! / @.&.&.@.&.-.o.o.@.@...o.o.;.;...;...@.o._ o.{ { _ _ _ / _ _ _ _ { .._ .._ X._ ) / ^ _ ` ( ^ / _ _ _ { @.` ) _ _ o._ ! _ E E ^ E ^ ^ ^ ) E E ^ ! R { E E E G _ E G E E R R R R R E G k D.NXBXBXw.G G G G G G 1.1.$ w x 9 F.oXf G G / { G a.8XfXPXjX..( U U U E E ( ) ) ( ) ) ) ) ) ( ) @...) X.` ..) ..X.X...O.{ { _ ..o.O.o.9...9.*.5.5.1.q.5.O.O.*.O.*.O.9.1.*.5._ ) $.&.9.p.0.1.y.0.9.&.q.p.x.E.l.R.P.R.W.E.I.0.5.1.+.{ *.0.q.1.$.O.{ ) G G / N.wXKX2X&XNXcXl.y s +.z.0.1.e.D.q.",
"D._.8X+X{.D.u.H x m xXvX-X4X[.F._.OX;X:X:X5X:X<X9X9X4X4X9X4X:X:X4X6X6XqXdXdXdXfXfXgXgXgXgXdXgX.X}.gXhXgXgXgXgXgXgXdXdXdX6X9X9X6X6X6X6X9X6X4X6X6X7X9XdXdXdXdXdXdXfXfXfXdXdXdX9X9X6XdXdXdX6X4X:X9XdXdXdXdX6X9XdXgXgXgXdXgXfXfXdXfXn.w.x.+.z G { 3.M.G.T.=.= o + v G 3.0XoXoX{._.D.#.v a.DXDXDXhX8XdX}..X.X<X6X:X-X:X-X.X[.}.OX-X>X:X-X.X}.|.}.[.[.[.UX/.[.[.|.|.[.|.[.|.[. X/. X~.(.D.T.~.~.T.~.I.Z.(.I.b.n.n.M.m.v.v.v.k.z.a.y.t.v.k.a.k.a.a.r.i.B.r.B.n.u.9.r.@.%.$.9.M.g.v.y.2.%.} *.d.N.-XKXIXPXgX%XiX#X5.b C.! { _ x _ d   $ w G #.8X2.1.1.1.{ #..XLXSXSXLXoX&.7.7.) ! ! _ _ @.&.-.&.-.@.;.;...@.@.@...;.....@..._ _ .._ _ _ o._ { .._ _ _ { ...._ .._ / ) / ! _ ! ! ! ( ( ( ( ^ ( { _ _ { ` o.) ( R R R ) ^ ^ E ^ E R R R ( G _ E G _ G E _ E J R ^ E R R R E G D.BXNXBXD.G G G G G G @.f.+ w d e $._.g G G / ~ / 1.:XnXSXvX( ` E U U U E ` ) X.) ( ) E ) ( ! X...&...) ) .._ ) { ..X.) X.{ o.....O.) 0.O.o.1.5.5.5.9.9.5.5.*.*.9.0.q.O.*.@._ ) o...O.0.9.0.5.*.9.*.9.E.E.E.E.'.P.R.W.I.E.z.j.z.c.w.1.q.9.0.9.1.o.E ^ H ] 4XAXnX}.tXCXbXx.t d o.0.9.9.q.E.q.",
").oX;XoX`.D.r.G l v xXCXqXdX:XoX}.OX-X5X4X4X4X:X4X4X4X6XqXqX4X4X6X6XdXdXfXfXgXfXfXgXgXgXgXdXdX:X-XdXdXzXgXgXgXzXgXdXdXdX9X6XdX6X7X6XdX7X9X9X4X4X6XqX9XdXdXdXdXdXdXdXdXfXdXdX6X:XdXqXdXdXdX6X6XdXqXdXdXdXdXdX9XdXgXgXdXgXfXgXfXdXm.e.l.Y m M { #.v.~.M.=.1   ; v G g.qX{.;X+X_.N.#.~ N.DXAXfXSXFX2X|.}.>XtX:XV.a.4X}.UX)..X-X}.>X-X-X.X-X}.|.[.|.).UX/.|.}.|.[.).|. X|. X X/.[.^.(.D.T.T.~.M.~.Z.~.(.I.b.n.m.b.M.N.N.B.u.a.B.k.i.a.k.v.u.i.s.2.s.B.p.B.p.r.r.i.p.a.r.y.a.u.v.a.6.%.$.%.1.v.5XZXfXLXkX%XlX#X+.N C.( { ! ^ 1.t   $ d G 1.wXD.$.@.#.} %.+XLXGXZXLX&X5.q.8.X.M H / @.-.5.-.-.&.@.;.@.@._ o.@._ @.;.....;..._ _ o._ _ { o.{ _ o.{ _ _ _ .._ ../ / / ) ( ! G ! ! ! ^ ^ ! ! ! / _ ` ` ! ! ) ! ( R R ^ ) ^ E ^ E ^ E R ^ E G O.{ E G G _ ^ G ^ ^ E G ^ R G G e.HXBXMXD.G R G G ^ G 1.D.+ w f 1 `._.G G G / / H d.nXAXSXzX) R R U U E E C.` X.( ( X.) X.( ( ....O...) ..X.X._ X...o.X.X.X.{ { X.+.O.9.0.^ 5.*.5.O.*.9.5.q.*.$.1.q.5.5.*.o._ _ ) ! { { o.O.9.*.O.*.9.x.E.E.W.W.E.E.W.W.R.E.E.E.P.E.m.q.p.*.1.p.&.R ^ G #.XX9XnX+XjXKXKXx.t d ..0.o.X.0.E.z.",
"G.oX;X{.G.D.u.G x y }.JXzXdX5X-X(.[.{.:X4X;X-X4X4X4X4X5X7X6X4X,X9X6XqXdXgXfXfXgXgXfXgXdXdXdXdXgXgXdXdXgXjXgXgXgXdXhXdXdX6XdX6X7X9XqX9X6X7X4X<X,X-X4XdXqXdXdXdXdXdX6XdXdXdXhX7X,XdXdXdXdXdX7X9X9XdXdXgXdXdXdX9XdXdXgXfXfXeXgXdXfXx.x.e.E m m H _ v.^.~.*.8   + G G 3.9X.X_.).F.g.} b M.GXiXNXGXxX<X}.|.,X>XV.V.Z.UX}.(.{..X-X.X-X$X-X-X}.$X}..X|.[.[.[.}.|.|.[.[.[. X{.|.].[.(.(./.D.D.(.T.~.(.T.T.M.Z.b.M.b.n.M.n.n.n.v.N.k.a.v.a.v.n.i.i.s.i.a.B.k.a.s.s.9.V.r.u.z.v.f.a.u.t.6.$.=.u.r.f.:XSXnXPXlX&XMX%X&.v ! / / ! { R.9 o ; w G { dXD.1.@.{ } 1.-XLXSXSXLX8X5.q.5.) ! C./ } @.-.5.-.&.o.o.@.;.@.@._ _ ..;.;.;..._ ` _ { _ ` _ } _ { o.{ @._ ` ;.` ` ) ) ) ) ( @._ ! ^ R ! ^ R ! ^ E o.` ! ! R ) ../ ^ ! E ! E ^ ^ ^ R ^ E R G _ _ { { _ G E E E ^ E ^ ^ E G G G D.HXBXMXj.G ^ R ^ ^ R 1.D.1 y d w D.g.c g G H ! H N.IXAXZXfX) E U M U U U U R X.E R E ` / X.X.......) X...) ) ) _ { o.o.{ ) o.+.{ o.+.0.p.O.+.1.1.{ *.5.5.5.q.5.$.q.5.9.*.` _ _ ..) _ o.O.o.O.1.*.&.O.0.x.E.W.'.R.E.W.].E.E.R.W.c.l.x.x.z.X.+.0.o.^ ^ ^ #.G.9XAX1XnXLXLXP.t s { p.+.+.z.E.e.",
"G.-X-X|.`.).u.G x x gXZXfX6X5X1X{.~.~./.6X}.{.5X5X4X4X4X4X4X<XM.-X9X6XqXdXfXgXfXfXfXfXdXdXdXhXhXdXdXhXgXgXgXgXgXfXdXdXdX9X9X9XdX9XdX6X7X4X4X,X-X:X6XqX6XqXqXdXdXdXdX9XdXdXdXdXdXtXhXdXdXdXdX9XdXdXdXdXdXdXdXdXgXgXfXgXfXhXfXfXgXx.L.L.8.G m / @.r.F.M.&.8 o $ c ~ 2.5XwX4XOX).b.#.v u.qXzXZXCXmX>X[.>X4XUXN.|.-XUXUX}.}.}.}.OX$X-X-X-X}.>X-X}.-X|.}.|.}.}.|./.'. X X|.[.|._.(.(.(.~.~.~.~././.~.~.M.m.b.M.N.n.m.M.n.N.n.v.k.v.k.k.n.v.a.y.y.r.a.k.a.a.i.i.r.i.V.i.z.k.z.u.s.r.6.r.r.u.r.a.<XJXPXJXhX&XBX*X&.b A ! / E G m.z   $ w G } fXf.1.1.@.%.%.;XJXZXSXLXoX&.7.8...C.! / ;.&.-.5.-.&.;.@.o.] @.@._ { @...;...@._ ` _ _ _ ` _ _ _ { o.o._ ..` ) o...` ) ) ` ^ _ _ ! ! ^ ^ R ! ( ` ( ) ` ! ( C.! n.( ! E E R ^ E ^ E ^ R R R G E E _ E E E E E G R E ^ E E G E G e.HXCXmXx.G R G G G R R R 1 w s 1 2.oX] G v b H G d.IXnXZXzX..E U M Y U U U E ) ( E R ( ( ) ..........) ) _ ) E ..{ o.o.&...o.o.o.o.+.9.0.&.+.1.1.*.*.*.q.q.q.5.W 1.*.5.6.o.o.@.o.` o.*.6.=.+.1.1.o.9.q.x.R.W.'.W.'.W.'.W.0.D.'.E.j.E.E.j._ ) { ) ) R { / ).PXZXD.<XKXLXc.w l ) j.1.+.0.R.D.",
"D.oXG.^.oX^.f.G s m AXDXgX6XqX6X:X/.{.;X:X5X4X:X7X4X7X6X<X<X,X4X6X6X9XqXqXdXfXdXdXdXdXdXdXdXdXhXdXdXhXgXgXgXfXgXhXfXfXfXdXqX9X9XdXdX9X4X4X6X6X4X4XqX6X6X6X9X9X6X6XdXdXdXdXdXdXdXdXdXdXdXhXqXdXdXhXdXdXdXdXdXeXgXfXfXgXgXgXdXfXgXn.L.w.7.m v _ 2.g.M.T.o.=   & v H b.fX:X5X;X{.Z.} ~ V.4XZXZXFXvX>X|.-X>X>X-X>X}.}.}..X$X}.|.OX-X-X>X-X-X-X-X-X:X[.|.}.}.}.}.).[. X[.[.[.[.^._./.T.(./.~.~.].^.^.~.M.M.m.M.M.m.b.M.M.I.m.v.v.z.v.n.N.z.z.s.y.i.k.k.a.a.s.i.r.s.r.u.z.v.u.p.t.r.V.r.9.1.y.N.<XZXZXLXhX#XmX*X5.b A R ^ ^ G x.m   + d x #.VXD.1.1.@.%.%.+XJXSXSXJX3Xk.j.5...` ~ / @.5.-.&.-.@.@.@.@.o._ _ _ { o...;..._ _ ^ { _ _ ` _ _ { o.@._ _ o.( ;.;.` ` ` ) ` ` ( _ ( ^ R G ^ ! ! ! ` ! ( ( R ! n n.N.G E ^ R ^ ^ E ^ E ^ R ^ E { G E E J J E ^ E G ^ E E G E G G D.HXFXmXc.G ^ _ o.^ ^ 1.9.1 y f 1 y.`.H G v b b G h.nXAXCXfX) R Y U M U Y Y U ( ` ( ( ( ) ......@.....X...) ) X.o.o.o.&.o.o...&.o.&.+.1.9.&.@.O.*.*.*.*.5.p.q.q.1.+.o.o.5.5.o.&.&.o.9.*.O.&.{ +.o.+.z.0.L.W.W.W.E.W.'.W.W.x.e.W.E.0.0.p.1.o.@.{ ..@.1.{ { `.9XnXM.tXLXFXw.y x ) $.j.0.c.E.c.",
"D.G.u.D.D.D.:.G G G hXzXvX5X5X0X4X-X:X:X<X7X4X7X,X-X$X;X4X,X>X5X6X9X6X6X9XqXdXdXdXdXqXdXfXhXfXfXhXfXhXgXgXhXgXgXdXhXgXdX9XhX9X6XdX9X6X6X6X6X6X6X6X9X9X6X6X7X6X4X7XdXdXdXdXdXdXdX9XdXdXdXdXdXdXdXfXdXfXdXwXfXgXgXfXfXgXgXvXvXwXfXz.L.U.5.m v { 2.v.F.D.o.1   & G G >.;XOX;XoX{.D.$.G d.bXNXCXJXiX|.|..X:X:XoX.X}.oX>XOX$X}.{..X-X>X>X-X-X>X-X-X-X}..X}.|.}.|.}.[.[.[.[.[.[.UX[.UXUX(.^./.(.(.(.(.(.v.~.~.m.M.b.M.T.b.m.N.v.z.N.n.M.M.B.k.a.s.s.a.s.a.a.s.s.u.a.i.k.u.a.a.a.y.9.i.=.1.=.i.v.7XSXZXPXjX].2XQ.*.b H H ! _ R D.z   $ d g %.cXD.2.1.%.%.%..XJXDXPXLX~.X.j.5...` / _ } *.-.*.$.$.@.o.{ _ @._ _ o.{ @..._ .._ _ _ _ _ ` _ _ _ @.@..._ _ ` ! ` ` ` ` ` ` ^ ( E ^ ^ ^ / ! ( _ ) ! R _ @.G ! Y ;.n.C.( R C.( ( ( ! ( ! ( ! ^ E R ^ E R R ^ E ) R ) E G G G E z D.LXFXNX0.G G _ *.{ H o.$.= y f 1 v.OXG G G G G G d.nXAXnX9X) ( R Y U R U R ( ( E ) ) ) X...&.....O...X.....o.O.o.o.O.&.O.o.{ { +.$.5.5.5.5.*.*.*.$.*.*.5.p.w.p.1.1.5.+.*.q.p.*.&.0.0.1.1.X.&.1.1.9.q.0.z.E.R.R.L.L.R.E.x.E.D.E.c.9.o...{ o...) { O.-.o.2.h.+XPXG.0XGXZXw.t s ) o.c.'.w.9.0.",
"t.D.y.y.D.D.,.G d d vXbXhX|.{.0X:X>X4X<X:X4X7X4X4X,X,X[.,X:X,X7XtXqX4XqX9X7XqXqXqXqXqXhXdXdXfXdXhXfXfXgXgXgXgXgXgXgXgXgXhXhX9X6X6X6XdX6X6X6X6X6X7XqXqX6X6X6X6X5X5X9X9X9X9X9X9X9X6X4X9X6X6XdXdXdXfXfXdXfXdXfXgXgXwXgXgXgXjX;Xv.-Xz.L.U.8.m v @.g.M.D.f.o.-   @ v G t.wX5X;X+X`.D.} G D.cXbXNX|.xX$XZ./.[.-XOX}.$X}..X-X-XOX$X-X>X>X>X-X-X-X}.}.|..X$X[.[.|.|.}.|.}.[.[.[.[.'.[.UX(.~.^./.^.I.T.~.~.M.I.(.m.N.N.I.T.M.n.N.v.z.N.n.n.n.k.v.k.u.s.v.p.s.a.p.a.k.k.p.k.a.z.a.a.y.y.1.=.s.1.r.N.5XPXZXJXlX=XsXW.*.G H ! / { { E.m o ; y G } bXF.2.1.#.%.%.}.JXZXZXLX$X'.L.+...` ^ ] &.-.&.$.$.$.&.o.@.o.@.@._ } &.*.@._ @./ @.r._ _ _ _ o.@.{ @.o./ ! ` ( ( / ) ) ) _ ( ! _ ^ ^ R ^ _ _ ` ^ ! ^ R ` G ! ! U o.9.U ` ( ( ( X.( ` ` ` ) _ R R R R R ) E ^ R ^ R E G E G R G D.GXNXNXj.G G G G ` ( O.=.= d l 1 y.^.v H G G H H u.nXAXAXjXo.) R R R R U E ( ( ( ) ..) X._ ....X.......O.o.&.........&.@.o.+.{ $.+.5.5.*.*.5.*.*.5.1.*.5.q.0.0.&.+.5.1.9.j.w.1.o.0.j.9.9.1.1.e.0.*.O.5.q.j.E.R.T.E.L.m.R.W.Q.E.x.q.+.) ) o.o.{ { o.@.! 2.wXnXPXN.:XKXNX8.t x ` ..9.x.P.+.v ",
"y.D.`.D.D.D.1.G G t 0X0X4X[.D.5X5X:X4X8X<X4X4X>X:X:X4X,X4X4X:X,X6X9X4XZ.4XdX,X:XhXqXqXdXqXdXdXdXdXhXfXdXgXgXgXzXzXgXgXgXdXdX9X4X:X4X6XdX6XqX9XqX7X9X9X7X7X6X9X4X4X6X9X9X6X9X6X9X,XUX,X9X9XdXdX9X9XdXdXfXdXfXfXgXfXgXgXgXvX<Xg.-Xf.!.U.) G v %.g.D.v.f.o.1   @ G G %.wX;X+X+X{.D.J G ^.CXNXLX4X8X[.9.N.UX X[.).}.|.}.OX.XOX-X>X;X-X>X-X}.}.}.}.}.}.}.}.[.|.|.|.|.|.[./.[./.[./.UX(.(.(.(.^.F.M.~.m.M.~.~.M.M.M.Z.I.M.b.n.n.k.v.k.v.n.z.a.a.k.g.n.s.y.p.a.k.v.a.p.j.a.v.a.a.p.s.=.s.1.&.p.N.9XPXAXJXzX#XBXQ.o.b H _ R R ` p.t . ; l G } vXd.1.#.#.%.%.{.JXPXZXLX&X8.w.8._ ` _ o.@.-.$.#.$.$.@.-.=.@.@.;...o.*.] ! .._ .._ ;._ @.) _ o.@.o..._ ( ` ^ ^ ( ( / ) _ ..{ ^ _ ^ ^ ^ R ! G ( ( ` ! i.E R C.! ! m B.;.U R ! ( _ ` ( &..._ ^ E ^ R ) ^ R ) ) R R R E G G G R G p.BXiXlXc.G G G ! ` ^ i.p.- s g 1 g.G.G G v b G G d.nXAXAXfX..E R R U R E ( ( X.X.) X.) X.) ( ) X.) ....O...o.&...) _ o.o.o.{ +.*.*.5.5.*.$.$.$.*.$.O.*.9.9.w.1.5.X.+.$.0.0.9.+.1.9.0.j.0.0.q.j.p.q.*.{ 5.1.0.9.0.0.j.E.L.0.z.x.e.5.@.) E _ o.O.o.) _ ! 2.vXPXAXM.&X].lX+.w x R O.p.j.c.1.1.",
"u.D.8X+XD.D.%.G w d vXlX{.oX;X5XhX4X:X4X<X>X|.:X7X4X4X4X5X4X4X7XOX).4XN.[.,Xt.#.OX4XdXqXqXqX9X5XdXdXdXdXfXgXgXgXgXgXfXhXhXdX6X9X,X:X6X9X6X6XqX6X9X9X6X9X9X6X4X4X,X4X4X5XqX6X6XtX9X9X4X-X>X6X6X9X9XqXdXdXqXdXfXwXwXgXfXgXvX9X5XvXm.W.Q.W n v { a.b.b.a.o.-   & H J 1.6X X;X;X[.D.{ G D.GXCXZXmX'.P.6.r.v.Z.(.UX).[.[.}.[.>XoX-X;X>X-X}.}.[.|.[.}..X}.}.}.}.}.[.[.|.[./.UX/.[./.UXUX^./.^.(.I.~.UXb.~.~.(.T.~.~.I.M.M.m.N.n.v.n.v.v.n.z.a.z.k.a.f.z.s.y.z.v.k.z.f.i.u.k.s.s.s.r.9.s.p.=.r.g.,XPXnXZXzX#XBX#XW G H _ { ` o.E.y . ; d x @.gX2.1.1.%.#.%.[.JXDXZXLX[.P.P.....` / ;.#.*.-.@.$.*.-.9.$.@.@.@.;.@.@.@.@.@...@._ _ ..] ! _ _ o._ _ _ / ( ( ^ ( ` ( ` ) _ { ` ^ ^ ^ R ^ G R _ ^ ! ! @.R { ` C.! Y ;.&.U ( U ( ` ` ` @./ ( ^ ^ E ) ^ E ) ^ R E R G G E G E R G z.HXMXsXz.v G G ! ^ ^ 0.y.= x x w 2.D.J G G b H G d.AXnXAXvX..( R R R Y R ( ( ( E ` ) ) ) X.E ( ( ` ..o.o.O...&...) o.O.) ` { +.5.9.$.*.+.+.+.$.+.+.O.*.y.9.j.1.q.o.1.q.9.*.O.*.1.w.p.9.z.w.x.c.z.p.*.1.0.+.$.o.X.o.w.D.c.*.w.c.D.p.@.....{ @.O.o.{ ` ! 1.OXjXPX^.L.=XMX+.y s ! { 9.x.x.0.e.",
"D.G.D.H.G.D.} G l G bXSX5XoXy.t.{.-Xg.b.[.;X}.4X4X6X9X6X7X:X[.4Xn.n.7X9X6Xs.;.t.] -.9XqXtX6X6X6X9XdX9X9XdXfXgXdXdXgXdX9XdX6X7X9X4X,X6X6X6X9X6X6X9XqX7X7X4X;X,X4X:X4X:X:X-X4X5X5X<X9X-X}.:X9X9X9X9X9X9X9XdXdXdX;X5XgXfXvXgXvXwXwX X!.U.+.z n / 3.D./.z._ 1   & G G { OX;X+XoX_.g.} G p.bXFXCXGX#X7.7.@.V.b.b.~.).UX)._.{.oX-X-X;X>X-X-X}..X/.UX.X.X}.}.$X$X.X|.[.}./.UX/./.[.UXUXUX(./.(.~.UXN.Z.T.~.D.T.~.~.~.I.z.N.m.n.a.v.k.k.f.z.f.u.a.z.u.f.a.a.y.f.f.v.f.a.r.u.a.a.f.s.i.s.i.y.y.r.t. XCXZXLXkX].FX#X) G H _ _ X.^ /.m o & x G J f.3.1.%.#.%.#._.PXZXCXLX[.I.L.X...` ` o.-.&.-.&.*.*.#.-.%.-.@..._ -.&.-.-.@.@._ ..@.#._ _ _ _ _ _ ) ) ) ` ` ) ( ( ! ( ) ..) ) _ ` ` ( ! R _ ) ^ ^ ^ G G G z.` C.C.m k.` U ! ! R ( ` ` ) ( ^ E ^ E E ^ ! ( R R E H E H G G E G w.FXNXlXe.G R G R _ _ 1.9.= d v 1 #.g.1.G G G G G D.AXAXPXjXo.) E R R U R ( ( ( R ! ) ) ( R ! ( ( ) o...&...) o.O.o...o.o._ +.$.+.9.5.9.*.5.9.+.+.*.*.*.9.q.j.0.9.*.O.5.q.9.1.*.+.q.w.9.j.c.x.c.9.0.5.1.9.1.+.o.o.{ $.p.E.c.0.m.x.j.&.{ o.9.9.&.O.{ ) ) 1.`.wXPX:Xj.lXBXQ y l G ) 1.0.&.9.0.",
"D.{.D.D.1.D.{ G G J bXvX XD.y.D.M.u.u.}.>X4X6X7X7X4X9XqXqX[.3.s.}.,X5X[.>.t.t.#.A B.6X4X9X9X5X6X7X9XqXtX4XqXfXdXdXdXdXdXdX6X9X4X-X-X9X6X6X6X6XqXqX6X6X4X,X-X,X;X;X,X4X/.UX-X4X4X,X:X[.,X:X4X4X4X5X,X<X9XdXqXdXdXwXfXgXvXvXjXfXfX|.W.Q.W m G } t.f.(.a...-   + f G J `.oX}.).D.3.} J D.CXHXCXGXlXl.O.o.@.6.N.~.G.B.v._.[.{.}.&X-X-X}.}..X}././..X}.}.}.-X.X$X[.[.[.(.).[./.UXUXUXN.(.UX~.~.UXI.I.T.~.T.Z.T.~.~.b.N.v.N.a.g.v.B.v.a.p.a.y.a.a.u.p.a.p.i.a.a.v.a.y.s.s.*.f.k.p.i.r.i.p.y.a.f.^.vXSXLXcX3XHX!.) G G ! { { ^ m.m o ; x G ] 0Xu.%.%.%.%.%.).PXJXZXLX-X6.-.....` ` ;.&.-.-.*.@.*.&.-.&.@.&._ =.;.@.;.&.@.&.;.;...@.;._ _ _ _ _ ` ` _ _ _ ` ( ! R ! / _ _ ( ` ) _ ( _ _ ^ ) ) ^ ) R E G k.6.U ! m k.z.Y ! U U ( ` &.! E E ^ R ^ ^ ! E R R R R R G E E G R R j.FXNXsXf.v G G G R X.*.=.1 l d 1 f.N.G G G G G G N.PXAXPXjX@.E R R R R R E ( ( ( R ( E E R R R X...o.O.&...o.o.o.o.X.O.O._ { 1.*.+.5.5.5.*.D.5.*.*.o.O.5.q.0.q.9.*.X.1.1.q.0.9.9.*.*.1.p.j.j.p.0.0.q.0.q.q.1.o.{ X.p.c.x.w.9.x.0.&.o.&.*.j.0.=.&.o._ ) @.G.XX+Xg.o.rXNXq.l f m E o.) E *.9.",
"D.{.oXoXD.%.^ G G 1.cX.XD.1.1.D.u.r.} -.N.:X4X6X4X|.:X(..X_.M.~.}.}.[.UX] >.t.-.A g.qX4X4X6X6X4X5X5X5X5X,X9XzXfXdXdX9X9X6X9X:X-X[.4X6X6X6X6XdXdXdXqX6X5X4X;X;X:X-X4X4X:X4X:X,X5X9X-X>X).OX9X-X~.4X4X9X9X9X9X9XwXdXgXjXjXvXvXfXfX7XW.U.Q Y H #.2.f.D.y.E -   & f G %.{.G.D.t.2.1.{ y.cXJXCXFXCXGXtXq.+.X...r.v.N.b.d.g._.[.}.}.-X-X|.}.}.|.).}.}..X|..X.X.X$X[.).(.UX/.UXUXUXUXB.N.Z.I.~.^.UXM.M.~.~.I.T.M.~.(.I.M.n.a.=.i.k.n.B.a.s.y.1.y.i.a.y.a.a.i.y.z.a.a.a.0.-.$.a.1.y.s.p.i.i.a.a.N.(.-X7X7X(.aXsXQ.) G G ! { { ^ x.v . & d G J 0Xu.1.%.1.1.2. XZXDXZXKX(.` o.;._ ` _ ;.&.=.-.*.@.*.-.$.=.-.` _ n.` -.&.;.*.@.o.o.@...;..._ _ ( _ _ _ ` _ X.) ( ( C.! ` ` ! _ ) ` ( ! ) ) _ X.) E ) ^ R R U &.R ( C.U /.` R R ! ( ( I.( R R R R E E ! R ( ^ R R R ) ^ R R E G j.JXBXiX&.v m G b ( ( *.r.1 x x - {.).d H ^ J G ^ d.fXIXPXwX) ) R R E R ! ) ( ( R ! ( E ( ) ( ( X.......&.o.o.o.O.&.) o.o.{ +.*.9.*.$.+.5.5.+.9.*.+.$.o.*.5.0.9.9.+.*.O.q.q.p.0.0.0.1.q.9.0.1.0.p.j.9.w.q.1.1.+.) E j.x.D.e.1...9.&.O.*.0.z.9.&.*.&.o.{ %.g.A.d.@./ O.uXrXm G _ _ { &...O.9.",
"D.G.D.G.D.^ / G a.SX8Xd.d.t.g.D.a.{ ~ d.&X6X5X5X6X.X-XV.M.~.UXOXZ./.N./.{.UX-.J t.^.N.4X9X9X6X4X;X:X;X9X7X<X~.C.:XdXtX6X7X,X-X.X4XdX6XdXqXqXhXdXdXdX9X5X,X,X,X>X;X4X4X6X7X,X,X6X6X-X,X6X6X9X6X-X5X6X-X1X6X6X6X9X9XdXvXvXvXfX9XqX8Xc.U.8.W R { %.y.g.y.@.-   & / { 1.`.g.d.1.1.} y.cXHXCXSXCXAXAXCXtXx.+..._ =.N.N.Z.u./.[.[.}.oX}.|.[.}.[.[.|.}..X$X-X-X}.}.)././././.UXUXUXUXs.t.v.~.UX~.UXM.M.(.~.T.~.~.~.(.M.M.N.B.=.u.a.n.B.a.p.r.s.u.i.=.y.y.p.i.s.a.a.y.9.! f.s.1.r.i.s.s.r.r.j.f.z.D.T.(.D.D.'.uXQ.D.+.G ! _ { R R.E o & d G _ /.%.3.%.3.2.g.oXnXLXKX:X=.` ` _ ` ..@.@.-.-.6.-.#.&.*.=.*.@.-.C.j @.-.&.;.o.-.&.@.&.;...;.o.{ ) ) ;._ X._ ;.@._ ! ( ( ` ) _ ( ( _ ! ( _ _ { .._ ^ R R R G C.-.o.U ` U -.[.U ` ! ( C.r.&.U ^ R R R R ^ ! E R R R E ) E ^ E G G +.kX3XW.O.G G v G ^ _ p.f.1 d v w t.N.] G J J G / 2.h.(.6XD.) ( R ( R E ) ) ( E R ( ( ` ) ( ( ) ..........o.....@.O.{ o.O.o.+.*.*.5.$.+.5.9.+.5.9.$.+.{ $.9.9.9.9.1.q.5.1.9.0.0.j.j.0.q.0.9.1.q.j.j.q.e.q.1.&.o.{ ^ &.q.j.x.c.0.j.z.9.0.z.0.9.*.*.9.&.o.@.} ] H f m m 8.aX3XR ) X.&.&.&.9.0.",
"D.G.D.u.} { G D.vX8XD.d.t.{ G %.] x G f.b.D._.0XqX-Xb.{.} ] } F.F.).[.).F.v.OX_.fX,X).4X6X5X6X4X-X4X9X5XqX}.u V >XhX9X7X4XOX;X;X6XdXdXqXdXdXdXdX9XdXqX7X:X4X:X:X4X4X5X4X4X,X>X7X6X>X,X6X9X7X9XdX9X4X5X5X5X4X5X5X5XdXfXfXvXfX9X;XM.&.q.L.8.E ! _ 1.1.1.1.1 o + G G y.+X1.1.1.} y.lXLXZXZXZXAXZXAXVXGXlXl.X.....i.N.F._.[.&XG.G.oX}.}.UXB.UX|.}.}.-X-X-X$X$X|./.(./.[.[.(.UXUX/.UXUXUXn.UX~.UXZ.n.~.~.D.D.~.(.~.M.D.n.N.f.v.u.a.z.a.i.s.a.n.y.$.r.r.u.i.s.u.r.9.$.6.u.=.V.2.9.i.s.1.r.y.a.z.a.i.=.>.3.r.P.yX!.%X*.! _ _ ! T.E o $ d G H { %.t. X).d./.zXKXKX;Xr.) M ! M ~ / ;.o.-.=.*.-.6.-.-.-.6.-.&.V.6.;.-.@.&.;.;.;.&.&.;.;.-.@.o.;...;...` ( ( ..X.` ` ` ` .._ ! ` ) ` ) X.{ { X._ ) R E R ^ ( ( a.( ! ( M ~.&.C.C.! ( *.6.U R R R R R E ! R G E G ^ E E E E G G G W W.=Xe.W G R ^ E ^ $.9.2 s f t 3.M.~ ~ ! G ^ / 1.v.&X/.) ) R R R R E ` E ( R G ( R ( _ X...X.{ X...) _ X.O...O.&.o...&.o.+.*.*.*.$.+.*.5.5.5.0.9.O.@.$.*.5.6.*.5.9.5.6.6.q.j.j.l.j.j.j.0.0.e.w.0.*.q.1.{ ^ ..o.) X.q.w.q.c.9.+.0.j.0.1.j.x.z.9.*.&.o._ G m d q t f z q.mXrX( E { ..5.c.1.",
"D.G.D.%./ G 9.bX{.D.t.1.1.J G / 1./ G. X3.D.D.).}.2.~ G / _ g.:X{.b.-X~.}.Z.[.;Xr..X9X6X4X5X4X5X7X4X-X9X9XdXB.` >XqX7X9X,X,X9X4X6XqXdXdXdXdXdXdX9XtX6X5X<X4X6X6X9X5X4X5X4X9X9X7X9X9X5X6XdX7X9X6X6X9X4X5X9X;X;X9X5X5X9XqXwXqX+X/.t._ o.x.L.8.E E } u.u.) w o + G { ,._.1.%.| y.lXLXCXZXFXZXZXAXZXFXVXAXkXl.O.....1.D.F.~.|._.N.{.}.).UXB./.|.|.}.-X-X-X.X|.[.)./.).UXs././.UX/.UXUXUXUXUXa.B.Z.B.I.T.D.m.I.~.T.M.m.D.m.a.n.a.f.f.a.1.i.f.v.y.a.y.=.=.@.r.r.i.-.s.a.&.9.6.i.9.$.=.9.i.y.y.r.$._ _ ' ~ _ ! x.iXuX=X5.! @.! '.(   $ w G J 6XG.1.} y.~.zXKXLX}.=._ b x x b M ` ..&.-.6.-.6.-.6.-.=.-.&.-.;.@.;.@.&.@.o.;.&.@.o.;.@.&.*.o.o.....` ` ` ` ;.` ` ` ( ` _ _ _ ` ) ` ) { X.X.) ^ E R G R ) ` ` @.6.U ( ! o.i.U ` ( ..o...( R R R R R R R R G G E E E E G G G G G G 9.3XuXw.{ R R H G @.9.1 d c e 2.F.! ! ~ G 1.z.v.|.0.R ) R R Y R E ) ) R G R E E ( ! E { ....) ..E ) ) ..o.o.o.O.o.o...o.*.*.*.O.O.) +.9.1.9.j.q.9.O.+.*.&.) ..&.9.9.0.0.0.j.c.x.c.x.j.l.c.D.e.1.5.5.5.X.*.&.&.5.1.5.j.D.0.0.&.*.R.j.q.p.z.x.0.*.O.o.( G x t q w d z R 9.mXiXX.o.1.1.E.O.",
"u.y.G G G D.bX`.D.F.g.1.{ G d G } 2.D._.[.:X{.{ / } %.@._ ~ /.8X;X8X[.<X;X[.f / t.;X9X6X5X9X6X6X9X:X>XqX9X9XdX:X,X9X9X7X9X9X6X4X7XdXdXdXdXdXdXdXdX6X5X,X,X6X9X6X9X5X5X5X9X4X9X9XdX9X9X9XdXdX6X6X9X9X,X4X5X,X;X,X<X4X6X6X5X<X`.b.%.J ~ { c.L.8.E H 1.u.G 1 . @ G ] 1.1.$.@.r.lXHXNXSXZXCXZXAXAXAXVXAXVXmXtXl.+.+.{ 1.v.D./.^.N./.}././.}.}.|.}.|.-X>X.X}.[.[./.[.[.(.(.UXUX/./././.UXUX).~.s.B.s.~.M.M.m.M.~.D.D.m.m.M.p.f.f.f.y.y.r.u.v.v.z.a.i.@.-.>.v.=./ =.s.r.6.V.r.r.i.$.=.s.i.r.9.&._ _ / / ] / ' b j.aXaXrX5.....n.R   $ d G G IXXX1.1.F.zXKXLX[.@./ b f x f v A ^ _ o.-.5.-.-.6.6.-.6.&.;.&.;.-.@.@.&.@.-.&.&.&.&.;.&.-.@.@.@.@.../ ` ( ..;.o.` ( X._ X.) { o._ ) ( _ ) ) _ ^ ( ^ R ) _ _ _ ( p.o.! ( ! =...` ..o.) ( ! R R E G Y R E R E E _ E G E G T G G l G G X.rXaXe.) G ) G 1.1.1 s v e g.G.H / ~ %.N.D.2X9.z R G m R M R R ( ) E z E _ ) ) E E X.) ) E { ^ ) ....X...) ..o.o.O.&.+.$.$.{ $.{ *.9.5.9.9.q.0.1.+.$.) R R o.7.O.0.9.0.j.x.x.z.x.w.j.x.x.z.5.1.1.9.O.1.0.0.+.1.q.9.0.9.0.1.O.p.j.0.0.5.x.x.6.&.o.R m f y w 0 8 t s n 8.MXpX+.1.w.D.O.",
"y.{ G G D.cX1X%.] } %.%.J %.r./ H 2.1.%.(.D.#.@.r.t.} ! / ~ N.6X-X-X:Xb.M.)._.b.~ g.9X5X5X4X6X6X9X,X5XqX9XdX9XdXdXqX7X9X6X6X4X9XdXtX6XdXtXdXdXdX6X6X4X,X,X7XdX9X6X,X4X5X4X6X9X9X9X6X9X6X6X9XdX9X6X6X4X-XXX`.:X<X4X1X5X1X,X;X;X_.N.2.{ ! 1.x.E.8.E / ] R 9 o @ G ] #.1.{ y.lXJXCXFXSXCXCXZXVXAXnXnXnXVXbXAXrXw.+.+.X.o.a.N.g.N.D.[.}.|.}.}.[.[.|.$X}.}.[././.).'.).|.[.(.UX/.UX).(.UXUX)./.n.B.s.a.$.M.N.M.~.I.M.v.N.M.u.y.v.j.y.9.y.z.v.a.f.i.=.=.$._ a.( ! i.r.V.V.9.r.r.r.s.a.s.s.y.=.#.@._ / / _ ' } } c 9.rXMX*X0...v.n o $ w G J xX^.1.D.cXKXJX{.u.@.b c x b b b C.` ;.;.&.=.6.6.-.6.=.-.&.-.&.&.;.o.&.@.5.6.&.-.-.-.&.&.&.@...&.@......._ ;.;.;...` ` ` ` _ ) _ ..( ! _ _ _ _ ) E R ^ / ...._ ..&.(.( ) ) ` p.X.;...( ! ( ) R R R m R ! E G ^ G E E G G G G k G G G G G rXsXY.{ ^ { ) E 2 d v c H g.] / %.v.].T.p.E R m G G Y R R ! ) ) E E _ X.) { ( _ X.{ X.) { ) { ..o.../ ( ) o.&.O.O.+.*.+.+.O.+.O.*.5.9.q.q.9.9.5.@...o.*.*.9.*.&.5.6.6.p.j.j.c.c.c.w.j.c.&.1.9.q.5.+.9.j.@...&.0.&.*.9.O.9.$.p.j.f.j.9.k.i.*.o.` G c s d d 2 t w d v 8.NX3XE 1.x.1.",
"} J G  X0X`.D.} G  .1.1.@.} 3.} 1.2.3.@.y.;Xt./ u.(.} } / 2.[.;X-Xr.F.5X6X{.}.| ~ ~.6X5X6X5X6X6X9X9X9XqXqXdXqXqX6XqXdXdXdXdXdXdX6XdXdXdXdXtX9X9X6X6X7X4X4X5X6X6X6X<X-X,X4X4X4X6X9X4X,X9X9X4X9X9X9X9X9X4X4X4X4X4X4X:X}..X}.;X;X^.d.t.#.1.t.a.m.P.q.E _ / w X + G H } %.1.lXLXVXZXZXZXAXVXAXnXnXIXzXIXnXnXVXCX3Xq.8.X.o.o.=.d.d.M.UX|.[.|.|.|.[.}.-X|.|.|.).[.[.[.).[.'./.UX/.(.UX/.UXUX(./.UXB.s.s.9.N.m.b.T.D.b.a.v.v.n.m.f.a.y.=.y.v.v.a.s.9.=.i.$.{ @.C.) 6.9.i.p.9.r.s.9.r.r.r.y.=.=.=.&.~ / } ~ / | { / b 0.aXBX3Xq.i.x . X f b _ ;Xd.D.bXLXAX[.2.2.] b v v b G H _ ;.&.@.&.-.6.-.6.*.6.-.&.&.&.;.&.&.@.@.-.-.&.-.&.-.@.o.o.@.;.o._ ` ..;.o.o.;.;.....) ` ` ) ...._ ( ` ) ) ) ) ) ( ( ( ..) ` X.@.) y._ ( ) ( =.i.....` ( ( ^ E R R R R ) E E E ^ R G E G G G s G k G G G E 3XsXY.E / o.@.0 d v d f.d.@.r.M.>Xz...U G R U U U U R R E ) ) ) ( ) o.) ) E X.{ E ) ) X.X._ o.{ { E E ) ) X.+.&.+.$.*.O.+.{ O.*.q.q.9.0.q.1.5.+.o...o.5.9.9.5.=.$.*.5.p.0.p.j.x.c.w.j.1.) *.z.j.1.E E ^ ) 9.w.9.1.0.+.{ 9.W.D.5.9.&.5.6.=...) ! G v x d y d w 0 d m +.MX3XG 9.+.",
"{ G D.-X%.D.$./ G G 1.%.1.$.{ J 2.d.1.{ _ %.#.t.v H } | J {.<X_.[.~.2.v.:XF.%.%.F.qX4X5X5X5X5XdX6XqX6XqXdXdXdXdXdXqXdXhXdXdXdXdXdXdX6X6XdXdXdX9X,X}.-X,X4X4X4X6X6X5X,X4X9X4X,X9X,X9X9X6X9X6X9X4X,X<X,X4X7X7X4X4X<X-XG.N.^.`._.^.g.%.1.u.a.g.t.p.E.w.E R y X @ G H G 2.zXVXgXCXAXVXZXAXnXnXnXnXcXzXVXVXnXxXIXVX2Xw.9.O.X.@.r.h.F.UX/.[.[.}.[./.}.|.[.|.[.).[.[.)./.[.[./.UX(././.(.UXUX/./.UXZ.B.M.M.m.N.m.D.M.n.a.f.v.I.D.z.y.r.=.y.a.z.a.=.=.$.r.r.*.@.@._ -.=.V.r.9.r.=.i.i.=.1.=.1.9.-.&._ _ / / ~ / ~ J _ ! W =XBXuXc.z o $ f ~ } 2.D.cXKXVXN.%.} Z b v v M ! ^ { o.;.-.&.-.5.-.&.-.-.-.-.o.@.&.&.&.&.;.&.&.@.-.&.-.&.;.;.@.&.o.;.` _ ..o.@.o.;.o.;...) ( ) .._ _ ` ) ( ) ) ` _ ) ) / ` ) X.` ` ....R ( ` ` ( ( ....) ( ! ( E E ( E E R ) ^ ) R E R E G G G G G k G G G G G G *XsXw...} @.2 d G G 1.r.=.=.&X2XU M ! M G M R R U R R E ) ) ) ( _ o.) ) _ X._ ) { _ ..{ ..{ X._ ) ^ ^ ) X.X.) ) *.+.$.$.{ O.5.q.9.1.j.q.1.5.*...O.o.9.6.q.6.6.&.5.6.9.5.9.p.x.x.c.0.9.*.) 9.p.o.{ ^ E X.x.w.0.w.0.1.o.q.D.w.q.6.&.o.o.o._ .._ E G m n l d e q w d m q.MX*XR { ",
"G D.vXD.D./ 3./ G G G } } } { 1.t.2.1.%.} &.g.r.@.%.~ %./ a._.[.<X(.r.2.u./.OX_.4X<X6X5X5X6X6X6XqXqXdXdXdXfX:X;XgXqXdXhXdXfXdXfXdXqX4XqXdXdX9X9X-Xn.A.-X:X4X4X7X9X6X:X4X9X4X,X4X4X4X6X9X6XdX6X-X-X,X:X<X5X4X5X4X<XOX_.M.b._.`. XF.2.} 1.2.%.=.y.0.c.q.E y . @ G G 1.jXLXcXVXnXnXAXVXnXVXnXIXjXcXnXnXIXxXjXzXVXAXtXw.q.8.o.@.y.v.UXUX[.[.).UX)./.|.[.[./.[.[.[./.(.[.[./.(.UX).UXUXUXUXUXUXUXZ.B.g.z.N.f.N.m.M.f.a.n.f.b.m.f.r.1.=.a.a.a.y.s.s.1.i.u.9.$.@.;.o.-.=.-.6.a.r.r.i.6.1.9.i.=.$.@.@._ / ! ! J H ! H ' %.O.=XHXaXz . ; f ~ -.T.cXKXVXM.} / M b v b G ~ ` o.@.@.&.5.@.&.=.@.-.-.=.5.*.@.;.&.6.-.&.;.O.&.@.-.-.5.&...;.;.o.@.@.....;.@.@.&.@.o..._ ` ` ) _ ) _ ) _ _ _ ) ) X.` ) ( ( ( ` ` ` _ _ ) E ( ` ( ) ) ) ` ( ( C.o._ ^ R ) E ) R ) R ^ E E G G G G G z G G k G G R G W.lXx.R _ y d G G ' a.v.[.'.R m M U U R M U R E E ( ) ) ) ) ) ) ) ) X.{ _ X.) { ......) ) ..) ..) E ) ) +.&.+.O.+.*.+.+.8.5.1.p.q.j.0.*.$.@.o.o.O.5.q.6.6.6.*.6.$.6.*.9.9.l.x.w.j.9.q.z.p.@.o.o...*.D.j.c.x.z.0.0.j.j.1.j.p.*.=.o._ o...o.o.o.) R M n s y w t v G *.8.2XR.G ",
"D.8XD.D.J G { { G J ' { } $.} D.t./ #.%.} b.(.oX4Xb.=.=.} #.-X<X1X:Xb.t.,.~.wXqX4X}.r.5X5X5X5X6XqXqXdXdXdXfX-X.XqXqXdXgXfXgXdXdXdXdXdXdXdXtXdX7X|.UXUX[.:X5X4XdXqX6X7X6X4X4X4X4X9X9X6X9X9X6X,XOXXX,X;X1X4X9X4X4X;X_.G.G.N._.}.`.D.2.%.| @.#.2.u.1.9.&X].w . + G g [.JXVXZXPXxXvXbXAXnXnXIXIXcXjXcXjXzXzXnXcXxXxXcX7Xl.8.5.+.$.0.B.UX).).UXUX/./.).[.[./.[.|.[.UX[.}.[./.(.UX[.UXUXUXUXUXUXUXB.s.f.n.d.n.n.N.n.a.f.N.a.n.N.a.u.=.$.f.s.s.a.y.y.y.a.z.y.=.@.o.-.o.&.V.-.r.i.1.1.=.=.1.6.=.=.$.=.@.{ _ { / H ! H { } @.+.iXNXY o ; f ~ N.AXKXVXb.%.~ H M M M A ! _ o.@.&.$.-.-.&.@.-.&.-.5.-.-.&.@.&.-.-.-.&.;.;.-.@.-.5.-.@.;.O.;.&.;.o.;...o.-.@.@.o.@.;...` ` ) ) .._ _ X.X.) ) _ ) ) ` ( ( ` ` ` ( ` ) ) ( ) ) ) ` ) ( E ( ` U 9.$.G ) ) ) E ) R R G ^ E E E G G G G G G G G G G G G c.lX%X) 0 d G H / ^.<X&X( v n b U ! ( R R R R R ) ..) X.X.) ) ) X.{ X.X.) E E { X.....) X...) / E ) E X.&.O.+.{ *.*.*.5.1.q.q.j.0.0.*.+.+.&.O.o.*.0.0.6.o.5.i.9.5.9.*.*.j.m.c.0.9.w.j.j.+.*.o.&.1.w.q.9.z.j.q.w.0.5.5.j.z.&.$.O.o.o.&.O.o...) ) E G v x s d l f s v m lXx.",
"D.vXy.{ G G G G G G %.%.%.1.1.3.D.D.%.} y.f.D.f.;X`.y.f._.^.[.;X<X5X:XD.^.~.oX7X5X-X^.5X4X5XqX6X6XqXdXqXdXdXfX<X7XdXdXfXdXqXqXdXfXdXdXdXdXqXdX6X).[.:X-X}.-X5X6XqXqX9X9X9X5X,X5X6X9X6X9X9X5X;X{.[..X4X4X5X4X4X,X:X{.Z.A.UX[.;X.X~.d.t.t.>.>.B.Z.a.-.I.tX7 X ; c f [.LXJXZXnXAXzXVXVXIXxXIXIXxXcXxXcXxXxXnXIXVXVX,X1XiXL.7.O.o.*.s.v.b.~.F.u.M.).^.[.}.[./.}.[.~.|.[.).'./.(.[.F.^.b.s.M.M.n.k.=.y.N.v.v.N.N.f.y.M.M.a.m.v.u.r.1.%.1.1.2.a.s.s.s.z.a.p.9.&.@.@.@.=.s.r.=.-.=.=.=.=.=.=.*.@.-.-.=.@.] @.;./ ! ^ ] / ] ~ 6.NXW   $ e J D.KXvXn.-.~ A b M G ! ! { @.o.-.6.-.6.-.-.&.&.*.6.6.-.*.-.@.-.&.-.&.;.o.&.@.-.@.-.&.;.] o.o.o.@.;.o...;.o.@.o.;.;...) ) ` ) _ _ ) _ _ ...._ _ ) ^ E ) ) ) ( ( ( ( ` ) ) ) ( ( ) ) E E ! ! ( R R ) E ! ( E ! U M U ( ( ( ) ( R ^ E E G G m n m M ! R *.BX(.& d v G ] cXD.#.! b M G U ! ! ( ( R R ) ) ) ) X.) ) X.) X.X._ ) ) ( ( _ ) ) ) _ X.{ X._ E ( ( X.....o.O.1.5.5.5.1.0.p.0.0.0.1.5.+.{ O.$.O.1.9.1.+.5.9.q.5.O.O.9.j.x.D.w.q.x.0.9.p.*.o.0.z.0.7.9.q.1.q.j.q.9.9.0.0.*.*.-.o.@.5.*.*.o.5.o.) ..E m l d s d d w t R.'.",
"$.D.3.} %.,.G G G G G  . .%.1.2.1.D.D.D.$.} 1.D.^.8X8X4X8X,X+X;X1X<X4X1X6X5X}.:X5XOX8X8X5X,XN.OX5X9XqXdXdXdXdXfXfXfXdXdXdXdXdXhXfXdXhXdXdXqXtX6X:X-X;XOX~.~.5XdX9XqXqX4X<X5X;X4X5X5X4X5X4X<X-X}._.[.-X:X4X:X.X;X+X).Z.Z.[.>X,X;X-X~.Z.Z.N.N.Z.).^.V.(.tX- X ; B b _.LXwXH g.SXIXVXVXbXzXxXnXnXnXnXIXxXIXnXVXVXVXcX1XAXdXE.8.O...&.u.a.N.M.g.M._.[./.[.{.v.b.[. X[.[. X[.[./.^.I.r.o.s.f.N.N.v.a.v.z.z.a.z.a.&.u.g.a.s.z.f.y.r.%.=.t.u.r.s.a.p.a.a.p.y.1.#.&.%.-.u.k.i.&.=.=.*.&.-.=.=.-.*.-.*.9.=.&.-.-.@._ ] @.#.=.] i.NXR o ; q v N.KX>X=.~ b b M G ( _ o.@.@.@.-.-.6.6.-.-.*.-.-.-.=.*.*.*.o.&.@.o.@.*.@.@.@.&.@.&.o.;...;.;.o.;.;.;.;.;.;...o.;...` ) ) ` ( ) ` ` ) ..) _ ..X.) _ E ^ _ ( R ! ! ! ( ) ( ) ) ( ^ ^ ^ ( ! E ` ( ` ` R U E R R m m ! ( ` ( E ) ) ) R G G G G m m v R ` m iX&X& d t G { cXa.| 1.] _ x M ! ( ! E E ) ) ( ) ) ` ) ) ) ) ) ) ) E ) ) E E _ { X.X.o.) ) ..) ( ) ( R R X.*.O.O.5.O.5.0.p.0.0.5.1.5.5.+.*.O.O.5.5.5.9.1.q.9.9.9.*.0.p.c.x.x.j.D.x.w.9.9.9.9.0.p.*.O.6.c.E.x.w.9.q.9.0.&.*.o.&.-.5.6.6.*.q.0.5.X...( G v y e 2 w m 1.E ",
"f.t.d.} } ,.G G G G J } 2.y.1.2.1.} } ' { 1.f.2.D.oX8X+XoX+X8X8X:X<X<X,X_.OX;X1XqX/. X6X,Xu./ =.:X6X6XdXfXdXdXdXfXdXdXfXdXhXfXfXfXdXdXdXdXqX6X5X4X-X<X:X[.[.;X4X6XqX9X4X-X.X.X-X4X-X;X5X,X,X:X;X;X.X}..X[..X`.OX.XUXUX`..X:X4X;X4X.X~.[..X.X).Z.Z.B.I.7X= X + p x ^.JXZ.} gXZXVXVXVXnXxXjXIXVXIXxXnXIXnXnXVXAXVXIXcXVXcXzXW.8.+.X.O.9.t.g.Z.F.(.[./.[.~.M.~.[.}./.[.[. X[.[.[.~.r.=.u.r.a.v.M.N.v.p.a.d.a.{ #.u.r.d.=.u.a.t.1.=.=.1.=.u.f.a.s.s.y.y.r.=.*.-.1.y.b.t.g.=.o.-.-.@._ *.$.$.&.-.6.i.i.=.6.6.6.$.-.&.#.#.! j.BXR   ; q s N.KX|.) C.M C.! / _ @.@.@.&.&.@.-.6.6.5.-.-.6.-.-.6.-.=.-.&.-.@.@.-.*.@.@.@.@.&.&.;.o...;.;.;.o.@....._ ) ) ..;...` ` ( ( ` ` _ ) X._ o.) ) _ E ` ) ) ) ( R U U R R ( ) ) ` E ^ ) E ( ( ( ( ) ` ( ) R Y R M n Y ! ( ) ( ` ) E ) ) ^ R G G G G R ! ! n rX].- e e G { cXf.H J } _ x U R ! ( R ( ( ) ) ) ) ) ) ) ) ) ) ) ) ` ) ) ) ) o.X.) X.o.o.) ) ) ) R ! R R o.6.*.5.*.O.q.0.0.q.q.q.+.9.1.*.*.*.$.+.*.1.5.1.5.1.9.9.0.p.w.0.x.x.L.x.x.x.0.O.*.0.5.O.&.....1.p.c.j.0.w.0.1.*.@.o.*.r.&.6.0.0.0.9.9.*.) ) ! m c d d d m m z ",
"f.D.{ %.{ h G G G J G %.y.y.%.1.1.1.$./ J 1.t.D.1.f.oXN.;X4X;X8X,X:X:X<X^.<X6X5XqX6X6XqX4X/.4Xv.2.5X0XqX9XqXfXfXfXfXdXhXfXdXfXgXhXdXqXqXdX5X4X<XoX}.:X-X^.~.[.;X5X6X9X5X,X-X.XOX;X~..X4X,X4X,X:X4X;X[.{.-X-X/.)..X.X[.[.-X,X4X4X,X4X.X;X:X>X-XZ.Z.v.I.tX- O ; p g (.GXxXAXZXVXAXVXbXIXxXxXcXnXnXnXxXcXxXAXAXAXAXIXjXxX6XAXmXR.8.X.) o.@.s.b.Z.^. X/.[.^./._. X{./. X[. X[.|.[.^.M.u.r.i.a.v.k.u.y.t.t.u.2.} t.t.3.u.%.} u.%.2.%.@.@.$.s.r.s.i.=.=.9.1.=.1.r.$.i.g.N.t.@.! *.*.@.{ @.$.&.-.-.V.s.i.V.V.V.6.=.-.#.&.@.} k.lXR o ; 2 f N.KXoX*.` C.! ) @.@.*.*.*.$.*.-.*.-.=.=.=.-.-.o.*.-.=.=.=.-.5.-.5.-.-.@.&.&.@.&.o.@.@.@...@.o.&.o.@...` _ ` ` ` ..;.` ( ` ` ` _ ) ` ` ) ) ` ) ) _ ) X.) ^ R U M U U ! ` ) E ^ ^ ! E C.( ! ( ! ` ( R R M R R C.( ( ( ( E ) ) ) ) ^ E E E E G ! ( ! ! z iX|.$ 2 2 d @.GXT.y v U U U R E ( ) ( ( E ( E E ) E ` ) ) ) ) ) ) ) ) ) ` X.) { ) _ ) X.o.) X...( R R R X.&.9.5.*.5.1.0.q.9.5.5.1.q.O.+.*.*.+.5.$.+.5.1.q.0.0.9.0.x.j.j.x.c.E.x.x.x.z.9.9.z.0.l.0.` ! G +.1.0.j.j.c.9.6.*.*.=.i.8.5.6.0.w.0.q.5.o.o.{ ( G x v R v v ..",
"y.G.,.%.G.>.} J J 1.y.} f.u.t.y.1.1.1.D.J $.%.D.u.M.-X-X8X4X4X8X:X<X<XF.r._.:X|.}.5X6X6X6X5X:Xb.b.4X9XdXqXqXfXfXfXdXdXdXfXqXdXdXdXdXqX9X9X4X<X;XoX<X:X X/./.t.}.4X6X6X7X4X4X5X5X4X.X:X/.).OX<X;X;X:X-X~./.UXZ.B.M./.Z.^.-X<X9X<X,X4X,X,X,X4X.XZ.M.N.n.3X7 X ; x v ^.JXVXVXVXAXAXVXbXxXxXIXbXIXxXcXIXxXnXAXAXAXAXnXnXVXIXVXLXCXI.8.+.) E O.u.v.F.~.).[. X(.~./.{.[.[.[. X[.[. X~.b.2.r.u.=.a.u.s.>.u.g.t.%.d.d.t.t.%.h.@.t.#.2.t.u._ u.a.t.2.1.=.=.=.=.9.r.y.9.r.u.=.~ v ! o.o.@.o.@.{ o.&.-.9.s.i.r.r.r.r.=.=.-.-.-.-.z.mXl X ; 0 d v.KX>Xr...! ` ..&.-.-.*.=.-.-.-.&.*.-.=.V.=.-.&.*.-.-.=.=.6.6.-.-.-.-.&.*.@.&.&.&.*.@.o.&.;._ o.@.&.@.` ` ! ` ` ( ) ` ` ` R ` ` ( C.( ( ( ( ) ^ ) _ _ ) ) R m U M R ( ( ( ( E R ! R ! ( ! ( ) ( ! U U Y R E ( E E E ( R E _ ) ) ) ^ ! R ( _ ^ ! R ! x iX[.$ 1 2 d @.JXm.z R ) ( E E E ) ) ) ( ( ( ) ) E R ! ^ ! ( ( ) ) X.) ( ) ) ) ) ) ..) o.o._ X.) ..( R ) ) { +.*.*.+.q.0.0.0.9.5.5.6.O.+.O.{ O.9.9.$.$.*.5.1.q.0.w.x.0.0.c.x.E.x.x.c.j.0.q.0.c.P.i.+.` _ o.&.o.1.0.w.j.9.O._ &.0.0.j.j.0.c.l.p.1.O.O.O.&._ G ( { R ) E ",
"%.1.y.D.{.1.{ 1.@.@.D.2.h.1.1.1.%.}  .{ _ $.f.D.2._.oX;X;XOX4X5XZ.Z.}.=.~ v.v.t.D.1X7X6X0X6X1X9X<X-X9XtXqX,X1XfXdXfXqXqXdXfXfXfXdXdXqX6X6X4X4X.X4X>X-X:X[..XM.Z.<X7X5X4X4X5X4X9X4X4X;X.X^.-X<X;X;X,X:XZ.Z.Z.N.^.Z.N.UX}.;X,X<X<X,X,X;X9X,X9X-XZ.g.M.m.tX7 X $ y b ~.PXVXAXAXAXVXAXNXxXIXbXxXxXjXvXzXxXVXVXAXAXAXVXVXVXVXZX4XlXmX#X0.X.) o.=.g.g.UXZ.[. X X~.M. X X).'.[._._./.~.v.s.a.v.@.v.t.>.%.d.2.g.%.3.2.%.| | 2.%.M.%./ b.a.H 1.g.a.=.1.1.=.@.=.u.r.d.y.$.=.M y n ! o.} o.@.$.{ @.@.=.9.V.9.i.6.r.r.6.9.=.=.>.r.n.NXT X ; q e v.KX$Xi.=.*.&.-.-.-.-.-.-.*.5.-.-.-.9.6.9.=.=.-.=.-.=.*.V.9.V.6.6.-.-.@.@.@.-.#.&.@.&.@.@._ _ _ ..@.&._ X.` ) ( ` ` ( ` ( ` ( ( ! ( C.( ! ( E R E ) ( ) E G M M U ! ! ( ( ( ! R R ! ( ! ! ! ( ! R R U M M E ) ) ^ ^ ( ( ^ ^ _ E E ^ R R ! ! ( ! R ! x pX|.$ 2 1 w 1.GXf.G ( ( E ( ( ) ) ) ) ) X.X.) ( ! ! E R R E ( ) X.) o.) ) ) ) ) ( / ` o...o.X...) ( ) +.+.$.+.5.5.+.*.*.9.9.1.*.5.5.&.$.+.+.O.*.9.5.5.5.q.9.5.9.9.9.9.w.n.j.c.P.l.0.y.9.j.E.j.x.7.&..._ { @.o.0.j.c.z.p.9.o.O.=.p.c.x.x.x.x.p.O.1.9.o.o.&._ 1.9.y p.w.",
"} } } } $.3.G ' g.g.D.D.^.D.t.} %.} $.{ 1.y.D.2.N.-X[.^.:X:XoX:X-X|.>Xt./ Z.Z.=.(.6X6XdXdX6X6XZ.b.<XdX4XOX9XqXfXfXfX9XdX9XdXdXdXdXqX9X7X6X4X<X[.).}.[.~.n.}.}.^.4X4X4X4X4X9X6X4X.X:X-X:X/.^.+X-X)..X-X/.Z.Z.UX[.Z.Z.}.}.-X.X{.;X,X-X,X4X4X9X;XZ.d.b.n.2X7 X X x H ~.DXbXAXVXAXVXAXbXcX6XcXxXxXcXeXjXxXVXAXAXAXCXAXAXVXVXZXqX<XDXNX&Xw.X.o.o.-.2.b.b.F.).G.G.b.D./.^.~././.(.~.M.a.s.a.=.v.s.2.%./ 2.>.%.2.@.d.%.%.2.2.%.t.%.@./ J %.2.2.=.} #.2.@.} r.s.M.F.=.$...E R ! ` _ { @.*.=.$.&.*.=.=.=.r.9.r.6.=.r.1.=.#.@.;.n.ZXY o ; 0 d n.KX[.=.a.i.6.V.6.=.=.-.*.6.6.-.-.6.r.6.6.V.6.=.6.=.=.6.6.V.V.6.-.V.-.@.o.@.&.-.@.#.@.&.;._ _ } ..@.&._ ;.;...) ` ! ` ( ` ` ( ( ! ( ( C.C.U G ! R ^ E ) _ E M R E ) ) ( ( ( R R ! ! ! R R ! ! ( R R R R R ) ) E E ^ ) ) ) ) ) ^ ^ ^ ) ) E R R ! U R l 3X X; 2 1 e @.JXp.R W ( ( ( ) X.) ) o...) ..R U ( ( E ^ E E _ ) ) ) X.o...) ..) ) ( ( ) X.o.o..._ ) ..o.o.+.*.*.*.*.*.5.0.9.O.5.6.&.5.O.+.O.$.5.5.5.5.9.5.9.O.*.*.$.*.p.z.c.p.L.0.9.0.j.E.W.l.L.j.5.&.X.{ o.o.0.c.c.y.0.p.9.&.0.p.x.x.l.0.p.9.O.*.9.9.&.1.9.X...m.iX0.",
"/ D.%.{ } %.G { a.`.oX`._.D.g.} %.1.D.%.G.oXD.D.-X;X;XoX;X:X;X^.:X4X:X4XUX XM.>.:X4X6XdXdX6XtX-X<XqXhXfX5XdXfXfXfXfX9X9XqXdXdXdXdXdXqX5X,X-X}..X[.Z.g.u.N.N.~.;XqX4X:X,X5X5X5X.X.X:X.X_.[.F.~.{.~..X:X>X).~.).[.~.^.:X`.[.{./.`.;X-X{..X,X:XXXM.u.Z.m.$X- + @ x v UXPXVXVXAXAXAXnXnXxX<X-XbXcXjXzXIXnXIXVXCXCXAXCXZXAXAXAXAXVXAXvX7X&Xq.o.o.o.&.3.g.Z./.F.F.N.g.~.UXB.Z.F.b.M.v.u.u.t.%.g.%.] | / 3.g.>.,.| u.>.%.2.2./ u.t.t.t.1.u.2.%.1.%.%.=.=.g.a.N.}.(._ 6.( U U R ( ..@.%.r.r.1.9.=.*...*.=.=.i.r.=.9.=.=.*.@._ -.lXY X ; 1 d z.KX|.=.6.i.r.r.6.6.=.*.&.-.-.-.6.V.V.=.=.r.=.6.6.=.-.6.6.=.V.6.-.5.5.@.;.@.-.@.@.&.*.*.@.;..._ @.-.-.;.;.;._ _ ` R ) ` ) R U C.C.( ( ! U ! H ( R E ^ _ ) ) R ! ( ` E ! U ! ! R R ^ ( ( ( E ( ! E ! E ( E ` ) ( ) ) ) _ E ) ^ E ) X.) _ _ ( E R R ! m 2X(.. 1 4 2 #.GXf.E X.X.( ) ) ) ) ) X.X.) ) ! R R ( ( ^ R ! ) ) ) _ _ _ ..) _ ) ) ( ! ) ..) ....X.X...$.O.+.*.*.5.*.9.O.9.9.9.*.O.o.o.*.1.O.O.5.*.+.5.5.1.9.5.o.&.O.O.&.0.L.L.x.9.9.j.I.P.E.R.I.L.l.5.o.o.*.9.9.x.x.j.x.x.p.9.s.l.x.x.j.c.0.9.*.&.*.9.1.O.1.w.j.T.m.o.",
"} D. .2.1.G G { } 3.D.{. Xg.] { r.v.F.Z.v.}.-X.X:XOX-X;X}.<X1X:X>XB.t.4X<X~.UX}.7X<X0XqXfX0X0X0XdXgXjXvXgXdXhXhXgXfX9X6XqX5X9X4X9X9XfX9X<X.X.X:X:XM.>.t.a.b.[.qX7XqX4X,X5X5X4X[.}.;X1X/.}.[.~.[.^..X4X;X}.{.-X}..X-X.X.X[.Z.Z.)..X;X_..X;X+X[.h.d.u.b.3X- + ; c b Z.DXVXVXVXVXVXnXIXjXjX;XOXgXcXIXnXnXVXCXAXAXDXAXAXAXCXVXVXVXAXNXbXVX].0.&.X.{ @.r.Z.G.v.d.b.b.Z.v.r.r.t.%.t.u.r.u.2.t.>.#.} } _ d.3.t.g._ t.g.%.,.2.%.g.r.%.r.3.2.t.%.^ _ >.2.a.g.u.b.$.( 1.o.E G G R _ o.{ *.r.s.2.=.=.&....._ @.r.=.=.=.=.-.&.#.} '.mXz X ; 2 u N.KX}.9.a.p.p.i.V.-.-.@.@.&.@.*.=.6.=.=.=.9.V.V.9.=.=.=.*.-.6.=.-.-.*.@.@.#.&.;.&.-.-.&.;._ ;.;.o.V.-._ ;.;.;.;.` ( ) ` ( ( U ! ! C.C.! C.U ( ! ! R E ) ) ) ( R ^ ^ ! ! ! ! ^ R E ) ) ) _ E ^ E R ^ ) E ) E ( ) E ) E ( _ ) ) E ( _ _ _ ) E ( ! R ( m 2X(.X 1 4 1 ] SXp.) X.o.X.) ) E E ^ ) ) ) ) ^ ! E ^ E ^ E E _ ) R ^ ) ) ) ) ) ) _ ( U ! ....` X..._ ..{ *.O.*.O.*.*.*.*.q.5.5.*.&.O...9.9.O.O.O.*.+.9.5.5.9.&.o.O.5.w.9.c.P.P.x.9.9.L.I.W.W.W.I.L.l.p.9.o.1.0.0.p.j.x.P.x.x.p.0.x.c.j.c.p.9.&.o.O.o.) &.9.j.T.m.m.].T.",
"$.1.3.D.} 3.D. .{ G D. XG.2.y.D.g.N.N.u.^.;X<X-X8X-XoX_.v.F.-XoX|.>.] [.,X4X5XtX0X-X7XhX4X:X4X5XdXvXvXjXjXhXfXdXfXhXdXqX5X5X4X5X4XtXdX5X4X9X,X;X[.{.}.g.b.{.6XdX.XB.[.,X,X5X-X{.;X.X~.[.;X-X^.}.[.:X,X}.{.-X.X{.-X.X[.[.[.~.UX[.{.~._.:X-X{._.b.r.=.v.tX7 X + x ~ UXZXnXVXVXVXxXIX9X9X9XwX@XgXxXAXVXAXAXCXCXCXAXAXAXAXAXAXCXAXAXCXCXFXxX&Xx.+._ o.$.g.a.t.r.2.d.d.>.,.#.@.#.#.2.t.u.u.>.t.t.u.>.,.a.3.d.t.,.g.3.2.%.%.%.| t.2.,.%.} t.#./ ,.g.g.u.g.M.O.R ` o.) R R R R ` _ $.1.9.y.r.9.=.=.&.@.@.*.=.=.=.=.6.-.&.} / m.NXn X ; 2 q v.KX-XB.n.a.a.i.6.-.@.@.@.@.;.@.=.6.6.-.V.9.s.i.V.V.6.6.-.=.=.*.=.-.*.@.@.&.&.*.6.-.5.@._ ..o.;.;.-.@.V.` ..&..._ ` ` ` ) ( C.! C.! ! ! C.U ( R ( E ( _ ) _ ( R ! E R R U ! E E ) ) X.) ) ) R ) ) R ) ) { ) _ E ^ ^ ( ( X.) ) ) ( ( ) ) ^ ( ! ( ! ( U $Xx.X 1 1 2 { SXp.E ) ) ) ) ) ) E ) ) ) ) E ^ R ^ E G R E ) ) ^ E ^ E ! ( ! ) ( ` ( ! ( ) &.X._ _ X.o.+.{ O.*.O.&.*.&.+.1.5.O.7.O.5.0.9.q.5.O.O.$.*.9.9.9.5.X.E ! 9.j.c.x.L.P.x.0.p.x.I.I.W.'.P.L.j.c.L.0.9.9.p.p.j.x.x.I.x.j.p.j.&.9.p.) _ o.@.{ { { { O._ 0.w.9.E.c.",
"$./ } 1.G } D./ G G D.D.D.F.G.D.b.t.b.Z.d._.,X:X-X+X{.v.! =.D.a.s.a.i.M.-X4X5XgXdX}.<XvX&XOXiXfXgXvXzXkXjXjXgXfXdX,X,X<X4X9XqXfXfX4X4X<X,X9X9X7X:X}.4X;X4X6X9XfX:Xv.v./.-X+X).;X.XOX/.r.[..X^.-X:X6X:X-X-X{./.[..X:X:X.X).^./.^.^.N.b.}.-X{.G.g.>./.(.$X7 X $ y x /.AXVXAXAXcXjXjXIXzXzXfXjXzXIXNXAXAXZXCXZXAXAXZXAXAXAXVXAXAXCXAXAXAXGXCX2XR.o.( / @.-.%.=.=.%.>.>.>.-.%.r.2.r.&.>.>.>.2.u.t.r.u.t.3.u.t.2.%.%.2.#.%.,.%.2.2.r.r.t.u.@.%.t.z.M.F.1.=.{ ) W E ! R R G E o.&.&.1.r.2.>.=.>.=.,.-.-.@.&.*.6.=.=.=.-.%./ a.mXk o - 2 q n.KX:Xi.6.s.s.i.=.@.;.@.@.@.] #.=.=.=.=.6.i.i.V.V.9.6.V.6.6.6.=.@.&.&.@.&.-.-.6.>.=.-.....;.@.o.;.;._ @.@.@.o._ _ ..( ` ` ( ! C.U ! ! C.( ( ( ) E ) ( ( ) _ ( ! ! R U M U R R _ ) X.) ) ) ) ) ) E ) ) E ) ) ) E ! R R ) _ ) ) ) ( ! E _ ) ! R ! R ! m 2X(.o 2 2 2 } JXp.) E ) E E E E ^ ( E E ^ E R R G G ^ ^ ) _ ) _ ( ^ ^ ) ! ! ( ) ( ( ! ( ....+.O.....X.{ +.O.9.O.@.@.$.o.+.O.+.7.5.*.0.q.5.O.O.+.*.+.9.9.0.0.9.! ) O.0.c.c.x.x.P.c.9.c.P.W.l.L.I.L.P.I.E.m.c.z.i.i.L.P.x.P.P.z.0.p.*.{ { G G ^ _ $.*.@.) p.c.9.9.0.9.o.",
"D.D.y.^ G G G / %.D.3.D.;XoX(.D.~.g.r.>.] t.-X-XoX;X-X}.}._.(.v.s.r.V.~.v.>XjXjXgX0XfXjXzXzXjXjXzXzXzXjXjXzXfXfXfX9X,X,XOXdXfXvXvXdXgXjXgX9XgXgXdX<X4XdXOX~.6XOXUX,X{.3.Z.N.Z.[.{.OXOX^.g.v.).}.}.-X:X>X.X{.[..X;X4X4X,X}.^.).).`._.G.^.{.{.^.b.g.^.T.*X7 X $ p p M.DXxXjXjXzXcXjXvXvXjXIXnXnXAXAXAXCXCXZXAXDXDXZXAXZXZXCXCXCXCXCXCXZXCXSXSXkX'.i.p.k.n.n.n.n.T.I.N./.'.^.m.a.v.[.k.n.9.r.x.>XT.9.T.D.a.1.a.^.m.s.a.m.~.2.u.a.]./.T.N.i.f.T. X8Xm...W E E ) ! E ( E ! _ @.$.$.=.2.&.@.=.2.s.r.t.r.=.;.@.*.-.-.-.=.=.@.p.mXk X ; 1 q N.KX4Xa.*.r.i.r.6.-.@.@.#.@.@.@.*.@.*.-.V.r.r.6.V.r.9.V.r.r.6.=.*.@.@.] -.6.6.-.6.-.@.;...;.@.o.o.&.;.@.-.O.@..._ ..) ( ( ( ! ! ! ( ( ( ` ` ^ _ ` ) ^ E ( E ( ( ` E R M R R E ..o.+...) ) ` ) ) ) R ^ ) ) R E ( R ( ^ ) E ) ` ! ( ( ( ( _ E ! R R G n $XM.@ 2 2 2 @.LXD.) { ) ) ) _ ( ^ _ ^ E ^ ^ R ^ E R E ^ ) ) ) _ _ _ E ` ! R ( _ ) ) ( ( o.@.+.O.&.X.) +.*.O.5.&.) ) o.o.+.1.O.O.q.q.q.q.5.5.*.+.+.*.q.0.j.&.*._ &.O.q.c.c.x.c.x.x.c.0.x.I.W.W.I.W.P.W.E.L.P.I.L.x.P.I.x.x.x.x.p.p.0.( R _ _ _ @.=.y.p.*.s.a.0.*.O.l.0.",
"D.G.1.} } 2.1.3.2.D.D.D.|.:X-XD.2.2.3.d.g.{.{.OX:X4X4X<X5X+X Xa.a.>.;.M.-XhXzXzXzXzXvXvXjXlXjXcXzXzXjXgXjXgXdXdXgXgXqXqX5XqXvXjXjXzXjXjXzXgXjXjXzXfXdXdXfX}.v.>.=.a.g.>.t.u.}.[.M.F.^.~.{.M.M.[.[.[.-X;X.X}.}.}.>X:X,X9X;X[.(.UXN.a.s.b./.{.)././.[.[.&X7 X ; k N Z.ZXVXjXcXVXIXjXjXIX9X-X+X9XnXVXAXCXCXFXCXCXCXCXCXZXCXCXCXCXCXCXCXCXZXCXZXPXNXtXkXiX3XtX3X2XzXlX3XkXhXhX2X$X$XpXm.$XT.R.#XiX$Xm.E.rX'.@.p.].&Xz./.-X(.p.n.T.(.(.kXm.'.'.#X$X2Xc.W R E ) ) ) ) ( ` ` o.&.$.=.$.=.@._ @.2.t.u.u.t.r.>.*.#.=.-.=.=.1.@.T.FXk o $ 0 e m.LXtX/.a.r.s.i.9.1.>.=.r.-.@.@.#.=.-.=.9.r.V.=.#.V.r.9.i.r.6.=.@.@._ -.V.r.6.=.6.&.&.&.&.@.@.o.&.6.@.-.5.-.o.o.&.o._ _ ) ` ) ` ) ) ` ) ) X.) X...@.{ ^ ^ _ { ! _ ) R E E ) { o.&.o.....) ! ) E ^ E ) R R R E ) ^ ^ E ^ ) ) _ _ _ { ] ] / ( ! ~ M R U 2XM.X 2 1 1 | SXp.X.+.) X._ _ _ / { #.@...{ _ ) R E E ) _ ) _ _ ( ` ! E G E ) ) ) ....X.o.o...O.*.....*.+.{ W $.+.G ) ) ..5.5.O.q.5.q.q.5.+.9.*.+.5.D.9.x.0.) o.9.O.O.w.z.x.c.l.x.x.x.L.c.x.'.R.P.W.W.W.R.L.'.'.W.W.I.x.0.n.z.0.9.) ( { { { { -.1.a.m.z.O.o.9.0.w.'.9.",
"D.2.%.' 1.1.%.%.y.D./.iX>Xv.^. Xa.a.f.1.~.[..X<X-X}.<X}./.}.[.v.V.B.N..XdXcXcXzXzXzXzXzXjXzXzXjXgXzXzXgXgXgXzXzXfX9XfXqXdXvXvXgXgXcXzXjXzXzXzXzXvXgXdXhX4X/.#.^ / { / -.#.V.d.v.u.t.b.M.g.v./.^.~./.[.-X;X;X[.-X4X,X;X,X9X.X-X>X(.-.;.t.g.^.).`.F.|.(.&X- X ; y B N.PXVXAXIXVXxXjXIX.XXXiX$XUX+XxXAXCXCXZXCXCXCXCXCXCXCXCXCXCXCXCXCXZXCXZXZXCXJXDXmXtXkXmXlXMXmXhXpXrXrX3X#X&X%X].*X2X*X2X*X$XW.*X&X2X'.j.&.}.fXR.$X&X|.(.'.T.].R.].E.].&X&X].U.w.+.E E E E ) X.X...O.o.&.=.=.-.=.&._ } t.t.u.{.$XB.=.;.@.*.#.=.=.s.@.(.iXt X ; 0 e M.KX4Xv.a.i.i.u.y.=.k.}.I.7.i.*.#.-.=.=.r.1.r.6.-.r.r.r.r.V.=.-.@.o._ =.6.9.6.6.-.-.*.-.*.&.;.@.6.V.5.6.=.&.@.o.&.o.o.o.o.....X.X...` X.( X...) ( -.1.%.=.$.! 1.} ` ..) X.) X.&.*.*.O.O...) R G G ^ E R G G G ^ ) E ( ^ _ X.@.' / *.=.&.-.] ! ! M M n ].k.@ 1 1 1 @.SXa.E ) X.) _ { / { 1.&.1.z.0.&.{ R ^ ^ ) E ) ^ E ) ) ( R R ! ` ` X.....@.O...) X.5.&.) $./ E E { +.+.W X...O.q.7.7.7.7.5.5.*.q.q.5.*.+.+.q.w.j.q.q.O.O.0.j.c.c.x.c.x.l.R.R.x.P.L.L.R.W.R.W.I.W.'.I.E.R.n.x.x.j.9...o.{ _ { o.z.'.].p.n.m.p.9.O.*.&XNX0.",
"D.G G D.D.1.D.D.D.oXHXLXmX Xy.f.g.N.! 1.M.u.~.}.}.[.[.M.g.}.-Xv.a.:X[.4XvXzXzXcXzXcXzXcXcXzXzXcXxXzXfXfXzX;X-X_.).4XfXfXzXqXgXvXzXxXxXcXIXgXdXzXzXzXvX{.~.g.F.r.=.t.g.b.t.=.@.#.&.=.v./.u.b././.~.N.UX-X;X:X.X,X,X,X,X,X.X>XPXVXzX/.@.#.F.^.XX).%.2./.#X- . & x x r.nXzXxXnXIXIXcXdX:XLXJXMX$X~.7XVXAXCXCXCXCXDXCXCXZXCXCXAXZXZXCXZXZXZXZXZXJXSXAXKXKXKXKXKXKXDXLXLXJXLXzXcXmX2XiXtXkXtXCXCXtXtXiXKX8XtXtX|.iXVXiXgX:Xz.9.3X3Xm.[.y.n.'. XP.L.c.q.+.+.W W E W ) o.&.&.*.$.$.$.=.=.@.} @.g.2.`.cXcX-X7.I.@.&.-.*.r.r.=.P.iXr X ; u e M.KX}.*.r.r.s.a.r.v.xXVX:Xx.l.L.&.&.=.=.=.i.i.2.r.i.9.i.s.i.*.&.@.$.o.=.6.V.V.-.=.&.6.6.9.@.X.5.6.6.5.s.6.....X.&.&.O.O.&.o.....) ) ` ( U ) @._ ) ,.3.,.2.} ^ y.E ) +.+.+.&.X.+.O.5.&.&.O.o.R E G R ^ G G G E R E ^ ^ ) _ $.N.(.7.Q.iXx.0.*./ ! M ! n 2Xa.@ , 1 1 } LXT.E { ) ) / { J _.iXE.e.W.].{ o._ ( ( E X.) E R ( ) ( R R ( ) X...o.&.O.o.X.( ) { O.*.1.G G G W @.+.*.9.0.q.7.5.8.+.X.5.+.9.5.q.q.+.+.5.q.5.0.5.5.q.+.0.j.0.c.0.0.0.0.k.L.c.L.L.z.E.I.R.'.W.I.W.I.I.c.x.E.n.z.*.X.{ ^ _ { *.*XMXlX].) s.k.9.....p./.7.",
"D.D.' D.1.3.y.D. XSXSXCXkX].1.] g.b./ #.t.-XZ./.[.^.^.[.~.[.<XM.t.(./.tXzXcXxXvXvXjXlXzXvXjXjXeX<XdXvX;X9X;X[.G.)./.Z.{.5XZ..XvX9X<X9X4X9X_.G.,X1X9XwX).qX,XG.(.5XG.1X;X~.u.6.-.-.6.u.b.a.b.F.y.B.N.}.-X-X-X}.,X4X9X>X9XZ.gXLXDXtXk.s.~ 2.h.M.Z.t./ R.#X- . $ x N B.zXdXcXnXxXIXIX).hXLXJXmXn.>.{.VXAXCXCXDXZXCXCXCXCXCXCXCXCXCXCXZXFXSXZXHXbX(.,.^./._.^./.~.6.~.[.M.B.a.k.N.B.~.>.>.>.M.~.}.oXg..X~.M.b.F./.N.<X.X2.} $.4XF.%.(.2.%.h.3.@.@.5.q.w.7.+.+.) W ..o.-.-.5.=.=.$.r.2.1.%.=.r.G.nXcXzXN.8.'.X.o.,.@.=.u.%./.lXj o - 0 q M.KXdXn.6.9.i.a.1.4XKXcX Xx.q.n.%.#.$.=.=.r.1.r.9.r.r.r.r.9.r.=.=.=.5.-.V.-.V.6.C.C.C.( ` C.C.~ C.C.` ` ! C.C.~ ` ` M ! _ ^ ` X.( C.( M v ..` ~ A ~ ~ A c ] { G ) { ) ) X.1.E +.*.9.5.&.O.) R G G E R ) E R E / ) ) ) _ } g.<X&X8.7.tX3X=.6./ ! M A m 7Xm.X 1 4 1 | JXD.E +.) W E G 1.nX8X&Xx.e.2X{ X.o.) _ X._ E ^ ^ ( ! E M R ( ) ..@.o.&.o.o.( R M f g L J G G 6 G L J @.$.@._ ) ! M M b E E E ) G G G G _ ! _ ! ( E $.^ ) ) ^ X.R ^ E ) ( 5.P.I.L.L.E.W.R.R.'.I.L.I.I.P.E.P.E.j.0.o._ { J h.R.].kXxXlX_ 6.*.5.1.) l m l.",
"2.-X>.r.b.~.^.N.f.5XZXkXT.&./ H g.^.^.OX,X-X-XOX).}.-X[.M.b.).;X`.|.zXgXxXxXG.H G J H J G G G G 6 G G G 6 G d G d q d d d g G G g p p p d 3 g g d v G G 5 d G d G G G G  .%.%.%.2.D.*.f.d.u.r.$.=.s.).}..X[.-X,X,X<X-X.X#.[.LXVX(.;.H q / u.v.).N.,.-X$X7   - l x N.zXVXcXfXzXIXAXd.9XZXtX X-.C.u.xXCXCXCXCXZXCXCXCXCXCXCXZXZXFXZXCXSXSXLXlX9.c K 6 g g g h h c i h i i h h c K K K K J h K ' ' J L K K K L P L K L L :. .L  .:. .<.:.<.<.,. .{ 0.c.w.7.8.X.+.X.o.=.6.6.=.=.=.r.y.i.1.2.%.OXnX,X~.*.X.O.U ! @.@.=.u.r.$XMXk o $ 0 e M.KXfXn.i.r.r.y.=.<XKXOXr.o.) 9.! %.@.%.r.9.1.9.y.1.i.r.p.r.i.r.=.i.=.=.=.$.6.U K K P P L P I I I P I P L P L L L P P L L P [  .L L [ L L ' L L L K L L C ,.K J J ~ J / ' A ! o.) *.*.&.o._ G R E R ) E { ) ) ) ) ) ) ) { G.jX9.C.Y I.$X) =._ / ~ ` x l.p.@ 2 2 2 #.LXT.) { ) E E M t.wXv.a.@.o.0.R ( ..X..._ ..( R E ( R U R ( ( ) o.O.@.&.&.+.z q J L <.P P L L K K I K C K K C a a C C a h 6 6 G 6 h h h C 6 C C C C C a 5 5 d 6 h h 5 4 f v 1.E.R.W.E.I.P.I.R.I.P.P.P.R.R.E.m.x.p.o.) _ b ,X X) x.tX'.x @.6.p.j.j.0.T.R.",
",.5XM.r./.[. X^.H 1.D.1.c b v s u.D.{.:X-X_._.~.^.g.b.}.N.M.[.4XvXnXAXVXxX3.4 * @ O X + + + + @ + O O + + + @ + @ @ # @ @ O . @ O $ @ @ @ $ & $ @ @ + O O O + + + + + @ 2 G #.{ f.G.1.f.a.=.y.$.N.B.s.}.{.[./..X<X;X;X{.J K b.v._ B > q } u.Z.`._./.tX#X7   $ x x /.LXVX^..XnXVXPXZ.N.[.>.` ` ' g.zXAXCXFXZXCXZXFXZXCXZXFXCXZXSXSXSXZXLXkXO.b K h S K K K P C K K C K K K K K L L K J K K K L [ [ [  .[ | |  . .[  .[ L [ I :.:.:.:.:.:.4.:.4.4.1.L.L.0.7.*.+.o.&.*.=.=.*.=.=.i.p.s.=.=.2.#.Z.b.] ( M x 0 H %.-.r.s.s.$XiXk X $ q q F.KX4Xm.i.r.9.r.1.2.d.:.J c ( d G $.$.=.9.r.1.r.r.i.1.1.1.i.r.i.6.r.=.=.5.&.A a i , 4 2 3 4 4 3 4 5 4 4 4 4 , , 4 5 F < , , < , , : 4 , , 4 4 4 5 4 5 5 4 4 4 4 4 4 4 4 , a ,.,.X.X.O.5.O.) G G R R ) { X.{ o.) ) o.) ` / %.h.| c ~ X.` U =._ _ ` _ _ &X@.$ 2 2 2 } LX'.X.X.) E ) ! b K ' K M x y k ) X.......X.) ( ( R R R ! ( ) ..o.&.O...( n q * # O @ O O # # # O O O O . O . . O O . O + + . . o . . . . . . . o . O . . + . . . + . . 4 K G X.L.'.W.n.L.I.E.I.I.W.I.'.R.E.j.0.j.j.o.! g I } M z M G m o.9.c.z.D.j.m.E.",
"-.%.~./.[.}.|.[.H d f f d f 3 s u.G.+X4X}.F.u.b.=.} r.b.s.b.{.fXcXwXPXcX@.1 # X X X X X + . + + X X X + X + + + + + X X + . + X O X O O . + O @ + + O + @ @ + + + @ @ @ @ > G #.%.$.1.D.2.s.y.$.^.~.] u.b.).~.[.<X:X-XXX' g H b i 2 * p 3.M.Z.)..XOXzX].- o $ y p ^.JXmXzXVXAXVXPX9XS ~ ' Z C > M.ZXCXCXCXCXCXCXCXZXSXcX<XJXZXSXPXSXLXpX*.K K 5 2 h g h h h h h h c c C g C b c g b c g b Z Z Z K H K J K ~ J J L J K J K J K J J L J ' J  .4.4.3.%.0.L.w.7.8.&.o.o.@.&.*.=.2.u.k.s.1.=.%.%.p c b p 0 @ > } %.,.#.r.r.a.kXk o - 8 2 D.KX X9.i.r.i.=.1._ i h 5 3 2 + _ $.=.=.2.r.2.r.r.9.y.9.r.1.i.s.r.=.6.-...U C 4 @ $ % = * * & @ % # % @ & 1 * = > : 4 % @ @ # % # $ % % @ % % * * : * : : , : : : : : % @ 5 S [ #.o...5.O.( G G E { { X...) ) o.o.o.o.) ) ! 5 6 a p p - U -..._ { } R R.a.+ 3 2 2 } JXD.+.&.X.) E E b 5 i 3 > & X n ) ) X...........) R R R ` X...) o.O.&.o.n p * O . o o o o o   o   o   o o o o   o   o   o   o o   o     o   o   o   o               . . O 5 G v +.L.].R.U.I.W.L.L.R.W.P.P.E.x.0.j.I.6.U g 4 5 e f q 1 v 5.p.m.E.R.x.0.c.",
"r.F.v.M.|.^.}.-XN.d 0 3 * % * %.(.oX8X,X[.D.%.G ] M.~.Z./.).-X6XjXIXwXG @ % O . X X X . . . . . . . X o . X . + . O X X X X . . X X O . + X O @ + + + O O + @ @ @ @ @ @ @ @ @ G G D.oXD.$.@.=.=.;.@.=.g.r.~.).{.-X<X;X.X^.H 3 2 > * e } d.^.).^.~.s.7X#X- o % x B ^.PXbXZXZXAXZXAXZX).a a q : ~ vXZXCXCXCXCXZXZXCXCXCXNXcXSXSXSXSXLXiX{ g K 6 % * 3 e e d f i d f i i f f f g f c f c f f f x f c c c c b b c v f c b b v b v v v b v G v g G [ 4.3.} x.L.j.w.7.@.) _ o.&.=.s.i.a.a.r.%.%.2.] p > > @ * H =.=.r.=.r.k.0.tXx o $ 1 e m.LX|.p.a.a.y.y.s.r.H # @ . . v %.$.=.=.1.9.9.r.y.r.y.s.a.u.i.u.s.=.6...M C 4 @ @ $ * * * * 1 1 1 1 2 1 % 1 > > > = = * * * * * % * * * * % * * * * 2 2 : = * 2 * * * * * y g S [ ,.R o.5.( G E o.X.X.) ) ) ) ) _ { o.o...) s * # O . y o.o.;.....&.M T.a.+ 3 1 1 { JXT.O.+.+.) E R R d * % X . 0 ( ............X...) ! R R ` ....X.o.&.0.X.c : . . o o o o . o o o o   o o o o   o o o     o o o o o o o o o     o o   o       o   .     . . @ 6 K 9.0.7.E.'.'.I.P.l.n.I.R.P.I.P.z.j.I.0.` / e # + O o 1 ) 9.z.E.R.].}.W.D.",
"F.{.~.v.(.&X:X:XoXm.v $ * w %.^.}.8X:X8X Xt.1.a.g.d.>.b.;X[.4XfXLX5XG # + X . . + & 1 2 3 0 2 2 1 1 3 0 3 0 2 2 1 w 1 1 1 q q d y p y y e e e e e d e e d d d d d d w w 1 & * 1 d 1.+X9.@.{ 1.} -.k./.[.a.M.~._.{.<X;X;X1X^.A p e v %.d.^._.{.^.r._ >X#X- o 7 z x b.JXZXZXZXZXZXZXAXAX,Xd.| N.zXCXAXZXCXCXCXxXzXCXZXVXZXJXZXZXZXLXtX{ K K 6 1 $ 0 s c v v b G G M H G b G H H H J R ! ! H ! ! ! H ! ! H A M M H G G G G C.C.! H G G ! R R M s c ' :.3.=.n.L.w.7.O.( ( &.*.1.y.f.v.k.r.-.=.>.#.@.~ c v ] #.=.r.V.1.2.6.$XkXt o ; 0 3 B.KX-XB.n.k.a.i.s.0.%.M q f ! -.=.6.1.=.r.i.r.y.y.y.s.a.v.k.i.u.s.6.o.U S 4 O O % > u q y y y p B B f d f s y j p x x v f s y y y y y y y y r r 0 0 y d d t y y t y q q w y f C J ' >.=.X...X.o.*.o.{ { R E ` ..o.o.o...X.E U t = = j ( ..+...O..._ M 2X9.@ 3 1 1 { GX|.*.5.o.X._ G ! ! c u 0 f ( o.o.o.o...) o.....o.W R ! X...) ..o.O.x c > o . X + % % * * * * * * % = 1 : 0 - $ 0 > V 7 1 1 1 - 1 * - & $ $ $ $ + $ $ % - 1 1 1 & & & ; . O < 6 #.f.E x.W.'.W.I.c.j.L.I.c.P.L.j.x.I.x.5.o.! e & % 0 H =.w.D.W.'.].#X].E.",
"^.-X;X}.-X8X5X6X4X>X^.a.a.b.~.oX4X8X}.{.).v.t.=.V.s.] v.g.^.vXZX4Xd O X + X X & q G G J { { { { / { } } } } { { J H G J / } } #.@.#.#.} _ } / { { #.} } %.1.1.{ @.] ] J G d : 1 2 d } 1.y.y.%.r.^.~.}.M.N.Z.^.[.OX+X;X-X5X:X.X~.g.v.UX[..X.X/.t.=.r.].L.- o - x x a.AXZXPXZXCXCXZXZXVXDXGXVXJXCXmXZXFXZXCXAXnXvXcXZXJXZXFXSXZXLXtX{ K K 3 % - 8 v H { { _ / / / ^ { } _ @.$.$.&.$.$.$.$.@.$.@.*.$.$.&.$.....) _ $.o.{ { _ ` ` ) X._ _ ` ! ! M c c ' :.<.>.s.l.6.+.) ) &.1.1.0.y.k.a.i.-.V.6.-.=.=.>.>.=.r.V.>.V.2.r.&.rXkX$ X ; 0 0 a.KX:Xz.P.a.a.y.f.a.r.r.1.1.r.>.r.=.=.2.i.r.y.t.i.r.z.N.n.a.a.i.6.+.m C 4 O ; % 0 j x N m M M C.U U G G M v M M M M m G v c x x x v v x x v b v x l z n m z v x v n x x s y p f Z S ,.Z.A ..{ ..&.+.) R G ) X...o.X.) ..) ) U U U U ( ` ....@.*.@...x &Xa.. w 1 1 } SX|.*.*.+.R n / ` ;.` ` ` o...&.o.O...) o.&.o.o.o.) ` ....` X.&.O.x 3 % . O + = 0 u t y y f s f l v c s b ! m m m M M m v x v x m n M l x l l k x y x U R G R G v z y 8 & X + 4 5 d / 1.0.P.R.x.i.z.p.k.k.c.l.P.I.P.j.q.q.1.O.) ! &.0.j.0.p.D.$X|.].2XT.",
"_.qX-X:X6X0X;X3X7X<X;XoX[.[.oX<X,X:X{.{. X/.N.o.] -.^.v.{.5XLX.Xw @ ; . . X 1 y J $.} 1.1.1.u.3.1.2.3.y.r.1.1.2.} %.1.%.1.1.2.2.r.u.a.t.%.2.r.2.y.d.=.@.2.1.1.1.y.1.$.$.} J d q 2 q d { b.a.2.D.,X>X|.B.t.r.^.;X,X,X<X;X{.N.:X).UX^.Z.[.-XZ.s.>.r.d.u.E 8   & x p @.7XCXAXZXZXZXAXAXZXCXZXAXAXAXCXZXZXZXZXVXZXjXCXjX}.nXSXCXLX6X] J K 5 % $ 1 x ! %.=.=.=.r.=.r.$.$.1.=.2.y.r.r.u.0.1.1.s.r.9.r.i.i.1.1.-.-.*.-.r.9.&.&.&.&.&.6.=.&.@.o.{ ) ( ! b c ' :.4.] 6.7.+.) R o.&.1.9.f.a.s.V.-.=.V.a.V.6.=.r.s.V.V.=.M @.a.p.I.].- . + 0 2 -.KX:Xv.B.B.a.i.z.s.a.s.r.p.u.9.s.6.r.i.u.r.%.%.=.2.&.g.T.u.i.0...R i : + + - u l U U U R ( ( ( ( ( ( ( ! M ! U R M R G R b M ! C.U C.U C.M R M m n v m v G M M m m m m v x x f p Z Z ' A.~ _ 1.@.@.^ G H ) ) ) o._ R ! ! ! ( ( E ( ` ` ..&._ _ ( A M 3Xs.. q 1 * #.SXf.+.o.) { { G ....o...o.o.o.o.&.o.) ) O.o.&.5.*.....o.*.) ..@.x i : X O + u z x n n n b v x E ..( ! M M R ! R m Y R R E E R E ) E ) E R ) ....) ( ( O.X.+.X.E ) E R z d 1 & # 4 6 h J ) @.n.*.o.6.&.7.i.p.p.P.x.x.j.l.9.0.0.9.O.j.L.x.5.W q.E.#X'.3Xn.",
"g.4X6X:X0X6X4X0X7X4X:X;X}.}.-X;XoX;X`.}. X`.F.b.v.&.[.u.Z.dX^.i & + X X X - s _ 9.y.1.1.%.$.u.D.u.u.y.y.1.1.d.d.r.y.t.1.1.1.d.u.t.s.g.B.2.t.g.a.f.n.y.1.t.u.p.r.1.r.$.1.y.1.} G 3 1 q g g.g.1.a.M.qXqX/.#.#.Z.,X[.;X;X.X#.#.<X}.^..X^.g..X.X/.).^.h.| q X   * c v ! qX4XdXZXZXVXAXAXAXZXAXZXCXAXCXCXZXCXZXSXNX-XAX/ / fXSXJX<X/ L L 3 @ & 1 d G $.9.y.s.a.a.a.g.y.a.a.9.i.f.r.p.a.a.u.p.z.a.a.i.6.a.u.9.V.6.=.i.i.i.=.9.6.=.6.a.9.2.=.=.$.@.o._ ` M v J :.4.| -.o.{ 3.{ $.9.f.a.j.r.=.-.6.i.k.r.s.V.6.r.6.V.r._ M F./._ o.$ o ; t e B fX>X-.B.a.$.=.a.N.n.i.p.s.a.-.=.6.$.o.u.y.a.2./ } ~ a.m.a.7.o.! h : O X & r B U ! R ( R ( ( ` ` ` _ X.( ( ( ! R R G G / ! M ! U C.U ! R ! G ^ ! M R R G G R U U R R R M M N v x g Z C J 3.H #.| @./  .] _ _ A M M y ! ~ M ( X.) ..` ( X.....) ] ] _ ].C.X 0 0 # K `.g.p.9._ $.o.( V.i.;.;...) ) X.o.` E X...&.&.) o.X.) ) ) ) ..B 3 * . X @ y m m U R R E R E G E U ( o.n U E R R Y M ! R R R E ) ....) ) ( O...X.U i.*.O.5.*.{ o.o.E E R G k 9 1 1 , 5 G J o.6.! ) o./ ! +.k.i.k.m.5.6.k.w.p.q.j.w.0.E.R.j.W.].G 9.R ;XE ",
"g g.`.4X/./.-XzXvX-X;X}.{.(._.{._._. X{. XOX(.g./.g.~.(.u.d.5 # + . . + 1 s ^ 1.u.f.f.2.y.y.y.u.y.>.%.3.y.D.1.D.d.y.y.y.1.2.2.2.f.g.t.u.t.r.v.v.v.v.a.r.u.r.u.p.1.a.2.f.d.1.1.$.H p 3 q p h.t.b.-X.X;X~.d.g.~.Z.F.^.Z.g.2.t.N.b.g._.M.%._.:X^.+X@X,.C O     % x d 3 D.~.}.xX<XG.ZXLXLXLXLXJXGXFXDXGXJXJXLXJXDXAXZX{.cXAXAX:X^ J L 4 + + 1 f G 1.1.t.f.v.D.v.f.D.f.D.f.9.a.$.D.1.*.u.f.a.z.z.a.f.a.v.z.s.r.s.r.s.p.j.y.y.a.i.i.a.s.i.1.1.r.9.$.$.;.) G b K :.4.] / H.`.H { $.y.y.B.=.=.=.V.6.=.&.b.9.&.r.=.=.-.D.M.G.h.h % o o $ e d 1 ' ,X2.}.D.G { y./.u.s.n.a.m.! ! o.@.=.s.z.r.1.a.N.3.y.9.*.-.J h # X X & 0 l M E ( ) ) ` ) ` ` ..` _ R #.{ E R G G R G ^ } ! ! U ! G G ! { b @.G m G v G E R m R R E G E G m m m l g c h S L g K J } 3.| %./ f u.b p ] H M _ ' A x ! ( ( / { &.%.%./ y X $ q d 1 < I 4.%.y._ ..) o.*.&.o.o.X...` ..E U ) ! ) ) ..n M U ! ....! i i #   . $ t z ) ) ( ) ` R Y ) &.) E ) 6.R R R ! R Y x s.=.R ..) X.o.O...o.) ..&.R m X.&.*.*.*.X.*.X.E R R R v l t = * 4 a C %._ M H H M x _ -._ ) *.*.b R o.X.&.R.j.O.L.I.E.W.x.5.5.z.D.. ",
"$ 2 b d.N.3.2.r.2.%.u.a.a.r.%.2.2.2.%.| } ~ ' J J | J L  .6 # @ o O + 1 G 1.u.u.D.u.u.D.f.u.y.1.%.1.1.} %.2.D.%.g.f.u.1.1.1.1.$.u.2.%.#.1.1.u.g.d.1.y.g.a.g.g.f.D.y.1.1.2.1.1.| _ H x q 4 C t.~ d.] ;.#.#.] #.#.t.>.| A c b v A b } %.3.b.A.3.3.:.a O   o   = v d 1 d g.F.N.2.G.OX_.}.{.{.[.`._.[.}..XOX}.}.).^.G.G.G.G.G.1.h.I : + & 1 f G $.y.r.r.u.r.a.9.u.a.g.f.^ 1.u.{ b./ =.*.1.y.1.a.D.f.s.s.r.2.9.r.r.i.y.y.9.@.=.9.r.9.=.1.o.@.t.1.%.1.-.=._ M v Z  .4.,.' G J G J ] 1.] ] @.] ] / ~ A _ ] ' @.&.%.=.2.] :.5 O .   o = d y 1 # L d.#.} 2.u.1.G b M _ } @.Z b ] } 3.%.L K ' | :. .[ / L S 5 # . . $ 0 j N ! ! ) @.! ` ..X.@.` ( H H { ! ! G M M G G R v M M b N v c H ! G _ m m z G x G R n m M G G G G m G m x p p p q 3.4.K G J J J J g h K J J Z ' Z Z Z | ' h K H K K Z K K i .   $ 0 d 1 + : I I K c J A v b g A Z b v x g G G b x v m p p p y H 3.I S : @   . - z R U R ) ( E ) E U ) o.( ( X.( ! ( U U U U N p M @.R o.) ) o.o.o...X.*.) ( R ) E E ) E ) E E R R X.X.z s s 0 * 3 4 I ' c b b Z Z H A H Z Z v b c v ! ( ..M N ) ( @.H G @.{ ) + o ",
"e o % e f 3 3 = 4 2 > 2 2 2 4 2 : 2 * 2 2 : 2 4 4 4 5 6 K # O O + * d f G ] { } ] %.#.J ] } { J } 1.1.1.^ $.' G / H G G G G G G G G G G f G H H _ H H H G J { / ] J J H G G G G b f p p q , Z 3 : : q , > > > : 5 e q e 2 : * : : 4 q e 5 3 3 i 5 . o o     3 M G 2 # 2 J H H H c c c h b g C K Z Z Z Z S S C S G K K K g g L 4 @ : 3 G G G G ^ / G v G G G G v c c f } G b d ~ / M v c v H @.H v H ~ _ / ! ! ~ ^ H G G v v x x x x v s v d G G H / ~ b v f i :.4.L L L L K K L S K Z S S h g a g Z c Z C a h i 4 < . o     . 0 v d * . . , h K J K K K S S Z C h C C h C C C C C P C F F C F <.F O . O $ 0 x b v ! U ~ G f c M b M v b H g b ! v c v c g J J G g b v x c G G f b g b b c g g f g g x b h g K G G G G g Z Z i e C I 5 5 K C  .C 4 5 4 h h 6 3 a 5 6 S C C i h h 5 5 5 # .     $ w s w + o # 6 5 5 D K 6 a 6 5 5 5 5 5 4 C L C 5 5 6 5 5 4 5 5 P D , .   . $ y n z v m n x m b M U m v ! H G M ! H H H ! A A _ _ q M { d q y q s x v s y x v x l l z n M v G z G ..R l t x x w * @ 5 h 4 4 a i a i a 5 i i 3 5 i i 4 4 , , , : : < < # : #     . ",
"H *     o o o o . o   o o     o     o o o       o   o o     . O @ $ 1 1 + + & * + 1 1 * * $ 1 @ @ @ @ @ @ @ + + @ @ @ $ O + @ # 1 % @ @ + + $ & $ & $ @ $ % @ 1 $ @ 1 1 $ $ @ # @ % % * * @ O o . o o o . . . .   o o   o o . . . o o o o o o . X   o     X f H H f @ . . O @ # * : : * * % * * : : : % * # % * * @ # @ # + . O @ @ @ @ @ X @ & & & % # @ # @ + @ @ 1 1 * * 1 # % * 1 & & # @ & % $ $ @ @ & + @ @ @ + + @ @ @ @ @ @ + & @ @ $ $ $ % $ % % * # @ O O . . . X O . O . O . O X X X O O O O O o o o   o         $ s G f e #   o o . . . . O O . O . O O O O O O . O O O . . O O O # O o o o . X @ O @ @ $ + @ @ @ O @ @ # @ @ @ @ O @ @ @ @ @ @ @ @ @ @ @ O O + O $ # # @ @ O # @ @ @ O O O O O . @ O O @ @ @ @ @ . o o . . o       o   o o o o o   o o     o o       o           > d s d y X   .   o   o o . o . . . . . o         o                       o X $ ; + @ X @ + + $ + $ @ @ 2 $ @ @ X @ @ & 2 e 2 0 g 3 % . . o       o o . . . X X + . + X . X . . + + + + O . O @ . . o   o                     o           o o   o o   o       o + ",
"] c $                                                                   o o o o o o   o o o   o o o o   + . . . . + 1 1 2 X                           o   .               o   o       o                                                                   = M / ] J d X o   o     o   o   .   . o   o o o o o   o   o     o o   o o   o o o o o   o o                   o o     o o   o o   o                 o                                           o                                                                 1 d G G f d .                                                 o                                                             o o o   o                               o o       o                                                                                 @ y v b c f 2                                                                                                                   . * = o                                                                                                                         + 1 ",
"{ / G 1                                                             .   o   o o o o o o o o o   o + X   . . . + . d J J H * 1 .                                                   o o     o o                                                         o $ f J } } / G e O o             o o o   o o o o o o o o o o   o o o     o o     o . o o o                 o . . o o . o o o .         o o   o                                                   . . .                                                             1 d G G G G G d .                                                                                                                   o     o   o   o o o           o . .     o o                                                                                 X = q f n c f d 1 .                                                                                                   o     + - w s 3                                                                                                                           & 2 0 ",
"1.] / J d 1 = % & @ + + O + + + O O X X + + . . . . . O O @ + @ 1 1 w d w d d d 3 0 0 1 1 3 q d G G G G G d d w x G c / d d / x G d d d e e 3 e t d e t d e d 1 3 w 2 e e d f c d b f g d f e 2 2 0 0 3 0 0 > = = * * * & X @ % $ @ $ @ % $ % * = % $ 1 d G { / H } { H f 1 @ @ @ @ @ % @ @ % # @ @ @ @ # @ % @ & * $ 1 1 & 1 & 1 1 1 d 0 3 w w e 1 3 w 1 1 3 e d d d d w w e e e 2 1 1 2 d w 1 2 2 1 1 3 1 2 2 1 d 1 w 2 w d d e e 2 2 1 e q d s s g G G d d d 2 2 2 2 = * 1 * % % $ * * * = = * - = = - % $ $ + o . & 1 d c G K H g G G d 1 + O @ @ $ @ @ @ & X @ $ @ $ * % * % % $ @ @ @ & 2 , > > > = 2 > 2 2 3 = * $ * * % * > = * 1 1 * 1 1 1 1 2 2 2 d s f 3 0 q t s f d f 1 1 0 d 2 f d d 2 d q 2 2 2 1 1 1 1 1 = 1 # & @ @ % # $ $ @ % $ $ % $ $ $ $ $ $ % & & $ @ @ O . + + $ - 0 e y f v G M d e 0 * @ + + + X X X + + @ X + O . X X . X . . . . . X O + * * & - 1 1 1 3 1 2 2 2 2 2 = = 1 1 1 2 = 0 2 0 0 d b f G 2 u X . X + + X $ ; $ $ $ & $ & % = * 1 2 = * & 1 & * $ $ % % 1 2 * * 1 $ % @ $ @ X X X . . . . + + . . X . . . . . X $ & 8 s e 8 ",
"%.@.%./ { { $.#.#./ { ~ { _ / { / ~ ~ H H G H b G G G G b b H G H H H H / H J { @.} #.%.] 1.$.%.} H $./ _ } { J H J G H f H / ] 1.@.$.$.@.#.@.{ } #./ { { @.@.G / %.} $.#.#.#.} } %.} %.%.%./ / { _ @.' _ } ] ] } } ~ } M M H ! / ! / ^ ! / { { { G v d G / #.{ ] 2.%./ _ J ~ H M v b Z G G G H H b Z b H H H b H { H J ^ J J ] H / / H G _ J / J ^ J G G { ] { / { { ] { ] ] / / / ^ ' %.%.@.H / / _ _ ^ ^ / { { J / H H H ] / / / ! / H / _ / { } } @.@.! @.{ } } / ! ! / ! H H G G G G H M M A M ! / A v M M b x y t d s f G G H G H G G H G M M v f x f c f f c c v c f v v x b b b b c c G C.A ~ M H b v b _ v v v M ! ! v v c H ~ H M G H G G H b G G ! J / b b c H / J / { J J J / / | / G G ( G G G v x b c g G b f v b b H ! G v x f f v v x b v v b b f v f f y y y f q s y y x x f v v H ! G M M v v x x x f y x f x x v x v l d s s x b G c x x v x b M M M b v v G v b G G H G ! M H M M G v v v x v v M m M b M m G U M b b M b n b v v v v v v x v v b M M M v G G v c M c G G H G G H G ^ _ H x c s l d s s s d s s s l s v n n G M G H E G x d ",
"H @.r.1.$.@.@.@.] @.o.{ { { { _ ;.;..._ ..;.;./ ` _ ] C.( _ b -./ x b G H G G G E / J G G J G G G L G _ G G { ^ ^ G G G d d d G ~ M H H ! ~ ~ ~ M ! M b G G G J G ~ H / { / G G H H ~ H / _ ! _ %.%./ _ A ` M ~ @._ ..] C.` ^ _ o.1.{ G R { 1.1.{ $._ G ! #.#.#.%.%.' / G G H { / { ] / ^ H / G ^ ) / J G G H G G ^ / / ^ G _ ! ! { { ^ H G ! G G G R G G { E / G { R ^ { { 1.1.@.@.) 1.{ o.{ ^ G G G E G ! ^ ^ M H G ! G v H b _ ! R ! ! ! ! ! H ~ ! M G H { { / H ! ~ ! ~ G G R G b m G b M G v x M v v x M M M M G M x c f c H / _ ^ ` C.C.` ` U ! ! U b M m M U A M M ! M G ! R / ! ` ) ` M v M c v x x x v G x m m R ^ ( R U N U M n U ! ! M M E M M G G G R c v s v G G H H ~ / x d ! ^ v x M ! U m G v v b G G H b f v H ! ! G G G v v x m v v v n G R v x v s s l s s t y m v f f b v b G / { H H G d x v v G m m m v v v G n G v m G G G l _ G G G R G G y x G G x x n x v m m m G G R m n G E G G R G m G Y Y m m G G R G R G G G G G G G k G w G w d 9 w k G w w k 9 d k d G G G G G G G G G z G G z d z z G G d G G z G G G G G G G G G ^ G ^ 1.{ G ",
"J $.{ u./.}.OX;XoXOXoX8X;X:X}.8X&X|.:X2X2X-X$X-X>X$X$X|./.` n ~ f } a.d.N.G.^.}. X{.}.}.oX}.oXoXoXoX-XD.$.D.G.D.%.D.D.{ } D.D. XUX-X~.[.[.~.Z.@.~._.}._._._.{.;X+X8X}.+XOX+X).^.b._.Z.~ H M s.7X5Xv.-X[.:X4X:X-X;X}.:X5X:X,X,X,XoX[._.^.-XoXu.oX0XD.{ G x { { } { / { / u./.{.OX<XD._.b.D.D._.}.oXD.D.R.[.5X4X&X{.;X7X4X8X$Xz.o.u.{ ~ =.r.a.T.^. X/.f.(.R.D.|.D. X(.v.D.D.&Xf.p.1.D.[.1.D.f.1.(.(.u.D.D.v.v.f.f.N.z.s.1.u.T.v.r.~.s.s.a.u.-.v.a.r.u.a.t.1.=.r.b.}.5X/.T.(. X X~.$.d.D.g.d.M.f.%.f.N.1.(.&.` =.1.$.*.9.M G H G G H ~ / ! A a.4X|.^.|.i.n. X*.v.n.m.n.n.k.x.m.n.n.m.z.n.n.p.(.[.*.*...m H ! / @.@.=.r.m.@.$.o.$.&.=.i.=.@.@...&.@.@.*.&.&.o.&.O.o.*.{ _ &.$.{ { _ G b H M H #.f._ ..) o._ ` _ { 1.2.b 1.#.#._ { =.g.i.T.0.{ o.m.z.$.@.{ &.o.1.0.*.&.p.9.9.5.9.9.1.6.p.7.x.W l ~ G H { H G G G 0.p.*.9.0.1.0.+.0.q.9.9.0.9.9.q.p.j.c.9.0.q.O.q.9.0.W.x.+.E ) G ) { ) O.*.5.O.0.7.X.o...1.w.5.+.X.X.0.9.*.1.O.9.q.9.5.q.+.7.q.*.5.q.q.q.D.5.q.q.D.8.5.D.q.q.8.9.D.8.D.+.D.+.q.9.{ ^ { +.5.D.W.oX$X$X|.W.!.0XhXaXkXiXlXcXvXsXlXvXkXlXkXhXiX3XD.+.*.+.",
"G 1.5XzXbXGXLXSXVXLXLX<X8XCX>X$XjXgXmXZXJXJXLXmXxXZXDXLXZX].+.m c G =.M.^.).[.{._.>X8XOXoX8X-X+X8X0X0XoXD.G.{ $.D.D./ $.D. X8XwX.X4X~.! @.M.M.=.:XfX9X(.oX;X}.}.|.).F.N.D.G.d.2.%.N.>.#.} /.AXdXv.%.;XN..X5X.XtXdX|.4X5X;X<X4X4X`.^._.^.{.1.} u.oX-X1.E l d ~ { } { #.<XbXZXJXPXLXvX(.8XwX8X:X[.bX0XVXVXfXzXLXCXcXLXNXVXLXLXcXD.&.R v b _ y.b.~.[.|. XoX|.D.4XD.0X(.7Xf.T.zXy.D.{ _.>X1.T.v.D.[.[.[.{._.(.(.f.v.[.M.v.a.n.~.M.a.9.a.a.s.a.a.v.v.g.r.=.@.} %.M.+XSXNXn.( z.P.T.M.#.t.f.v.r.M.y.@.(._.2.g.=._ $.$.=.) m.R.z G f v H ! _ ` /.DX[.5.&./.b.=.=.*.1.y.r.v.I.V.%.>.2.1.&.r.u.v.a.s.b.I.I.l.T B x v M ) o.o.$.o._ _ _ { @.-.@...) _ _ ) ) &.) _ ` _ _ ( ! ! { _ { ( R ! / #.F.G._ ^ 9.m ! ! ` ^ R ( ! H { #.G ! ! ! =.z.z./.p.) E G D.p.n o._ ( E { 1.o.X.o.o.o.) o.&.*.o.5.+.8.3X9.s G H J ^ G G '.&X1.X._ o.{ { +.9.1.*.9.9.9.q.9.0.p.f.m.v...o.+.*.*.D.!.%Xe.E G ^ _ o.o.o.E E *.1.) X.o.o.*.o.X...X.o.{ &.*.1.5.O.+.+.*.E 9.p.{ p.0.9.5.5.$.*.+.D.T D.q.5.p.D.D.D.D.D.+.8.+.G G G G *.D.E.hX8XhXMX8X7XoX3X8XCXNXtXD.8XbXMXcXNXpXhXMXMXtXlXlXCXlX9.*.",
"{ fXSX:X4XbXzXOX(.[.5XG.4XzXhX}./.4XzXN./.DXfXa.dX;XVXVXDXGX:XO.z n v } 3.D.oXoXG.`.{.{.oX;X{.D.`.-XoX{.oXD.D. XG.{.G.oX[.G._.8X:X4X[.@.^.}.)..X:X5X:X+X+X;XoX_.}.[.b.+X-X+X{.g.=.%.} `  XJXcXu.] @.} &.;.~.|.oX<X|.(.N.).-X{.d.g.). X XD.g.%.] ! 1.z.*.l 1 f ! / J ;XNXxXxXbXVXxXVX8X^.tXiXhX4XjXbXCXCXfXgXZXVXAXcXa.F.AXCXJXcXx.*.! m v / =.g.D.D._.[._.D.(.D.D.(.D.d.G.{ } ;X@.D.[.{.D.D.^.^./.^.~.b.D.F.N.N.N.a.n.u.s.N.N.M.b.2.a.u.u.u.s.s.2.=.} } u._.,XZXNXp.o.M =.6.6.s.r.=.$.$.=.-.r.1.i.2.$.1.=.=.%.%.r._ m &Xm.s e t b ~ ] |.KXgXi.=.-.@.r.r.-.>.1.=.>.V.u.g.r.%.2.%.M.r.] / @.b.I.-X[.rXc.T l x b ! ^ ^ ! ! ! _ { o...;.*.../ _ _ _ / ^ ! { _ ^ ( ! ! _ _ ! ^ _ ^ _ %.' H _ v v d G ! ! M G ! ( R { p.{ m b H 1.N.n.k.i.R G R _ _ E ` o.o.{ _ &.*.o._ ^ ( ^ ) ( X.&.o.o.o...5.3X` M G H G d n.bXt.E _ R R E ) o.$.{ o.o.o.O.1.$.$.&.R { o.^ _ { _ 9.+.+.=X].O.) G ! _ _ { o.{ o.X.X.X.{ ..o.o.{ o.{ O.o.&.*.O.1.1.+.O.*.o.E +.+.9.9.+.5.5.1.5.+.D.8.5.D.y.9.5.q.+.5.+.+.+.X.G G G 1.W.#XNXVXD.D.iXD.G 8XW.kXMXcXtXW.!.iXkXaXaX&X3XrXlX3X8X].|.CXlX^ ",
"[.1XD.cXcXcXOX^./.Z._.qXxXxXcXxXdXgX4X[.;.&.,.#.^.;XmXVXVXAXLX4XX.z s G { u.^.oXD.d.G. X;X;X-XoX5X;X;XoX[.{.{.|.oX-X{.`.{.{.;XoX;X;X;X;X.X-X;X,X,X:XoX;X4X+X_.G.^.G._.,XoX[.D.2.#.] _ |.CXvX;X2.} } } @.=.}.-X[.$X|.M.a.M.^.[.g.u.).).^.d.g.2.] } { f.*Xz & 0 H ! 1.jXbXxXZXAXzXNXbXcXoX1XNXbXVXgXiXSXAXSXSXCXNXGXoXG [.CXAXSXJXzXn.*.E b b / -.d.D.F.G._. X`.[.^.D.D.D.^.1.y.#.1.D.[. X^.^./.^.).^.(.D.D.D.D.N.m.N.b.u.u.u.u.a.N.t.u.f.a.i.u.r.=.} } g.{.:XGXZXI.1.! ! M / _ $.-.=.%.&.=.1.=.=.%.%.1.%.1.3.1.d.a.G R n.8Xl = 1 b H 1.ZXZXk.=.=.-.6.r.p.y.y.r.%.=.r.2.y.r.t.%.} {.b.e f b.7Xi.} N.#X$XL.T n m M G ! ! ! ) { ..o.o.;.( ( ) ) _ _ ` ` ` { ) _ _ ( ! ! _ ^ / ^ ^ ) H { G G ! G G ! ! ~ M b _ ( { 1.1.H ! ^ 2.D.M.a.O.R ! R G ^ ) ^ o.o.E ( X.{ o._ _ _ ` ` ! ( _ { _ ) ` o.( &X/.y G c d v kX5X{ ) R R E G ) ) { ) _ ) _ o.o._ ! G R ! _ _ v v o.$.@.1.w.W.e.5.) G G ! _ _ / ....{ { ..) ) ) { X...o.o.O.&.*.*.*.&.*.O.+.@.+.$.*.*.$.9.5.9.9.{ 9.W.D.q.q.q.9.q.9.O.^ ^ / G G G D.W.#XNXCXCXD.W.bXhX[.iX3XhXiXlXcXpX0XrXaXtX2X#XrXiXpXtXp.G &XtXJXD.",
"8X;X XwX0X;X>X:XOX<X<XwXcXvXvXdX.X<X,X-X).~ N ~ b.6XzXcXIXnXAXKX3X) z v G #.N.d.} ] f. X-X+X-X+X-X{.{.{.D. X{. X X X[.oX_. X{.oX}..X}.OX.X.X-X-X+X{.F._.{./.G.D.u.N.^.}.G.v.1.} ;._ -XDXcX(.u.] _ / / _ g.-X8X}.OX/.N.s.a.M.[.{. X).D.G.N.g.3.1.2.%.0.$Xz + - b G 1.;XLX;X;X;X{.AXbXbXvX8XbXcXcXbXbXVXAXbXAXCXCXCXcX}.cXZXcX8XSXSXlXn.*.) m G _ %.t.D.G.D.F. XF.D.D.D.G.).).u.1.D.). X/. X^.^. X^.D.D.D.v.N.f.N.v.a.g.u.i.-.%.=.a.u.6.u.u.s.>.*.@.} M..X;XGXVXn.i.&.M ! ! ! _ @.$.%.%.&.=.=.>.=.1.%.%.1.1.u.u.2./ } 1.j.|.9 + * d G %.LX;XV.r.-.-.=.9.i.y.1.2.#.-.r.2.r.r.u.%.g.| ! / } -.$.-.2.>.t.I.$XI.Y n M H ! ! ! { { { { o.o.) _ ..) ) _ ^ / _ _ _ _ _ ( ^ ! ^ ^ E ^ / { f v ^ ^ ( H R ! ! R R M ! { } { / ! / 2.b.g.i.=.) E E ! R R E ^ ! ! _ ! ^ _ _ ) ^ ! R R G R E ! ! ! M ! E j.z.q b s e ^ VXg.^ ) ^ E R _ ) ) { { _ _ / { { ^ v G G ! G R ! _ { { / ] { p.E.c.7.) G M G ! _ { _ _ { { X._ { o.{ X.o.o.O.$.O.*.O.&.O.O.+.+.O.$.+.@.{ +.*.5.9.$.G G 9.y.9.5.9.9.9.$.) ^ G G d D.W.!.CXGXCXbXMXmXNXNXNXNXlXkXtXtXcXpXaXiX3X3X*X&XiXiXiXpX3X3X3XrXMXD.",
"-XbX-X;X8X8X8X1X:X:X,XfX5X-X<X5X.X:X4X}.;X/.#.A _.6XdXgXvXzXxXVXLX3XX.z f G ] 1.%.t.[.}.}.{.{..X_.D. X`.{.{.{.oX[._.G.{.G.D.[._. X[.[.Z.[.[.[.^.F./.F.N.N.g.D.G.)._.).G.g.#.} / ..:XJXxX2X/.s.@._ &.#.@.v.OX-X-X}.b.i.>.k.Z.^.).).^.G.D.v.g.2.1.3.2.f.].7 X ; l G 1.,XwXxXcX+X%.8XgXcXzXcXxXcXxXnXbXNXVXVXCXCXVXNXCXPXAXAXcXiXSXVXGXcXn.*._ M M ] #.t.h.D.g.b.g.u.g.h.D.D.G. XD.G.^.(.(.F.^.^.T.D.N.N.g.f.f.g.f.g.v.a.a.2.u.f.f.a.u.2.@.1.2.-.} ] M.}.>XGXNXz.6.=.! G ! ! ` _ @.@.$.%.-.=.1.=.=.1.1.1.1.1.1.3.2.u.t.} ( p.8 . $ y f %.KX^.9.r.=.5.-.r.t.9.t.r.{ @.2.u.r.1.} u.u.=.2.} #.%.=.%.%.>.,.g.M.].W.E n b ! ! ! / { { { ......` _ _ _ { ^ { X._ { _ { / ^ ) ^ ^ ^ ^ / ) G R R ^ ! ! ! ! G G ! M G / / / H / 2.b.z.n.0.) ) R ! R R E G E ^ ) ( ^ ( _ ) ) ( ( R G R R E ( ! M v R ) R.i.1 c q 0 { NX1.^ _ ..) ) { { ) { ^ ! / ^ ! ^ G G G G G G G G ) ( G ^ / / #.0.x.E.w.) R G ! ^ { { { { { ..o.&.{ o.&.o.@.O.*.&.*.O.&.$.O.O.$.+.+.{ _ { +.$.9.9.$.) $.5.1.9.9.y.q.9.*.{ H G G $.D.W.CXHXVXNXkXvXNXNXbXmXNXjXMXlX3X7XpXhXrX3X&X$X*XtXiXtXiXaXiXD.*.!. X",
"/.0X8X0X5X5X8X8X1X<X<X;X^.).OX;X:X.X;X:X<X4X).g.<X4X4XqX6XfXvXzXAXJX8Xo.f f G %.D.).F.D.G.^.~.^. XG.D.D.`.[.G. X XG.1.D.D.u.D.D.Z.UXM.r.d.N.Z.v.~._.G.M.u.1.d.D.D.D.g.2.#.{ ! 1.tXLXzX-X/.r.#.@.} %.u.r.M. X}.;X|.g.>.r.g.b.N.d.D.D.G.D.N.d.v.3.D.M.t.&X7 X ; t b t.JXAXAXcXxXOXoXvXfXwX6XqXzXxXcXNXnXNXCXCXCXVXAXnXbXNXVXAXSXCXZXAXJXxXR.o._ H G H } %.1.} #.#.%.1.1.f.d.f.D.D.d.f.h.g.N.D.b.f.d.u.u.a.2.2.t.2.r.u.r.t.r.u.u.u.s.s.=.} @.%.} @.~.|.>XLXvXn.i...! H G R ( / o.$.-.@.-.=.=.=.2.2.,.1.1.1.1.1.1.1.#.H H  Xn.1 o ; q d %.KX[.V.s.V.=.V.r.t.u.1.%.1.%.r.u.s.=.{ #.=.%.y.1.#.1.-.@.} #.>.s.9.9.].Q.E m v b M G ) ) E ` ` ! ` ! ( ! ! ( ` ` ) ^ ! ( ! ) _ ^ ^ ^ ^ R ^ ^ ^ ! ! ! R ( E ! ! H ! G ^ _ ^ / 2.g.u.n.p._ ! E ( ( R R R R G E R ^ E E ) ) ) _ ) _ { ` ( ) ! ! M b ! m j.T.% d e q ^ xX1.) _ { { { ) _ / R G ! / / / / ^ H H G ! ! ( _ _ ! G G ^ / { $.f.R.L.q.X.! H R / _ _ ) { { &.{ { o.o.o.o.@.o.&.$.$.o.@.O.$.{ @.{ { +.{ $.5.D.$.{ +.*.o.$.*.1.5.1.*.{ G G G 1.D.Q.BXCXSXCXcXbXBXCXNXBXCXNXmXbXmXlX&X3X2X3X3X8X[.$X*XrX*X*X3XtXrX&X2XD.",
"^.<X8X4X8X<X<X;XOX X:XtX>XM.^.-XOX,X-X-X:X<X4X~.~.[.4X4X4XfXfXgXfXnXJXiXo.n M ! r.y.2.2.t.r.t.u.u.f.t.1.2.%.2.r.y.u.1.1.$.y.1.u.V.V.V.V.V.-.V.>.r.3.V.V.-.,.V.V.1.1.} / ] _ r.hXDXgX[.[.N.@.@.] =.#.r.a.M.^.[.{. Xv.t.u.M.N.t.b.g.r.u./.G.N.D.F.{._.s.'.7 X o u G 2.+X_.fXcXcXxXjXjX4X{.+X[.[.qXcXcXVXCXCXCXCXAXAXAXCXbXVXAXVXAXAXAXAXSXCXT.o.} G G G J / { { { { { @.%.%.%.%.*.$.#.%.$.1.,.1.1.1.%.%.#.@.} { ] ] @.@.@.@.@.} } { } / } } } %.(. X<XLX6X&.o.@.! U M M C.! ) @.-.=.$.-.=.>.=.%.y.p.0.1.@.1.1.1.1.#.#.=.(.T.- o ; 0 s %.KX[.1.u.i.1.r.u.v.y.t.1.$.#.2.t.s.r.=.-.$.-.r.a.r.9.=.-.&._ ;.r.&.@.1.T.E.E m v ! _ _ { _ ) _ / ( ! ! ! R ! ( ( ~ ! ! ! ( _ ^ ( R H ! R ^ ! R ! ( ! ! ) { { { { { ! _ ! ~ t.b.g.a.9.( R R G ( ^ E R R G R R R R E ! ! ) _ H ( ) *.5.) ) ) R G G ! G z.z.% t q 2 _ VXi./ / / _ .._ ] H } $.O.X.^ / } ! ! H G ^ _ _ { ) ! R ! ~ _ } @.#.&.R.&Xj.o.^ ! H ! ~ G G ) _ R / ) H ^ ^ ) / _ _ ^ / G / ^ G G / / G ^ G / { ^ ^ / / E { / { } _ { G G G 9.D.#XCXSXFXCXGXCXFXBXbXNXCXNXBXVXNXMXpX0XtX2X8X XD.R.}.&X2X3X*X*X3X3XrX3Xz.",
"OX,X:X;X;X;X8X-X/.dXGXCXhX>X9./.;X:X-X;X}.|.-X~.UX3..X5X9XfXqXfX0XfXVXSXhX5.x M ~ / / { ;.` ` _ { / / _ _ _ _ / _ _ J { _ { _ $.;.;.-.;.;.;._ ` ` ~ ` ` ;.;.;.` J / / / _ v.vXAXgX/./.~.s.>.=.=.a.u.u.v.m.^./.M.s.a.B.N.b.u.6XfX-XM.2.g.~.~.D.b.F.(.N.].- o X 8 f 1.%.H .XvXnXvXwX5XOXNXCXmX:Xd.8XjXbXCXCXCXCXAXAXCXCXCXbXVXAXAXZXAXZXCXZXAX|.p.1.@.) { { { $.$.1.1.@.o.@.$.*.1.$.1.1.1.%.1.1.$.1.$.#.#.@.@.{ { } @.} @.} $.#.&.&.%.%.%.%.t.G. XtXLX>X7.&...( ! b b M C.! / $.-.=.6.=.=.=.-.g.dX>XD.R.f.1.1.%.{ &.=.&.C.k.7   X 2 y %.KX[.r.a.r.s.y.b.b.<X0X|.R.x.=.2.2.-.r.-.@.$.r.a.s.r.2.=.$.&.-.r.-.@.@.&.I.l...E ^ E ^ _ E ( ( ( U E ! ! R R ) ! ! ! E ! ! ^ R ^ ! ^ G ! ! ! ! ! R ! ^ _ { ) ! ! ( H R / t. X1.z.O.R R E M G R R R G G G G E R G R m M ! ^ a.8Xz.e.#X#XX._ ^ G G ! G R.0.% q 3 2 ! bXD.&.{ .._ @.o.] G.8XD.w.].P.^ } / / ~ / _ } o._ ! ! ^ / { _ { { $.{ p.'.q.9.9.&.@.o.@.1.@.@.1.1.$.@.1.1.{ &.1.$.9.@.&.$.o.$.+.1.%.$.$.$.*.} $.$.$.} $.} *.$.} } { { J } D.E.*XFXFXAXZXCXCXCXNXNXcXCXCXCXCXCXNXlXpXiXtX7X[.3X3X2XFXpX&XiX3X3X>X*X3X].z ",
"~.v.;X+X{.OX+X[.M.AXCXLX8X(.s._ _.;X-X-X[.[.-X-.B.~.Z.-X,X9XdXqX6X6XdXxXJXhXm.n.v.a.f.z.B.v.N.n.v.N.N.M.M.M.b.D.D.D.D.D.D.D.D.D.N.Z.UXUX^.). X[.[./.~.M.N.UX/./. X(.[.D.}.NXNX5X[.M.^.N.r.t.s.B.M.~.v.a.v.M.M.u.B.b.v.N.2.4XKXVX}.D.F.@.b._._.G.).).j.'.; X X 0 d u.;Xt.{.9XjXcXgXG.5XGXzXNX'.r.3.wXIXAXCXCXVXAXCXVXVXCXbXlXSXAXAXZXZXCXZXCXJX8Xy.R.2X2X8X$X&X&X&X&X&X$X'.$X&X&X&X&X2X&X2XoX|.#X].(.'.P.'.$XD. XD.|.oX(.T.(./.(.'.(.D.T.M.R.].zXLX&X7.&.../ ! ! M m M ! _ _ &.=.V.=.=.=.=.,.+XLXcXr.y.&X X{ { { #.>.=.=.m.- o + 2 y $.KX/.r.a.a.s.f.N.{.KXzXR.'.z.f._ } =.=.=.=.-.r.y.i.9.r.=.-.=.6.>.=.@.@.@.@.p.9.O.9.o.X.{ o.@./ ) *.*.&.&...o.*.$.O.o.O.&.O.) o.{ { ......{ o.` o.O.O.o.o.) X.*.*.+.+.&.$.1.x.(.E ) E G R R R R R R R G R R R m m Y m G ) } wX<Xm.E.%XMX8.( _ G G ! G c.a.% q 3 q ! NXg.o.u.$._ @.} 4.ZXVX#XL.W.lXO.#.} _ _ { { _ _ _ ^ _ { { } _ ` _ { { o.O.L.l.w.w.0.7.5.0.j.9.0.p.9.m.].R.R.E.E.E.L.*X'.3XE.D.D.D.E.#XrX&X*X3XuXuXrXrX3X=X%XuXrX&X=X=X#XD.W.&XNXVXZXCXSXCXCXCXCXVXNXNXCXBXCXBXCXMXlXiX&X&X).LX*X!.3XLX].2XiXiXrX&X*X$X&X",
"f.v./.OXOX<X+XD./ }.xXhXa.! A f g..X;X-XOX4X,X:X.XZ.}.-X-X9X9XqX6X5X4XqXcXZXJXJXJXGXNXxXKXPXDXmXCXGXPXJXJXJXJXGXSXSXCXVXPXAXSXNXAXZXDXDXnXVXZXZXAXAXPXzXIXxXJXDXJXAXCXCXCXfXOXM.M./.Z.n.g.g.g.Z.[.^.F.v.a.a.a.r.M.n.V.B.%.8X>X}.T.y.! v %.^.{..X+X^.i.#X- o o r d g.IX.X6XzXbXnX5XN._.wXbX8Xo.1.G G.vXnXCXCXAXAXCXCXCXCXAXSXCXAXZXAXZXCXCXCXCXJX0X0XFXcXlXtXNXbXCXNXNXcXlXNXcXlXcXlXmXNXmXmXFXgXiX3X].c.3X&X3X#X&XlXtX&X&X&X&X$X&X]./.(.(.T.&XCX[.*.O._ ! ! ! U M M U ! _ ] @.=.V.V.V.=.1.2.+XxX}.1.1.v.y.G { { %.=.-.&.M.-   X 2 d } LX[.r.a.u.u.g.t.`.nX{.^ ^ m _ G &.%.s.=.1.=.r.r.r.u.=.%.r.t.=.-.-.@.@.@.*.*.z.|.(.$.a.z.@.*.*.@.i.(.&.a.9.=.z.@.O.o.) 9.f.z.E 9.+.X...+.1.O.&.M.$.X.{ o.) o.D.O.9.+.*.O.+.0.c.R R ! U m R E ! R R R R R E ( R m m m m R ,.eX3./ -.q.#X+.! ! R R ! R 0.1.% q e q G bXa.{ o.@.{ @.@.u.cX5X0.+.+./.{ ' } } { / { } _ _ _ _ { @.o._ ` ^ _ { o.*.i.x.q.E.'.c.L.E.c.E.E.c.w.x.P.D.c.c.j.c.x.3X*XBX].W.#X!.rX3XsXaXaXMXaXsXMXBXMXsXaXBXMXsXMXMXsX=XaXNXHXCXSXSXSXCXCXCXFXCXCXCXCXVXCXVXMXMXNXiXT.#.F.:X@.e.Q.*XX.$XpXpXaXiX3X$X*X",
"D.f.f.{.OX-X;Xg.c ,.u.} A c q y >.^..X-X:X;X;X;X,X[..X5X-X4XqXdXqX5X4X<X4XfXcXxXxXhX~.>XgXhXcXzXcXcXzXzXdXoXM.dXzXzXdXqXfXiXjXvXzXgXgXgX>X,XcXzXzXzXgXxX)./.xXgX0XhXgXfXqX{.N.r.g.M.v.N.b.b.~.[.$X[.[./.a.t.2.y.f.r.2.v.} t.N.! v x y 0 / G._.[.}.^.v.$X; o X r s D.wX:XjXVXZXbX1X3.| d.b.1.v H G D.wXnXVXAXAXAXVXCXAXAXCXCXZXAXAXZXZXVXCXCXCXZXHXSXNXCXNXNXCXFXFXNXFXCXFXmXkXlXFXNXbXmXcXmXCX7XtXxX&X6XxXzXCX&Xz.cXlXpX8X&X2X2X3X2X|.&X$X&X2XP.O.o.` ( C.C.U M M ! ! ! / @.&.-.r.V.=.=.2.%.u.`.3./ G G e v _ } =.=.%.] r.- o X 2 y } KX-Xr.t.s.i.u.2.%.D./ b J b 3 f } %.=.-.-.=.9.2.-.=.*.$.1.s.>.%.@.@.@.@.-.$.s.r._ A p.B.] @.) ) _ M.y.=.O._ ( _ ` _ { *.1.&.G E ) ^ ) ) @.R s.r.m ^ R ! ! ! R ( ( R R G E E m E M G G G R ^ E E R R R E E ( E M Y m m R ' h.[ C H ) z m ` ^ ^ ( _ G w.1.$ q 2 2 J xXf.{ o...o.@.%.| g.1.G l n G v ~ _ _ / _ } _ { _ { { @.@.] _ _ / _ _ o.*.r.j.L.R.W.Q.W.W.Q.W.3XW.Q.L.W.L.e.e.E.].Q.W.2XaX|.W.pXrXuXrXrXrXuXsXsXaXMXMXMXaXsXaXaXaXaXsXsXsXBXFXSXSXGXSXZXCXCXCXFXCXCXCXBXCXNXbXlXMXNXiXD.' K :.K / X.E 0 #XpXpXkXaX3XaXq.",
"y.oXv 1./. X).g.H g g i e e > b s.^._.}.,X;X;X:X:X-X.X:X4X6XdXqX6X1X8X1X;X}.:XOX5XdX6XqXZ.5XzXzXgXgXfXdX;XD.r.<XhXhXvXjXfXwXwX0XqX9X6X9XdX9X4X).-X:XdXhX4X7XgXtXdXfXiXdXoX XF.d.s.~.}.d.N.^.[.oX.X.X[.|.M.f.f.N.v.f.g.N.%.G | b q 1 1 * _ M.^._.[._.s.].7 o o t v f. XfXxXnXbXIX0XD.J  .J H c f G G.@XcXCXVXAXCXCXAXnXCXZXCXAXSXZXZXCXZXZXZXFXCXSXJXLXLXKXLXLXLXLXLXGXCXLXNXcXGXGXLXCX&XHX0XzXiX>XxXNXLXJXJXLXxXmXFXCXmXNXNXmXNXlXGX&X2XiXiX(.O.@.` ( C.U U M ! R ! _ / _ ..@.=.r.r.V.2.1.#.' L [ c e 2 1 M _ _ &.>.-.@.z.=   X 2 p ] JX$Xu.u.r.r.r.1._ K g K g 2 $ b } %.&.=.-.=.1.r.$.-.=.$.=.r.=.&.#.@.] &.-.=.&.$.` ( r.6.&.&._ ( o.i.@.$.@.{ X.{ ) ) o.{ o.R ! ( _ _ ....{ / ^ ~ ! ^ ! ! ! ( ( ( ! G G G G M R G G G G R E ^ R ^ R R R E E ! R U m m Y m ~ h i q g f 0 l ` ! ( _ ) E 1.&.% q 2 1 _ cXy.{ { _ _ } @.' Z G f t d 2 b / ~ } _ ] _ _ _ _ { @._ ] ) _ _ ..;.*.*.=.9.j.'.#X].#X].#X&X5.;X].Q.W.W.W.W.&X*X*X*X*XW.#X!.rXNX&XaXuX=XaXsXrX=XrXsXsXsXBXBXBXsXMXHXHXFXJXLXFXFXZXZXFXNXCXSXCXCXCXCXCXCXCXNXBXNXBXmXtXW.| d 5 g g c 3 l ].3XaXaXiX3X2X9.",
"&.{ { {.M.b.F.F.} q 1 2 2 * 2 =.UX/._./.;X-X:X:X:X,XOX:X7X9XqXqX4X4X<X;X-X{.).N.{.1XiXfX X-XvXdXdX6X9XdX6X{.oXOX0XdXdXqXqXqX0X0X9X9X6X9XdXfX9XV.UX,X9XdXgXgXdX7XhXdX0X-X[.M.g.~.Z.[.}.).|.).^.[..X.X/.~.b.N.M.M.M.v.b.N.1.G e q 1 % $ y =.b.(.).).[.9.'.-   . u d g.jX0XcXnXnXIXvXOX#.f b d d 2 3.+XjXbXnXAXAXVXCXVXnXCXCXCXCXSXZXCXZXCXCXSXCXJXcXfX0X5X6X5X4X5X1X1X;X8X:X:X8X-XOX<X1X`.{.XXoX{.oX;X{.4X5X4X4X5XqX5X9X4X8X,X:XOX[.;X/.~.(.:X6X....( ! R A M U M ! ( / _ ) / @.=.r.r.r.V.>.@.H g i 0 & % 3 ! / { @.=.=.&.m.0   X 2 d ] JXI.i.N.i.r.1.$./ c 2 * # O q _ } $.-.-.-.=.=.=.=.-.-.@.=.1.=.#.@.@.@.@.%.$.&._ ( ` &.*.o.@.X.! ` _ _ @.@.{ { _ _ _ { { { ^ ! ( _ _ _ ..^ ( ( ! ! ! ! ! ! ! ! R ! ! U m G m Y m R R R R ^ ^ E R ^ ^ ! E ^ E R U U U m m v e 2 $ $ $ 2 v E ( ( ^ _ ! y.1.$ q q 2 ! AXu.@.&.@.o.{ } / c 1 % 1 * 1 H H ! o.@.o.] _ / _ @.@.@.o.@.;...&.*.&.5.6.6.c.2X0.O.j.c.x.f.^ D.D.0.j.1.q.q.D.m.&.9.x.l.D.5.D.D.D.oX+.D.[.>XD.q.D.D.D.D.8X[.2X|.W.oXoX2X7XiXGXZXCXFXSXNXCXCXCXFXFXFXCXCXBXNXNXlXMXlXpXoXr.h 1 * 2 * X X.%XrXiX2XrXMX&Xq.",
"m.y.t.oXM.y.~./.t./ d 2 3 b t.^./.[.{.{..X.XOX:X-X-X;X:X5X9XqXqX5X:X<X;XOX<X:X+X:X6XqXdXvXfXdX6X4X:X5XdX6X}.{.(.-XqX0X0X0XfXqXiX6X6X9XhXgXfX6XV.{.gXfX9X7XdX4X7XdX5X:X|.(.u.D.(.^.|.-X:X:X.X[.[.}.OX^.F.N.~.F.f.D.b.g.g.N.%.v 1 = = 3 } F._.[.{._./.a.].; o o u d D.wX8XIXxXnXIXcX5X`.2.f d g ,.`.wXnXCXVXbXZXZXCXAXVXCXZXCXCXCXAXCXZXZXVXVXLXjX{ K K G b K g H K G G G K h g g g h G d 6 6 G G K H K K K K K K L K K L K K K K S C Z Z c K r.&.X.( ( C.! ! U C.H _ ` _ / / } -.r.s.s.2.=.@._ A e 1 1 q G / } } #.=.>.@.*.8 o X 2 s / JX).N.M.a.=.1.1.1.~ f q 0 f _ } $.@.$.-.-.9.1.=.1.=.-.$.$.=.=.&.@.@.@.@.@./ ) / ( / @.-.@.@...` ` ) @.=..._ _ / { X.{ { / _ ( ( ^ { X.{ { / ( ( R G G U ! ! U ( ! ( R M R R R R G R R ( ( E ^ E ^ E E ^ E R U R R U Y m m l 3 & * q v G G ( ` ) ( G j.j.+ q q 3 ^ :Xo._ $.=.@.o.} { J 3 1 % 2 v J ! ^ { @.@.{ @.{ / { } o.@.&.&.@.*.-.=.6.6.0.z.x y d 2 d i d f d d e 5 2 2 3 1 1 2 1 * 3 & * < @ 4 @ & : : & : * & 2 * = 1 @ * @ $ 1 1 1 d E &XLXFXCXZXSXCXCXCXFXCXFXFXNXbXNXMXMXpXmXlX3X].%.q # $ = _ P.*X3X2X3X].iXW.5.",
"/.5X}.v.M.r.v. XZ.a.B.Z.Z._.|._.OXOX>X,X>X_..X-X:X:X,X4X4X5X5X5X6X,X;X.X-X6XqX:X:X6XqXqXfXdXqX9X6X5X9XiX4X;X-X_.-X6X9X4XdXfXdXdX9X7X6XdXgXdXdX6XdXhXdX7X:X4X7X7X,X,X-X).s.B.-X-X-X-X,X,X-X}..X.X[..X X~.[.).~.t.v.Z.Z.g.Z.n.2._ ~ @.a.~./._.b.;XdXOXi.'.; o o u y D.D..XvXnXnXnXzXwXfX9XOX`.+X@XwXIXAXnXVXnXjXdXAXAXCXZXCXAXCXSXZXSXZXSXfXcXfX/ e i g f g f g g d d d i f i g c g C g g C C J L Z b C K K K L L L L L L L L L  .L L L L L J J ~.I.E ` E ! ! ( ( ` ) ( _ _ _ @.1.=.s.r.2.%.%.%.@./ ~ H / @.{ } @.1.u.3.o.t.0   + 1 y / PX[.9.i.V.#.=.r.6.=.@._ _ ;.@.@.-.=.&.@.$.1.1.*.=.=.&.$.@.-.2.&.-.&.@.] _ _ .._ ) _ @.@.@.@._ _ ` ! *.9._ _ ^ _ _ { { E ) _ ( ^ ) X._ _ _ ( ! ! U U M U C.M ! ( ` ( ! M R U C.U C.R ! _ ( ^ E ) ^ R ! ( R R R E R R Y M m M n n M R ! R G ! ! ( ) E $.1.& q q 2 _ zX$.! ` { 9.$.{ _ / / G H H ] / _ ^ { } $.{ { { { _ { @._ O.$.&.&.&.*.&.9.i.9 = q 3 5 5 5 a h h h h h 5 3 3 3 2 : 2 : : @ : < < < : < < < : < < < # # # # # < 4 # # < < 2 M ) 2XHXCXZXFXCXFXZXFXFXFXFXNXmXMXMXBXkXkXMXMXrXoXD.} $.n.#X3X3X#X1.q.W.'.E.*.",
"oX:X[.oX}.}._./.^.Z.Z.[._.[.[.-X:X:XOX>X;X{.[.{.}.:X4X4X4X4X4X4X,X,X-X.X}.[.-X-X,X7XqXqX9X9X9X6X6X9XdX9X<X;X5X9X5XqXfXfXfXfXfXdX9XdX9XdXdXdXdX9X9XdX6X6X,X,X6X4X,X;X-X[.s.UX,X,X4X4X,X;X[.}.}.}.-X-X.X X}.[.[.N.t.a.n.N.B.d.r.V.2.v./.).[.OX;X<X,X_.6.#X$   . y d u.nXbXjXbXbX5XfXqX4X4XqXvXvXwXjXnXAXAXAXnXOX4XZXCXCXAXCXGXCXSXZXZXSXCXLX8XG 4 3 = 2 3 0 3 0 0 3 2 e e 3 e d i i i e d d i g H i e e h c b g K H K K L J L L J L H J L K K / 2.B.` ( ` ( ! ( ) _ _ _ _ _ { #.*.2.=.=.-.$.%.%.=.#.} } { { / ~ @.^.u.1.$.9.w   X 2 d / ZX[.i.r.6.-.6.=.6.=.@.} @.;.-.-.-.=.%.=.*.=.=.=.=.r.$.$.{ &.%.-.=.*.&._ @.@.@.@.@.....) @.;.;..._ ` / _ _ _ ( ^ _ { / / _ ` { { { _ _ ( ! ! ( ! R U U U ! E ( ( ( U _ N.M ! ! R ( R ( ( ) ) ^ ^ E E R E E R ( ( ( R R M U U U U R R R ! E ! ( ) _ E 8Xz.X e q > H NXf._ &.o.0.i.` { { _ { ] ] { _ ^ _ { o.@.o.{ { { @.{ { _ { &.*.*.$.*.9.*.0 & @ & % $ # < , 4 4 4 , > > 2 2 4 4 4 4 4 * @ # 4 < < < < @ # # O O # O O O O # < 4 # O O @ : f M ) 2XLXBXCXFXFXCXDXCXCXmXmXmXmXMXmXlXlXyXkXMXrX3X3X=XiXiX%X#Xx.0.1.f.|.E.D.",
"m.:X|. X-X;X-Xb.).).UX).[.[.-X,X4X4X-XOX{.|.OX/.~..X-X,X,X:X;X,X,X,X:X-X.X:XXX.X:X4X6XqXqX4X4X6X6XdXfXqX6X-X:X1X4X6XfXdXfXfXfXfXgXdXdXdX9X6X6X,X6X6X6X4X>X4X7X7X<X-X-X[.UX[.:X,X,X:X,X-X-X-X-X-X-X;X.X XOX}.}./.s.a.B.V.-.t.s.V.t.b./.OX[.;X9X,X-X.Xj.].; o X q d f.;XqXbXjXvX9XcXwX:XwXvXcXjXwXcXIXnXAXVXbXVXZXCXCXCXZXSXbXCXCXZXZXZXLX,XG 2 2 * & * 2 3 2 3 3 2 4 3 3 3 e e e e e e d d i e y d e e i i d d f d g c v c c b b f c f f f b ~ ] -.V.&.` ( ` &.@.` _ ` _ _ { $.$.=.=.#.&.&.@.@.=.1.#.#.@./ { @.#.g.2.2.o.v.t   + 2 y } LX[.9.i.$.=.=.=.-.=.&.&.&.-.@.-.6.=.$.*.$.$.*.&.=.r.*.$.{ { { &.@.*.#.@.@.@.@.*.;.;._ ..@...;..._ ` _ _ _ _ ^ ^ _ / ) ) ) { o.` ) _ ^ _ ! ( ! ` ) ( U ! ! ! ! ! ! ! C.C.M ( ! ( ! ^ ) ^ _ ) ) ) E E ) ) E ( ) ) E E ( R R U ( R R U ( ( E E ) ) ) E 0.o.$ e q > b zXg._ @.a.9._ _ _ ) { ) { { o.{ ) _ { { O.+.1.+.$.$.....o.o.&.@.$.&.*.*.z * @ @ o . X . O % * % $ % = = * & % % : * * # @ @ < @ < # # @ @ O O O O + . . O @ # @ O + @ < 3 d f G E &XLXFXDXFXBXDXFXmXMXlXlXrXkXkXMXMXrXrXMXlXaXaXpXaX2X%X#XD.9.x.9.*.Q.W.",
"z.{.-XN.$.d./.F.[./.).[.{.OX:X-X:X<X:X>X.X.X-X).~./.XX;X,X<X,X,X4X:X,X:X;X-X[.^.-X4X4X7X9X;X,X4X9XdXfXdXdX6X4X<X6XdXdXdXdXfXgXgXgXdX9X6X4X:X-X>X}.,X6X4X4X7X7X4X4X,X-X.X.X-X:X,X:X,X,X:X-X-X-X>X;X>X-X:X>X|.oX}.~.s.>.,.s.u.r.>.g.^.^.[./.OX:X;X;X$Xj.I.;   . r y D.b.;XjX1XD.1.,X5X0XxXcXnXnXnXcXjXnXAXCXZXZXZXSXCXSXZXSXVXCXSXZXZXLX+Xc 4 4 1 & 2 f b M M b M G G G G H H ! J J ! ! J ! ~ ! ~ / ~ ! ! J ! ( H G G H H J ! H H H G H ! H ! A H ~ ;.5.&.X.( =.@.( ` { _ _ _ { $.-.%.-.-.&.@.%.>.2.1.#.%.@.@.@.%.! / 2.f.1.w   . 2 p ' JX-X=.9.=.=.=.*.@.-.$.=.%.&.o.@.V.=.$.=.@.@.$.$.$.=.1.@.@.{ _ $.=.@.&.*.@.o.@.=.*.......@...;.;.) _ ) { _ _ ^ _ _ ^ ) { { o.{ ! _ / ! R ! ! ( ! ! ( ! ( ( ) ( ) R ! U N U U ! ( ( E ^ E R E ) ) _ ) ) ) ) ) ) ) ( ` ( ( ( R ! ! E ( ( ( ( ) ) ) o.) 9.1.+ q 0 2 b NXu._ o._ { O._ ` _ { { o.@._ _ { o.o.{ 1.1.@.1.*.&.o.{ ..@.&.@.o.0.&.y * % O X % q _ % q 1 1 e b v p y u 2 f s 8 3 e q d d d G G d G d i d e e 5 d d d i q 2 d d d w 4 2 3 d f b ^ &XLXNXlXNXJXFXmXlXlXMXtXyXyXMXMXMXBXsXpXsX3XrXiX=X*X#X#XD.E.*X&XR.E.",
"M.(.-X$X~.^.}.[.UX[.[..X}..X-X[.}.:X-X.XOXOX.X{.{.}.-X;X,X<X,X4X,X>X>X-X>X>X.X}.[.,X4X9XdX[.~.,XqXdXfXdX6X:X-X^.,X9XdX9XqXfXgXgXgXgXdX9X4X:X^.UX[.:X,X,X7X4X4X7X4X:X:X>X-X:X:X,X:X,X,X-X-X[.).|.}.-X:X:X:X-X[.}.UXs.2.t.M.~.~.[.Z././.[.^..X-X.X-X}.k.I.;   . 2 d G.AXcX5X;X3.f.<XjXIX4X5XbXnXbXnXnXAXAXZXAXZXZXFXZXZXZXZXSXSXZXGXLXoXg 4 2 1 # 2 c H / _ / } ] / / ! { %.@.#.{ _ %.%.&.1.@.%.@.%.@.@.%.=.=.%.@.{ / ^ { } %.%.{ @.{ { { ] _ M b Z A ~ -.5.X.s._ ! _ { _ _ o.@.@.@.#.=.-.o.@.=.{ #.1.1.#.%.*.1.} ! 1.u.J i.r   X 2 y } LX:Xs.r.=.$.$.&.$.-.=.=.9.-.-.5.V.6.&.-.@.*.%.%.-.-.r.O.$.o.{ @.-.*.&.6.-.-.&.=.-._ ) @.@...;..._ ` _ { _ _ ..{ ) ) _ { { _ _ R ^ ) ( _ R ! ( ( ( ( ! ( ( ( ^ ` E ( ! E ! ( C.R ( ( ) R R G R ) _ ) ) ) ) ) X.) ) R ) X.( E ( ( ^ ( E ! E ! ) ) _ E T.9.; e q = H AXa.` ..X...o.o._ ) X.o.o.{ { X.o.+.$.$.=.*.9.*.1.O.+.{ O.&.&.&.*.1.d 1 & X X & l v s v c v q d C.p x v y l M M x f x x d G G G G d G G M M b M M M R U R G G R G G k w q 2 3 e b G E |.q.(.LXHXFXBXMXMXrX].tXyXlXmXBXkXiXaXpXlXrXrX=X&X#X#X].W.].#Xx.W.",
"B.M..X:X;X4X7X8X[.[./.[.;X:X>X.X[..X{.).|.[.}..X-X;X-X;X,X<X4X:X4X:X-X;X>X,X,X-X.X-X9XdXdX.X^.4X4XqXqXqX6X<X<X^.}.9X9X9X9XfXgXgXgXgXdX9X4X,X;X/.-X4X4X,X,X,X:X,X,X:X:X:X:X:X,X:X,X4X:X-X.X[.-X[.~.}.:X>X-XoX[.M.B.B.v.v.(./.V.n.N.[.[.).^.}..X.X.X}.r.P.-   + 0 w F.nX5X5X[.f.G.OX0XjXvXjXnXnXnXnXAXAXCXCXZXZXZXSXZXSXSXZXSXCXZXGX_.x 3 1 * # 2 c ! { { / @.=.@.1.1.{ #.%.2.1.=.@.#.2.r.1.1.2.1.r.=.=.=.u.t.2.9.%.@.$.%.r.2.=.-.%.{ %.#._ ] / M x c M C.=.s.t.! n.^ ( { { { { } @.&.&.] { @.@.@.$.%.%.=.%.$.$.#.d.-.s l p.r   X 2 f / JX6Xu.i.6.*.@.$.&.$.=.9.=.-.6.V.-.-.-.@.6.$.*.&.*.=.$.$.@.@.o...*.-.;.@.-.6.-.&.-...` o.;...@.....o.o._ _ { ..) { _ _ ..{ _ _ _ _ ^ ( ! ! ! ! ( ` ( ( ( ( ) _ ) _ ` ` ! ! ( ( ( ! E ! E ( E R ) X.) ..) ) ) ) ( ! R ) ) X.X.X._ E ( ! R R E ) ) _ R j.9.+ y q 2 v nXz._ o.{ { { o.{ _ { _ { { { ..{ { o.@.*.$.=.*.*.1.1.$.*.*.O.*.E 8 $ $ + + = d s s G M v M G M v n U ! b M m b G M M G G G G G G G G G G M G ( ) G M R ) ) R R G G l G v e 1 e f b G R 5.3XHXFXFXNXMXMXkXyXlXkXaXMXMXpX3X3XaXrXrX=X=X%X%X#X].#X#X%XE.T.",
"a.:X<X>X>X3X5X4XOX/./.[.>X:X-X{././.Z.UX[.{.[.[.{..X:X-X,X,X<X<X,X,X-X;X,X>X,X:X,X<X9X9X9X9X,X>X:X6XqX6X6X5X1X;XOX5X6X5X6X9XfXfXgXdX6X9X9X7X4X:X:X,X7X4X:X,X:X}..X}.>X,X,X4X,X:X,X4X:X-X}.[.-XUXM.^. X.X-X}.[.(.UXN.B.N.n.UXs.a./.|..X[.)./.}..X}.[.5.P.-   . 9 t $.8XfXOX6X(.{.wXxXbXxXcXbXVXvXcXAXCXCXZXZXZXSXZXSXGXZXZXZXZXJX).G 3 1 < 1 1 f / { 2.u.%.r.r.%.2.t.%.1.u.a.2.u.r.2.a.a.1.r.a.a.i.s.s.r.a.a.s.r.1.1.1.1.r.s.s.=.{ &.{ $.=.@.&._ b x v v ~ D.-.] M.v ` o.{ o.o.{ $.*.@.@.@.@.$.@.*.1.1.1.*.{ { g.r.>.@.o.9.0   X 3 e } SX>Xn.z.9.=.$.@.$.*.=.=.1.6.6.6.-.&.-.-.-.$.*.-.$.&.&.$.@.@.o.o.&.&._ *.*.6.&.6.&.@._ ;.o.@._ _ { { { { _ { { ) / ) _ _ { _ _ _ ` ^ ! ! ! ! ( ( ) ( ( ( ( E ( ) ) ) ` ( _ ( ( ( ( ) E ` ) ^ ) E ) ..X.) _ X.) ( E ) ) ) ..) X.) ) ! R G G R ( _ ^ G z.1.; y q 2 b nXM.o.o.o...o.{ o.X.) ) { &...{ @.{ ..@.*.*.*.9.9.*.*.*.1.*.1.E 9 1 $ @ + 1 d v x m ! M v m G M M ! ( ! R M M R R m M ! G R ^ ^ G G G G ! ( ) o.......) ) X.X.) ) R G G R v e q e f b G ! x.JXGXBXmXMXMXMXmXMXMXpXMXkXrXaXaXuX=X%X=X*X#X#X#X%X=XrXuX#Xx.",
".XtX-X-X4X4X4X4X.XUX{.|.;X>X-X[.(.~.B.N.UX/.{.{.}.|.).).:X:X<X;X:X,X;X.X4X<X4X,X:X,X,X,X6XqX4X,X4X9XdXdX6X5X4X<X<X5X6X4X6XdXdXfXdXdXdX9X9X9X4X4X:X6X6X,X>X-X,X-X}.:X:X4X4X4X4X,X:X,X>X|.).[.$X).[.[.(.[.-X.X[.(.UXUXM.Z.s.UXB.;.k.[.<X:X-X[.[.[.~.>Xk.l.-   X = e 1.oXjX0XIX5XvXAXnXxXjXxXVXVXvXcXZXCXZXZXZXVXCXFXSXSXSXZXGXJXD.d 3 * * * 1 f _ } 1.u.N.g.s.r.-.t.a.1.1.b.z.r.v.v.v.m.v.r.u.f.f.a.a.u.z.a.a.a.u.1.1.y.9.1.u.1.@.=.D.{ 1.r.>.=.#.] A x c f 9.N.r.d ! @./ _ @.{ @.@.@.{ { @.$.=.*.$.$.1.9.1.{ $.3.} @.&.o.6.8   X 0 e #.SX(.(.k.s.i.@.@.@.=.6.=.=.V.V.6.&.-.V.-.6.=.$.$.6.@.@.*.$.$.@.@.@._ } &.#.@.#.=.@.o...;.*.O._ { o.o.{ { { { { / ) _ ^ _ { o._ ) ! ! ! ! R ! ! @.) ( ( / ` ) _ ) o.) ` ! ( ` ` ( ( ) ! ( _ ^ ) E { +.) ) X.) X.) ) ) ) X...{ X.) ) ( R R R R ( ( R G c.1.X e e q f 4Xm.$.o.o.o.{ o.o.{ o.{ o.{ { o.o.{ { +.$.*.*.9.1.o.E 9.9.9.1.d 1 1 + + 0 v n v x v y v G G R R ! U ! ! R ! ( ! M R R ! / ) E { G G G G ( ) o.o.o.X.o.....{ { +.{ ) E ) _ ! v q q i i b b R P.BXHXmXlXMXBXMXMXpXkXMXaXyXaXaXrX*X=X*X*XrX=X=XrXrXuXaX=XE.",
"^.4X:X4X8X<X<X2X<XOX:X,X-X.X/./.Z.B.A.B.b.UX_.[.[.).^./.}.-X:X}.[.-X>X>X:XB.B.:X>X<X4X6X6X9X9X4XqXdXdXqX9X7X5X:X,X5X6X1XtXdX9X9X9XdXdX6X6X4X7X,X4X4X,X:X:X,X4X4X-X:X7X:X4X4X,X,X>X,X-X[.[.[.}.:X-X.X|.|./.[.~.Z.s.a.k.UXI.~.~.Z.Z.~.-X,X).B.B.[.~.-XR.l.-   o 0 e D.F.D.,X5XxXjXvXIXNXIXNXVXVXCXAXCXCXZXFXSXVXZXZXSXGXCXJXZXg.e 4 1 @ @ 1 d G $.=.s.a.u.N.a.=.=.s.a.r.s.n.u.t.a.a.n.n.v.v.N.v.u.k.g.a.N.a.a.p.s.y.2.y.i.i.s.1.-.1.@.%.-.s.a.9.>.-.{ ~ b b ~ u.M.6.-._ / ) ] @.` @.@.;.@.&.-.-.=.$.$.o.$.-.@.=.=.&.@.*...r.7   o q b ] JX6Xp.r.k.i.@.@.@.*.6.6.=.V.-.&.-.V.6.V.-.6.-.-.5.@.-.=.5.@.o.&.@._ @.&.$.@.-.*.o.;._ ..@.@.{ { { { o.{ { { _ _ ) ! _ _ { _ ` _ ! ! ! ! ! ! U ( ` ( ` _ ) ) ) ) X._ ) R R E _ ^ ) X.^ ^ _ ) ) ) o.o.) ) _ .._ ) ) ) ( E ) X.X.^ R G G ! R R E R G m p.9.@ y q 2 M zXs.=.*.o.o.o._ ) X.o.{ o._ { o.@.o.o.&.*.*.5.6.-.( m o.0.&.d y 1 O $ e n M R n v v G G R ( ( ! ` R ! ! R v G ^ ! M ( ) E ) ) ..) ` ) ! ( O.@.+.&...o.....o.&.$.o.) ` ` { ^ G f i 0 e f c M R p.lXLXlXpXMXMXMXMXlXrX3XpXaXrX=X=X*X=X*XuX3XuXaXaX=XrX!.P.",
"(.:X7X7X^.}.:X:X>X:X:XoX|..XUXB.B.Z.s.B.M.^.).).).}..X[.~.^.{.:X).}.-X-X:X.X{.-X;X-X,X:X,X4X6XqXqXdX9X9X6X5X<X<X;X-X4X6X9X9XqX6X4X6X9X6X6X4X7X,X}.}.2X,X,X7X6X7X4X4X4X,X2X:X:X:X:X.X[.[.).-X|.-X>X.X$X|.UX/.(.B.V.V.r.N.~.|.OX;X>X}.[. XM.V.s.~.M.:X|.i.-   X 0 d 2.5X[.t.cXxXbXbXNXAXCXAXNXCXAXCXCXFXCXCXZXSXSXSXSXNXLXCXt.d 3 1 @ @ 1 G J { $.V.N.b.M.M.b.v.s.r.u.r.B.k.r.a.a.v.M.M.b.n.v.a.a.B.a.N.n.a.z.u.r.a.p.r.a.s.y.s.r.} $.@.@.a.a.s.s.1.=.{ ! ~ b H %.9.@._ o._ ` _ -._ ;._ @.=.6.1.=.$.@.@.o.....@.@.@.*.) o.0.=   o 0 g ] JX<Xi.k.k.9.@.@.@.] -.6.=.-.-.&.-.V.V.V.&.-.6.=.&.@.6.=.=.*.@.} ..{ } &.@.@.9.@.@.o.] @.;.@.{ o.{ { { { o.{ { ) _ _ _ ( { ) ` _ ! ! R ! ! C.U U ! ( ) ) ) _ ) ) ) ) _ ^ ( ( E ) ) _ { X.X.o.o.o.o.o...) X...) X...) ( E ( ) ^ ) E G ! ! E M M G G G R.$.@ y q > J AXk.@.-.o.o.{ o.{ { { o.{ o.o._ { } @.=.9.9.*.*.*...` =._ 0 0 * ; O 1 n m m m G R G G R E ! .._ R ! G v R G R ) ) R ) ` E { ) { ) O.O.o.o.&.*.O.o.o.O.o...+.O.1.&.o.) E ( _ R G b f g i i c G R O.pXBXpXMXlXBXBXsXrXuXrXrXrXrXrX=X*X*X%X3X=X*XaXaXaXrX].",
":XjX>XN.a.N./.:X-X.X-X[.|.|.[.B.s.v.a.a.b.~.^.~.)..X}.).b.B.u.a.A.}.>X-X,X,X;X-X<X>X;X>X,X6X6X6X9XtX5X9X7X<X,X4X;X-X5X9X6X9X5X6X4X4X4XdXdX6X7X4X-XUX/.:X7X6X6X6X7X4X:X:X-X:X.X(.-X/.[.[.).}.-X>XOX[.~.[.|.~.^.n.a.s.s.N. X>X}.-XoX-X-X/.~.B.;.~.M.UXR.-.-   + q d $.6X8X{ nXZXcXNXAXAXNXAXCXZXCXZXCXZXZXSXZXSXZXPXFXNXbX1.f 6 1 @ & 1 G  .2.1.1.u.N.b.~.~.N.v.r.a.u.i.N.v.r.u.n.v.a.f.a.f.v.n.s.u.B.v.v.a.v.a.r.p.a.y.a.p.a.r.=.@.$.} &.i.v.=.u.i.r.=.#.} b b H ^ / _ / ` ` @.>.;.] _ ;.-.=.=.=.&.O.&.{ ..@.@.@.i.a.) o.I.=   o 0 f H DXtXO.5.z.r.] ) _ _ #.V.=.-.6.-.V.V.6.6.V.6.V.-.-.-.5.-.=.-.*.;.@.{ { &.@.-.6.;.@.o._ _ @.{ o.{ { o.{ { @.{ { ^ ^ _ ^ ^ ^ ( ( ( ! ! R ! ! ! ! U C.( ( ) ` ` ` ` ) ) ) ) E ^ E ^ ) ) X.E _ o.X.o.o.....) X.X.) ) ..` E ( R ( ! ! E ^ ) ) ! R ! ! ( E x.9.+ y q = / ZXI.&.&.@...o.&.o._ o.o.X.{ ) ) _ { @.-.=.*.&.*.*.o.&.) w 1 2 @ * 1 t x n n m R E R R E ! ! U ( H v M m v G R ) ( R ( X.E ..E &.&...{ o.*.=.*.O.O...o.o.o.O.O.1.*.O.o.) G G ^ G v f S K 3 q p M R &.tXmXmXFXBXmXyXrXrX*XrXrX=X=XrX*X*X#X=X=XW.E.3XpXaX!.",
"/._.;.;.] -.B.|.$X|.|.oX|./.~.^.N.B.a.>.r.v.b.N.v.[.[.~.~.a.u.a.s.[.:X:X-X-X-X:X,X4X4X,X:X6X6X6X5X5X5X7X5X5X4X5X1X4X<X6XtX6X5X4X4X4X4X4X7X7X7X4X-X).-X,X4X6XtX6X7X5X,X>X-X-X[.N.).[.}.[.B.UX}.[.[.).}.}.}./.UXUXUXB.a.UX[.}.-X-X}.}.[.$X[.N.M.OX^.>XR.7.-   X q e D.dXG.M.VXAXZXVXZXCXCXCXCXCXZXZXFXSXZXFXZXFXSXZXLXcX1.d 3 1 1 @ 4 G J { 1.y.y.a.u.v.~.UXM.B.s.M.M.N.N.v.r.a.a.a.s.a.v.v.m.v.s.g.k.v.v.v.m.m.y.u.f.r.r.y.y.-._ } @.&.2.u.k.a.u.r.=.%.&.} H b G b ` n.) C.` &._ .._ @.@.=.6.6.-.$.@.$.@._ =.9.-.I.v.) +.#X7   X 3 f ~ ZX>X( &.i.5.&.] ) @.V.6.6.6.6.V.6.6.V.6.6.6.V.-.6.6.@.;.V.&.=.&.@.@.o.o.;.=.*.o.-.@.{ { ..o.X.{ _ { { { { { _ ^ ^ _ _ ( ! ! ! ! ! R ! C.! ) ! ! C.C.( ` ! ! ( ) ( _ ) _ ( E ^ _ ) _ _ ) ) ..o.o.X.X.) _ ) X.) ) ) E R U U R ! E ^ _ ) ) { ) / _ _ G 0.1.+ q u > A ZX:X4Xi.X.@._ / o.{ ) o.{ X.) _ o.@.*.*.*.*.$.&.@.*.! 0 * * e f G v v m m G G R ) X.^ G R ! ! M M _ G ! E G E ) ) E ) o.) E ..) @.O.o.o...&.6.5.X.E ..O.+.1.O.O.9.&.o.{ _ G ! G x A b i 3 > q g b m 8.tXHXFXFXMXyXtXuXrXuXuXrX=X3XuX=X*X=X=Xj.(.x.w.aX9.",
"] ~ C.;.r.g././.UXM.~. X^.~.Z.N.v.t.t.=.>.r.v.b.M.F.^.~.M.b.N.M.M.).>X}.{.>X,X>XOX,X>X>X<X4X4X4X<X<X<X<X,X<X7X4X5X6X6XdX9X6X9X5X4X,X4X6X4X4X7X,X:X:X:X,X4X4X6X7X9X:X}.}..X[.UX-.UX}.[.^.s.n.).).UX(..X-X|.|.^.~./.B.n./.-X-X/.M.UX[.$X}.[.;.c -. XmXP.( -   + q e D.AX).OXPXCXCXJXZXCXCXZXFXFXZXFXSXZXSXFXZXSXCXLXcX9.f 5 1 1 @ 1 G J %.1.y.y.g.r.g.v.N.~.M.u.B.M.v.n.M.B.s.t.s.a.N.z.N.f.n.a.s.v.a.u.B.z.M.N.f.v.v.u.1.r.=.@.u.=.@.=.a.a.u.k.a.u.i.1.=.@.{ ~ b Z ;.t.-.! o.o...@.@.o.-.V.V.6.6.=.$.-.@.@.$.r.9.r.@.o.O.k.7   X q f b JXqX6.].0.5.&.@.@.6.6.V.6.-.6.V.6.6.V.V.V.V.9.V.6.=.&.=.i.&.=.=.*.&.....o.-.&.&.$.@.o.} _ { { { _ _ { { { _ ) ) _ { ^ ( ! ! _ G ^ ! ! ! _ ) ! ! ! ! ` ` ` ) ) ) ) _ ) _ ) ^ ) ^ ) ) ) X.) ) ....X.) E ) ( ^ ) ) ) ` ! R G R ( ^ E ` ) ..o.*.o.@.( E ~.*.X q 0 = Z ZX}._ &.&.^ v o.&.{ X.{ { o.X.&.O.....&.5.*.O.o.*.! 8 & $ $ 2 y M ! U U R R R E _ X.( R G G R ! H ! M U X.R ) _ E ) ....) ) X.^ o.&.O.O.O.O.o.9.5...X.) o.o.o.*.9.*.*.@.{ E _ ! G _ ! c f 5 3 e x b b +.iXKXBXiX*XuXyXrX*X=XrX=X=XuX*X=X*X*Xj.{ f e.sX@.",
"> ` >.V.N.}. XZ.UX/.M.B.~.[.^.n.r.3.s.t.=.r.N./.}.[.~.^.~.b././.).|.}.}.-X:X:XOXOX}.>X4X4X<X4X4X<X:X:X:X>X,X4X<X5X5X7X6XqX6X5X4X:X4X4X4X4X4X>X,X,X:X4X4X4X4X7X4X-X-X^.).}.).t.-.B.|.[.UXs.UX|.|.B.(.|.[.[.[.~././.n.N.[.-X|.(.UX).$X-X:XOX}.I.r.:Xi.Y l ;   + f d F.KXfXgXJXZXSX<X;XnXFXZXVXZXFXSXZXZXFXGXZXCXLXkX1.c 3 1 % & 2 G _ 1.1.u.r.y.D.d.v.g.M.~.N.B.k.r.B.n.N.n.k.=.>.n.M.a.z.a.v.s.v.v.a.i.t.v.N.n.n.f.z.a.p.r.@.$.9.#.&.i.a.t.k.u.a.a.a.s.-.%.=.} / ~ ~ } @.-.@.@.;.) @.&.-.6.-.=.-.-.*.*.&.*.6.=.@.$.O.X.$.v 8   X w f f b.[.|.|.5.-.-.-.-.=.=.=.=.6.6.V.V.-.V.i.6.V.V.V.V.5.-.` o.-.=.-.@.@.;.@.@.@.%._ @.&.} @.o.X._ { _ ^ ^ ..{ ) _ ^ ^ _ ^ ! ^ ! ! ( ` ( ` ) ) ) ` ! ! ` ` ` X.` ` ` ) ) ) X.) _ ) ) ) ` ) { ) ) ) ) ) ) ( E ( E ) ) E ( E R R R R ^ ) ) ) ) ../ ....( *.y.d % 0 2 % ] `.~.+.5.$.! ! o.{ X._ { o.o.o.$.@.o.@.&.&._ &.6.! 7 - $ X = _ ~ ) U Y m ) E R ( ( R G E G G R R U ! E ` ^ ( ( X.o.X.) { X.) E E X.X.O.O.&.o...o.O.o.+.) G E X.&.O.o.9.O.o./ o.{ { o./ M c f q q i f n U X.kXBX2XuXrXrX&X*X3XrX3XrX3X*X2X3XrX=X+.z Q.MX+.",
"@ V V.^.}.).N.b.^.[.UXB.(.|.[.(.B.n.b.t.-.2.v./.)._./.b.v.b.}. X[.[.>X>X,X:X-XOX}.{.OX,X4X4X4X:XOXOX>X;X:X4X4X<X<X4X4X5X6X5X5X4X:X4X4X4X4X4X,X>X,X4X4X2X4X6X4X:X^.[.^.[.[.[.UXZ.).).).UXZ.UX|.}.n.N.Z.(.UX(.n.UXUXUXN.)._.(.(.[.-X>X,X6X<X.X[.[.l.E u < X   ; p G J 4XKXLXSXJXzX-XzXCXZXzXdXSXFXSXSXFXZXFXCXLXtXo.c 5 2 * & 2 f H #.1.u.u.u.g.D.v.v.B.n.s.=.r.-.s.M.B.N.v.M.v.a.N.b.v.a.g.a.2.s.a.u.s.u.N.N.N.N.z.f.p.1.=.&.a.i.=.=.-.r.y.y.s.a.z.u.r.9.y.r.@._ _ ~ / } @.@.&._ ) ` &.-.*.&.&.&.@.-.*.=.=.6.*...o.O.( A c t   o y f i g [ h.n.s.9.6.-.6.-.-.6.=.6.V.V.V.6.V.i.6.6.s.9.V.6.-.@.` =.&.@...@.;.@.} _ @.$.@.@.@.{ { { / { ) E / _ { { ^ / { ^ ^ ! ( ! E ^ ( ` _ ..` ` ) ( ` ) ) ` ( ` ) ` ) X.) ) ) ) ) X.X.) ) ) ) ) ) ) ) ) ) ( ( ( _ ) ^ E R m R R ( ) ) ) _ ` ) ) ( .._ ( 2 1 % 0 2 % J C b.'...O.7.*.*.&.o._ X.{ o.&.o.&.*.&.&.&...*.) y & @ @ $ 2 0 y y ! ` R E ` R ( E ! R ! E R R ( E ) ` ) _ ) ) ) X.&.{ X.o.X...G _ ..o.o.o.o.&.O.o.) o.O.E E X.&.*.&.9.9.1.{ R O.*.) X.! G b f 3 5 f c b Y +.uXrX%X2X*X#X*XrX*XrXrX*X*X*XuXaXaXrX%XsX].w ",
"$ $ 0 d.4X^.-.B.^.-X.X(.~.[.:X-X[.[.UXv.r.2.Z..X[.).^.N.a.u.N.N.P.).-X:X:X:X>X-X|.|.OX>X2X,X:X>X}.,X4X;X4X7X4X4X4X4X:X7X7X7X5X:X-X>X:X4X:X,X4X,X:X4X4X4X7X-X-X:X.X[.[.[.}.[.[.}..X).UX/.[./.|.-X/.UXUX~.[./.Z.B.~.UXZ.B._.[.}.:X4X>X:X6XtX[.(.7.x 3 # O .   ; x K g ] oXLXJXJXcXhXLXqX:XxXbXGXGXFXGXZXSXCXJXhX&.v i 1 * * 3 G J / $.1.f.D.g.g.g.M.N.g.N.p.V.>.r.n.N.i.v.v.M.N.b.M.m.a.g.a.t.~.i.g.a.r.a.a.n.v.v.v.y.r.2.r.t.&.=.r.r.r.p.a.s.s.p.z.u.2.u.a.=.$.@.@.] _ ' / #.r.) ) ..=.&.;.@.@...@.*.6.6.6.6.6.6...b Z a 4 =   X w f 0 J ' <.t.l.O...&.5.-.5.6.=.6.6.s.r.6.V.V.V.k.s.6.V.=.-.6.5.-.&.o.@.@.*...&.2.@.9.%.o.@.{ o.X.^ _ _ ^ / ) _ ^ ^ ^ { _ ( ` ` _ ` ` _ ..) ` _ ) ( ` ( ` ` ( ( ` ( ) ` X..._ _ E ) ) ^ ) E ) ( R ) ) ( ! E ) E ) E ( _ ( E G R R ( E ) ) ) ) _ X.*.O...3 @ * % 0 2 * b H a u.~.5.0.l.0.*.o.o.{ { &.*.*.*.5.&.o.+...n t 1 & . $ 0 x q u B m R ( ( ( ! U R G E R E R E ) ` ` X.) X.X.X.) ^ o.X.{ o.) o.G { *.) o.........o.X.o.X.O.9.O.O.O.&.*.1.*.{ R ..].j.) ..! b b i q i f v M U X.#X*X#X#XrX2XuX2X3X3X*XrXiXyXaXiXaXaXW.1 + ",
"* @ - V G..Xn./.|.>X-X{.|.-X-X:X}.[.UXN.n.v./.oX}.}.[.UXB.t.t.r.s.UX}..X.X-X>X}..X[.[..X-X>X-X.X<X4X6X2X,X7X7X7X:X-X-X4X4X4X4X}.UX).-X,X4X}.|.7X,X4X4X4X7X>X>X:X-X>X}.)./.)./.[.{.).[.}.}.[.).|.}.[.[.~.[.[.).$X}.[.[.[.|.>X,X<X3X4X:X4X0X(.O.d : # . O X   X p g 3 K J G.PXJXJXLXCXlXvXZXGXDXHXGXDXDXDXLXkX&.x i 4 * * q H } =.1.1.N.D.D.D.D.D.~.~.M.F.N.B.a.a.n.N.g.N.b.N.I.~.~.M.b.M.@.M.M.N.N.a.a.n.s.g.I.b.a.s.s.a.V.6.V.r.a.=.i.s.s.i.r.s.u.s.=.9.r.-.-.=.&.@.@.] @.=.r.@.` &...` ..@.X...O.$.$.9.*.*.9.O.A L C < ; ;   X q x q b d L :.%.x.j.*.p.*.*.6.=.6.9.i.r.V.i.V.V.a.i.V.V.6.-.-.6.6.@...@.;.@.o.=.=.&._ @.o.{ o.{ ^ @.&._ / ` ( ( ^ ^ _ _ _ _ ` / { _ ( ) ) _ ) _ ` ` ` ( ( ! R ` ( ( ) ) ..` ( ( C.( ( ( ! ( ( ( ! ` ( ! E ( E ) ( ( _ ^ E ^ G R ^ E ^ G E ) { ) O.w.l e * . . % 3 2 % f b C 5 %.~.0.c.j.6.@.....@.@.5.9.0.i.q.8.@.x = = $ + 1 0 f G / &.U ! ( R ` ( ( ( M n C.( R E ) ( ) ) _ X.) X.o.) X.E ) X.) o.X.) R *.) ) X.o.) { ) ) o.&...O.9.=.*.&.o.{ ` ~ ..@.@.R.9._ _ ! H f i e e i v G G X.E.%XrXrXrXrXuX*XrXlX3X%XaXyXrX*XE.9 . + ",
"y > @ % V V..XOX>X.X-X;X:X,X4X2X[.)./.UXUX/.|.oX[.).{./.N.B.s.g.~.Z.Z.n.Z.B.'.-X}.}.).[..X-X-X>X:X,X4X4X7X4X7X7X-X}.:X,X6X4X4X7X4X2X4X4X,X[.).,X4X4X4X7X4X7X4X4X:X>X-X.X/./.).[.[.~./..X/.UX}.|..X-X-X|.$X-X-X:X:X[.{.[.|.-X4X5X5X4X:XD.D.f.G 4 < O . 1 ;   + g H d 3 g H D.JXLXGXJXJXLXGXCXDXGXGXGXZXLXdX#.f i 2 : * f ! } %.2.y.u.D.D.G.F.G.D.~.^.UXUXM.b.N.N.N.I.M.M.Z.I.UXZ.m.N.b.&.a.g.N.v.v.s.k.N.s.N.M.B.a.@.t.p.V.>.V.r.u.r.a.s.t.r.r.s.s.s.=.@.-.=.-.1.=.%.} / @.#.-.r.i.&.&...;.@...o.&.*.*.*.&.9...v P C < . 8 7   X e x x $.f h L :.2.].0.X.9.9.=.=.=.6.r.=.V.V.V.i.i.a.9.6.6.-.;.5.$.o._ ....@.$.{ =.o.! $.@.@.{ _ O.@.^ _ _ ` ! ! ^ ! _ { ) _ ) .._ ` ` ) ) _ ` ..` ! R ( ( R ` ( ` ` ) ( ` ( ! C.C.( C.( ! U ! C.( R R E ! R G m E ( E ^ ) E ) ) ) ) E E ) / ) ) 0.M % $ . = y $ 0 0 = d s h K 5 } /.x.P.6.o.@._ _ o.*.9.0.j.q.5.Y V * % + 1 d G G G v G Y ` R ( ) ( ! _ _ b C.U ( ( ( ( ) ) X...o.) ) o.) X...X.X.) X.) R o.o.) ......) ) ) ..O.O.O.+.O.*.*.O.R E o._ { =.Y 5.j._ { G f c g d e e v M R E E.=XrXrXrXyXMX%XpXMXaXrX3XrXL.9 ; X & ",
"^ p - @ - > @./.>X4X{.,X6XtX<X-X[.UX~.~.M./.[..X}.)./.).~.N.v.g.M.UXUXn.B.s.M.}.}.[././.}.>X-X:X:X<X4X4X7X7X4X4X5X4X,X4X4X,X4X4X4X4X4X7X4X4X4X4X4X7X4X7X4X4X4X,X,X>X-X}.).[.[.[.|.[./.~.UXs./.-X>X:X-X>X-X-X:X:X:X[.~.~.}.,X4X4X5X<XoXD.{ d 4 : # . 1 v &   @ b L J d 1 g K N.ZXLXGXGXGXGXzXCXGXGXFXLX5X/ f i 4 # % y _ @.%.2.u.g.D.v.D.D.~.v.D.I.Z.UXM.I.M.M.n.n.UXM.~.UXUXv.B.n.M.] s.M.=.M.B.a.a.B.u.B.N.N.N.a.r.r.r.=.r.V.V.i.r.a.r.r.i.r.r.s.r.&.;.&.9.=.r.>.=.=._ %.=.#.#.a.5.&.&...o.o.&.&.*.*.*.5.) c P C # X ; ( r   o e f v F.v d h I <.1.n.9.y.9.=.-.-.=.*.-.-.5.6.i.s.s.i.6.-.&.-.6.$.o._ ..o.&._ ! ! ^ @.@.@._ _ ^ _ ! ^ _ _ ! ! ^ ( ( _ _ { _ .._ ) ) ` ` ` ` ` ..` ! ( C.C.R ` ` ! ( ( ` ! ! C.U C.C.( ! ( C.U U ( U E ( ( M M R E ^ ) ^ ) ) ) ) X.^ E ^ ) { o.q.m * @ . X y M $ 0 q & G G d d K 6 K _.P.q.j.*._ / @.*.6.i.9.9.E r = ; + 1 f G R ! G G v C.( ` ` X.` ..C.y ~ ` ( ) ) ) ( E E ) o.X.o...) ..) ..) _ X...` E ....o.o...o.) ) ) _ o.O.O.*.&.+.O.) X.E &.U b U / n 0.x.E v _ { b f e q d c M R E W.aXaXpXrXm.+.&XaXrXrXaXj.= ; + @ d ",
"-.~ p - $ % > _  XgXB.a.).;X.X/.M.UXUX^./.UX/..X-X-XOX[.~.B.b.N.M.Z.Z.s.V.s.[..X}.{.)./..X-X>X}.-X.X}..X:X4X,X:X,X,X:X,X4X4X,X4X7X4X,X,X,X,X:X2X4X4X2X4X4X4X4X4X,X:X>X.X/./.}.}.[..X.X|.).n.UX.X-X>X,X>X-X-X:X:X:X-X[.).|.>X4X<X;X}.T.{ 1 1 : @ @ 3 G ( - o $ x G G G 2 1 d K D.ZXGXGXGXJXHXGXGXDXLX8X] e 0 3 * * d ~ 2.1.u.v.b.D.d.N.D.D.F.v.f.Z.~.~.UXF.^.Z.M.M.UXN.UXZ.UXg.g.UXa.;.~.=.k.N.v.a.N.a.u.t.B.B.B.s.s.t.&.-.=.9.t.s.u.a.V.r.s.r.r.V.#.] @.%.s.r.r.r.r.r.&.>.r.%.} ~ ;.-.o.&.-.&.&.&.@.&.&.` c P F < . ; r ) 7   ; w s G _.G v v g I 4.<.G.m.0.i.*.*.i.6.-.-.-.6.6.s.i.V.V.-.@.-.-.@.o.` _ _ _ ^ / @.$.{ @.@.} o.( ^ _ _ ^ ! ! ^ ! ` ! _ _ ) ) ` ) ..) ! ( X.` ` ) ( ( ( C.` ! ` ` ! ( ( U ! C.C.Y U C.U C.U U C.C.M M ! ( ( E E ` ^ E ^ ) ) ) ) ^ _ ) E / { E O.s : % . X w m z % e 0 % u.#.v c g K C K G.I.0.x.$.5.=.6.6.9.9.R t V % + > d f G J ^ R R ( ( U ` *.` U =.^ R x v X.E ) ) X.E ` ) ) ) ..X.o...X.) X.) ` ) ..E ..o...+.X.) _ E ) ..o.{ @.O.O.*.` G E o.o.( R n v d 1 G ) H ` _ ( G c d q e x b G ) #XsXpX*XE W.rXuXrXaXl.= + O . 0 G ",
"u.%.~ e % % - V V.<X[.(.UX|./.(.M.n.Z.(.[.{./.[.}.|.[./.v.s.Z.n.P.A.B.s.s.d.). X[.}.[._..X>X>X}.}.}..X-X-X,X4X4X,X,X4X,X4X,X4X4X2X4X,X,X:X4X:X<X,X,X4X:X2X:X,X,X:X:X;X[./.).}.[.^..X.X|..XUX/.-X:X,X<X:X[..X:X:X-X-X}.{..X.X.X:X-X~._ y : * + @ 1 G @.{ $ o $ M ~ / d.b 1 1 h J Z.ZXJXGXLXDXGXGXLX-X/ x 2 4 * * x ^ %.u.a.v.b.M.M.N.F.Z.D.D.F.F.b.Z.M.M.UX~.UXv.M.M.N.Z.~.n.g.M.Z._ ~.r.t.N.B.g.a.a.a.i.t.a.v.k.i.s.V.V.V.V.r.p.r.s.a.t.r.u.r.V.=.*.@.=.@.y.a.i.s.y.u.s.a.r.@.@.] ] t.-.=.5.&.&.*.*.*.! f L 6 @ X + w x U 8   ; w d G -X! G v g c I S.4.{.~.0.y.6.i.9.=.-.6.V.r.V.6.V.6.&.@.-.-.o._ / ) _ M ) =.@.{ &.@.] @.{ ^ ( _ ^ ~ ! ! R ! ! ! / .._ _ ` ) ` ` .._ _ ` ) ` ( ( C.` ` ` ( C.! R R C.C.C.U U U U C.M M Y M C.M U ( ) ! ! ( ! E ^ _ ( ( ! E E ) ) E { o.R d 3 : . + r Y X.n - s q * ~ %.{ G c g S D K ).(.6.x.].*.*.6.9.E d 1 * - q f ~ ! G H G R ! ! U ! ) ! M ! M x ! ^ _ E R ( ) ) ) ` ! ( ) X.) o.o.X.) ....) ) X.) _ o.o.o.&.o.o.( ..X.X.o.X.o.O.X.( ^ X.O.O.o._ _ G v ! U U U ( ) ` ! R n y q d c b ! ) '.MX#X#X*XaXpXlXL.- & . . 2 H H ",
"u.u.#.H y % % V B ` -X4X/./.UXM.n.Z.UX~.~.[././..X|.[.~.a.B.Z.v.A.B.B.B.M.UX(.UX/.[.}..X}.}.-X>X:X:X-X-X:X<X,X4X:X4X,X,X2X>X>X,X4X,X,X4X:X:X:X,X:X,X:X,X:X:X>X:X:X:X-X).^.}.}./.~.).|..X}.[.|.-X<X4X:X>X}..X>X:X;X.X}..X{.[.}./.f.@.t 0 * @ @ 4 G ] 1.J & o - b f 2.`./ c 2 4 g ' F.ZXLXGXGXGXLX}.! f 3 2 * = f ^ -.y.a.v.M.M.M.M.~.F.(.^.(.^.~.N.M.Z.M.N.~.UXN.n.N.M.Z.M.v.n.~.=.N.v.r.u.a.N.a.g.v.a.t.a.v.a.a.s.t.V.V.r.r.t.s.s.s.r.r.i.u.V.=.=.=.r.V.@.a.a.u.u.k.z.a.s.=.} } ] ] ] r.9.6.-.o.&.O.m q K 5 # . @ 0 x b U r   X w v J <X{ / G b f K <.H.H.`.;X0.9.s.-.6.6.6.V.V.V.V.-.-.-.&.6.O._ _ _ ` _ @.@.( o.$.@.@._ } { ` _ ` ! ! ^ _ ! G ( / ) _ ) ) ) ` ( ` ..) _ ......` ( ( ` ` ` C.( ` ` R C.! C.C.C.C.C.U U M M M U R ! ( ) ) E ! E R E E _ R E R E ^ E ..*.$.G 3 5 O ; 0 n m ..n * y y 1 / 3.} ~ H v Z J P L `.T.I.I.6.*.*.E s w 2 1 q b f / { H } R M U ! ( C.! R m M } _ _ =.b R E E ` ) ) ( E E ) ) X.o.X.) ) ) X.) E ) X...X.o.o.O.o.) ( ....X.) ..O.! R X.o.o.o.o.O...X.^ R _ ) ..m i.&.R ` ! G c e 3 i f c G +.I.rX=XrXiXMXl.8 - . O 1 ! } H ",
"u.d.1.{ C.p = V 7 C./.UX(.~.M.N.Z.UX/. X/.UX(.(. X X/.b.t.d.Z.~.M.B.n.(.(./.).[.}.}.}./.|.}.}.>X,X4X:X-X:X-X-X-X,X>X:X:X:X:X:X:X,X4X:X:X:X:X;X,X:X,X2X>X>X>X>X:X>X-X.X[./.}..X).[.).).).[.|.-X-X2X<X4X>X{.}.>X-X-X-X.X}..X.X)._.$.y 2 & @ @ 1 G ] $.1.G ; o $ H b } 1.} / f 1 3 J [ N.AXGXLXLX}.f x 3 = = 1 x ! $.u.v.N.b.M.M.~.~.^.(./. X/.^.F.B.g.b.g.N.M.N.n.n.b.M.n.g.B.M.s.r.~.s.v.s.B.I.b.n.b.s.a.N.B.k.u.s.r.V.r.r.9.t.i.r.r.r.r.a.u.V.V.r.s.s.>.@.i.s.a.f.k.k.u.r.=.%.#.@.#.-.;.6.=.=.&.&.( y g 5 & + ; 0 l M M R 7   X w s / 4X} { _ G M b L H.@XjXJXT.v.>.-.-.-.5.>.6.V.6.6.6.@.5.;.! %.{ _ _ o.! / $.=.@.@.o.{ { _ _ { _ G ^ _ ^ _ G ) _ _ ` _ ) ` ` ` ..X.` ` ` ` ` ( ! ( ` ( C.( ` E ! ` C.C.C.( C.( U U C.U M U C.R ) ` ( ( E ( R ! E E ! G G G R ^ E *.0.G 4 4 + ; 0 j N U R j - d y = J 3.%.| ! b c K :.I :.qX7X0.5.*.o.s w 1 1 e G H H b / } @.H ! R U U ! ) M ! G b x s M R E ! ! E ) ) E E R E ) ) ) ..X.) E ) ! ! ) ) ..o...o.@.O._ X._ ) ) ....R ( X.{ +.o.o.o.O.o.o.W E ) ..O.o.R ! ) ) E ! v c f 0 e f b ( ` W.pXMXpXI.7 $ . . * c b d 1 ",
"%.1.2.1.` Z p u V ` :X-XOXM.~.~.UXUX(.~.(.UX^.).~.(.G.N.V.d.N.UXUXUX).|. X/. X.X-X|.UXUX).-X-X-X:X2X-X}.[.-X>X:X-X-X-X-X>X>X-X-X2X,X:X:X:X:X-X:X>X:X:X:X:X-X>X;X:X-X.X[.).[..X).|.).~.UX|..X}..X-X:X:X-X_._.-X[.|.-X}..X[.^.)..X) l 1 & $ 1 d { @.1.1./ $ o $ b H t._.} $./ f 2 v | ,.dXLXGX-X_ h 3 > = 2 x ~ $.u.N.m.b.M.M.N.M.(././.(./.(.(.N.B.v.B.p.a.B.M.N.N.b.v.B.B.v.v.-./.a.N.a.a.N.N.N.B.v.u.u.v.a.u.u.s.r.V.V.r.r.r.s.s.r.s.V.i.s.t.i.=.r.r.2.&.y.s.s.a.s.u.i.V.r.2.=.=.=.r.s.6.=.*.&...O.! g # X - q x v @.r.E 7 o X 0 s _ fXd.$.} ~ ~ H ,.wXPXPXSX Xa.V.-.*.-.6.=.=.V.6.-.6.-.@.r.s.D.=.@.@.! @.=._ &.{ { _ _ _ o._ _ _ ^ _ ( ^ ! _ ) / / X./ ` ` ) ;...` ) ` ` ( ! ( ( ` ( ( ( C.( ! ` E ! ( ( ! ( C.~ C.U C.R ( ` ! U ! ! R ! ( R ^ ^ ! R G G G R ) ^ /.&X) g 1 & V t n U E o.C.; y y 1 } A.#.@./ b b H :.A.XXnXJXp.&.6.R t 1 1 1 b H _ J b H ' H ! ! R ! ! ! C.M R ! y y x ! ` R E E ) ) ` ) E R E ` ) ) ) ) E G R m E ) X.) ....o.O.O.) ) o.X.) ) E ) ) o.E ..o.+.o.o.o.E *.o.E E o.o...( o.) ( ! R G b f e f c N &.7.E.MX3XY 7 X X 1 f G b v } ",
"3.b.u.2.1.] G d p c $X|. X^.[.|.~.N.b.N.Z.Z.~.|.}._.UXUXN.Z.UX(.[.^.|.{.[.|.}.}.|.(././.}.OX:X:X:X:X}.UX/.:X-X-X-X-X>X-X.X-X>X>X>X,X:X;X-X:X-X:X:X-X>X-X}.}.-XOX-X-X|.[.|.|.[.[.)./.).UX).}.-X}.-X-X-XOX|.[.|.(.N.^.oX[.[.[.{.<X_ j r = 0 x ! &.1.2.1.! & o $ f b H F.%.#.} ! G b H G.VXSXvXv.! q 1 * q M / $.y.M.I.Z.M.F.Z.b.Z.^. X X(.(./.~.b.M.N.M.N.B.N.N.B.v.N.u.s.u.N.9.v.N.N.B.B.g.N.B.B.v.v.a.B.N.k.a.s.V.r.V.r.6.r.r.r.s.i.r.V.s.r.s.=.s.s.=.r.=.r.a.V.=.=.s.r.r.V.=.9.V.V.>.a.r.6.-.@.) X.&.C.7 $ u j v G { { { 1 o ; 0 s ! fX2./ 1.$.%.} f.VXJXCXPX(.V.p.=.o.&.=.@.=.V.V.=.-.&.@.;._ A -.@.( ! u.$.@.{ _ ` _ _ ` / _ { ) ( _ ( ! ! ^ { / _ ^ ! ! ) ..;...( ` ` ( C.R ( ` ` ` ( ( ! ! ` ` ! ` ` ` ` U ! ! ! U ( ( ( ` X.! C.R R ! ! R ( ! ! U U U U ! { ) ].NXR.0.c w y l m G Y ( n ; d d * 1.D.| #./ C.A H d.IXJXLXPXz.0.7.X.) p w c b / / _ @.~ f x ..` C.! ! U ! ) ! ! ` R R ` ) E E R ( ( ) ) E E E E ) E R &.T.) Y M ) X...) ) ) ) o.o.) ) o.X.) ! ( X.o.O.....o.O.&.O.O.o._ 0.1.o.O...o.o.) ) ..) ! ( M c d q f f _ +.9.8.5.E & ; w v f f d 1 ! ",
"g.v.g.2.1.} G d y A jX).^.'.(.(.UXn.B.M.I.Z.UX/.}.[./.UX~.M.(.).|.|.[.|.[.}.}.[.[././._._.{.}..X>X:X:X,X,X-X|.|.}.-X>X.X-X-X-X-X-X-X-X>X,X>X-X-X}.}.{..X}.}.-X>X.X.X.X[.|.}.[..X.X[.).[.).[.}.}.-X-X-XOX{. X{.{.-X:X:X-X.X.X-XdX..x u 7 q N ] =.1.u.1.G & o = M f ~ oXg.g.1.@.| ! Z F.AXLX7Xn.) s q f G ^ } r.N.~.~.~.M.M.~.b.F.^.^././.UX^.UXUXN.UXv.p.I.M.M.n.N.n.a.s.a.u.v.v.k.B.N.N.B.B.g.B.k.t.u.a.v.u.k.a.r.s.=.r.r.V.V.r.u.u.s.u.t.i.9.-.r.r.9.r.6.s.s.=.9.=.=.9.r.r.r.s.i.i.p.a.r.s.=.@._ *...+.j 7 y v G ^ R G o.8 o + 0 v / qX1./ 2.1.2.1.N.bXJXZXJX}.6.6.&.&.o.=.$.=.i.V.=.&.o.@.;.` b ` ( ! &.$.@.@.o._ _ _ _ ` _ ;._ ^ ! ^ ^ R / { o.{ ^ E ( ! ( _ ) _ ( _ ` ! C.( R C.( ` ( ` ` ( R R ` E ` R R ` ( ! ( U ( ( ) ) ) ) ) ( U U C.( E ! E U m U U E ) E D.mXR.E.G s l n m m m U n X 1 d 1 ] 4.' d.#.! A M g.nXPXLXPXu.6.q.0.( b c M b G H ! ^ _ ! R ( ` ` ..( C.U ! G ! / ! ^ ` ! E ! E E ( ) ) _ E ) ) ( R ) R @.p.R ) ..) _ o.) X.o.X...) E ) ) ( X.o.X.o.@.O.o.o.O.o.o.o...o.) *.9.+.o...) ) ) ) R R ( ! G M f e i H o.&.*.L.E 1 0 m H M c b G e ",
"v.N.g.g.t.1./ d y A -X$X}._.(. X/.~.N.n.I.Z.~.^.[.[.[.~.~.[.(.N.(.}.[.|.[.[.[.[./.(.UX_.}.[._.}.-X.X}..X.X|.}.}..X-X[.[.-X-X-X-X>X>X[.|.-X:X-X-XOX}.[.[.|.}..X}.-X.X.X.X}.}.-X-X.X[.UXUX^.).[..X}.-X}..X}. X[..X:X<X4X:X.X-X.XZ._ n t 0 y M @.=.2.u.r.b - o - M H J D.a.g.2.2.1.} b G.PXLX3Xz.&.m z M _ } %.=.a.~.^.Z.u.^.I.N.~./.~./.~.~.(.N.~.UXN.a.n.Z.N.B.n.n.B.u.v.u.a.s.s.B.a.s.p.a.N.k.a.v.s.v.B.a.s.u.u.u.r.-.=.>.V.r.i.u.u.i.u.s.V.>.6.t.i.2.=.s.r.=.=.>.=.=.s.1.=.1.s.s.s.k.a.i.u.6.@._ *.5.0.z 0 v M ^ / .._ { 1 o ; 2 x ! 6Xv.p.2.1.=.=.b.VXJXJXJX}.6.r.@.@.*.-.-.=.V.>.-.-.-.o.@...@...) =.=.*.@._ { _ _ _ _ _ .._ / ) ! _ ^ ^ { { { { _ ! ( ! ( ! C.C.! ` _ ! U ! ( ` ( ` ( ` ) ` R C.` ` U E ` ` ( ( C.( ( ( ` ( ) ) ( R R ( ! ( ! E U U m U U ` { E x.mX*X*X) s m z R R m ( Y ; d s H J ] G ~ / ! H H t.ZXPXJXPXz.X.q.*Xl.m M b b G / / / =.-.! ! ( ( / ( ~ M ! / _ / _ @.) G ! ( E ( ( ( ! ` _ ` ) ) ) E _ v s ! o.X.) ) ..o...X._ ) ` ) E ! ) X.o.o...O.) ) o...*.&.X.X.o.X.X.8.9.5.) o.) E R ! ` ` ( ( H G b H / ) ) c.L.) 8 t G R ! ! ^ G o.",
"D.b.N.v.g.2.{ f B A 4X X[.[.[.}.}.)./.UXM.~.^.~./.)././.).[.[./.Z.[.[.)./.[.}.).n.A./.[.).^.UX/.[.}..X:X-X.X|.}.}.|.).|.}..X.X.X}..X-X.X-X-X-X.X.X[.[.[././.}.-X.X.X-X-X.X.X}..X.X}.).UXUX).[.[.}..X.X.X{.).}.-X;X<X<X,X-X:X-XZ.` m j 0 y ~ %.t.%._ $.G - o & d J H 1.r.D.F.g.2.} M ~.ZXGXzX6.X.M x M } 1.r.r.r.~./.r.b./.v.N.~./.(./.^./.^.M.UXUXv.t.B.n.N.B.N.B.g.v.=.g.I.=.s.a.;.r.r.s.B.a.g.v.a.a.k.a.a.a.a.a.s.V.-.=.r.u.=.s.i.s.s.r.V.=.>.s.>.%.&.V.V.=.=.=.-.=.=.&.$.1.s.i.a.B.p.a.s.=.@._ ) ..7.m u n U E / _ _ @.1 o ; d f / 5Xd.1.t.2.1.1.M.VXJXFXJX}.=.6.-.*.&.$.-.-.V.5.;.o.;.o.&.@._ ;.&.-.@.&.*.@._ _ _ _ _ o.] .._ _ ^ ! ! ^ / ) _ o._ / ( ! ! ! ! ( ( ` ) ( R ! ( ( ( ` ) ` ) ` ` ` C.R ` C.C.E ( ( ( C.U ` ( X.X.) ( R ! R ( ( ! ! ( C.U U U R ^ E D.CX=X&X) f m m R R Y ` m X d f G H G @.1.H H ~ ~ r.cXPXPXPXa.( L.L.7.( ` ~ b G M ! ! { H s C.! ( ! ! ( ! ! M ! M R / ( R ! ( ( ! E ( ( ( ` ) ) ) ) ) E _ X.) ) ) ) ) o.o.o.o...X.) R m ) ) o...o.....X.) X.` O.o._ +.o.{ ) o.*.&.&.o.o.E ..) X.@.*.@._ / { ^ _ ) ) *.x.O.1 s ! _ ( R ( ) @.",
"N.D.h.D.g.t.} G p C.}.[.[..X-XOXOX|.)./.^.~.Z.~./..X|.[._._.|.[.[./.).[./.~.Z.(.}.[./.(.~._./.(.[..X-X>X-X;X.X}.|.|.-X.X}.$X}.-XOX-X-X-X-X-X.X}.}.[.[.[.UX_..X.X}..X.X.X.X-X-X>X.X}.[./.UXUX/.UX/.}.}.-X}..X-X-X;X<X<X,X-X;XOXZ...m y w y ! 1.a.2.%.$.G 1 o $ v G J a.u.F.^.N.3.} H F.SXGX4Xk.( n v b _ r.r.a.g.s.s._ r.! #.N.(./.~.~.UX~.~.UXM.N.b.t.B.N.B.B.N.g.v.=.;.~.=.a.N.i.u.n.a.a.v.k.a.k.g.a.a.a.u.a.k.a.a.V.-.#.>.s.r.s.s.r.s.=.-.r.=.s.=.*.&.,.6.=.=.=.=.#.*.-.=.9.a.p.i.t.r.r.=.=.@.^ U X.8.Y r x G ! _ { R 9.9   ; d v H .Xu.2.1.2.2.%.D.nXJXJXGXD.5.j.i.6...;.@.*.6.=.-.@.o.o.@.-.;.o.-.@.o.o.o.o._ _ { { _ o.@.;...{ ) ^ G ^ { ^ { { _ _ E R ! R ! ( ( ( ` ( R ! ( ( ` ` ) ) ) ` E R C.C.R ` ` R ` C.` E ( ` ( ) ) ` ) ( R E ( ! ( ) ` ( R C.` R E R p.3Xx.#XX.v m m Y R R X.m ; d v 1 #./ %.| / { ! J 2.nXKXcXnXi.E 0.P.w.$.@./ 3.H ! G / ~ ! _ ~ ! ` ! ( ` ! / v s G ! ( U ` M _ { R ( E ^ _ E ) ) ..E ^ ) ) ) ..X.) _ ) ......o.) ) R R ( ( X...o.) ..) X.O.o.o.) m E _ o.o.O.) o.O.&.o.j p.1.x.) o.5.O./ O.&.{ { ^ E X.0.1.1 d ( 1.o.n R o.O.",
"g.1.a.D.N.u.} g p ~ 7X.X}.-X-X/.^.}.|.[.).[././.(./.^.(./.(./.[.[.[._.'.[.[./.B.UX[.V.).[.[./.).}..X-X:X-X-X.X.X}.-X:X-X-X-X-X|.}.OX}.-X}.}..X.X}.[.[.).^./.{.[.}.}.}.}.}.}.-X.X.X|.{.UXUX).).)././.}.}.[.{.-X-X:X,X<X:X;X_.).^...R n y s ! 2.t.r.a.$.^ 1 o # f G { D.a.N.F.D.a.{ Z F.SXZXlXj.X.U b H @.=.u.M.u.r._ 2.v.>.UX[.~.~.-.r.a.M.~.M.v.-.N.9.N.k.B.N.N.i.t.-.~.s.N.v.k.u.UXa.r.B.B.B.g.B.g.s.u.a.s.a.u.a.a.V.=.@.=.r.r.r.i.s.s.=.=.r.r.6.-.=.=.V.=.=.-.=.-.>.r.1.r.1.r.r.r.=.=.=.#.#.@._ 6.X.+.z r n M G _ _ ! &.8 o ; d v / {.1.2.2.1.2.%.b.AXJXJXJXT.&.'.z.@...@.@.@.@.5.-.&.&.@.o.@.&.o.&.-.&.@._ @._ { @.o.@.@.;.o.@.@./ ) G { ) { { ^ _ ` ! ! ! R ! ! ! ` ` ( R ! ` ( ` ..` ` ) ` C.R R ( ! C.R ` R C.C.E ( R E ) ) ( ( ( ! ! ( ( ` ` ) ) ` C.R R ^ R p.pXx.R.) v M R R R R ..U $ y n 2 e H v f G ! G J 1.nXPXPXPXi.X.o.w.9.} G c G 1 H #._ ] ! a.B U ( / ) / ( _ G ^ G _ ! _ ` M f G ^ ! ! E ) ) X..._ ( R R E ( ) ) X.) X.X.....` ! M U R ( ( ` ( ( ( X.....O.&.o.O.+.) ) o._ O.o.o.o.` ` m v t M @.&.` x 6.&.o.o.$.) _ W q.+.1 y m E G 9.j.k ..",
"N.v.1.f.h.2.} G x C.7X[. X/.{.[.~./.[.[.[.[.[.M.N./.M.Z.M.~./.[.|.[.}. X).}.}.-XB.-.).[.[././._.$X-X.X-X;X-X-X}..X}.|.-X-X.X-X|.[.[.}.-X-X}.}.{.[.{././././.|..X|.[..X}.}.}..X}..X}.[./.).)./.).[.{..X-X}.).{..X:X:X,X;X_.t._ u.) U m y f ! 1.2.%.1.{ ! - o $ 1 v } G.D.^.F.D.2._ b M.PXZXxXm.o.U M ~ $.H F.~.} =.N.~.@.s.^.r.r.M.r.N.N.n.N.N.r.=.V.r.N.a.N.a.r.N.N.N.v.a.B.B.a.N.k.;.r.k.a.a.k.a.B.s.s.a.a.B.a.s.s.V.6.@.#.r.r.r.s.r.r.2.>.=.6.=.-.1.r.V.=.-.@.-.-.=.V.=.2.r.u.V.=.>.=.*.@.#.&.` ..X.5.z u m M R _ ! ( ` = o - s v / 5X1.1.=.1.2.1.N.AXJXPXJX/.9.>XP.....;.@.@.;.-.@.&.@.;.@.-.@.&.@...@.@._ ^ _ $.o.@.&.@.@.O.{ { ) { { _ { { _ _ ) ) ( ` ( ! ! C.( ` ( ` ! R C.` ` ) ` ` ) ` ` C.C.` R R ` R ` ` ` R R R R ` ` ( ! ! ` ) ! ( ) ) ` ) ` E R U R E z.lX'.'.W v U U R R R X.M ; d G d G 3.#./ G ! ~ ~ d.nXPXLXPXp.( 9.w.0./ G c q G ! G M x x b v ! ! ! ! _ / H G ! R G ` ^ @.R G v H { ! _ _ ) ) ) E R R ^ / E ) ......X...o.R R E E ( X.) X.( ( E R ) ..o.o.o.o...X.*.*.+.) o...o.) E ) G v b v ^ o.R R *.x.T.1.o.X._ E 9.O.1 t m E ..9.9.X.o.",
"u.D.D.v.y.1.J G x C.>XB._. X[.[.UX/./. X[./.)./.~.~.~.Z.n.N.~.[.}.[.[.}..X-X[.(./.[.[./._._.[.{.|.-X.X-X}.}.[.[.[.UX[.-X}..X|.[.'.).}.-X}.}.}.}.{.{.{.[././.[.|.}.).|.|.|.[.[.[.[.[.[.[.[.[.).[.}.}..X}.[./.[.}.[.<X;X-X.XZ.N.g.` M l y f ! 1.r.1.2.r.o.-   * f c | )._.OX).D.u._ b M.JXDXxXR...Y M H %.%.=.! } >.u.g.g.g.-.u.M.s.b.b.B.s.N.k.u.=.>.v.b.B.g.s.r.I.=.i.N.t.s.B.g.n.N.a.b.g.s.g.v.a.a.u.s.i.a.v.a.u.s.>.>.2.i.r.r.t.s.i.r.=.=.r.=.=.-.2.=.=.V.=.*.@.*.=.=.=.6.a.B.=.V.=.-.@.;.#.#.^ N X.O.z 0 v U R ^ _ _ ) 8 o $ s c { <X=.%.%.1.2.1.D.AXLXPXLX{.p.I.m.6...@.-.*.@.@.@.@.&.o.-.&.#.&..._ &.;.^ ! { o.{ @.o.o.{ { { { { o.{ { ..{ ) ^ ^ ) ( ` ` R ! ! ( ` ` ` ( ! C.( ( ` X.) ` ( R R E ` R ` R ` ` E ` R ! E ( ( ( ) E ` ! E ( ( ( ) / ) ( C.C.U R G n.lXx.'.{ v M U R E ( ..R X 0 f t 3.1.G H ! / ~ J b.nXJXJXvX=.R q.#X'.! / ! l R ^ d 0 ] ] x ! M ~ ` ` @._ b M ! { R ` ! _ ^ G R G ( R ) X.) E ( _ R E ^ ) ) ) X.......o.) m R ( ) ( ) ( O...) ) X.) ) o.@.O.o.o.X._ O.O.O.o.) ) R R ) ` ! ! ^ ` ! @.*.p.j.5.E.n.o.E E q.*.1 k R X.*.) G X.X.",
"d.D.N.N.t.2.{ G d E D.1.{.|.[. XUX/.).(.)._./.(.).(.Z.~.UXZ.^.[.|.[.[.|.}.[.}.[.[.{.(.~.~.^./._.[.).}.}.[.(.(.[.}.}.[.[.[.[.[.|.}.OX|.}..X}.OX.X|.[.}.}.}. X{.-X}.^./.).[.[._._././.[./.[.[./.{.{.|.{.{./.^.[./.;X9X-X.X.X[.UX3.( n k u j ! %.2.y.u.y.o.-   8 v G } {.D.D.F.b.1._ f F.PXSXfXp.) a.R ` $.} #.2.t.r.~ %.u./ ] Z.a.#.s.t.B.k.a.a.v.V.a.a.B.k.a.a.N.Z.M.UXN.a.s.u.k.b.N.M.N.z.u.z.a.u.a.k.k.a.u.a.u.a.s.>.r.s.r.2.u.r.r.-.>.-.>.V.>.=.=.=.=.=.V.6.=.=.=.=.=.V.r.u.9.r.r.=.@.} @.#.-.@.=.) 7.z 8 v G ! ^ _ ( ) 8   $ d c / 1X2.2.%.=.2.=.Z.ZXJXJXLX].k.j.9.=...&.%.$.&.@.@.@.@.o.-.=.*..._ ..;.;.` ` _ @.@.o.o._ _ { o.o.@.o._ _ X.^ _ / ) ) ) ) ^ ( ! ( ( ` / ( ( ( ! ! ` X.` ` ` ( E ! E C.R ! R ( ` ` R U R ( R ! ( ( ( ( ( ! ( ! ( ` ` ..` U U R ! m x.cX#XI._ x M U U ( ( X.Y ; e v d 1.v.J G G ~ / ^ u.AXCXPXAXr.! q.I.+.~ C.n B ! ;._ A M ! v v b A ! .._ ^ ^ M ] ! ( ! ! ! ! M m b ! X._ ..) ( ! E ( ( R ) ) ` ..) o.+...` ( ` ) ) ) ( ( ..O.O.) ..X.) @.O.O.o...) ) o.O.&.o.O.+.+.G X.) ) { { ^ { { E *.D.+.E a.*.o.) 0.1.1 l ) *.+.&.X.) +.",
"d.N.D.D.D.,.L G G G D.^.v. XoXOXZ.UX(.^./.)././.)./.Z.~.~.~.M.~.~.^.)./.[.).).[.)._.[.^.~.~.F.G.UX).[.[.).UXUX/..X(.[.[.(.(.}.OX}.}..X}.}.|.).[.|.{.[.{.}.}.}.M._ B.[.[.[.[.[._.)./.[./.).[././.).[.[. X_._.[./..X-XOX.X.X{.[.UX! z j u l ~ =.r.f.u.1.{ $ o & c @.] ^.^.D.b.v.1.H c D.JXLX4X( 9.].M _ #.=.} =.u.g.~.D.D.v.^.^.M.t.u.@.&.b.a.r.r.s.N.N.s.a.a.v.N.M.N.N.z.z.a.u.v.m.n.n.N.a.u.a.v.N.g.k.u.u.B.B.u.g.s.s.u.r.s.r.i.=.6.@.V.6.V.6.-.=.V.r.V.V.=.r.r.r.V.=.=.-.r.V.r.t.=.@.@.%.>.=.%.@.u.) 7.k w m G ^ _ ^ o.1.8 o - s c } .X@.@.@.%.>.>.Z.CXLXDXLX:XP.j.$.&.@.$.&.@.$.@.o.@.{ @.6.=.-.&...;...@._ _ / o.@.} o._ ( { { { { _ _ _ { _ / _ ) ) ) ` ` ` ( ( ` ( ` ` ! A C.( ( ` ` ` ` ( C.` ` ! ` ! ` ` ( ` ( Y ( C.! R C.! C.! ( ( ( ( C.( ` ` C.C.C.C.( G z.3X].W.` x M U U ( C...m X 1 v d ] g.H G G ^ %.#.d.VXPXKXJXf.U w.].7.M M N ! ( U ! ^ ( n M A ^ C.! / ` A H A v ! ( ( ( ! ( ( M U U ` ) ..) E ^ R R ^ G R E ( X.....X.X.X.) ( X.` ! X.X.....o.....X.( ) ( ) o...! ^ ) ) o.o.) { { O.X.$.+.$.+.+.{ G G G d G ! v R _ X.R...- 8 E ) X.{ W { X.",
"u.g.D.D.u.1.J G d / D.y.} 1.D.D.-.N.-X).UX^./.[.).[.(.~.UXM.Z.N.^./.^./.)./.^.^.F.~././.(.~.(.^./.).[.).). X).)./.UXUX[.|.A.s.|.[.[.}.}.}.}.|.|.}.}.[.|.}.}..XUX[.|. X[.[.[._._.[././././.[.[./././.[.[._./.[.{..X-XOX.X[.[.~.>.! j t r y ! %.g.f.r.1.G $   = / / ] G.{.^.N.u.{ H b a.vXkX8Xz.a.` v b H H } v.F.m./.N.b.M.I.N.a.r.B.r.>.v.g.N.s.u.N.v.B.v.b.n.v.v.a.a.k.a.s.u.n.b.m.N.a.i.a.a.B.k.v.s.r.a.k.g.a.f.i.u.i.a.=.-.r.r.r.V.s.V.=.6.@.-.r.V.=.>.6.=.=.=.*.-.-.-.=.=.9.r.=.} @.=.2.r.@._ G E +.t w n R _ { { { *.w   - s x } _./ %.2.>.=.%.Z.AXLXZXLX>X0.i.5.@.@.&.&.&.@.o.{ { o.*.=.6.=.-.;..._ _ _ _ _ { @.o.{ _ ^ { { { _ ^ ^ _ _ _ ) ` _ _ _ ! ^ ` ( ! ( C.! ( ! U C.( ) ` ) X.` ( ` C.R ` E ` ` ` ) ) ` U ( R C.C.U U U U ! ( C.C.U C.( C.R R C.C.( U n.*XR.'.( v M R ! E C...m ; 2 f e { 2.G G G A / } g.ZXPXfXnXa.R q.c.6.C.C.N C.M C.C.` ! C.! ! M ~ ;.! H ~ ! / ! R ! ! ( ( ! ! C...! ( ) X.X.E R ( E E ^ G R ( ( ( ) ` ` ( ( ( ) ( U R ( ) ....) ) X.( ` X...o.o.) ) ` ! o.*.*.) E G G { X.*.D.E ) G G G G ^ / { { ^ X.R.O.- 8 z E E W E E +.",
"d.D.D.D.D.1.] G f ^ -XzX:Xu.1.J Z.~.M./.(./.)._._.).).(.UXZ.N.a.N.^.(.^.^./.(.~.D.Z.^.~.F.b.M.M.s.UX[.|.[.).[.UXA.P.A.UX|.}.B.UX/.[.[.|.[.}.|..X}..X.X-X-X.X[.OX[.[. X X_.[./.~.~.(.[.).^.[.[.{.{.{.{.[.^./.{._.{..XOX.X{.[.A.-.U j k r t R =.a.a.y.u.^ -   X f ] @._.(.}.^.d.1./ f b.NXjXdXy.o.v x f ~ J H } 2.N.b.N.f.N.N.a.a.N.u.N.a.N.a.s.N.u.6.k.N.B.v.N.k.u.r.s.t.t.i.a.M.M.a.a.i.s.u.a.B.v.a.9.a.a.a.N.B.r.s.@.N.u.%.r.r.>.r.V.r.V.-.=.=.6.>.V.>.&.=.-.-.-.-.-.=.-.=.r.r.6.%.@.#.2.=.>.%._ ` X.5.k w v G ^ o.{ ! ) t o $ y v } ;X2.%.t.2.=.,.Z.ZXLXJXKX[.z.x.9.*.@.@._ @.@.@.o.{ @.*.=.=.-.*.*.@._ @._ _ _ { @.$.{ _ _ _ _ { { _ _ ^ / _ ` ` ` ! ! E R ! ( ` ( ! ! R ! U U C.` ` ) _ ` C.R C.R R R ` ` ) ) ) ` ( R R C.C.U U C.( C.( R ( E ! U U C.R R C.! m I.&Xl.R./ x m U U ( ( X.m ; 0 G 3 _ 3.J G b M H H a.nXJXfX;X9.( 6.&.i.` M ! @.! *.! x v ~ ! ! C.! @.~ H ] _ M ) ! ! ! ( ` ` ! ( ! C.` ) ) ) _ ( ( R R G G G ( ( U M C.U U ( ) ( ( E R R ( ..X.` ( ! E ) o.O.O.o.o.) X...o.o.O.*.+.) ) X.*.9.+.{ ) ^ H { *.D./ ( _ { ) *.o.- y R E E { E E { ",
"g.D.D.g.g.1.} G f { [.~.[.g.3.D.^.~.N.Z.).[.).)./.)./.~.~.UXZ.Z.B.Z././.^.~.(.~.M.Z.~.Z.M.M.M.r.A.'.UX/././.).).^.M.UX/.(.[.}. X/.[.'.).[.[.[.[.|.}..X}.}.}..X[.[.[.).UXM.UX/.^.~.Z.UX).[./.[.[.}.}.}.{./.[..X[.[..X.X{.{.[.^.).! k y 0 d R $.1.u.t.y._ &   & s H / D.G.f.d.g.1./ b r.VXmXs.C.n v v c %.%.%./ H b.u.g.a.g.N.~.^.M.V.a.a.v.N.a.N.b.v.v.k.b.v.M.v.v.u.i.u.r.i.z.b.v.j.B.B.a.z.N.v.B.s.s.a.a.s.g.i.r._ ~.v.=.=.2.1.V.=.r.r.-.@.=.V.V.>.=.V.=.-.=.-.-.=.r.r.=.6.s.r.=.%.@.%.2.=.=.%.{ ^ ) 8.k w v R _ _ _ G ` w   - f v / OXt.2.t.2.=.%.F.ZXLXGXKX>Xi.L.0.*.@.o.;.@.o.@.;.o.@.-.=.-.*.*.@..._ { _ _ _ o.@.$.&.{ { { _ _ ^ ^ _ _ ^ ^ _ R ! ! ! ! R ( ` ( C.C.C.` ! ! ! C.` ` ` ;.( ! R ( C.` ( ` ` X._ ) ( ` ` C.U C.C.C.U U ! ( R C.C.C.U C.U U U R R U I.lX'.m.( v m M ! ( ( o.Y $ d c 2 #.%.G b G H H ! r.IXLXnXxXp.n &.-.n M M _ ( x ! _ x / b ! / ` ] @./ ! ! / / } { ! ! R ! ! m ( ! ( ( ( ) ) ) E m R ! R ! E R E U U ( ( U U ( U ! U E ( ) ) ..) ( E E ( o.O.o.o.O.X._ o...) E { { +.{ +.9.5.E E ^ ^ G G ^ G { ) ! { R 6.) 8 k T G E E E E E ",
"t.d.D.h.g.d.{ d f @.4Xa.D.N.T./.~.UX(.^.(.(.^./.~.(.^.^.^.~.~.(./././. X^.~.~.M.~.~.D.M.~./.(.d.UXUX[.UXUX).).)././.(././.'.). X X X[./.UXUX_.^./. X|.}.|.[.[.[._.[./.M.N.~.^.(.^.Z.UX(./.UXUX(.[.[.}.{.[.{..X.X}.{.}.}.{._.{.-X! j k r t G 1.t.t.a.d.( -   & v G @.G.D.^.D.y.@./ A r.AXVX-Xr.M v v A ~ J ~ / D.v.r.g.2.u.(.^.%.B.N.UXs.B.M.N.k.a.N.v.V./ =.v.M.v.k.r.r.b.B.v.v.v.v.N.v.v.v.v.a.a.B.u.a.a.r.=.r.! D.(.=.2.=.=.1.>.r.r.6.=.=.=.V.V.V.V.r.=.-.6.#.=.r.s.=.=.>.r.r.=.-.%.#.=.-.} / { ` ) 5.l w G G ^ _ ^ H R 0 o $ d M } Z.=.=.g.2.2.>.F.ZXLXJXKX-Xp.P.0.=.*.;.;.;.@.@.;.&.&.&.-.&.@.$.@._ _ _ _ ^ { o.{ %.$.@.X._ _ ^ ^ _ _ ( _ R _ R ! ( ! ! _ _ ` ( C.( ( ( ! ! ! ( X.` C.( ( ! ( C.( R C.( ( ( X.) ` E ! R U C.U C.( ! R ! U ! U ! C.U C.U C.R ! U O.lX*Xx.) x m G R ( E ) n & d { 2 %.F.v H G M H ~ 2.nXzXcXKXM.m 6.@.=.` _ ` C.A x N M C.` _ &.! / @.( ~ &.H v / o.` ` ! ( R C.x n U ` ..( ( ) ! G G R ! ! ! ( ! R ( ( E E U ( U U R E ) X.X.) X.( R ( ..o...o.o...) ) X.X...{ _ E E X.) { ) ^ ^ G ) ^ ^ Y G { o.=.@.s p.X.8 w T G E E E E E ",
"1.d.d.a.u.d.#.G x @.5Xv.~.(.(.{.^.UXUXUX(.^.~.(././././.~.Z./.[.[.[. X/./.~.D.b.b.~.Z.M.M.~.N.Z.UX^./.UXUXUX).}.[.[./.)./.[.'./._.)./.(.(.~.~..X/./.[.[.[.[.)./.[.[.~.M.~.~.^.(.UXM.~.N.UX/.~./.[.[.{.[.[.}.}.-X:X:X.X{.+X{..X-X! z y t s G $.a.u.y.f._ -   = ^ J #.oXD.^.D.g.1.] M t.ZXAX7Xj.C.M v H b b } =.u./ H t.2.=.~.[./ H ] b @.^.u.M.B.u.u.^ A -.s.a.N.a.v.t.V.M.a.v.N.B.v.a.u.N.k.z.v.B.a.u.a.u.s.=.M n.D.=.s.=.=.2.=.>.r.>.6.=.V.>.V.r.=.V.9.V.V.V.-.>.=.6.-.@.$.r.r.=.=.>.=.&.%.@.2._ G R O.z w v R ^ ^ ! G ^ 0 o & f M b F.+Xd.2.g.#.,.^.ZXLXGXKX-Xj.L.i.*.o.;.;.@.@.@.@.&.&.@.&...{ @.o.{ _ _ ^ ! _ @.@.*.@.{ { { ) ^ ^ _ ^ _ ^ ^ ^ ! ! ! E _ ) _ ` C.( ! ( C.! ( ! ! ( ` ( ! ( ` C.` R ` ` ` ` ` ` ` ` ` ` ! R R C.U ! U U R R R ! U C.R C.C.C.! ! E n.].P.W.) x b R R ( E ` M - w y * %.^.c H c M H H 2.zXAXcX4X5.-.a.x @.! ~ C.( ^ ! ! R M @.( M ~ ! H ~ v ^ ] _ ^ ^ E ( _ ( ( ( ` R ( ( X.( ) ! E R m G R R U ( ( ( ( ( E R ( ( ( R E ( ) ) ) X.) ( ( ` X.@...X.....o.O.X._ ) / E { +.) ) E E ^ G +.$.{ ^ ^ E .._ M O.9.X.o.8 w z T E E G G G ",
"d.u.t.u.y.y.#.G x _ -XM.b.D.T.-X-X/.~.^.^.~.^.^.(././.).).~./._.[. X/././.~.b.M.D.M.F.M.~.b.a.v.n.UX).UXZ.UXUXUX)././.~.n.UX/./.(.(.UX/._./.~.;.n.|.(.[.).'./././.[.^.~.UX(.^./.~.Z.Z.UX~./.[.|.[.).[.}.{.}.}..X-X.X_.{.{.^.^._.! z k 0 y R *.t.s.d.v.` $   = b H { _.F.T.D.h.1.` b v.LXtXM.r.;.! b b G { @.-./ x u.t.2.b./.u.M b x ~ ] %.} B.N.v.@.! g.v.r.a.b.s.&.b.v.i.v.v.v.N.v.a.a.v.v.N.v.a.a.k.a.i.u.A r./.r.2.=.=.=.1.2.>.r.V.>.=.r.=.>.V.r.r.r.r.V.>.=.V.=.=.-.-.-.r.6.-.=.=.=.%.-.#.2.{ G E O.z w s G ( _ ) E _ 8   & f b K ).u.N./ =.#.#.G.ZXLXGXKX}.c.W.k.6.@.;._ @.@.o.@.@.&.@.@.;.o.@.$.o.{ ( ! ^ / @.$.&.&.{ _ ` / ^ ^ ) ^ ^ ^ ^ G ! ! ! _ _ o._ ` ( ! ( ( ( C.C.! ! ( ( ` ( ! ! ` ` ( ( E R ` ` ` ! ` ` R R R C.U C.C.R R R R U C.( U C.R ( R R R ) >XtXP.E.` x M R E ( ! E x % t s 1 %.$.v G G v H H N.IXxX5X5Xr.` ..N C.v ! ) U ! ! ! ! ! _ ! C.( ( H H _ @.~ M M f E ) ) ( R U U R ! E ( ( E E ) E R G R R U E X.) ( ` E ( ) X.( ( E R R E ( ( ( ( ) X.) X...o.....X.o._ ) ) E E E } ^ +.^ ^ +.) ) +.E G ^ ^ &.E t R p.*.X.8 w z G G E G G +.",
"3.a.u.d.u.1.#.b x @.F.v.^.|.6X<XA.k.N.M.UXUX~.Z.(.(.).[./. X/././.^.^.).[.).UXUX/.g.v.b.b.v.r.b.(.(.[./.~.(.(.~.UXUXUXM.B.B.Z.Z.UX~./.[.|.[. XI.[.[.~.~./././.).(.(.(.~.~.UX~.~.Z.N.M.UXUX/._.|..X{.[.{.[.}..X.X{.`.[.[.[.[..X_.! x y 0 t G =.t.v.b.u.` $   % H } / a.~.F.F.g.#.` b b.JXPXnXs.*.! b ! / $.z.r.H %.N.a.%.t.g.d.] b #._ 2.r.2.r.g.b.N.b.v.r.=.@.a.=._ i.u.v.v.v.f.N.v.N.N.n.v.v.a.u.u.i.r.a.H =.[.=.r.V.-.6.=.=.=.-.r.2.=.r.r.=.=.=.s.s.r.r.=.6.=.=.=.=.#.$.=.s.=.=.r.2.=.=.%.=.u.@./ R ..l w l G ^ _ _ _ ) 8   & d b ! ).~ ' @./ g.g.M.PXLXGXLX[.l.#XE.9.&._ { } @.{ @.$.@.O.@.{ $.$.$.{ _ ^ ( ^ { @.{ o.{ { _ ! ^ ^ ^ { R ^ ! R ! R ! ^ _ ^ _ ^ ` ( ` ) _ ` ! ( ( ` ( ` ( ` ( ( ) ` ( ) ( ( ) ) ( ( R ! ( ! U C.R R R ! R M M U C.U U U U C.C.C.! U j.kXE.x.X.f M R R E G ! m & t l 1 / a.b H H M b H F.jXPXPXKXz.n n U M b ! ! U ! ! ! C.! @.~ C.` ! ~ _ b ^ A x $ ) *.E ( ` E U U E R ( ( E ` X.) ) ` R R U E ) ....) ) ! R ! E ( ( ) E ( ( ( ( ` X.) ) ) ....o.o...X.) ) ) E G _ R E ) R { o.+.D.G G +.{ ^ +.q.Y q.+.v 9.+.1 w z Y Y Y Y Y E ",
"1.u.v.F.N.1.} G v } v.v./.:X4X/.a.d.UXUX~./.~.~.UX^./. X X X/././.(.(.(.(.(.^.(./.UXUXZ.b.v.#.b.UX(./.^./.~.(.UXM.n.B.s.s.s.n.UX(./. X)./.}./. X X).~.UX~././.^.~.UX(.~.Z.UX/.).(.UXM.UX~.(.[._.).[.[.{..X|.}.-X.X.X[.^..X-XZ.V.( z y 9 t G *.s.v.b.v.! -   - v H } ~.G.b.D.b.2.` b Z.LXZX4Xn.=.U M ! } @.Z._.M #.u.2.t.N.2.2.H ~ @.%._ #.@.} g.~.b.a.a.>._ r.M.v.a.-.N.v.a.f.a.v.v.n.b.v.k.B.a.s.t.r.u.! @.[.>.s.=.=.=.=.r.=.r.>.=.2.r.=.r.r.r.=.s.r.=.=.V.=.=.=.-.#.&.*.-.-.$.@.$.#.%.-.=.y.=.! _ E +.k w l G ` { O.{ 9.d   - f b K b.} u.#.@.2.-XOXVXLXJXLX Xx.&XR.6.@.o._ } @._ { @.@.&.@.@.@.o.{ { ) _ _ ( { @.{ .._ _ _ ! R ^ ) / / ^ ^ ^ ! ! ! _ ! R _ ( ! ` ) ..` ) ( ` ` ` ( ( ( ! ! ! ) ` ( ) ( / ) ` ` R M ! R R R C.G R ! R R R U U U C.U U C.U ! C.! E '.tXL.x._ v v M b U R E n - e d 1 } g.b b x c M ~ 2.fXZXPXPXUX` -._ ! ` C.` ..A ! ! C.! ! U ! ! C.! ! ( ] ) ` M U m R ^ ( ( ! U U E E ( ( X.X.) X.` E E ( X.o.....X.) E E E ( ) ) ` ) ( ( X.) ( E R E ( ) X...o.( E ) ) ) ) E E ^ E ) ) X.$.+.X.^ W.+.G ^ E Y D.#XD.v 5.E 1 w z Y Y E E E ^ ",
"1.y.a.N.d.1.{ b b { :X[.[.}.[.~.[.~.B.~.~.UX^./.UXG.^.~././.UXZ.(.[. X^.~.UX/.(.~.b.~.M.Z.^.~.UXUXUXUX(.(.~.~.v.B.s.B.B.B.B.B.UX/. X[./.UX}.}./././.~.~./.(.~.I.~.~.UX~.UXUX~.M.UX~.UX~././.[.[./.|.[.[.|.{..X.X}.}.{.{.-X-X).d.E l y 8 y G *.y.s.v.B.` $   $ b H %.[.).G.F.N.%.! b v.AXZXtXV.;.M b ! @./ &.v G %.~ M.u.2.~ ] M v ] r.-.f b $.u.g.D.1.%.a.2.#._ ~ -.v.a.g.a.a.a.6.u.v.N.v.v.a.s.u.r.u._ _ }.=.=.>.6.=.>.=.@.r.r.r.-.r.V.r.r.V.r.=.r.=.-.-.@.&.-.=.-.-.*.} #.-.$.&.-.%.$.r.&.} @.^ _ E *.l w x G ( { o._ } w   & f b b 2.2.#.#.%.#.t.{.ZXJXGXLXT.L.].0.*.@._ _ } _ _ @.&.@.@.{ o.{ { { { { { { ` { { { { _ _ _ ( ) ) / / _ ^ ^ ^ ! ! ^ ( _ R / ^ ) ) ` ) _ ) ` ` ( ! ( ( ~ ` ! ( ) ` ` ` ( ` ) ( E ! Y C.! U ! U R G G R U U R ! U ! ! U ( U ! _ ~ ~ /.3XL.c._ s v m M M M ! n - e f 1 } g.G v v G ! / g.xXxXzXPXI.` ` ( &.y M ! ` n M C.! M v b ~ ^ ! M _ / M U U m y n R E ) ( U ( ( U ( ( ) ) X.) R E ) ( X...+.o...X.) ..) E ( ( ` E ( X.( ( ..X.( E ( ( ) E E ( ) ) ) E ! ! G E E R E { { +.{ X.E 5.^ E ^ E E 5.5.5.+.q.E & w z G Y E E E E ",
"2.2.t.2.u.1./ b b ~ :X X~.M.UX^.~.^.(.a.B./.~.~. X/.~./.Z.n.UXZ.UX/./.(.^.(.UXUXI.Z.n.M.N.UXM.~.^.).^.[.).^.G.n.B.Z.Z.B.Z.n.B.Z.UX[.[.~.~.M.-X[./. X/.~.UX~.~.~.~.~.~.(.UX/.~.~./.UX~././.[.[.[.|.{.|.{.|..X{..XOXOX}..X-X-X.XB.R z t 8 y m } t.u.r.p.( -   & b { 3.D.N.D.G.M.1.^ b Z.JXPXzXn.*.! v ! @./ M A d._ -.N.2.H =.%.r._ / u.r.3 H a.&./ r.1.v.r.%.M } v.a.u.v.a.v.a.d.=.r.u.a.B.k.u.u.r.r.%.~ -Xr.s.r.-.>.r.r.r.>.=.1.=.=.=.s.s.V.V.r.r.s.r.@.@.! #.@.*.=.=./ @.6.-.-.%.>.=.=.%.@.$.%./ _ E X.k w x G ! _ { { _ 1   - f f / :XD.#.#.} 2.t.b.JXLXCXzX/.R.iXL.$.@.} } { _ _ { o.o.@.{ @.$.o.o.{ { { { { { { { { .._ _ _ ) / { ) ^ ^ _ ! ( ^ ^ ` ^ ! ^ ( ` ( ) / ) / ) ( ` ( ( ( ( ( ( ` ` ` ` ( ) ` ` ( C.( C.U U ! R ! R R R R ! ! ( ( ` ( U ! C.( ! A 2.b.k.rXT.9._ s v m M U U ! x & d f 2 1.g.G ^ H H _ J b.nX-XdXZXv.C.V.r.M C._ ! M ! ( m N ! M m b ! ;.! M b M U Y M U R E R ) _ E U U Y U W ) ) ( U ( ( _ X.) X.X.o.o.o.o.) ) ` ) X.E U R ( ( X.) X.( ( ( ( ( E E R ) ) ! E E G G G G E E E ) ) +.^ ^ G ^ +.+.^ ^ E E ^ E +.E 1 w z Y Y E E G E ",
"1.t.u.f.g.2./ v v ! tX|.~.^.~.^.~.(.^.(.(././.(.~././.[.G.(. X/.~.~./.^.~.^.(.UXUXM.UXUXI.Z.UXn.I.M.UX^.(.~.M.B.B.n.N.N.B.B.M.~.(.[./.B.>.n.(.^.(.)./.UXUX^.(.^.~.UXUX^.).~.UX^.UX~.(././.)..X|.).[.|.{.|..X|..X.X.X.XOX.X}.N.t.R l t 9 t v @.s.u.u.u.( ;   $ p } { 1.b.~.^.M.t./ v Z.PXAXxXUX_ M m G $.1.! G 1.N.} v.g.~ r.t.] _ @.#.H y.~ -.$.2.u.a.^.1.H 1.D.@.} g.g.u.d.a.a.r.t.a.u.B.a.a.r.r.2.M {.u.=.r.r.=.>.s.s.s.s.u.r.r.2.r.r.>.r.V.V.r.>.=.@.] @.&.@.-.V.-.] } / 6.=.=.=.-.%.#.#.%.%.^ ) X.a.y w x G { { { _ G 1   * g x G h.`.2.| %.r.2.M.ZXJXLXPX~.0.*XP.5.@._ / / _ _ { _ o.$.@.o.o.{ { _ _ ^ H { { { { { _ _ { { ^ { { _ _ ) _ ^ ! ^ / ^ ) ` / ! ` ( ! ` ` ! ( ( ! ( ( ` ( ( ( ) ) ) ! ! ( ( ( ! ! ! ! R ! ( R ( R R ( R R ! ) ) ) ) E ! R ( ! ` ' 1.(.&Xj.p._ l v m G R m o.! & y x 0 ~ 1.~ ~ / H ! ~ N.nXZXCXJXI.! -.N.N M ;.@./ ) U ! C.U N C.! ~ H ! ` @.M R Y N m R R E R R U U m Y ! ( ( ( ( U E R E ( ) ) _ ) o.) ) X.) ` X.) ( E E ( ) ..X.( E ( ( E ( ( ( ( E R R E R E R E E _ ....o.{ X.E G E { ^ ^ X.+.^ ^ +.E +.E 1 d z Y G E E E E ",
"1.2.a.1.} 1.~ b b C.,X[.~.~.~.~.~.(.~.(. X X/./././.^././.[./.(.~.UX~./.~.UXUXM.UX~.^.N.Z.UXZ.Z.N.Z.UXUXZ.Z.M.B.a.B.UXUXZ.UX/.^.(. X(.n.n.~.UX~.^.~.(.(././.(.UXUXUXB.d.^.~.(.~.UX(. X/._.[.[.|.).[..X^./..X/.|.|.|.}.OX.X/.~.UXR k t 8 y m _ u.u.i.z./ ;   - n / J _.D.Z.M.g.2.^ c Z.PXAXnX/.@.G v H -.$.#.} t.r.b N.d.%./ v f H 2.&.! r._ 2.y.v 1.2.b.H / 1./ M =.#.-.a.a.g.a.u.u.r.u.u.u.r.V.r.M (.N.6.s.=.r.=.%.1.r.r.u.s.r.r.2.r.r.=.r.=.r.>.=.=./ ..#._ _ =.r.*.=.-.-.r.=.r.$.$.@.%.&.-.} G G ) j.z 0 n G _ { o._ { 1   1 x G d _.[.G #.1.d.>.N.ZXJXJXLXI.9.$XP.*.@./ / ^ ( _ { _ @.@.@.{ ^ _ _ _ ( _ { { { o.{ ..^ { { _ _ { ../ ^ ^ ^ _ ( ^ _ / / / ( ` X.! ! ) ` ( ( ! ! ! ! ! ! ! ( ` ` ( ! ` ! ! ! ! ( ! ( R R R E ( E ( ^ R E E ( ) X.` ! ! ( R @.r.%.! T.iXL.T.R x v M M R G { R ; e x 1 | d./ { ~ H H ! N.nXAXAXPXM.! C.y C.u M ! c ) ;.M U b ! _ ! A _ =._ b m U M M U R ! E E ) ( U Y Y U ( ( ( R E U U m M R R R E ( E ! ! ( E ( ( ( R R ( ) ) ` X.! ) ( ( ( ( R R R R R ( E ! R R R E { E ) W X.^ ^ E E X.+.+.+.+.+.E E X.G 1 w z E G E G E G ",
"2.1./ u.u.2._ v x _ UXN.M.N.Z.Z.(./.[.[._.[./.(.^.^.^.^.UXUXUXUX(.(.UXUX~.~.UXG.UX~.M.v.s.b.~.~.M.B.N.Z.UXUXUXZ.N.N.M.~.(.^.(._.[./. X~.UXZ.Z.(.(.^.(.(.~.^.~.~.UXUXUXN.Z.~.~.~.UX/._./.(.)././.)./.(.(././.).|.}.OXOX}..X|./.Z.R y t 0 y G &.u.>.g.M.U $   $ n } ] G.b.b.N.g.>.~ b >.VXLXVX[.X.x l ! %.1.%.2./ H N.1.{ 2.A } _ ~ =.} M } @.%._ { } ! 2.! 2./ #.N.g.@.=.r.a.g.a.u.v.@.r.a.u.=.t.x v.M.-.s.=.r.r.=.=.>.s.r.y.u.r.t.r.r.=.>.V.>.V.r.r.=.@._ ] @.@.=.=.=.=.r.=.6.r.-.&.} @.%.1.=.%.! { E 1.l 9 v G { o.{ _ R 8   1 f G G d.1.u.#.1.u.%.g.VXJXPXLX[.0.].x.6.@./ G H ! { _ _ { @.o._ _ _ _ _ ( { { $.@.@.o._ _ _ _ _ { { { / _ _ _ _ ( _ _ ` / ) ` X.` C.` ( ( ( ! C.U C.( C.U ( ` ) ` ! ) E ! ! ( ( ! ! U ! R ! R ( ! ) ( ( R ! E ( ( ! R ! R ! } &._ ^ m.lXE.9.G y x m R R R R y $ y s 1 } u./ #.! G ! ! u.cXZXAXSXUXC.C.C.` B N M N ! _ C.U m A =.A M ! ! j x E U Y M R R ! R ( ` ( U U m Y E U U E ( ( E R R R R R R R R R E ( R ( ( ( R U R ( E ! U U E R ( E E R U R R R ( ) R R R E G E { ) X.) E ^ ^ E X.{ { { +.^ +.E ^ Y 1 w Y E E E Y G E ",
"%.2.1.H %.u.] b p #.gX/.UXb.UX^.[.|.|. X/.~.(././.~.^./.(.~.UXM.Z.N.v.n.UX(./././.UXb.M.~.Z.~.M.UX(.M.M.~.(.~.UXUX~.~.UX(.(.'./.(.).^.M.a.v.I.~.UX~.~./.~.UXZ.Z.I.Z.I.UXM.UX(.[. X/./.(.~.(.~.G.UX^.~.~./.).).|..X}.}.{.).).~.B.E y 0 0 t G s.b.b.v.=.! $   & b ] @.F.f.b.v.v.>.^ N v.VXdXzXB.` x x ^ $.%.u.G.1.{ 1.%.t.@.r.^.H ] } / 2.2.%.M.F.N.g.g.! / 2._ } } / =.r.=.-.r.g.n.N.N.u.a.2.r.^ 9.~.=.r.2.=.2.r.2.=.2.r.r.s.a.u.2.r.r.2.s.=.r.a.r.t.=.@._ ;.;.o.-.=.-.-.r.=.>.=.%.#._ %.=.%.%.=.{ &.) X.l 0 l G ^ { { _ _ 1   * g G d ).OXu.#.#.#.>.g.xXLXLXJX|.P.&XL.*.1./ H ! ^ / { { @.o.{ ` _ _ / ! ^ { o.$.@.{ o./ _ { X._ { _ X./ ) ) _ _ ` ^ ) ` / ) ` ` ( ` ` ( ` ` ( C.C.( C.! ! ( ` ` ! R ! ! C.U ! U ! U ! ! R U U R G ( ( ! E ( ` &.o.( ! R R ! ! G ! E 9.7XR.w.E y x s G G G [.r.+ d l 2 / N.G ! / | G J g.nXAXAXSXM.N C.` M ! C.N C.y N C.U M U ! M Y M x v m M U U U R ( E ( E R ( R U Y M U E ! ( ( ( ( ( ( ( ( E ! E ! R R ( R E ( ( R U U U Y Y U ( R E ( ( U Y U U R R R E ! E E E G R ) E ) E ) ^ E E ^ E +.{ +.^ ^ E E E 1 d z G E E E Y v ",
"2.2.{ D.h.1./ G x @.~.:X/.v.UX).|.[./.UX~.Z.~./. X/.UX/.UXM.I.Z.b.M.N.N.N.M.UX~.Z.M.M.Z.Z.M.N.M.UXM.UXZ.~.~.(.UX~.(.~.UX(./.(.(.~.(.UXZ.B.B.~.^./.(.'.~.M.b.N.N.M.Z.Z.I.n.M././././.(.~.(.~.~.~.~.~.~.~.^././.[.[. X/.).)./.(._._ l t 8 t ! 1.v.D.b.p.R &   & ~ #.@.F.v.N.b.g.2.^ b 2.<X0XvXa.` y x ! $.=.@.~ } ^ } 2.1./ J / { 2.{ / u.2.D.F.=.2.M ~ ~ ] / $.r.~ @.y.=.r.s.a.v.v.v.v.a.u.s.@._ M.9.r.r.-.=.r.2.s.r.s.r.s.=.y.u.2.r.r.r.#.=.UX=.t.r.=.-.=.&._ _ @.$.@.&.%.&.=.r.@.-.=.=.=.%.@.@.~ o.) ) l 0 s M ^ { { E / 1   1 f G g _.^.3./ ^.).} a.AX+XqXKX}.T.&XT./.}.^ ! ~ _ ` o._ _ @._ / ) ) ` ! ` @._ @.o.} _ _ _ _ _ o.{ o.{ _ ) _ _ _ / ) _ _ ` ^ ^ ^ H ^ _ _ ( ^ ( ! _ ^ ( ` ! ( ( ( ( ! ^ ! R ! G G M M R U R R R R R R ( ! E ! ( ! R ( ! R ! ! U ! ! ( x.2XW.w.U y y b / _ } b q & e y 2 %.%.~ / / ] C.C.Z.VXVXAXPX~.M M M b _ ! C.C.U M m Y C.U U M M M U Y U U U U U E ) R ( R ( ( E U U U Y U U ( W X.( U ( ` ( _ ) ) ..! R R R R ) ( ( U R R R U E R U U ( ( E U Y Y M m m U ( ( ( R U ( ( ( ( E ) ) E R ( ) X.X.X.....G p.+.1 9 m G E E G G G ",
"2.| G ] @.1.{ x B _ ^.N.M.n.M.).[.~.UXZ.M.M././.'.^.(.UX~.Z.Z.~.~.M.n.N.N.n.b.b.M.~.M.M.I.N.N.N.N.b.M.b.UXb.UX~.(.^.(.~.(. X/././.UXUXn.v.N.~././.^.^.~.M.b.b.M.I.M.M.N.v.N.n.~.^.(.~.~.UXUXZ.^.~.~.M.b.M.^.~.^.^.^.(.b.~.~.[.{.;.k t 0 t M %.a.a.a.=./ -   - x H 1.g.f.G.D.D.2./ M 1.vXKXxXI.) M M / 9.r.%.b J 2.F.r.c / 1.1.2./ @.d.G ~ f.@.@.@.~ %.{ @.@.u.@.%.v.y.%.u.u.g.a.g.a.r.u.u.=.-.(.2.r.2.&.=.r.s.s.s.r.r.r.r.2.r.2.y.s.r.@.*.Z.u.=.s.=.=.-.-.-.@.#.%.=.*._ ] } -.=.-.r.=.1.=.=.%.1.^ x E E k 8 l G ! _ { _ ! 1   1 G G G | ~ 1.v.F.1.%.a.jXAX0XJXm.j.lXiXz._ ^ ~ _ o./ _ _ ) _ ] ( ` _ _ ` ;.;._ ;.o._ / _ _ _ _ @.@.@._ _ ` _ _ / ( / _ ! ( _ ( _ _ E ( ( ( _ R ^ R ^ ) ` _ ( ^ _ ` ! ( ( ! ! G R U R R U G m m G R E R R R R R E R R R R R R C.! ( ..m.3XI.j.U u p M / ! G & w * q q 1 } g.~ @.H N A C.h.VXVXVXZXM.M ! ! ..` / / C.C.C.N U C.U U m Y M Y U U ( U R R R ) ( ( R U E ( U U U U U ( ( ) ` U m Y E ( ) ) ) ) E ( ( ( ( ) X.) E E E ! R ( R E ( R Y U U U Y m m m U ( ) E E R R E ( X._ ) ) E R E _ X._ ) ) X.E { R w 9 G E E E E R G ",
"1.@.] %.@.#.] G B / ).r.-.v.UXUX/.Z.N.b.g.~. X/.).)./.(.^./.~.I.M.UXZ.Z.M.UXM.I.M.n.n.M.M.Z.b.n.b.M.Z.~.UX~.M.v.B.UX X(.(.(.~.~.UXM.M.B.s.k.~.(.~.~.I.N.M.Z.M.~.UXN.B.v.v.N.M././.~.~.~.M.M.M.UX~.Z.b.v.N.M.^.~.^.~.~.~.Z.~.[..X@.j y 0 y m $.r.a.s.o.G =   = b H 1.`.G.F.D.g.2.~ x F.nXJXiXk...! _ / =.-.%./ c x b c e v H G u.g.b.u.N.1.%.%.2._ 1.r.G } =.M _ 2.=.#.r.u.y.g.f.v.k.s.a.v...(.v.2.s.r./ } s.s.s.a.s.2.r.r.r.2.r.s.s.%.r.b.%.6.r.r.6.-.=.-.@.@.&.-.=.@.@.@.;.&.#.-.=.$.-.=.%.@.} ^ U X.) y 8 x G R / _ { R 1 o - g G G G.{.~ @.J ] 1.3.cXKXZX5X*.3XcXW.5.o.} { } _ _ _ { / ) ) / _ _ _ _ _ ! ^ ;._ { _ { ) { o.@.o.{ _ _ _ ` _ ( ` / ( ! ( ) _ _ { _ ) ^ ! H ! ( ! ^ ( ^ _ ! ` ` ! ^ ! ! ! R R G U U U U Y m R m G R R R R E R R R R R R U U ! ( ! r.#X2XL.k.( q x G ~ } f @._ & w s 2 ~ d.H R M A C.C.B.VXAXDXJXM.C.` R ` _ U ! _ ! x N U U ! U Y M U U U U U U R E ( ) R R U Y m U C.U Y U U W U E C.U m m U ( ) X.X.) X.` ) ( X.) ( ( ) X.( ( ( E E R Y U U U E U U Y Y M U ( ( ( E ( E ( R E E R G E ( ( E ( E ) ) E E E E 9 t z E E E E E T ",
"t.%.@.%.1.1.] x B ] ~./.a.g.Z.(.~.b.B.u.g.N.M.^./.~.^.^.~.Z.b.b.M.UXM.I.M.M.M.M.Z.M.N.Z.M.M.b.Z.UXUXM.I.~.UXM.B.r.s.N.UX~.(.~.UXv.N.M.B.V.v./.~.UXUXb.N.I.F.M.M.Z.b.v.N.UXUX~.~.UXM.Z.UXb.M.Z.UX~.M.M.N.k.b.b.~.^.^././.{.).).^._ z k 0 t G { =.r.2.@.v =   0 M H #.G.D.D.N.g.2.~ M d.gXAX0Xa...n ) _ i.2.%.} ~ #./ b G G G { D.D.b.} _.M.%.1.r.%.{ y.#./ x / t.=.#.y.f.n.s.f.f.u.u.i.u.a.r.i.s.s.r.r.%.$.r.s.r.u.u.y.2.2.2.s.r.=.=.u.v.&.=.>.=.=.=.&.#.#.#.=.%.-.=.&.@.@.@.&.=.=.&.@.%.=.%.} } / R E ! t 8 v ! ! _ ! ! _ 8   1 G c H vX5X2./ } 1.%.d.bXLXAX>X(.$XpXW.q.} _ _ _ _ _ _ _ / ` @._ _ / / ) _ ;._ ;.{ { { _ { { { { / { @._ _ _ / / ` ` ! _ ( _ ` _ / _ ( ^ ! R ^ ! ^ ( ^ ^ ! ( _ ) ) ( ^ ! ! ! ! G R R R R G R R R R G R R R R G R G G G R U C.( ! ( @.UXlXU.P.X.u v H ' } 1.f.x * q y 2 ~ [.t.M G M C.C.B.nXAXoXjXN.C.A N M _ / A ! C.m U U C.U U U U U ( ( R ( C.R ( R R R E ! U m n Y Y Y ( ( U E U U U M U U R ( ) ) ) ) ) X.X.X...) ) ) ) X.) ( ( ( U ( ( ( ( U U U U U E ( ) ( X.X.) ( E ( ! R E G E R R ( ( E ) ) ) R E E t t G R E E E E G ",
"%.H g.{ H #./ G B ;.oX[.|.M.N.N.a.a.u.a.B.r.u.~.~.^.~.~.M.g.g.N.M.Z.~.(.~.UXM.n.n.N.N.I.Z.N.b.b.M.b.M.b.b.b.v.v.d.s.g.M.UX~.UXv.u.k.B.a.N.UX/.~.~.I.Z.M.v.M.~.UXM.M.b.N.I.~.(.~.UXM.N.~.UX~.Z.Z.~.UXM.b.b.M.Z.M.M.~.).[.[.).M.~.( z l t y G @.$.=.%.{ _ 1   0 H / J y.D.D.D.a.1.~ M t.SXKXvXn.&.M n ! #.#.@.y } 1.] ] } J %. X/ } a.2.%.} x r.@.=.2.~ ! / %.b.H &.s.B.a.s.a.g.u.a.u.=.r.a.v.u.u.u.V.r.@.%.-.r.s.u.y.u.r.r.2.2.=.%.r.y.$.-.1.=.=.-.-.=.@.@.#.=.=.9.=.=.=.-.-.6.=.$.-.=.1.=.-.%.@.^ ) R X.k 8 M R ! _ ( ( o.8   = c G x F.d.} ' #.,.t.g.nXLXPXzX;X#XpX!.0.} / / _ ` _ _ _ _ / ) ) _ ) @._ _ @...;.{ o.{ _ _ _ _ _ _ o._ _ _ _ .._ _ ! _ ( _ _ ! _ ^ ^ R R R ^ ^ ) ^ ! ( _ ^ _ _ ) / ( ! ! ! ! ! ( ! U U U m R R R G R R R m G R m M U C.U C.! 9.! U Y k.NX'.w.) t c b c H / G t 1 e y 2 } M.M ~ G A U A u.IXAX;XjXa.C.A #.! A _ ] ~ ..U U R ( ( E ! U E U ! U ` ( E E U E ( R ( E Y x n U U U E ( U Y U U R R U m E ( ) ) ) X.( ) ) X.X.( ) E ( ) X.( E ) ) ( ( ` ( ` E E ( ( X.) ) X.o.X.) ) E R G G R E G R R E ) ) E E R E R 9 9 G E G G E E G ",
"J ] G g.g.#.J G B @.>XI.UXn.N.k.s.t.a.u.t.b.~.M.M.UXM.Z.n.g.B.B.v.b.Z.~.(.UXb.n.B.N.b.M.I.N.n.M.n.M.~.v.B.v.a.u.B.N.~.~.Z.n.g.B.a.a.u.u.M.UXN.~.UX~.~.UXn.b.UXM.M.M.Z.I.N.Z.M.n.=.B.~.~.~.~.Z.I.^.I.b.b.M.b.M.~.~.Z._.[._.[.}.}._ z y 0 y G =.v.a.#.r.=.1   1 H G $.oXh.h.h.d.1.! H 1.zXLXgXP.@.m M M C.%.=.s.v.G J / G H / / 1.g.%.2.H M x q $.~.=.v @.$.r.] M a.u.t.z.a.a.f.a.u.=.s.k.z.z.s.=.s.r.r.2.=.=.=.r.s.r.r.r.s.r.=.%.=.%.=.=.-.=.=.=.9.-.*.=.&.&.%.-.=.=.=.1.1.9.=.=.&.1.=.=.=.-.#.} ^ ) R o.l 9 M ! ` / ( _ ( -   = g G h D.] ' #.{ #.>.g.nXJXJXZX XW.lX#Xq.@._ ^ / ^ ` _ _ _ _ / _ ` ] ;._ _ ] @.@.@.} / ^ _ _ ( _ _ _ @._ _ _ _ _ / _ ^ _ ! _ _ R ^ ^ ^ ^ ^ ^ ^ / ( ` _ ( ^ ( ) ! ( ! ! ! ! ! ! ! U ! U U R m R R G R R m G m R m m C.U M U C.|.~.u.s.j.tXL.0.E u b b G } f q y 1 f x q / N.! ! R C.C.A g.nXVXDXVXk.C.-.t.! ! H ^ ! ! ` U ( X.) ) E ` ` C.! C.( E ! R U ! U ( ( E Y N n U U ( U U U U U R E m U U Y R ) ) ) ( ( ) ) ) ( ( ` ( ( ) ` ` ( X.( ( E E E X.( ( ) X.) E E ) ) ) E E R E { ) z k G R R R E R E R m E E 9 9 z G E E W E G ",
"1.1./ G / / / G B ;. X(./.n.M.N.u.a.a.u.u.t.b.M.Z.M.M.M.a.a.u.g.v.M.Z.UX~.UXN.B.N.b.Z.B.t.n.M.N.b.UXM.v.g.B.v.N.M.n.n.v.B.B.g.v.v.a.B.s.s.b.~.~.UXZ.UXUX~.N.n.N.N.M.M.M.UXUXM.B.a.M.~.~.~.Z.~.M.~.M.b.b.M.~.M.Z.~./.[./.^.^.).b._ n k w y M =.u.G _ N.@.&   = G / / %.h.g.h.u.1.! H ,.jXPXxXI.=.U M / ).v.Z.v.r.@.] / } J { 1.t.g.3.} ^ } ~ M %./ ~ ^ -.y.2.~ =.v.a.u.u.v.s.y.u.s.1.s.u.r.=.@.-.r.r.r.y.r.=.r.s.r.t.r.r.s.=.=.@.%.=.9.*.=.=.=.-.=.%.@.#.#.@.&.=.$.=.=.r.r.=.=.=.} =.1.=.=.%.$.} / &.m E y 0 v G ! ! ! ( ..=   = G G g 1./ / J | >.>.h.zXJXJXCXz.T.MX#Xj.@._ / H ! ! ` _ _ ) _ _ _ @...;.] _ _ ..{ o.^ ! ^ ^ _ _ _ ..] _ @.} _ _ _ ^ ^ ^ _ R ! ^ ^ G R ^ ^ ^ / R ! ^ ( _ _ ! _ ! ( ! M ! ! ! ! ! ! U U U M R R m Y R R R m m M m M Y U U U ! b A -.M.j.*Xc.q.) y f b / H / f./ @ 0 y * H a.! ! U M ! C.u.nXnXVXVX>.*.^ b ! U _ ! C.U ! U E ` ..X.X.( U C.! M U ( ( R U U ( ( ( E U U U E U U R Y ( U Y U Y Y Y R U U E E R ( ) ( ( ( ) ( ( ( X.` ) X.X.( ( ( R R ( ) ..) ) X.( ( R ( ( ( ( ! ( G G o.z.0.G k G R R R R R n o.R 9 k G G E E G G G ",
"@.1.1.] H / ] G j @.>Xn.(.N.a.s.r.u.u.a.a.v.v.N.M.Z.Z.M.b.g.s.N.M.M.UXUXUXM.N.g.p.s.r.a.g.N.N.N.M.M.n.N.v.N.b.UX~.UXZ.v.B.v.v.d.B.n.v.N.M.M.I.~.I.M.M.Z.N.n.g.B.B.I.UXZ.UXN.N.M.N.~.~.(.~.~.~.~.Z.v.n.v.b.F.Z.~./.)./.^.^.Z.b.Z._ z y t y ! 1.@.a.{ ! y ;   1 G J / %.1.D.d.u.1.! A =.cXZXhXm.*.U x ..=.A v.H ] 1.@./ { $.u.v.u.a.@.M y.#.@.^ ~ &.#.%.=.=.>.=.r.2.a.=.=.y.s.r.s.s.u.9.r.>.&.@.r.i.=.9.s.s.r.1.r.r.r.r.2.r.=.1.=.=.$.=.=.-.$.&.%.@.&.&.@.#.*.#.=.=.=.1.r.r.9.=.V.%.=.r.$.-.$.@.@.@._ Y ) t 0 v G ! ! ! ! ( 7   = c G H 2.#.1.1.#.^.t.N.xXPXJXZXT.R.pX#Xx.@./ ! M ! ! ! ^ ) / @._ ) @.] _ ) _ _ _ { { ^ X._ _ _ { ] @.o._ _ .._ _ _ ^ ^ ^ ! ! ^ G G G ^ ^ ^ R R R ! _ ^ ( ! _ ) _ ! ! ! C.M R ! ! ! R R U M m M R R R R R E M R m M C.C.! ! C.` @.A / n.rXL.w.) y b H f b v b ^ $ 0 c d { g.M ! ! A C.! g.VXnXZXdX@.! ) ) ! U v n m U U ! E ` ( ) ( C.n N C...( U ( E E U E ( ( ( U U R E ( R U U U U Y U R R m Y R R R ( ( ) E E E U R ( E ( ( E ) ) ( ( E E E ( X.) ) ` ` ) E ) o.X.) E ( E ) ( R R E q.D.e.+.R m G R m m E m 9 9 z E E E E G E ",
"1.#.%.%.1.#.} g d @.}.T.M.s.-.t.a.u.u.a.a.v.N.b.N.b.b.b.b.N.a.N.g.N.UXM.I.b.M.v.B.N.N.M.UXM.N.n.M.N.M.M.n.b.~.~.G.b.v.v.B.n.B.N.M.N.n.M.N.n.a.v.Z.UXZ.M.v.B.v.N.Z.M.I.~.~.UXn.N.n.b.M.M.UXM.M.~.UXN.v.v.N.M.^.^.^.^.^.~.Z.Z.Z.M.) n k 9 y G ^ y._.d.G G - o 1 ! ^ _ G u.u.3.u.%.G G 1.1X0XvX(.5.` M 2._ H M { } G 1.3.r.y.u.3.{ ! f / d.$.$._ / u.-.2.v.u.r.b r.%.u.r.2.} @.v.i.r.r.=.=.=.6.@.-.=.=.r.u.t.u.i.s.y.=.r.r.s.$.=.i.1.$.-.$.-.#.&.@.#.&.@.@.@.@.#.-.=.9.1.2.r.r.=.=.*.=.1.%.%.%.#.@._ ( m E t 0 v R ! ! ! ! ` =   = b G H `.g.g.2.a.^ ] d.zXVXPXPXM.E.BX*Xx.{ ~ ! M G / R _ ) _ _ _ / ;._ _ { _ _ { { _ ! ^ _ { _ _ _ o...] _ _ _ _ ( G ! ( ! ( G G G G G R / R ^ ^ _ ( _ ( G _ ^ ^ ! R G M M U ! ( ! U U U M m U U R ! ! R ! U R M U ( ! ! R H _ =.~ } n.pXL.q.E y s J ! b H ! x 0 G H d _ a.M ! ! ~ M ! a.nXAXJXzX! ) ` U U Y M n n G R ( ( ) ( ( ( Y U N U U M U E ( ( M Y ! ( U U E R U E C.E U m m R R R Y R R Y U ( E E ( ( E E U ( ( ( ` ( E E ) ) ) E R ( ( ^ X.) ^ W E E E ) ( R U G G G G E E E R R 1.x.D.D.+.d G T G G 9 k G T G G R E T ",
"1.1.#.1.1.} ] G f o.6Xm.-.-.=.s.a.u.g.a.g.a.g.v.n.M.b.N.v.a.a.v.g.n.N.N.M.N.Z.M.b.M.M.Z.I.M.Z.b.N.n.n.M.Z.I.Z.I.I.b.N.N.Z.I.UXUXb.N.M.M.UXv.a.N.M.N.v.v.B.Z.UXUX~.~.~.~.UX~.M.N.N.M.N.b.b.Z.Z.M.N.N.B.N.M.~.^./.^./.^.~.F.~.~.b.R n y w y G _ $.$.$.| G - o 1 _ { J G 2.D.y.D.$.J G D.vXZXiX(.9.E ! v H #.%.} } J b.2.G a.1.a.@.e H %.u.r.%.-.u./ H g.=.} @.@.%._ / } } @.u.g.r.r.r.=.r.r.2.-.=.s.s.u.u.a.a.u.u.r.2.r.1.6.=.1.=.1.9.r.-.-.=.@.&.-.#.#.@...*.=.-.=.-.=.9.r.=.r.V.=.=.=.@.$.%.@.$._ U m X.l 1 x M ! ^ ( ^ E 8 o 8 b H { u.%.%.t.G.] #.g.cXZXVXJX[.|.ZX*Xx.o.~ M ! ! ( ! ) _ _ _ ^ ` _ _ ;.{ { { { ` ) ` ^ { { { { / _ _ ) _ ) / ! ! ! ! ! ! G G G G G G G ^ G G ^ ! _ ! ! ^ ^ E ^ R M G ! ! ! ! ! ( ! ( ! R R R R U U R ! C.U ! G ! ( ^ R ! ! ~ a.' =.T.pXc.7.! s G H H b b G M $ c ~ d / f.G ^ R U ! H a.nXZXPXAX6.U U C.Y m n M U M U ( ` E ( R M Y Y Y C.U M U C.U Y n j Y E U U U ! U Y U U U m m m m m z m G U U R ` ) R ) ( E ( R E U E ( E ( ) ( ( ( E E ( R R E E E R G G n m n n k G z G G G G W $.q.O.5.W q.D.5.G G G 9 9 k G G E G E G ",
"} %.1.1.@.} { d f { &XoXI.s.V.a.k.a.a.g.g.a.u.a.a.v.v.g.a.u.a.g.g.N.N.N.N.Z.UXUXM.UXb.M.Z.M.Z.b.n.b.M.n.b.Z.M.M.N.M.N.n.M.Z.M.M.B.Z.n.v.N.b.B.a.Z.I.n.v.N.n.M.~.~.M.~.Z.UXUXM.n.N.M.N.N.v.v.N.N.N.N.g.u.g.M.~.^./.^.).)./.~.~.b.G z t 9 w G } #.G G G G 1 . d H J t.d.J 3.D.D.2.G G D.PXLX4X1.o.` ( b { } / ! %.a.1.c ^ f.3.1.1.2.g.a.r._ r.g.$.1.a.=.$.=.u.} &.~ _ @.-.=.r.r.1.s.=.=.6.r.i.r.s.u.V.a.a.a.z.u.2.2.=.=.r.=.r.=.1.9.r.r.r.=.-.%.$.=.-.$.@.@.*.*.@.-.=.-.r.6.r.=.=.=.=.@.} $.@.&.#./ Y m E l 0 x G ! ^ ^ ! ! = o - c H H #./ h.2./ ] #.d.jXJXAXnX X}.BX%Xe._ H G ! / ^ _ { { { { ( _ o.@.o.o.{ { _ _ _ ^ _ { { { _ / _ _ _ / ) ^ ^ ^ ^ ! ! ! G G G G G G R R R ! G G ^ ! ^ ^ ( ! H H R G R ~ C.( ( ( ( ( U ! R R U M U R ! R R ! E E ( ! ) ^ / %.G.(.t.R.pXL.0.( y G b b ! x / / $ 1 G b H u.G ! G U ~ ! a.nXVXPXLXN.M C.m b n n M U R R R U U M m n Y M n m M U Y U U Y Y Y m U U R Y U U Y Y U Y n m m R m v m m U R U R U E E ) ` ( ( R ! U U ( ( ) E ) ( E E U R R G E R R G z v z z x G l z G z G G G G E X.5.E G +.5.W +.E 9 9 k G E E E E G ",
"2.%.} } #.1.] G s $.hXI.(.UXV.6.s.u.r.y.a.v.g.v.g.a.a.a.u.g.v.v.b.N.I.UXUXI.UX~.~.M.b.I.UXZ.I.Z.UXUXUXZ.N.n.N.Z.M.N.v.v.v.n.Z.M.N.n.n.g.v.N.n.Z.~.Z.N.M.UXUXn.Z.~.T.I.M.Z.M.M.N.M.UX~.I.b.v.v.v.g.v.v.g.v.b.Z.(.^.^.F.~.^.^.^.~.E k t 9 3 G G } D.D.u.G 1 o 0 ^ G { D.@.%.d.u.u.K G D.nXKX;XR 0.y.v G ! / #.%.^.b.d.t.%.r.2.{ %.=.r.u.v.v.v.a.y.u.y.r.s.=.#._ #./ @.r.-.&.r.r.r.6.>.r.s.s.u.r.=.-.=.i.s.u.a.s.r.=.@.%.=.=.-.-.s.1.=.=.=.=.-.=.-.#.-.o._ _ @.-.#.=.V.=.=.2.=.=.=.=.} } %.@.%.%.@.( U n Y t 0 x G ( ^ ^ ^ E 8 o - f v H ).g.g.} } @.#.u.zXZXJXZXz.x.pX!.j.@.H H ~ _ _ { { o.{ _ _ } _ _ { { o.{ _ _ ^ ( _ { X._ _ _ ( / ) ) / ! ^ ^ ^ ! G H R G G G R ^ ^ ^ G G ! G G R G G ! R ^ R M G ! ( C.C.( ! R R ! R R U U U U E R R ! E ! ! R ( ` ~ } 2.-X`.2.m.pXU.k.! x v G ! M 3 %._ X 1 * O / a.m G G M G ~ u.VXKXPXKX$XN U Y m n n m M ! G R R Y m Y M m m m z n Y U Y m U m n U ( U E E U Y M M U n n m m n n z n m U U R E R R R R E R E R Y Y m Y ! E ( ) ( ( R U R R E G ) R R G n x n l l l k G G z G R G E E R ^ W E E G ) G 8 9 G G E E W W G ",
"1.| } } H 1._ x s &.$Xa.n.b.r.#.&.=.r.u.z.a.a.v.g.v.a.u.u.g.M.M.N.N.N.M.M.Z.UX~.~.M.M.M.M.M.M.UXZ.I.Z.M.n.N.N.I.UXM.v.a.N.M.N.M.M.UX~.M.N.v.v.v.B.g.v.N.Z.N.b.n.M.UXM.b.b.N.M.N.n.M.UXM.N.M.M.b.v.b.M.v.N.M.UXZ.UXb.N.Z.~.F.).Z.( s t 9 t G @./ d J g.G 1   0 ^ { G D.G.D.D.t.%.G G D.IX6XD.|.1.1.M } H { _ 2.f.} F.r.~ G } 1.1.-.i.s.=.y.u.u.u.t.1.r.=./ =.%.@.@.=.s.s.$.9.1.9.s.r.u.i.2.r.=.-.-.s.r.u.a.u.t.r.r.-.@.#.&.@.=.=.=.@.@.@.#.-.$.#.&._ _ _ ;.=.-.-.=.=.6.=.r.6.>.9.=.@.&.%.%.-.%.%._ C.m X.z 2 f M G ! ! G R 0 o 1 c c / ^.2.oX@.} } #.g.zXJXVXAXN.W.lX%XL.@.! ! ^ _ _ { { _ _ ^ _ _ _ { { { _ _ ` ^ ! ! _ { _ _ ^ _ ` ` _ _ ^ ^ ^ ^ ! ! H G ! G G R ^ ! _ / R ! G R G G G G R ! R ! G G R ! R ( C.U C.C.R ( U R R R U U R R E R ! R R ^ / _ 3.@.F.<Xa.n.kXW.c.) s b G d H >.x M $ x G 2 ] g.R ( G U ! ~ u.VXPXZXPXM.m U M M n M U / / / R ! U M Y m n m m m n Y n Y m m n m U E U ( E U Y m U Y m n z m m v z l G m R R R R m R E ) ) E M n n M Y G ! ( R W ) R R G R R R R G G z n x z l z l G z G z G R R E E W E G E G Y G G 9 9 k T E E E E G ",
"#.1.1.H / ] ) s f } M.I.M.s.>.-.=.>.r.t.v.N.v.g.a.a.a.g.v.v.b.N.n.N.M.n.I.Z.I.M.UXUXM.M.M.~.~.b.M.b.n.n.I.Z.UXZ.Z.M.v.N.n.N.M.N.M.~.UXv.B.v.v.n.M.b.I.).~.N.B.v.N.N.M.~.M.UXv.k.g.N.M.M.N.I.M.N.b.g.g.v.Z.Z.M.UXZ.b.M.Z.Z.~.).~.E l t r t G 1.2.{ 0 @ G d   2 G { | { y.D.D.u.$.G G D.wX;XwX^.{ M M &./ H { a.3.{ -.%.@.1.1.r.d.u.u.u.@.r.s.u.2.y.r.s.=.r.r.s.&.1.@.t.a.>.r.p.a.u.r.i.a.u.=.s.-.=.r.r.r.u.u.r.r.u.=.@.@.#.#.-.-.&._ @.@.@.@.&.&.#.;.;.] @.-.&.=.=.r.2.=.=.>.=.=.$.%.=.%.-.#.-.$./ U Y X.l u f M R ^ _ G ^ 0 o 1 v G b D.3.H } } } | u.vXPXZXxXi.'.MXuXE.O.! ~ ` _ _ { ) _ _ _ ^ _ _ ` _ { _ _ ` _ / _ ( ^ _ _ / / ` _ { ^ ( ^ ^ ! ! ! ( ! R ! ! ^ G G ^ R G ^ G ! ^ R R R G ^ H G G G R ! ! C.U U C.U ( ! R ! R R R R M M R R R R ! _ _ @.@._ =.! =.z.pX].l.G t b c v b y M / & d v 1 ~ g.G ^ H M ! ! s.IXDXPXAXa.( ..@.U m M ( ! ! R ! U n n m m n n n n m R Y n Y m Y U R ( R R ` ( ! U U Y M R R G m m G x z m R m Y R m R R ( E R Y n n n m E E E ) ( E R m m R Y R R z R z G z m m G v l G z G z G k G R E X.E G G G W E 9 9 k G G E G E G ",
"#.1.J } { { / d f ! ~.~.z.6.V.r.r.=.s.r.d.v.a.a.u.a.v.a.v.g.v.v.n.N.b.UXZ.~.(.UX~.M.b.b.UX~.~.I.b.N.M.M.N.n.Z.I.M.N.B.n.M.n.N.Z.M.Z.n.g.g.B.n.N.n.Z.n.b. X~.Z.N.v.v.v.I.-.] t.M.M.UXM.Z.I.M.M.UXI.b.M.Z.UXM.Z.Z.N.N.M.b.M.M.[.~.! k t 0 y G %.d.D.y.1.G 1   1 ^ / %.G.^.D.D.3.,.K G y.VXcX{.D.D.t M / } $.%.%.t.2.r.$.=.2.p.v.z.1.a.s.%.1.y.r.=.i.u.u.=.r.=.s.r.r.2.r.z.u.s.n.a.a.u.2.b.r.=.1.$.=.=.r.r.a.s.s.r.s.=.@.@.@.*.=.@...;.@.@.@.&.-.-.@._ _ &.@.-.#.=.2.r.=.-.r.r.=.-.-.%.=.=.=.=.-.%./ R U ) l 0 x M G ! _ R R w o 1 f b b +Xd.@.%./ } %.3.,XxXAXvX9.'.GXrXR.@.~ H ! ^ ^ ( ^ _ ^ _ _ _ _ ^ _ _ _ _ _ ` _ ) _ ^ ! _ _ ) ^ _ _ _ ( ` / ! ! ! ^ ^ ! ( ^ ! ^ G ! ! ! _ _ ^ ! _ ^ ^ ( H ! ! R M G U ! U M U U C.U R R R R R R R m U R R R R ! / / / G %.qXzXgX2XrXL.w.R t v v G G u _ _ ; l l 1 { N.G ( G M C.~ u.IXZXZXZXV.U U ] C.m N U M b M M C.@.n n z n n n m Y U E U Y n m E E U E R E E U U Y Y U R m G n v m z x m R m R R R R Y U R R m n n n Y R E ) ) _ E R G R Y R Y R R E G m G z z z z z z G G G G G G R E +.X.E G G G E 9 9 d T G T G G G ",
"d.1.1.t.@.} J G s _  XR.'.N.r.9.s.s.>.r.t.r.r.2.r.2.u.u.u.a.f.v.N.M.M.UXZ.UXM.b.N.a.N.UXUXZ.M.M.b.v.b.b.M.Z.M.M.n.v.N.N.N.M.n.B.v.v.v.v.v.v.v.v.v.b.M.n.v.n.(.[.t.u.N.).:X/.r.-.b.~.M.b.b.M.N.M.Z.^.I.M.~.Z.N.B.g.N.N.b.~.Z.~.~.) y t 9 t G { %.1.u.#.d 9   1 ! { %.D.D.D.D.u.1.J G D.AX0X].1.G m n ! _ #.#.%.} %.1.2.=.2.d.D.f.=.a.r.-.=.u.s.u.a.z.a.=.i.r.s.B.a.u.9.u.a.v.a.a.i.r.s.=.-.s.=.=.r.r.r.r.r.i.s.r.r.=.%.} @.@.@.] &.;.] @.-.-.=.-._ @.@.} &.-.-.r.r.9.r.r.6.=.1.=.%.%.2.r.r.1.1.%./ R Y E l 0 x M ! ( ! H G w . w v c G  X%.%.] _ ] #.d.-X5XLXnXM.R.NXyXL.o.H H G ! ! _ ^ ( ` _ { _ ^ ( ` ` _ _ _ _ _ _ ^ ` ( R ! ( _ _ ) ` ^ ! ! ^ ^ ! ^ ^ ( ^ G R ! ! ! R ( E ^ ^ ^ ^ ^ ^ ^ ^ R ! G M G U U C.U U U C.C.U R R R R E m R R M M R R ! { ! G G b.OXa./.T.pXe.0.G d v m G G M ( ! - c v 1 / D.G _ G M M ~ >.IXJXPXPXa.m ] ;.C.M A ^ _ ( ! ^ ! b M m n n n M Y U U U U U U Y m C.( ( E R E U U U U M m m n z l m v z R m m n n m U U M m m Y m n m R R E ( E ! E E R Y R R R G R R G G G G G G G G G z G G z z G z E G E G E G +.G w 9 z G T G G T G ",
"/ H $.t.1.@.^ x B @.4XB.UX(.B.>.&.>.s.v.N.a.r.2.r.r.2.g.d.a.u.f.v.N.m.b.b.N.v.a.a.g.b.b.M.N.N.b.N.N.M.M.UX~.m.v.v.N.B.v.b.b.v.a.s.a.v.v.B.N.B.N.M.M.n.B.v.n.v.N.n.n.~.~.~./.|.|.u.r.B.s.v.Z.M.M.M.M.M.b.v.B.v.g.M.).b.M.~.Z.Z.u.R k y 9 t G { t.a.{ x n 0   - ~ ] %.D.D.D.D.2.1.] c N.VXKX}.&.` x m ` { &.=.>.%.2.>.2.r.u.s.f.a.t.r.-.>.r.r.a.k.v.k.t.r.a.i.B.k.u.z.u.a.f.a.u.s.r.s.r.r.r.V.r.=.=.2.2.=.s.s.r.s.2.=.@.} ] @.;.@.} @.@.#.=.#.-.&./ ] _ ] ;.&.-.2.r.1.r.9.=.=.V.=.@.-.r.2.2.1.=.%.o.m Y X.l 0 l G ( ` _ ^ R 0 X v H H ~ ^.3.@./ { } | r.<XfXJXJX(.}.FX=Xc./ H H G G ! / ~ ^ ^ ` _ _ _ ! _ _ / _ _ _ _ _ _ _ ^ ( ^ _ _ _ _ ^ ! ^ ! R R _ ! ^ ( ! ! ! ! ! ! ! R ! ( _ ( ! ^ ( ! ! ! C.U U C.U C.C.C.U U U ( ( U E R G R R G Y R M R M R m R U H 1.~.} { T.aXl.0.R t v m M m m R n ; 0 d = o.D.G ! G G G ! 2.cXzXfXnXB.n Y M C.m ! #.! v ! U R ( U ! m n n m m R R R R R R E E U Y R R R T T m G m Y m v m x k v G G Y R U Y m U U R M n m m Y U U E ( E E ( R E R E R E G G R z G G G G E G G k k G l G G z z G G G G E E E G G G 9 9 l Y Y Y G Y Y ",
"} } { 2.%.#.! c p _ 2X'.R.v.=.@.} %.y.N.N.a.r.r.r.2.r.r.u.a.a.t.y.f.v.N.N.N.N.v.v.g.g.f.n.N.B.v.I.M.b.M.M.M.M.b.u.u.a.v.f.g.v.g.a.g.v.a.B.v.N.N.n.N.v.N.v.n.n.N.b.b.B.N.M.Z.a.~.:X[.r.#.a.M.M.N.N.N.n.N.u.g.v.B.g.g.a.b.~.M.M.s.z y k 8 t G / a.g.{ 1._ &   = ! { ] d.D.D.h.2.1.~ c s.[.4X~.@.` m M ( @.=.=.s.r.r.=.>.r.s.s.a.u.t.@.=.r.u.s.a.a.u.a.a.k.a.r.a.u.s.s.u.k.u.i.s.s.i.r.r.V.r.r.r.V.r.=.r.s.s.s.s.t.u.=.@.} ..} @.@.] @.;.*.-.#.*.] _ ] @.@./ _ -.=.r.r.=.=.=.r.=.-.-.2.r.=.=.2.%.%.@.M U W s 1 f G ^ _ _ ^ M 1 ; 0 f ! H <Xb.{ } / _ %.2.6XxXjXfXz.E.lX=Xc./ H H H G ! ^ ^ ^ ` ` _ _ { _ ( ! G E _ _ _ ! ^ ^ ! G H ! ! _ ( R ^ _ _ H ! G G ^ ^ ! ! ( ^ ( ! ! R ! ^ ( ! ^ ^ ! ! { _ ( C.C.U U U C.C.U U C.C.C.! C.! R E R R G R R R R m R m G ! $.d.f.$.0.aXL.*.U s v m M m m ( m $ d t = @.~.R ~ G b G H g.AXjXwXnXp.x m m Y C.! N ! R Y M U ! C.( R m R R Y R Y m R R R R ( ( R U R R R R R m Y m z z v l k s s z m m M M R R R Y m m m m Y E ! E R R U U U R U R E R G z z m z G T G Y G G G G k G z z G G G k G G G G G G z T 9 w z Y G Y Y z G ",
"%./ 3.3.%.#.! f B ..[.k.n.s.t.@.@.#.r.g.y.y.a.u.r.=.1.r.2.r.r.r.2.d.f.v.z.g.g.g.u.b.b.N.B.a.N.N.M.b.M.N.b.M.b.b.M.g.a.g.a.g.a.g.a.v.g.v.B.v.N.n.N.B.B.N.N.B.N.B.v.k.v.B.g.g.N.N.v./.:X}.a.r.n.b.g.N.v.g.a.a.g.g.g.t.g.g.M.Z.N.v.R y t 9 0 G _ #.2.a.a.! - o ; v { ] D.D.1.2.2.%.^ v >.4XvX-X@...) m ! @.=.r.r.r.2.r.r.r.s.s.t.k.=.] r.a.a.s.v.z.B.v.a.s.@.=.s.s.s.9.-.u.a.i.s.V.t.s.r.r.r.r.r.=.r.=.=.r.s.r.r.>.2.=.@.} @.} | @._ ] ;.#.-.&.@.@.@.&.=.-.} %.=.-.1.=.=.=.=.V.=.=.-.r.6.>.=.=.%.#.} M m R t 1 s G ! ` ` E ! 8 + 8 d b / D./ } / / } } 2.9XAXqX<X=.j.kX%Xw.{ J ~ J ^ ! ^ H ! ` { { ! _ _ ! ! G ^ _ _ _ ^ ^ ^ R R _ _ ^ _ ^ ! _ _ _ ! H R R H R R ^ R ^ ( R ! G R ^ ( ! ^ _ _ ( ^ ^ C.C.R U C.C.U U N U C.R ( C.U C.G R G U R E E E G G G G M ! 2.(.b.1.z.*XL.*.M y v N M U U ( m & s d & %.^.! _ G M G ! %.jXPXZXZXp.N Y n M C.X.( U ( ! U U U U C.Y Y m R R R E Y Y R R R R R ) E R R R z Y Y R m z l l l z G z G m R Y E R Y U m M Y Y U U R E ( ( R m Y n m R U G G G z G v G z G Y G G G G z G k G z G z G G z G T G G z G G 9 w z G Y G Y E +.",
"%.g.u.%.2.1.J b p / $Xn.(./.n.a.2.r.g.u.3.a.2.2.%.#.2.r.t.2.r.r.=.1.a.d.a.a.a.a.a.v.n.M.N.a.k.b.N.N.n.N.N.n.m.N.N.N.v.a.f.g.v.g.a.a.B.v.B.B.v.N.N.B.k.N.N.N.B.B.a.v.v.b.I.~.b.N.UXv.k./.:X.Xv.B.u.a.u.g.B.t.>.=.r.B.g.B.b.Z.I.M.E k y 8 0 v / $.r.r.O.m =   $ y G { D.h.g.u.t.$.~ c @.7XKXdXj.-.R m ` o.=.r.r.V.r.r.r.r.u.u.k.u.r.t.s.k.a.k.v.v.N.a.B.N.a.a.u.a.u.%.r.a.u.s.r.r.r.r.>.r.r.s.s.2.r.V.=.1.r.=.=.V.2.=.@.} } &.&.&.;._ ..@.@.@.@.] @.-.=.=.} @.%.&.=.%.=.-.=.V.r.r.r.V.>.r.=.-.=.%.{ m n R t 0 l G ! ` ^ R ( w . 0 m b { g.%.} { / ' } t.qXVXjXdXa.R.pX#Xw.{ / / ^ / ! { / ! _ _ _ ! R _ _ ^ _ ) _ .._ _ ^ _ ! ( _ / _ _ ^ ^ ^ _ _ ! R _ H R G ^ G ! ` ^ R G ! ! ^ ! ^ ( _ _ ` ( ( ` R C.U C.U U U M M ( C.! U ! U G U R R R ! ^ ! G G G / G ~ g.+XF.1.O.*XL.9.E y v N Y Y U ) R - y e - %.^.( _ G G R / 2.1X9XfXPXB.n M U Y C.! ! ( R ! ! C.U Y U Y m R m m R R R R Y R E R R m ( G z R R R R Y m v G l l z z G z Y m Y R R Y R R Y M Y R R U U U U U U m m m ! ! z G z G m z z G G Y z G G T G z G z d G k k k l T G G T z G G 9 w z z G E Y +.E ",
"~ ' G / 2.%./ v B ( -X'.I./.[._.N.u.a.r.,.r.2.%.%.%.t.r.r.y.r.r.r.2.t.a.a.a.a.a.v.a.N.N.N.M.N.a.v.B.B.B.g.g.v.N.v.N.a.v.v.v.v.b.N.B.u.v.N.N.n.B.B.n.v.n.N.N.B.v.v.B.g.M.Z.(.(.v.N.v.b.s.r.~.}./.n.a.t.v.a.t.>.r.t.a.N.b.b.M.M.v.R l y 9 t M { %.r.r.*.) 7   7 R G } u.1.v.a.t.%./ c >.9XcXp.n.5.m m ! o.9.=.=.=.r.r.s.u.a.a.a.k.B.N.v.p.u.n.k.v.v.a.N.v.n.B.B.s.r.@.2.a.s.r.=.-.=.V.V.r.r.t.s.6.2.r.=.=.r.V.=.=.=.%.@._ &.-.#.#.@.^ _ @.@.&.=.@.-.r.=.1.#.} =.$.$.@.@.-.=.V.V.6.=.=.=.=.=.r.%.#._ M Y ..s 1 l G E ( ( G _ w . 9 f G ! 1Xb.} } _ _ | t.qXcXzX6Xr.R.aXW.W.1.] { / / ] 1./ H _ / { / ^ / _ ^ ^ _ _ _ ^ ^ ^ _ ( _ _ ^ ) _ R { { { ^ _ ! ! R / ^ ( G R ^ G G G R G ( _ ( ^ ` ) ! ! ! ( C.C.U U R R R U U R ! ! U C.U M U ! ! ! ! ! R H / H R G | ;XzXOX9...#XL.0.! y x n U C.Y ( U $ u 0 $ =. X^ { R C.! _ ,..X9X4XqXV.` R N Y ! R ( ( ( ( ( U Y m m m n n m G G R R E ! M G ^ %.%.m R z R R R R R z G z z k v v G G U Y Y U U R Y m U U R E E R m n n x x n m m m m z G z s z G m G T G Y G G z G G k G l z z d l k G G G G k +.E 9 d z z Y Y E v d ",
"1.@.1.1.%.%./ b p _ oXI.k.-X7X-X`.b.t.=.| =.d.2.1.1.t.r.1.2.t.r.u.a.u.a.a.g.g.a.g.v.a.f.a.a.v.u.s.k.s.s.s.t.u.a.f.g.v.a.v.N.b.v.v.u.a.a.B.N.N.B.N.B.v.N.a.s.k.a.a.u.v.v.-.r.b.v.g.g.s.u.r.V.s.M.Z.a.r.u.a.V.r.g.t.s.v.N.v.N.N.a.G l y t t G _ #.1.r.1.) 9 o 8 ` H @.D.g.g.r.2.#./ b } :X(.(.$XR U m ( @.=.=.V.=.=.r.i.a.i.u.g.v.k.v.N.a.a.a.t.a.a.v.N.v.B.a.s.r.&.} =.u.V.r.2.@.N.s.=.r.r.s.r.r.=.=.-.-.=.r.r.=.=.#.@._ -.-.-.&.] ] ] @.@.#.=.-.=.=.=.=.-.=.%.%.$.%.%.=.=.>.=.>.=.&.-.=.-.-.&.@._ b Y E s 2 s b R ! _ G ! w X w f b } _.} } ' } } ,.b.qXcXvXfX1.W.iXpXsX].1.} { ] / H H ^ _ / / ! { ^ ^ ^ ^ _ _ _ _ _ _ _ _ _ _ ^ ^ G G _ _ _ ( ! R ^ _ ^ R ! R G b G v m M G ! ! _ ( ! ^ R R G C.! ! U C.U ! ` ! ! ! E ( R U ! U U R ! ! ! / H H H J G _ D.cXSX0Xm.p.rXQ.w.` y x n M U Y E E $ 1 q % %./.^ { ! C.C.^ =.1XIXzX,XV.` U n N U U C.! ( ` C.C.m n n n z n n m R R R R R R _ / r.$.y R z E R R R G R G v G z G z z G U U R U U R R Y U E R U R m z n l z x m Y U m n z G z G z m R R G G G z G G G k l l k G l l z G z G G T G l G w w z m Y Y Y E Y ",
"2.2.%.%.@.} / v u ~ 6X'.I.[.$XoX[./.v.>.1.2.g.a.2.3.y.u.t.2.2.r.r.u.a.u.a.d.g.v.v.a.t.v.z.u.u.g.a.a.t.=.=.%.=.r.a.b.b.v.b.b.v.f.a.d.g.a.a.B.B.B.n.v.v.a.r.s.t.a.a.k.a.r.2.r.v.v.u.a.B.>.>.p.N.N.s.a.a.a.r.r.g.a.u.u.v.v.v.v.v.u.R n z z m _ } =.=.r.*.) 7   8 C./ %.G.y.a.s.t.%.] A 2.[.I.6.6.` m m ) -.r.V.=.V.>.r.s.u.a.g.B.N.N.N.n.N.v.k.a.v.k.g.v.k.u.s.r.V.@.@.%.2.r.>.=.&.` ! r.u.i.s.r.r.=.-.-.2.r.s.r.V.=.-.} @.@.=.=.@.;.} @.@.;.#.=.=.-.=.1.=.-.-.%.&.%.-.-.-.=.=.=.=.=.@.@.$.@.@.@.@._ n m R s t f v G R ( G ! 0 X 0 v M } OX@.| @.} %.M.jXxXbXzXcX9.'.LXHXNXsX|.1.] / ] J H G ! / ! / { / _ _ ^ E _ _ _ ) _ ) ` _ _ ^ G _ _ ^ ^ R ^ ! G ^ G ! ! ! G M n v n b G G ! ( ! ! ! G G G G M U M U C.` ;._ ` ` ` ` ( ! C.C.U Y R U / } / H v G G ^ y.+X7XhXhX:X9.lX*XL.o.t c N M Y M ( E ; 0 q & %._._ { ! ~ ! ' >.,XdX`.Z.=.N N x x m U C.( ` ( ( R M n n x x m G G R R R U n f M } = - z R R R R R R R R R z R z z G G R R U R E U U R E R R U Y U m x x l l z m U m n z v G z z v v m G G E G G G z G z G l G k l l z G G G E G k G z 9 w k Y z v Y Y Y ",
"$.1.1.%.#.} ~ N M o.r.-.6.6./.}.~. X).b.=.2.2.u.f.g.d.a.r.r.r.u.t.r.u.a.a.u.a.u.s.r.u.u.g.a.N.k.g.u.u.r.2.>.=.r.u.n.M.M.b.v.v.g.v.g.a.a.a.k.N.N.N.v.a.r.=.i.r.r.a.a.a.s.r.,.r.v.g.k.s.V.B.N.v.B.B.u.a.r.r.t.u.k.u.a.k.v.g.d.u.a.E R O.) ` @.=.$.1.u.*.W 8 o - b H @.f.y.d.d.t.t.#.b.qX5X|.i.+...m U ) =.6.=.r.r.r.a.a.a.k.a.a.k.u.k.u.a.g.a.k.u.a.k.a.a.s.r.V.V.%.} @.-.=.=.%.>.=.s.B.a.u.s.r.2.2.=.%.=.=.r.r.r.=.%.@.;._ ;.] @.@.@.@.@.] *.-.&.$.=.=.%.=.-.%.%.$.%.-.-.#.=.%.=.#.@.] ] @.&.-.%._ U U R z c G G ^ ! _ ! E t X 0 c v } <X@.%.#.%.g.xXKXLXJXLXzXF.T.kXLXFXBXMX&X} / } { H H ~ / / } ~ { / ^ ^ / _ _ _ _ ^ / ^ ` _ E ^ _ ^ ^ ^ { ^ _ / G ^ _ ( ^ G v n f n v M R ! ( ! _ G R G M G b M U ! ! ` @._ ! ..` E ( ( C.U U M M R ( ~ G G G G G f.{.4X4X2XNX>Xn.3XpXaXE.m v m C.! m U U $ 1 q & %.`._ &._ ! ^ #..XnXnXqX.X&.x x l l l x n M ! ! R R Y x l l l z m R z m R m n z y l l R m z R z R R T R T R R G G G z z G R R R R R U U R U U Y U m m n x s s l z U Y n l k m v G G m n G G G G G G G k G l k G G l G k l G G T G G E G k d z z v z Y v Y ",
"2.v.r.%.} } J M :X$XC.C.A ( p.&X2X>X2X/.v.r.V.3.d.v.g.a.3.u.t.a.a.g.a.t.a.a.u.r.=.u.u.a.s.s.M.u.s.a.s.u.u.s.u.a.u.v.N.b.b.N.g.v.a.a.u.t.u.u.u.v.v.a.k.a.i.r.r.s.s.u.u.t.r.a.v.t.t.>.s.v.a.v.v.a.B.u.s.r.u.a.a.a.a.v.v.g.a.g.d.u.=.'.R.j.*.$.#.#.=.=.=.( 7 o * B G { N.y.u.d.d.2.F.ZXKXPXI._ _ ) M M ) &.$.$.=.s.s.k.a.v.v.a.D.v.i.u.s.B.g.a.s.s.u.u.s.s.=.*.r.1.$.@.@.%.=.=.2.2.u.u.a.s.s.1.=.2.r.-.$.1.1.=.V.=.#.@.@.} _ _ _ _ } &.&.} / @.@.$.-.&.#.-.=.$.-.-.-.-.&.] _ @.#.&.@._ / ] @.=.-.%.{ ! 5.w.w.X._ ) ! ^ ! M G w X 0 c v / .X@.=.| a.cXKXJXJXLXSX XA.).[.iXLXBXBXBX=Xo.{ #.J ~ / / J / #./ %./ ! { ! ^ ^ ! ! ! ! ( / ) / ) { { { / { _ ^ ^ / ) _ R G v x m M G G ! ! ! ! ! R G R M M U C.! M ( / *.@.@._ ` ( ! G U U U M U U m z m G m } ^.oX8X4X&XGX7X/.~.T.lXKXpXL.Y n m R z G m ; q e = #._.&.-.~ / _ Z.nXKXLXKXfX) M n z y j B j n G M M m n l s l l l v z l n m m z z n n m U Y z G z G G G R R G G z G z G z G U R R R R R m Y Y R R m m m n v n x s z m Y n n z n z Y Y R m l T G T G z z G G G T G G k G T G T G G G G G D.+.Y Y z v v k z Y ",
"*.d.t.1.%.} H /.2X&.b b N A ( k.iXcX'.$X{.N.d.v.f.g.g.a.a.u.u.r.r.f.u.a.u.u.u.r.f.g.s.s.r.r.=.s.s.t.t.u.a.a.v.k.u.f.N.b.b.n.v.a.v.u.r.s.y.y.s.s.u.u.u.u.r.s.s.r.r.s.s.r.t.u.i.u.s.s.u.z.v.k.N.v.a.=.i.s.i.u.a.a.v.n.N.g.g.a.a.2.0.hXkXW.m.0.$.#.} @.@.! 7   - v G ] y.1.1.2.f.G.VXKXKX}.! C.c x v M ) @.&.$.=.i.a.k.v.a.a.z.a.s.t.s.a.v.u.s.s.g.s.6.=.-.&.2.=.=.%.@.=.r.s.=.=.2.2.r.s.r.r.1.=.r.y.%.-.r.=.2.6.r.&.} _ _ ;._ ] } } #.@._ _ { #.@.&.%.#.#.-.%.$.$.-.-.#.@.} &.&.;.~ -.@._ *.=.=.$.@._ j.=X=XQ.O.^ ! ! ! v M 0 . w f c H F.| 2.u.gXKXJXHXKXCX{.d.,.3.h. XpXFXBXBXBX*X&.J G H H c / } ~ J %./ ^ _ _ ^ / / ` / ! ! ! G G ) / ) / ) ^ _ R R ^ ! ! G G M b M m M R ! R M G ! ! ! C.C.U ! M C.U U ! _ @.@._ ) E R ! ! R R M U m R m G M 1.[.;X5X2X:XSX6XT.I.b.T.z.hXKXpXE.E m M n U Y $ f p * @.^.! @._ / g.IXKXPXKXzX=.x x x j j y y j v G G M m n l s s l n z l z n m m m x z z m m m G G G k G k R G z G G z v z G v m R R U R E R R Y m Y R R U Y m x n m m Y m n m m R R G m m n z G T G T z G G G G G k k k G G G G G z l z T Q !.+.X.^ Y k d l Y ",
"%.u.t.%.-.} ^.>Xo.M b p c c b ( I.tX$X&X:X}.N.s.u.t.t.a.u.a.u.y.2.a.f.d.u.u.t.r.r.r.u.t.u.a.v.a.a.a.k.a.g.v.g.g.a.u.g.g.v.g.v.g.a.a.d.a.a.a.r.1.r.r.s.r.r.i.t.V.6.>.r.r.r.r.r.s.r.s.v.v.N.B.N.n.M.a.u._ V.a.a.u.a.a.a.u.a.u.r.2.=.r.6XiX#Xx.1.} ] ^ ( U 7   - x G ] v.1.1.3.F.bXKXKX-X^ A f y i y v / @.&.1.i.u.u.s.a.s.a.a.s.=.=.i.v.B.a.s.a.=.-.=.#.;.#.@.=.-.@.%.2.2.r.2.=.2.r.2.t.r.r.1.r.s.r.%.=.-.=.%.=.#.@._ } @._ _ @.@.&.#.@.} } _ } @.%.-.-.&.@.@.@.} @.-.@.@.#.@.@.@./ *.@.&.#.=.%._ _ ^ / P.=X=XE.O...! b v R t X 0 g G / ).@.g.fXKXGXLXKXPX[.h.d.3.4.h.d.].MXHXBXBXBX*X&.~ H ! / } / / 1.! ! ^ ( G ! ! ! ! ) ` ` ! ^ ^ ^ G R / ) ^ _ ^ R R ! ! ! G M R M M M G R R M ! ! U U ! C.U M U M U U ( ! / ` R R ! ! ! R U R m m M G R H } /.:X8X>XtXJX4XT.M.a.a.M.M.T.lXKXsXQ.) x x m m $ y p = ] )./ ;.] d.xXKXJXKXhX@.j t 9 w t y k y j v G G b G n z z v z z v l x m Y m m m m n m Y n k s k z G R G R G z v G G z v z m m Y Y m m Y R Y R Y m Y Y m n l l G m Y m m m z m Y Y Y Y Y Y G G T G G T Y G G z G k G k G l z G k G z l G D.#X+.+.E v d z Y ",
"{ 1.=.1.%.|.&X) M A A g i p g A ` l.kX2X#X2X[.N.u.3.u.r.d.a.t.r.u.1.%.1.u.t.s.r.r.2.r.u.s.i.a.a.g.a.a.B.u.B.B.a.a.u.r.y.u.v.f.a.u.a.a.u.a.u.2.r.r.s.r.r.>.=.=.=.>.r.=.>.6.r.r.r.u.B.v.N.M.N.r.g.v.u.6.u.a.u.s.a.s.u.a.a.u.r.2.=.=.1.@.I.3X].j.1.@._ ! ( 7   - x f ] N.@.%.F.jXKXKX-X) H c i q e p x R o.$.1.y.s.s.i.r.r.i.r.s.r.V.s.s.a.a.B.a.6.=.-.@./ &.#.>.=.=.=.%.r.r.=.=.=.1.1.t.r.r.2.r.r.1.=.1.%.>.=.=.&.} @.@._ _ @.@.@.@.#.@.@.%.%.@.=.-.%.$.&.#.@.@.@.@.@.@.@.@.} } @.;._ ;.@.@.-._ ~ / ! ` ) e.=X#XQ.*.{ ! G ! 0 + w c G ] ^.%.4XKXGXJXKXAX[.d.3.3.3.2.4.h.D.$XMXHXBXBXBX3Xo.~ / %.~ ~ } / v ! ^ ^ H ! ! ! ! _ / / ) _ ) ^ ^ R ) G G _ ^ ^ ^ R G ! ( ! ! R M G M G G U R C.! U M ( C.U U ! C.C.! U ! ! ! ! R ! _ ^ M U m M ! J / 2.).}.4X&X3XJX].x.n.a.r.i.k.D.F.R.iXLXMXW.E v n Y & q y - } ~./ | t.jXKXJXKX6X@.B 7 1 1 8 w y x x x m G G G G v n n m v n x z n m U U Y Y m m Y m n G l k G z R z z G z k z G v l G m n Y m R m z m Y R R m z m m m m G M z n n R m R R R R R R R R Y G G G z G Y z G k G G k G l G G k G k d k l G e.!.+.E E m z Y ",
"] =.-.$.[.$X_ R b A c c p g c A C.&.'.lXlXkXtX[.g.u.u.u.r.u.a.N.g.a.%.#.#.t.r.t.2.2.=.=.u.u.s.y.a.u.a.a.s.u.a.a.u.s.r.u.a.d.a.z.v.v.a.a.u.2.r.r.s.s.s.r.>.#.=.=.6.r.r.r.>.r.r.r.r.a.B.B.M.N.B.N.v.z.a.a.a.t.t.u.s.a.g.s.2.r.2.=.%.1.2.%.p.7XW.0.-.;._ ( 7   & v H / a.@.g.gXKXKX$X_ H b f 5 e q f b ! / -.i.r.y.s.r.V.V.s.r.r.t.i.t.s.t.a.a.u.i.i.2.^ t.a.1.1.=.=.2.2.r.2.t.u.1.u.u.s.r.2.=.s.=.@.=.=.>.=.=.=.#.} @.@.} } } %.%.&.-.-.=.#.%.=.=.=.-.#.@.@.@.%.@.&.@.] ] ..;.] ;.^ / / _ { _ H H ! H ^ } _ 0.*X#XY.*._ G U r X 0 G d } {._.LXLXJXKXZX_.4.3.3.3.u.:.3.G.G.h.D.iXHXBXBXBXuXX.^ ~ ~ / H G ! ( ^ ! ! ! ^ ^ _ _ ^ _ ^ ) ^ R ^ R ^ R ^ ^ _ G G G G R ! ! ! ! ! ! H R M U ! ! ! C.U C.A U C.( ( ! M U C.! E ! ) ^ { G m Y U G H G / (.}.:X>X3XVX[.E.z.9.0.r.y.g.v.T.~.R.iXLXMXQ.W G ! = q q * } M.~ >.fXKXJXKX4XM y t = 1 1 1 e y l m M m G M G b m m m m z z v x x m Y R m m m Y m m n G z k z G G k G k l G G m z x l n m m m G G R R U Y Y m U U m m m m m n m z m E R R R R R R R E G E G T G G G z k G l k k G d k k d k k k k d l G +.!.+.E E G Y ",
"@.6.@.[.>Xo.^ A Z Z c C g c Z A Z ! ;.[.DXDXkX2X`.g.a.d.1.2.g.g.} { g.M.a.r.2.=.$.@.=.>.2.s.s.r.u.r.u.r.s.u.s.s.y.y.2.u.u.a.a.v.v.g.z.a.r.t.t.r.s.r.1.1.r.r.r.r.>.>.s.s.r.6.V.s.a.k.N.B.k.k.n.v.u.s.r.r.s.i.s.r.s.y.a.=.=.=.1.2.1.#.1.2.=.z.3X].8.&.@.X.9   & v H _ >.t.fXKXLX[.~ G Z b d f f y v A ! ) @.1.r.r.r.s.s.r.r.s.r.i.r.s.u.k.a.a.u.s.r.=.#.r.r.%.=.r.r.r.r.s.2.g.s.s.u.u.r.r.r.-.@./ _ >.=.=.=.=.#.@.] @.} } @.&.-.=.%.] @.{ @.-.$.-.-.#.&.} } &.@.} @.@.;._ _ / ` _ / ` ! ` ~ H M v H H ! / { _ 9.=X#X8.O.G M r . 0 g G / qXPXLXLXKXCX_.d.d.d.3.3.2.4.d.h.h.H.4.D.iXHXHXBXBX%XO.' } / M _ _ ~ ! ^ R G G G ^ _ _ ^ ) _ _ ^ ^ ^ ^ / R ^ ! R G G ^ ! G ! M ~ ! ! ! ! M M ! ( ! C.U M Y C.C.( C.U U C.! ! ! ` ` / / / ! M M ! H / M.}.>X&X7XJXiXT.z.f.p.1.r.f.F.f.M.M.(.T.3XLXpX!.*.W = 0 q * / g.| fXKXJXKX-XM x r 0 1 1 1 0 t y y x v v c H H n m G m m m z s k z m R Y m n n x z z n k k G G G G G l s z z l z m G z n m n n z n m G U U R Y m R U Y m m m m m E Y R E R R R R R R R Y G G G G T G z G k k G k k k k k G l d d k k d d G +.!.8.E E Y ",
"#./ }.<Xr.@.H Z Z c Z c c A A N B N C.` k.mXrX$XiX_.N.3.2.2.1.u.G.2.x } =.2.2.@.@.@.} =.2.r.u.v.a.a.r.>.2.t.r.r.u.u.r.s.u.a.a.d.u.u.y.a.a.r.y.%.-.N.a.2.r.r.u.a.t.i.i.u.r.=.u.k.N.v.B.N.a.B.N.k.i.s.r.=.m.u.u.a.u.2.%.1.2.=.1.y.1.1.%./ @.@.j.].'.l.*.X.r   * b ~ _ N.9XLXLX[._ G c f f f c v b A ! ` / _ -.-.s.s.s.i.s.s.u.u.s.B.s.s.v.k.u.t.u.u.=.=.@.=.2.s.u.u.r.u.y.r.r.2.s.u.r.r.r.2.=._ / %.=.=.=.%.&.@._ _ @.@.} } &.=.=.@.@.@./ } #.%.-.%.%.#.&.@.@.} @.@.@.] ! ^ ^ ) _ _ / / ! H M b v H H ! / / } { &.#X#Xq.&.! 0 . V G G @.ZXLXHXKXVX/.v.d.3.3.1.%.3.3.d.h.d.3.,.3.D.MXHXFXBXBX*X=.%./ _ _ ! ! ! ! ! H ^ G ^ R _ ^ ^ _ ^ ) _ ) ^ R ^ R ^ R _ _ ! ! G R ! ! ! H ! ! ! U U ! ! C.U C.C.C.( ( C.U U ! C.^ ^ _ ! { / / ' _ ~ ! ] b.{.-X>XtXGX|.>Xz.9.1.1.*.1.a.D.v.n.M.b.b.D.&XLXkXL.5.- 2 q = / F.<XKXJXKX}.! x y 0 = 8 1 1 w t s l l x v M M M m G m R G n v z z n m m m Y x z z x z l k G R T G z G k l l l G v m m v m m m z z z m G U R U R R U R M G Y m Y R z R R R R T Y R R Y Y T G G Y G G G z k G k G d k k d k G z l d k k k w G z +.!.D.E E ",
"@. X&Xk.o.b J H C c Z A A b N Z A Z N C.A 5.3XiXkX6X).d.2.#.2.2.2.D.M.2.=.%.@.%.%.=.} %.=.s.k.N.a.u.=.@.%.=.=.r.a.r.r.u.u.a.u.r.r.u.u.d.g.r.u.$.%.r._ / r.-.r.a.B.a.u.s.1.r.a.v.n.v.B.g.k.N.N.B.u.r.r.-.k.~.>.i.u.r.2.=.1.%.i.t.r.2.=.%.%.%._ *.>XrX7.+.t   * A / / 1XKXKX[.^ A f d i f G H ~ ! / / ) ! ! ] &.=.s.s.a.a.a.k.u.a.N.a.a.a.a.u.u.r.r.>.=.=.i.s.s.u.s.u.y.s.r.a.a.s.r.u.u.t.r.=.=.>.=.>.2.=.#.@.@.] } %.%.@.@.%.1.-.%.%.@.} @.&.@.&.-.#.@.@.@.&.@.} _ ../ ~ / ] ;.;./ ^ ! ! M H v M H ! H / ~ { / ^ X.W.=X#Xk.j . 0 G d N.LXKXLXSX/.d.3.,.3.3.1.3.3.2.3.:.%.#.] | d.D.sXLXHXNXBXpX2._ / ~ ! / ~ ! H G ^ G G ^ _ / ) _ _ _ { _ _ / ! ^ ^ _ ^ ^ ! ^ ! H C.M R ~ C.! ! ! R C.U R R C.C.( R ( C.C.U ( ! ( ( _ { | } H H A M _ F.OX:X&X0XLX(.0.0.0.y.1.o.*.y.1.r.v.v.v.k.z.m.j. XZXaXw.= 0 0 = / wXJXHXLX/.M v y 0 0 8 7 0 t d l x x v l s c ~ G m m m m m G m G m Y U Y R m z s l x l l G k G G R G l G l k G z v z G m m m R m G v m G R Y U U Y m m R R R R R R R E E R R R Y R T m m G E G G z z G z G l d k d k k d k l l l k k d w w k d k W =X+.) ",
"I.-Xi.@.! ~ ~ J H Z H H ~ J G G G G G G G g o.lXcX2X&X_.r.-.#.,.-.#.] &.@.@.#.%.1.1.%.@.%.r.u.&.=.i.r.s.v.v.s.i.2.s.u.u.2.r.u.2.u.u.a.u.u.=./ =.%.~ >.#.&.V.=.N.N.p.r.V.r.r.s.N.n.N.n.g.N.a.B.j.u.a.u.i.@.@.%.%.%.=.=.=.=.2.r.r.2.=.2.1.=./ / 1.{ E.&X+.t   & M H F.KXPX[._ A c i e f H ~ ^ / / ~ _ @./ ! / @.s.s.u.a.a.a.g.u.N.v.u.a.a.u.u.s.r.r.-.=.-.r.a.s.2.u.v.u.r.s.a.u.>.r.u.u.i.s.V.r.>.r.=.=.2.2.=.&.] *.=.%.} @.@.=.=.=.-.@.@.#.@.} &.#.@.@.-.-.@._ ] @.} / ! ~ _ ..^ ! ~ ! C.A b v b H H ~ ~ / / / J ^ ..l.pX&Xk o = G G D.VX8XZX+XD.3. .:.D.3.1.D.,.%.%.$. . .} %.3.1.(.NXFXCXGXGXlXu.} ! ! ! ! ~ / ! G G ! _ ^ ` ` { { { ) _ ` ! ( ! ^ ^ _ ^ ! ! ! H / M ~ b U ! ! ! ! ! ! R C.C.U C.R ` U R ! ` R ( ! ! ` M M M H H 1.[.+X8X2XrXBXR.q.D.e.j.5.9.z.p.D.1.{ 0.D.x.z.y.f.v.D.T.NX2X; q w 2 H bXLXGX(.R v w 0 2 1 8 0 0 w l n n x n x j j x U N U N n M R Y Y m U U U U Y z l l k s l v m G G z z G k k k G G z G z v G k k G G G k G R G R G G G m G R R R R R R E R R m m G Y Y Y m G T G z l z G G z v k k s s l l G k l l k l s t t l l G s Q #X5.",
"|.r.} x Z / ~ ~ ~ ~ H J / ~ J H G G G G G G G 9.lXiXhX6X[.a.>.>.t.v.~ @.1.=.=.1.=.2.r.2.2.%.=.u.s.=.r.u.g.u.a.s.2.u.a.s.r.2.r.r.u.v.a.u.=.=.&.~ =.u.u.v.N.M.u.i.M.s.s.r.9.r.a.g.N.n.B.v.N.B.a.a.s.a.r.&.%.@.} } &.%.=.=.=.2.2.=.1.=.2.-.} ~ / %.r.*.x.o.k   ; f H t.AX[.} ~ b f f x H { } @.} { _ @.%.=.@._ >.k.i.u.B.a.a.a.a.b.i.r.u.2.2.=.%.$.@.} #.%.=.s.s.s.B.a.r.s.a.a.2.r.u.i.u.t.t.r.r.r.2.%.r.=.=.=.@.} ] #.@.@.&.%.=.%.-.#.&.#.&.} @.&.#.#.&.-.-._ _ @.@.] / ! H ^ _ ~ ! ! ~ A b v x v M ! ~ ^ / / ^ A A ] R I.&X9 o - G G $.vX8XD.D.D.1.} D.3.1.2.3.%. .{ { } { } ,.3.3.3./.iXHXBXGXHXiXu./ ~ H ~ ! ! ! G ! _ ^ ^ ^ / _ { { { _ ! R ! ! _ ^ _ ! ! ! ! ! } ! M M A ! R ! ! ! U C.U U ( ! ( R C.` R R ! ( ! U b A b / ] @.`.8XtXoX0XGXD.p.D.p.p.p.D.j.z.%.1.y.D.f.v.z.z.v.y._ F.T.(.M.+ 0 2 * H SXcXn.M x q 0 1 1 8 0 0 t s l x n n x B y j x Y N U Y x n R R R Y R U U m n z l l l z v v z k z G G z G G z l G G z G G R G G G k G G G z E R G G z G z z G R R R R G R m v z m n m m m z G G z G l T G G z v l k k l k k s s l l s k s k l l s G E w.q.",
"u.! y f v H / _ _ } / { ] ] { ! H J G J G G G G l.tXlXtX4X[.>.,.%.#.t.=.1.t.2.r.r.2.y.u.u.2.u.r.r.1.-.=.6.>.r.>.r.a.g.a.2.1.2.r.s.a.u.r.=.u.N.V.r.~.a.n.B.a.N.p.a.u.r.r.t.r.i.s.N.v.B.u.u.a.u.a.a.r.} / } } } } ] ] &.%.=.r.r.=.1.%.%.%.#.#.#.1.i.a.&.n 7   X x J %.r.x b A c b H H ' #.=.-.=.1.-.-.6.=.=.r.s.u.a.u.a.a.g.a.u.r.u.a.t.=.#.-.%.=.u.u.$.&.=.r.r.y.u.s.#.>.s.i.s.r.s.s.i.t.r.>.r.r.2.&.=.>.2.-.&.-.@.#.-.#.&.-.#.%.&.%.%.@.} @.} @.&.@.@.@.@.;.] ;._ / ! ~ ^ ^ ! ~ ! ! ~ M v x x c H ! _ _ / ~ H H M ~ _ ) &.r   $ d d { AX+XD.4.u.D.$. .$.%.,.1.%.%./ ^ { { %.>.,.1.:.:.r.pXHXBXHXLXkXi._ ' ~ M } #.G ! G ! ! ! ^ _ _ _ _ ! ! ! ! R ! _ ! A U M M M H ! b n R ! ~ ! U U ( ( U C.! C.! ` R C.C.C.( ! ! ! C.v A / %.{.5X0X8XiXJXD.D.D.e.0.D.0.D.z.p.1.1.1.f.y.f.z.z.a.y.c c G D.+.+ = * = H cXa.n s w 0 2 7 0 0 0 t s l z n N N j j y y j n N Y N N n m U R R Y R Y m x l l l v z v z l v G z G G z G z z z G m G G G T G z G G G z R E E G z G G G R R z R R T R z z z z v m m m R T G l z G T G G z v z l l l s s s k s z G k k s s t s d 1 d G l ",
"o./ H ! ! ! / ] @.@.#.@.{ ] { / / / / H K G G K ( p.lXlXtX2X XV.t.2.%.%.r.u.f.d.g.a.r.a.r.r.r.s.t.r.g.v.s.=.=.2.2.u.a.a.r.=.%.r.r.2.=.r.u.N.a.r.@.@.v.r.t.M.a.s.a.s.r.i.i.t.t.i.p.B.n.a.k.a.s.6.s.>.2.%.&./ _ ] ~ } #.=.=.2.V.=.%.%.#.} %.%.9.t.=.@._ n X   $ l M %.r.A c A A ~ ] } -.1.=.%.r.r.>.r.r.r.u.i.s.u.a.p.u.u.a.g.s.r.u.u.u.=._ %.6.r.$.-.=.@.=.s.i.u.s.s.V.i.u.a.s.r.s.s.r.=.=.=.r.r.r.r.=.r.=.&.%.-.*.#.-.&.%.-.%.-.@.=.=.&.@._ ] @.&.#.-.@...] _ _ _ _ _ ! / ^ ( ! ! ~ ! M b M A A ~ _ } _ @.` ~ ! ! ^ ^ ! ..7 . $ d G J cX1.$.D.D.D.D.D.%.1.1.} 1.$./ { J  .%.,.2.#.} ' 1.D.sXLXHXHXHXkXu._ } } _ / H H ! G H ! ^ ^ _ ^ ( H M ! ! ! ! ! H U H M M M ! ! M A ~ } ! C.M ! ( C.C.C.! R ` C.U U N Y U C.U M b H ~ } _.5X9X7XiXJXD.8.D.9.D.f.z.e.9.c.z.j.1.@.1.u.9.a.y.t.2.J v ^ n.1.X 2 - = c dX9.n t 0 1 1 7 0 0 y l l l l x l l B y j j j x N N U U U U R U U U U Y Y m n l l z v z l x z v G z G G G G G z G G z z z G z G G k z G z R G z G z z G z R R R R R G z G v z m m m m m G z l G k G G T G G v z G l k l k s k s l l s k l G k l 1 1 t G ",
"@.%./ ! ! _ &.=.1.1.{ { { @.@.} } / J H H G b H ;.` 5.hXmXtX4X_.Z.d.%.2.r.2.2.t.s.r.2.2.r.u.r.=.>.=.=.d.u.r.r.V.2.u.a.u.2.=.%.=.2.r.s.a.z.a.a.#.H { v.a.N.M.B.v.v.B.a.a.s.s.a.a.s.B.v.N.m.v.u.r.*.] @.%.=.} _ ] } @.=.2.=.=.r.=.%.%.%.| %.=.2.@.} %.~ n ;   X 0 v %.} ~ H H ~ / } %.%.=.%.2.r.=.r.i.s.r.s.s.y.s.s.s.a.a.s.&.-.y.s.r.s.$._ %.>.=.r.r.2.@.2.s.s.r.r.t.s.a.t.u.r.s.r.>.=.=.>.r.r.r.t.u.r.=.V.-.=.-.-.=.-.-.=.2.=.=.-.=.-.$.@.] _ @.#.&.@.;._ ` _ ] _ @.@._ / / ! ! ~ ^ ( / ~ ! _ _ / o.@.@._ ` ` _ _ / ! ~ ..*   $ d G G dXD.%.y.1.D.D.,.%. .1.3.$.1.%.{ { | %.#.1.L } ] } ,.f.lXHXBXHXHXpXu.} ] H H / G / ~ G G ^ ` _ _ R G G G ! ~ G H H M M A G G ! H 2.2.G { / ] @.( ! ! C.( ( ! ( C.C.U N l T M M U ! C.@.`.tXqXiXkXJXD.9.D.q.q.D.q.q.j.1.9.D.D.e.j.y.y.0.z.z.y.3.$.{ 9.T.1.+ 1 * * G _.&.z w 0 7 7 0 t t s l x z j j j j j j B j x x N N U U M U R U m R R U m Y m m n z m v l z k z z G z G G G z T G z z R G T G z l G z z G z G z z G m m G R R R R R R G z m m m m z m R G k l l l l G G v m G G z v k s s s s l s k k G v v z z E G z z ",
"{ ^ @.a.&.=.=.V.@.1.] / { @.1.%.@./ / G G G G H C.! ` i.mXmXyX2X[.^.u.%.2.,.1.%.=.>.2.r.r.r.%.2.=.=.=.r.r.r.t.V.r.a.s.s.1.%.=.2.2.s.s.a.a.a.B.a.r.z.N.z.-.r.N.k.B.u.a.a.u.p.V.r.B.a.z.v.N.N.a.r.#.@./ _ } @.@.} %.%.-.r.>.>.V.=.1.%.%.%.} =.2.} r.r./ z ;   o - M } 2.} / / / } #.@.%.#.=.r.r.s.a.t.u.s.i.s.u.s.a.s.s.t.,.@.r.t.r.r.2.=.%.-.r.V.r.r.=.1.r.s.r.s.r.i.a.s.u.u.r.2.r.r.6.>.V.r.s.s.i.s.s.V.=.=.=.-.=.=.=.r.=.-.=.$.;.#.-.-.@...] @.@.] -.@._ ! ` _ / @.{ o.) / / ! ! ( / / ( / _ _ } ;.@.] _ ! ` _ / ! b ( -.-   $ d G G vXW.D.1.1.D.D.%.D.1.1.1.2.1.3. .} %.} | L / ] H ] 3.1.D.MXLXHXBXHXlXn.~ A J / / / @./ ! ^ / _ _ ( ! H ! ^ ! M } 1.M H ~ ! ! ~ H %.} H / ! _ ` ! C.U ! ! ( ! C.U m N N B x m M ~ A @.XXqXdXvXcXJXT.X.D.D.8.D.D.D.D.x.e.x.E.E.D.D.j.z.v.z.a.r.y.1.o.9.j._ X * % * f wXD.l d y u y t t y s z x x x z j B x l j x N A Y N U N M m Y U R R Y m m m m m z n m m G z G G G G G R R R R G z G z G G G G G G z G G z G G G v z z G R R E R R R G z m v v z x v m m G G l G G k k k z m z z z x l k s k l l k G k G m G z o.9.G G G ",
"1.s.{ } @.=.=.=.$.%.{ ] { } } @.{ { / H H G G H M b ^ _ j.mXFXtX2X}.^.a.=.,.=.%.=.2.2.r.r.2.@.%.-.%.#.=.V.r.t.>.u.y.r.u.2.1.u.u.s.u.a.a.v.u.i.=.s.N.a.@._ V.k.s.s.a.a.t.s.a.r.s.B.v.N.a.z.v.r.=.@.#.] _ _ } @.%.@.%.=.=.=.=.=.6.%.%.%.%.2.2.=.v.v.a.@.l ;   o r H } /.=.] ] ] #.%.&.=.=.2.r.s.s.u.i.y.u.r.a.u.u.s.t.r.r.r.>.s.t.r.r.1.2.=.6.s.r.>.r.=.=.2.i.i.>.=.=.t.i.a.i.2.r.r.s.>.r.t.V.r.a.u.s.s.=.=.=.=.=.=.=.=.r.=.=.=.@.] *.&.-.@.;.;.@.] @.@.;._ ^ ~ _ ) @...} .._ _ ` ! ( _ _ _ _ _ @.;.@.@.;._ ^ ) _ ! ! b g.n.=   X d G G fXD.y.$.D.D.D.3.1.,.$.1.2.y.} } } } } @.] ) J ] J ,.:. .D.cXLXHXHXHXMXv.^ ~ / J H G H J ] ! / %.J R G G ^ G ! %./ ! ! ! H H H / / M ! H ! A U ! ! C.C.C.U ! C.M U N N C.N A ~ ~ | .XfXdXgXNXCXT.p.1.9.p.e.e.D.D.D.E.D.c.E.E.E.x.z.x.x.c.p.a.y.1.*.9.q.$.+ - & * f ;Xd.E l j j j z y y s l x x x j x x n l T N N T N N N N b n z m R R R m U m m m m m m m G z z G R z G R R R R z G G z G G G k G l G G G l G z z m m m m R T R T R R G l G z s k z z m m z z l l z l G k l v v z l l z y l l l k s l z k m m z R z R z G ",
"r.=.} _ =.>.r.=.%.$.{ ] 1.#.1.@.$./ / J G K H b M N M ^ ` l.CXmXtXrX}.~.a.%.=.#.,.2.r.2.2.u.2.=.6.,.r.=.@.#.s.g.u.u.u.u.u.a.a.a.u.u.a.s.r.s.r.=.o.1.r.-.=.r.V.t.s.6.r.i.s.s.p.v.v.v.k.v.u.y.} ! / ^ / / _ } @.%.=.=.>.>.=.=.=.>.%.%.2.2.2.2.r.u.g.u.} x X   X t b _ r.-.@.} @.=.=.r.r.i.u.r.i.s.y.u.r.2.r.u.s.s.i.r.r.r.i.t.i.a.s.s.r.s.r.=.r.r.r.s.s.-.s.s.r.2.V.r.a.u.s.s.r.r.a.i.6.r.i.s.a.a.u.a.r.=.>.=.=.V.r.=.=.1.=.-.-.#.;.r.u.-.@.@.@.;./ @.o._ _ ^ ` ` / ;.o._ } _ / ( ^ ^ _ _ _ { @._ ..;.@.;./ ` / ! ! ! =...U 0   X h G G cX|.D.D.D.D.D.1. .%.1.%.%.%.%.%.%.#.#.} { / ^ J { 1.| | } (.NXLXHXBXHXNXM./ J H G G J 1./ H %.~ G M G ~ H ~ } M M H ~ H H Z H @.H G ! G G M M U U U ( U _ @.C.C.U A M C.C.A ~ @..XfXeXzXAXJXx.1.9.5.5.q.e.q.e.q.e.D.x.E.E.e.D.D.e.z.x.n.p.p.p.0.p.9.D.j.  = % % c 8XO.G l B j j x n j s z z x n x n n n n N C.N N C.T x x x l m R Y R E m U U R m G m m m z G G G G G T R G G R R G G G z z k G k G z z z G l G z m z G G G R R R G G z G l k s y l n m m z G l k G z G d z m m v x z n z z z G l G z G G m R R R R G E z ",
"s.t.s.a.r.r.r.r.%.$.#.$.%.$.{ { { _ / } [ ~ G M M M M ~ / ..k.DXCXyXrX-X).a.#.;.@.2.r.t.t.=.%.u.t.s.V.-.;.-.V.s.t.r.a.s.t.a.a.a.a.r.V.,.-.-.-.-.-.r.r.1.%.$.{ %.t.V.V.s.a.s.t.B.n.N.v.a.u.u.#._ H ! ~ H / } @.%.2.r.r.2.2.1.1.r.=.>.2.2.2.r.u.r.%.2.&.y ;   . f ~ ^ s.V.=.@.#.V.r.r.r.r.r.r.V.r.s.r.1.1.r.u.r.r.s.s.i.u.s.s.a.u.a.s.s.a.s.r.i.a.u.i.t.V.r.i.r.V.s.k.a.a.r.V.V.B.a.=.=.s.s.a.a.i.i.u.V.=.>.V.=.r.9.>.=.=.=.=.=.=.` b.s.@.@.;.;._ ` _ ;._ _ / ( ` _ @.@.@.] _ ! ! ! ! _ _ @.&.] / / o.] _ _ / _ / ! -.>.&.M -   ; g G G xX4XD.T.T.D.D.$.$.} %.%.%.%.1.$.} } $.} / J _ J } d.| } | $.~.lXLXHXBXHXBXE.G / / J J / / ] ] / b G ! ! %.t.H ] H G H H / ! ! #.H G G H / G G ! H ! G _ %.A ! C.A ~ H b H ~ } _.wXfXjXVXGXD.0.j.5.+.5.p.p.p.D.e.e.D.e.x.E.L.E.c.c.c.x.D.c.z.p.p.a.0.D.9.X & $ * f fXO.x z x l l z z v x n n A n n n N N N U N Y N C.C.n B n z v m R R R R M m U U R m G m G E G G z R R G z G R E R z G G G G T G G G z G m z v v m G m v m R R R R R m z v v l l l n G Y G z G z k G k k G G z z z n m m m n n m Y m m m m E R R R R R m ",
"r.@.&.r.=.V.r.V.#.$.} %.=.#.@.} / _ / ~ / ~ ! J ! ! M A U / ..~.JXCXyX>X[.G.d.,.#.%.=.r.>.} } %.-.,.-.| -.-.#.>.t.>.r.u.t.i.t.s.s.r.r.V.-.;.-.>.2.s.2.1.$.@.@.#.r.t.V.V.s.s.t.B.N.a.a.=.*.-.-.} / ! G M ~ @.@.%.=.=.2.2.s.s.s.2.=.>.%.2.t.r.r.a.v.M.%.z X   X y _ -.B.s.r.=.-.t.s.s.r.r.6.V.=.-.=.r.r.s.s.r.s.r.2.u.u.r.>.r.s.i.u.s.a.s.r.>.r.a.a.s.r.V.s.r.r.g.B.v.v.a.r.>.a.v.i.r.r.r.y.s.u.t.t.i.>.=.-.=.r.r.r.=.=.=.=.-.1._ p.N._ =.@.@.@._ _ ;._ _ ) / ^ _ @.;./ _ ` ! ! ! C.! _ o.{ _ _ ) ^ _ _ ) ) _ @.@.} @.*.@./ -   X f G G 5X$XN.m.m.2.D.3.$.%.%.%.$.%.%. .%. .o.} / / / _ 2.>.,.| } } =.~.iXLXHXHXBXBXD./ / G g G / J ~ ! / / J ~ ~ H { @./ { / / ^ / / J ! H G G } } M ~ ! ! ~ } } ~ _ C.M G H / } | `.wXvXzXNXPXT.9.0.1.5.*.1.5.e.p.e.p.D.e.D.c.D.x.x.D.x.j.c.n.x.x.x.x.c.j.R.j.o * $ & b gX) l n m m n n x z v m N T B n x n n n N Y U N N N N T b v n m G R R G m R U R R m R M G R R G G R z G G R R R R G z G G z G G k G k G G z z l v z m G R R R R Y Y G m z z l n m v m Y z G G G G G G k k G G G R z m Y m n Y Y M m Y Y R m U Y U E R Y ",
"_ #.=.V.r.=.V.=.1.%.@.} %.%.%.@._ / / ! / ! ! ~ H M A M v b ! ..UXJXFXuX'._.^.Z.h.3.t.,.2.,.2.2.s.t.3.-.,.>.>.>.r.t.u.d.u.u.t.3.t.t.t.t.t.t.V.t.t.t.t.2.%.#.=.2.s.t.d.a.d.u.v.N.v.a.2.@._ } &.] } _ ~ ~ _ } } =.%.2.2.2.r.2.%.=.2.=.=.r.r.u.u.a./.2.-.x X   + y ~ &.s.@.r.s.i.r.r.s.r.r.V.=.=.-.-.t.s.u.s.u.s.%.] 9.=.&.=.s.s.u.r.s.k.s.a.r.t.B.a.V.r.r.=.V.a.B.a.v.B.B.s.s.i.s.u.s.r.1.r.i.y.i.s.=.#.#.=.-.=.r.r.1.%.%.=.r.=.@.b.=.*.#.@.@.;..._ _ _ _ / ) _ { ;._ ` ! ! ! C.M C.! / _ ..] _ / ! ! ` _ @._ @.} ^ ^ @./ ! =   X G G J cX$Xz.z.N.1.y.D.,.%.,.1.'  .} } %.{ { { ' ] J ] 1.%.$.%. .@.] t.k.iXHXHXHXHXBX'.} G G G H H ! H / } | } #.! ! / / / ] / / _ { / _ H H ! ! ~ ~ H ~ ~ / _ ~ _ ~ H A b ~ | | ^.wXcXcXCXSXm.9.z.9.q.5.*.9.9.9.p.p.q.D.e.e.p.j.j.z.x.x.x.j.x.D.x.x.T.'.E L.5.o & $ & c 0X) n m G m v n n n n m Y c n x n n n n N Y A N U N c N m m n m G G R R R R R Y n G R E E G G z G R R m G R R z R G z G G G k k G G G G G z v z l z s n z R R z Y Y m z z m z m m z m m z G z G G k G k z G G R R R m R n Y Y Y Y m Y m Y m R R E R R Y ",
"@.@.>.6.=.r.>.u.1.} { $.$.%.#.@.} } / _ _ / { { _ H M M N b M ! ;.(.JXDXuX>X,X>X-XOX{.{.{._.^.^.^.^.Z.[.[.[.{._. X).^.^./.[._.).).[.).`./.).(.[.[.[.).).^./._._._..X.X|./.^.a.n.v.r.@._ ] _ @.;.} _ @.%.=.@.&.=.2.2.=.r.2.#.] =.2.} ] >.r.r.a.a.V./ &.z ;   X y A ~ g.r.r.s.r.r.1.r.s.s.=.=.r.=.2.i.s.a.a.r.2.@.=.r.=.-.r.s.r.i.s.u.a.s.s.s.s.s.r.r.6.V.r.r.s.v.n.N.N.a.a.s.r.u.s.r.r.y.r.r.r.r.>.&.&.=.-.=.V.V.s.1._ _ &.-._ r.t.@.=.@.@.-.@.@._ o._ _ _ _ _ { _ _ ! ! ~ C.M ! ~ ! ` ) _ _ ( ! ! ( _ / _ _ } / A _ @.( M -   X d G G 0X7Xa.9.n.D.D.} 1.%.%.%.{ { } $.} / } } } } } %.1.u.d.u.2.#.#.r.s.z.rXHXFXHXHXMXx.1.@.@.o.o.1.#.} { $.@.2.3.u.@.%.@.@.{ 1.$.} $.{ { } $.#.$.1.%.} %.2.%.$.%.#.| #.#.#.#.Z.wXxXxXCXCX'.p.p.0.1.1.5.5.q.p.p.f.e.0.e.c.D.0.1.1.1.1.f.f.j.x.E.m.z.'.2Xl D.5.o * @ $ b fXX.G G m m m n n n n m N n n N n x x x x N Y N Y N A T m b n n m R m E R m m G R m R R R G R G R R R m G G R R R R G m k G G G k z G T m G v z l s t t k G R R Y R G m z R R m G m R m l l z G G k G G G G T k m z R z m n n m m m n n z m Y U Y U U U ",
"@.r.2.-.=.=.=.#.=.#.#.%.r.2.2.%.%.} } } ] _ / _ ] ~ M b v b b H ` ` UXDXmXpXAXNXCXCXNXCXVXVXcXgXgX;XXXgXVXVXVXVXVXVXcXjXdXVXAXAXAXVXVXmXVXnXxXVXnXVXxXxXnXAXAXAXVXAXZXVXmX4Xg.2.-.@._ ] _ ] _ / _ @.@.@.-.=.>.=.r.>.2.r.2.%.%.2.r.=.%.>.s.u.u.v.^.g.&.v ;   ; s A ! v.s.a.p.r.=.=.V.V.r.6.2.r.t.s.2.r.a.a.r.=.%.2.2.-.r.a.u.a.r.s.i.s.u.r.9.r.r.r.r.r.V.s.B.M.n.n.v.v.g.a.s.i.u.r.r.s.r.u.r.1.=.=.#.-.&.#.=.r.r.6.@.` / _ } &.u.&.=.@.#.@.-.@.@.@._ / _ ` _ _ / _ ^ ! C.C.C.C.C.C.! ^ ` ` _ ! ! ~ ~ / / / } } / ] / ~ ^ ! -   X f H x 4XxX8Xi.n.D.1.3.%.$./ ' ^ { { { / J {  .$.} ] } y.b.3.d.1.>.2.s.v.Z.n.3XBXBXHXMX].T.D.D.z.f.R.D.j.n.n.x.n.'./.f.z.v./.D.c.j.j.T.m.1.p.a.p.z.z.z.z.].j.k.p.i.u.i.r.r.6.=.:XnXxXPXFXI.z.x.s.D.5.+.+.9.D.5.9.p.p.p.p.p.0.1.{ ] #.:.%.9.n.D.c.n.z.x.p.x.'.O.X & $ @ c qXo.R G R m m m n n m M Y c x n x x x x n N Y C.N n N U b M m m M U U R R G n z U R ! R G G G R E R G G R G z R R G m G z z G z G k G G m m z m l s t w k m R R R R R T R R T z m R G n G G k G G k G G z G R z z G G G Y Y Y Y m R m z z n m Y U U U Y ",
"} 2.a.u.=.&.#.&.=.>.t.t.d.g.3.a.2.%.} { ] _ / / _ / H M M H H M C.;.` ].mXMXCXCXCXNXCXCXCXNXCXNXtX-X6XtXmXZXCXAXAXZXmXcXAXCXCXZXDXAXAXVXCXAXCXAXNXAXNXAXAXVXAXCXZXZXZXDXZXjX~.^ @._ ../ ` ~ _ _ _ } } %.=.r.r.s.V.2.>.%.] _ u.h.a.u.t.u.s.a.g.u.t.i.&.n X   ; z b / 5Xb.B.r.@.;.-.V.s.>.r.2.r.>.r.=.$.=.%.2.r.r.2.>.r.u.u.u.s.r.s.s.u.r.s.r.B.r.V.r.r.p.n.M.M.M.M.v.i.a.a.s.r.u.=.r.a.i.a.1.$.@.r.*.@.#.*.s.u.6.-.=./ ` @._ r.=.%.@.} _ @.;.@._ _ _ _ .._ ` ^ ^ ` ! C.! U ! C.b M M ~ ! ! ! ^ ~ / } } } _ ' _ ' / ~ 2.~ ! -   . y A v 5XI.^.i.V.1.1.1.%.%.1.} } $.}  .{ ^ / } $.} ] :.u.N.g.d.u.2.u.g.~.[. XI.3XsXBX=XQ.W.x.n.x.c.m.P.x.L.P.E.R.W.].W.T.c.].'.R.'.R.'.T.0.j.l.j.l.x.x.c.x.L.W.L.I.L.c.l.j.j.0.&XVXCXmXW.L.P.z.j.D.+.D.+.q.q.5.D.j.p.0.0.1.$./ J L  .} %.1.u.a.j.k.k.p.9.5.'.O.o & + $ c qX&.R G R m m m m m G ! C.C.C.n n n n m U N N N x N N x n U M m R M U G R m G z n U R E R T G R R R E T R R R R G R G z R G z G G G R R R m m m m z l s k z z R z R R R R z R R R v v G G G d G G G k G z R z R z R l k m U ! R R ) E m n n n m m U U U ",
"v.;Xu.u.6.#.#.2.#.>.g.^.F.g.2.t.2.} @.} ] _ _ _ _ ! G M G ! ~ ! C.` ;...P.AXFXFXNXCXDXDXFXDXDXDXJXDXJXCXAXJXDXDXDXDXAXVXSXGXSXJXZXDXJXJXDXDXDXDXDXAXNXVXCXCXCXFXCXCXDXZXAXxX<Xs.] _ @._ ` ^ / / _ } @.@.>.V.2.>.>.=.=.=.@.r.t.r.r.t.t.r.r.t.v.v.V.V.-.b X   $ B x ~ /.a.N.r.=.&.=.r.t.t.g.b.g.>.=.%.$.%.%.=.2.r.r.s.a.u.2.s.s.a.a.u.v.u.t.B.N.t.t.r.r.k.N.I.I.UXN.=.] u.-.-.r.u.=.V.a.a.u.1.] @.=.@.=.%.-.u.u.%.=.V.>.2.V.t.b.u.s.@./ A ^ @.@...../ ] .._ _ ` / ! ! A M b C.C.A M U C.! ! ~ ~ ] =.>.%.1./ ' } } %.a.%.H ..-   X y b _ jX^.I.V.>.y.1.$.,.,.D.D.:.1. . .{ / { %.$.| 1.2.d.N.1.1.1.2.a.N.$X:X-X.XI.3XsX=X3XW.W.].W.].#X].W.E.P.R.#X#X&X#XW.&X&XW.W.'.W.c.L.E.L.E.E.x.E.U.].2XL.!.#X#XE.E.W.W.U.I.E.VXcXI.I.I.P.P.k.+.D.+.D.D.5.D.8.0.0.9.1.O.{ J / #.1.1.1.1.1.a.p.r.j.0.=.*.p.... $ + $ f 5X{ ( R R R m m E _ ^ } -.;.C.U n x b U C.N N N x n n n m m M R R m G R R G G z n M R U G R G z R R R R R R R R z G z s E ) k G k G T G R m z R G z v z v z v m z z z R R R Y G m m m G G G G G k G G k k R G R E z z 9 y / #.@.O._ ! G m z x n z m R U ",
"! -.=.i.r.>.=.=.t.^.fXAXgX~.d.t.d.2.%.@.@.@.} _ / ~ H G M ! ` / ( ` ;.;.@.n.tXzXCXmXtXcXzXkX8XhX-X>XkXgXhX4XcXVXzXxXnXmXfXhXdX6XnXVXhX7X6X9X6X9X6XxXVXcXgX<X[.m.2XVXkXdX4X).B.=.*...@.@.;./ / ` _ } @.%.=.-.=.#.&.=.>.2.t.v.|.>X}./.u.u.t.r.t.b.M.=.@.U X   $ y b ! r.s.a.u.t.s.=.2.d.[.tX:XZ.v.2.@.%.%.2.2.s.t.r.r.2.*.i.u.u.a.v.v.k.v.B.M.n.B.s.-.r.n.M.M.M.B.r._ ! M ~.M.&.s.-.=.a.r.$.{ / %.r.#.=.] @.B.N.&.V.-.%.&.&.a.#.2.] ~ x v C.] @.] _ _ ;._ _ ` ` / ! ! C.b M C.C.M M C.` ` ` ~ #./.4X&XD.2./ } } / } H ~ _ R -   X d f _ bX[.a.V.V.2.1.3.D.D.G.{.D.D.3.%.$. .$. .%.%.2.1.2.1.} @.1.t.b./.>X:X[.$X[.e.*XaXaXiXaXaXiXpXcXkXNXiX3XrX3X7X3X&X*XzX&X!.].!.W.R.].#X#X#X#X#X!.W.pX$XW.W.E.%X%XL.%XU.c.U.#XlXE.W.I.I.E.L.n.D.8.D.q.5.D.q.9.p.q.5.$.$.J J } 1.9.w.$XW.p.9.d.u.a.V.i.*.R.x.o & @ $ f qX} ( E R m R R / %.~.E.l.].l.C.n N U C.C.U T N n n x n n M U R R R R R R E G m n b U M m G R R R R R R R R E R G z z z s G +.k G G T G z m R R m G v z m m v z s s k z n m R E E E _ z G G G G G G G t G G G z G G G R ~ ] ' k.#X|.l.W m x z y z Y R Y ",
"! _ &.>.s.s.r.@.d.vXLXGXLXoX%.3.2.2.3.1.} { } { _ ~ G v M H / / ` ` &.@.;.` 6.Z..XG.1.u.y._ 1.g.G { ^.p.y.1.f.D.1.a.a.1.2.d.&Xg.|.M.>.=.-.>.d.d.$.). XD.d.u.1./ f.(.$.9.D.2.=.*.-.-.5.;.;.` ` ` _ @.#.&.%.%.#.@.#.=.r.t.3..XDXCX}.n.v._ =.r.r.u.v.>.;.U ;   $ j v @.N.9.B.t.>.V.2.t.[.SXFXhXD.$.{ } #.1.2.y.u.u.a.a.t.r.r.a.a.a.a.g.v.b.M.v.u.s.2.1.1.2.2.y.t.1.@.] #.t.t.2.2.1.#.#.} J / G J 1.=.=.A H ~.~.%./ #.} / / 8Xg.~ | %.Z 2./ H / %._ ] _ .._ ` ` ! ! ! ! ! M M M M M C.! _ _ ^ ] <XPXcX[.z.M.%.~ _ } _ } %.$.! &   X q x _ zX[.i.1.r.2.2.2._.JXjX X>Xm.$.%.%.1.1.%.2.1.| } / ] _ { 1.B.UX|.>X-X$X$X$X Xi.=.g.g.t.=.r.9.r.=.=.&.*.r.1.i.1.$.y.*.1.*.9.9.9.y.1.1.O.1.1.&.1.*.1.{ 1.+.o.0.p.o.$.o.o.) 5.c.U.'.(.R.I.I.P.D.D.Q D.D.+.5.D.+.+.*.$.{ {  .{ D.].+.W.cXW.*.i.y.p.*.*.&.j.p.o $ $ $ f wX&.R G m R R ! / +XlXE.7.U.%X^ M n M M C.U N N N N n n Y U U U C.C.U U M U M n k x n n x z n x n N m n x x l M n l s y k 9 @.x l z y s y d y l x s t y t y y t 0 0 0 8 k R R E X.G G G M ~ A ~ C.x x N x n m M M C.Y m ! 3.[.L.W.aX].&.m l y k z G m z ",
"[.i.V.>.a.a.>.#.1.3XrX3X}.n._ ' %.2.2.2.$.} } _ H H M M / / _ _ -.6.-.....-.| ` K K J H K G H J } J J ] H H G #.| / H b H H J { ~ C.Z A b A @.,./ L J { ] ] } L J J / J d.2.$.*.i.9.6.6.-.;._ _ } @.@.@.%.%.%.=.=.2.2.u.3.+XzX:X-.! @.f %.2.a.b.k.=.-.U ;   $ j v / N.t.g.r.r.t.t.2.oXNX3Xm._ / d { @.1.3.p.d.f.a.u.y.u.u.a.u.u.u.v.n.N.n.t.r.] } J G H H J H K K G g 3.J H J J G G G h g G G G A Z f Z [ H K Z K K K J | / ' J Z K | L K ' / } _ .._ _ / ! R ` ) ) ^ R ! ~ ~ U ( / ! / ( ,.).VX8X0.R o._ H | / } @.~ H _ =   + d f G qX{.r.r.=.r.3.M.6XJX}.q.q.O.G %.%.#.} } 1.#.#./ / / { @.u.(.[.|.>X}.(./.~.@.[ <.<.L L L P S S K K K K K K K Z S H c h h i g g h g h i F G d g g d 6 G c b b c g G b b b g / O.P.W.'.W.E.E.D.q.D.8.+.D.5.+.*.+.$.{ ^ / {  .5Xm.W W l.L.) 1.1.y.1.o.o.p.5.o % $ + c :Xo.E G n m E ^ 3.wX[.0.8.8.+.A ! N U U U M U m U U U U U C.C.U C.U C.Y M Y l y i h g p i a g i 3 i 3 4 3 5 h 5 i 3 3 g g h 5 q i h C F 6 6 C a h 6 C a D C 6 C 6 h i 5 e H E ( E R G R C.A A ~ b B x M N N U m Y M N M A +X/.i.+.0.w.` m z s l v m R R ",
"o.=.=.V.s.u.r.@./ y.9.o.) ! f b %.t.t.r.=.@.} } H H _ ^ } _ @.r.a.B.&.x c A Z Z G G 6 G h d h h 5 K G 3 d d 3 d d e d e e 5 e 3 i i p p i p g c G h G G G G h d f d f g c J ~ } 6.0.i.7.5.;.` ;.@.} @.@.&.%.%.-.2.r.s.t.,.u.,.~ H A b u ~ =.s.a.v.M.=.m $   $ x x ^ g.>.u.t.3.-.t.=.g.a.o.G b J % ~ @.@.2.a.f.a.y.r.u.u.a.a.d.g.v.N.n.N.a.=._ g , * * * % # # * # # # O # % @ % * # < $ # * < # # @ # % # : % % # * % # # < * # : 4 * : 3 4 h H ! ;._ ) ( ! ! _ ] _ / ! ! C.! ! / ) ^ ! ( / 3._.i./ R m 3 H } { } } / &.o.-   X d c G OX~.=.1.2.r.2.a.(.qXr.X.O.{ f } %.1.} } | #.#.} / ] @.1.D.}.>X&X}. XR.UX] S I S.S.S.S.S.4.<.S.4.<.<.4.<.4.:.P :.<.:.:. .L I 4.4.4.4.4.4.4.4.4.4.4.4.<.<.<.<.<.<.<.<.<.<.S.<.Z X.x.R.R.I.R.D.e.q.D.5.q.D.5.*.$.{ { { ^ K %.g./ ! { O.X.m 1.1.9.9.-.o.z.0.o $ $ $ g +X&.E G R R R _ L d.t.! ! ) n y ! M M U U m M U U U C.C.C.R C.C.C.Y U M N x V % # : , # # 4 , # < # # O : < 4 # # @ # 4 4 # * < # , 4 4 4 < 4 : 4 : 5 4 a 6 5 5 4 4 , : 4 C v m G E R G Y N m ` ! C.Y U U M N m N x N N Z h.,.N x m ! p l n v x z R R R ",
"( &.=.=.a.v.r._ v J #.J G c * f 2.2.a.u.r.2.@.} _ ^ ~ ! _ @.=.i.P.I.-.Z C 3 % O # @ @ @ + @ @ @ + # + @ @ O + X O + O @ @ @ @ O O @ O O O O + + X X o + X O O + + + @ @ * g K J ;.-.9.i.6.6.@.-.%.} _ } } %.=.>.2.=.2.t.] Z ' Z g c q 0 ~ &.@.r.M.M.-.Y $   $ x v @.-XN.s.r.#.~ @.%.~ / H G b e O ! } %.r.r.2.r.r.u.u.a.a.a.u.f.B.v.g.b.s.! q , # . . o . .     o   o o       . o o o o .     . o o   o         o   o                 o   . 4 f M ) ../ / ! ! _ o._ ` ! ! ! ~ ( _ ^ ` ` ! M [ J b f b q % H { _ @.#.@.-./ -   ; d f H 5X X$.1.1.2.r.%.' u.} M ! H d } 1.| 1.1.1.1.1.$.$.{ %.y. X$X-X-X[. X(.} D I I L <.<.<.<.<.<.<.4.<.<.<.<.:.:.:.<.<.<.<.:.I I :.<.<.4.<.<.<.<.I <.<.:.I <.:.L I L I L P L P I :.c ) j.R.W.I.D.D.D.q.D.q.+.q.+.+.{ { ^ ^ / L  .#.G G ! f G *.1.=.=.=.@.c.*.o * $ & d 5Xy.1.o._ ( ^ { J C S i f e = 0 U m M M M U M M N U C.R R U C.( ( C.m Y n q #                                                                                           o 5 h q t G E E R U M x U o.! U U U U M n l n m f i  .h h c p = s z z s l z R Y ",
"&.@.@.=.v.b.B.-.v d h 5 5 # * ~ 2.u.a.u.t.2.=.#.@._ ~ ! _ V.p.k.a.@.A C 5 : . o . . . X . X . . . . o O . . . . . . . . . . . . X . X . . X . . X X . . . O . . X . X + O @ h L ' -.9.i.i.0.=.6.-._ ^ _ } %.2.t.s.r.r.t.| f c b f 2 % y _ =.r.a.r.V._ m &   % x x &.:XN.B.t.#.| 2.%.g c f e 3 . * { $.2.2.r.r.2.t.a.a.t.u.u.%./ f.b.v.v.^ , : @   . o o o . .     .     o o   o o o o o o o o o o o o o o o o o o o o     o o o   . .   o . @ 3 x M / .._ ..o.@.o.{ ^ ` ( ! ` / / ! ` ^ ! M b f g 5 3 % 1 / / { @.%.&.o.` -   $ d l H CX<X@.1.%.%.%.| H H ~ b g 3 d @.1.1.1.2.t.1.,.}  .@.r.D.|.}.OX$X[.T._ S I I C , e f g c c C g g Z g c h f c c c c c g H h f e g f e q q q q q 1 0 1 2 0 0 1 1 1 1 > = * : F P <.c U j.'.W.Q.D.e.e.D.Q D.+.D.+.D.*.{ / / K h d i d t 8 ..o.=.5.1.1.9.w.&.o @ @ $ G +X3.1.@._ _ R / H 3 4 4 # % + y M M U C.C.N U N N Y C.C.R C.C.( ! U M z 0 4 .                   o                                                                       o O 5 K g s m W ) R Y n x Y ` ` C.C.U M n x x x f , : 3 , 2 $ 0 l l z n m E ) E ",
"2.s.1.=.u.n.a.r.{ g 2 @ O * H %.t.u.k.k.u.u.r.=.-.@./ / @.r.k.=.A g C 5 < X o X X X + @ @ @ @ + @ @ $ + + + @ @ $ $ # $ % & * * % * % * % * : * @ + @ $ & & & & & + + + @ X % i S ~ -.0.i.p.p.9.=._ ! / @.%.r.v.g.a.t.t.2.~ e 3 % @ y } =.r.r.a.g.V...n $   $ v b / Z.B.u.t.r.=.2.%.^ 2 * + . % H #.=.1.1.2.2.r.r.a.a.a.u.r.>.a.b.m.N.@.2 # O o o o . + @ @ $ @ $ @ $ @ @ @ @ @ @ + $ & & @ & @ % % # % % $ % @ @ @ @ # @ @ @ @ $ $ $ # % % @ # 3 g b ! _ @.@.] ^ _ ` / / ( _ ..~ ! ^ ! ! H H q 3 2 $ * G / / / @.%.#.} ( $   X d x b OX~.2.=.-.%.@.@.%.h 4 : @ 1 J ] #.1.2.t.3.t.1.1.1.t.D. X|.[.'.UXL./ C I P C > 2 u w w t e l y p y d e y y d d g x f v b v y y s y d y y y w d d w w d 0 w e e 2 3 0 0 3 8 4 6 I I S C.P.'.Q.Y.D.D.D.D.8.D.+.q.+.5.$.{ / ^ g < @ @ $ G o.O.*.*.*.$.$.0.O.o & & @ 6 +Xg.v.) { E ) ^ M q @ . . . 0 M b U U M U U U N U n U U U ! U U m U n 3 : .       o o . . . . X . . X ; X . X . o . . o . . o o o o o o o o . . . . . . . . . . . X X X o O O 6 C e n R ) E R Y U U U ! ( ( C.U U M v j x q @ X . o & x l l z n m E &.E ",
"y.a.y.i.r.v.v.a.%./ G d s / %.1.u.t.s.t.u.s.t.2.V.=.;.;.;.6.-.H g C 5 # O . ; * # 1 1 3 d q d e d d 3 q d 3 e d d d d f f g c f x c x g x g v c G d d G G d x f d w e 3 2 % + % g S A -.7.9.i.=.@._ / ;.&.>.t.g.v.a.a.t.r.=.{ b f H &.=.r.=.r.u.v.B.( z $   $ x A ~ ,.a.s.a.g.u.r.=.%./ x 0 e / $.=.1.1.r.r.r.y.a.a.u.y.u.s.u.a.a.a._ q # O o o o @ 1 w d G v x G d G g c v c c G G f G f G G d f f f b f v g d f c c f f f f f d f d t e e 2 % * 5 h v ` _ ) R R / ] @._ ^ ` ! ! ! ! ! G G / ! x s f H ^ / { _ _ &.&.@.U -   @ s f H <X=.r.4X1.r.$.} &.' b f x / { ] #.2.3.t.t.t.1.t.g.D.D.T.].'.'.L.J P I P 5 = 1 u t d s e s x y y y y y y d d s f f f v c f f d y y d y e y d d w y s d s d s d s f y e 0 3 1 4 6 P I  .Y c.Q.D.D.Q.e.q.8.Q D.+.q.q.*.{ { { H G d s G E +.1.1./.! H G p.o.  * @ $ G `.{ s G { E R ^ R v w = & y m m M M U U U C.U U U U N U C.C.M n ! x 2 ,       . $ & % - - = = = = 2 7 0 7 = 7 - - - * 1 1 = - = = = = = - = = 0 = 0 0 0 2 2 8 > > > > = # O O # 6 6 c ` R R Y R T N _ C.( ( ` R U U M n z y y = % = j m v z m m m R R G ",
"=.v.u.s.-.i.u.u.1.1.1.~ { $.1.r.u.u.r.i.a.u.t.a.s.V.-.#.^ _ ~ h 6 4 # O . * y B G G G G G G G v G G G G G G G G G G G G H H H H H H H H H H / ^ G G G J ^ J J H G v v f s e 1 $ * a S J V.V.o.{ _ ] _ #.>.u.N.g.g.u.u.r.r.r.2.2.2.r.2.s.u.s.s.u.v.B.! j ;   & v b ~ ' 2.v.a.s.t.r.2.%.%.#.@.1.%.%.1.r.r.t.t.t.a.u.y.r.=.u.s.u.v.u./ 5 < O o     $ e d G G G ! ^ J H H H H H H H J J G J H G J G H G G G ! H G ! H H H H G G H H H G G f c f f 0 : * e v b ` ! v G ! _ &.] ] / A G ! ! ! ! ! _ o._ _ / ! _ { ^ { } @.@.i.U &   @ s f M :Xv.H s.-.2.@.@.} { @.&.%.@.@.@.#.1.2.u.p.d.u.t.d.G.D. X].'.P.` D P C 4 * 1 r y s l n x l y y y j x x x x v v v v v v v c x x x x f s f x l x G d l v n x x n G G v l d w 2 2 4 6 I <. .` D.Q.D.D.q.D.D.D.+.D.D.q.D.$.$./ _ E G _ ..) *.5.@.<X} 1.R 9.E   @ 1 @ h 4.u.(.$./ v G ( ! G G M m b v b m U U U N C.U C.C.C.U U C.U n B ) i *       X = V 0 r r u u r j j j y y y y j y y s t s l s d k k y y t y j k y l x j l k y l j B j j t q = + @ < F C g W E z m U U x Y ( ( ) ` C.! U M x j y j l v U U G m m m E E R l ",
"@.r.=.r.1.1.u.u.a.z.a.=.=.y.u.u.u.s.s.r.u.}.a.@.y.r.r.-.H h g 6 , # . . * s G / ^ / _ / / { / / G H ^ _ / / / { { #.{ / / { { { } } } #.{ { @.#.{ ] ] } } #.} ] ] H G G G v d 1 & 1 5 K L %.1._ _ @./ =.2.%.b.G.u.3.p.r.2.r.2.2.=.2.r.r.u.u.u.2.v.y.m u o   $ v b / N.%.1.2.r.2.u.2.2.%.%.2.1.=.2.1.r.u.y.r.a.d.r.u.2.%.2.} a.u./ p 4 O     . $ d b G _ _ { / { { _ / / J _ ^ J { _ _ _ _ ) G _ { / ! ! / _ ^ / / ^ _ ^ ! / / / { { H G G G v f 3 1 1 5 c M ~ G b ! f.O._ } H f ~ ^ ^ ! ! ` ) _ { _ _ _ ] ! _ @.&.&.} @.x +   $ d f x G.a.G G @.@.} =.r.1.{ %.=.*.$.=.1.r.y.f.u.a.2.2.a.a.F./.'.I.;.D L D : % 7 t l v M G G G M v v x x x n M U M G M M M M M M n v M G M G H G b M M M v n m b v M ! ! M b n x y 0 2 4 C P <.h.O.x.j.0.*.M &.j.D.q.5.D.+.+.8.+...@.E X.9.o.O.1.G s { n.z.5.k   & q & d D.L { y.@.^ G G R ! R G M M C.Y U U U ( U U U C.( ! C.C.M m x y * : o     X = 0 t y y k j n x x z n x B l x x z x x z m M m z n n m n n n n m x n n n n n x m m m v l x x r = % % < F C G E m ( 1.E M E ) ..X.X.` ! R R Y m n n n m M R m n G R R ) ) & ",
"x } %.%.=.$.=.p.~.v.s.s.y.a.v.n.a.k.g./ %.~ H -.y.z.a.&.Z h 6 4 # . . : d G ! { $.@.{ { %.@.$.{ ] $.1.{ @.{ { { 1.1.3.1.%.1.1.#.%.1.1.=.#.#.#.#.#.@.@.1.#.1.1.#.1.] / J / ! G v e * 1 5 K K | _ H _ ] =.=.{ a.2.} { 1.%.#.%.1.r.2.2.f.u.u.2.$.$.-.~ f $     + f b y [ | ! _ { #.i.2.2.=.=.2.#.@.1.2.r.a.a.u.a.g.t.u.2._ H _.}.H h 3 O   .   $ d m G _ { { @.{ { @.{ ] { $._ G / } @.{ { { { { { { { _ _ { / / { / _ / / / / { { } { / H H R G v f w 2 2 i h f ^ ! R G R _ ~ H G ! _ ! ! ! ` _ _ ` o./ @._ / } @.} } v 0 >     X y d d ' g | g.2.$.#.1.2.$.{ 2.1.=.1.1.9.y.N.f.1.{ r.m.@.%.Z.+Xz.[ L P F < $ 7 u x M G G R R H R M m m m m M ! ! ! R C.U M M M Y G G G ! ! ! ! ! ! H v M b M b M m M U R ! U Y M x y y 0 , i D <.h.@.0.O.m M ) p.8.D.D.D.D.+.D.*.+.*.*.5.9.9.O.1.O.) R 9.O.) X   1 d @ , I L G E _ &.&.M R M m G Y Y M M Y M M ! U N C.C.C.R U U m j y 3 #       X - r j j x x x n x n n n n n n n x n n n n m R E E Y m m m R R Y U M l m U m m m M M U M n l n n B r V % # # C C G E m s s 0 y M R U M M ( ! U M x x M U m n m n l v v w R !   ",
"4 f ~ } %.' H G / %.-.=.2.1.r.=.#.t.#.,.3.~ A ! -.s._ J D 6 , # . . = f G _ { { %.*.$.1.$.$.{ @.{ 2.@.H @.@.{ @.1.1.r.1.1.2.1.$.1.r.1.#.{ 1.%.} } @.@.} #.1.#.#.1.1.@.] / G / G b s 1 2 5 K K :.b K ' ] 2.| H G M Z b J } } { { o.~ _ } } / H ~ p 5 * o     & d M e i K G b c G 2.2.} %.%.} } } #.%.%.%.%.1.%.] %.%.A / #.F.| P F O o o o @ f M ! / _ o.{ { { { / $.@.^ J G ^ $./ J { { { J J _ / { / / / / / H ^ / _ ! ! ! _ { { _ ~ G H ^ ^ G f v d 2 2 5 i d b v x y ~ ! A ! ! ~ v v b _ / ~ ! / ! } / ~ H ~ ~ H g 2 X     @ d y % K 3.c %.%.} $.1.#./ 1.r.{ $.@.@.&.*.9.2.%.{ %.2.%.3.`.`.K a C 5 % ; - V B M G G G H ! ! ! M M M M U U ! ) ! U U U M b M U G G H ! ! G ! R ! C.M M U R M M M U M U C.U U M n n x y = > i D <. .M { E o.=.@.+.^ X.^ X.E E m H _ ( ) ) { E ^ ) E ` x v 2   o 1 d & O 6 K 1 G M ~ _ x n s s m b y j x l x x x x B B B n x n N y q 2 @       . - r j B n l x x x x x n N N n n m x x n n m G G R R G m m m m R M R U k n M M m n m m m n n n B j j y t 0 & % < 6 D g l f x 0 w b v y u y x v v v y 0 x U x x x d f d d 1 1 . . ",
"g @ 4 b 1.%.G H b b b M b H M H ! b A ' [ H J ~ ' 2.@.P P < . o O > v H ^ _ _ / @.$.{ { { _ / { H { / H / ] ] J ~ ~ ~ { { } / / } } { H / %.{ / H H 1.J H H G G G / ^ { H G ^ ^ R v v e 2 5 K L C S Z K K H C f e i e %.} f b x f p i h h g C C 5 #         & f H v @ 4 3 e q 3 v b f b H b H H G H H J g b H q f e q f b f h C # o o o * f b H ! H ! { _ ^ { { { G g G 3 G G J G G G G G G G G ! ! H M G G G c G G G J H ! G ! H H v / / G ^ G c v b d 1 2 i I :.K i f b c c A H A f g g b b c c f f H ' H 3 5 i i 4 O       * d d 1 + K L J ' | %.#.' J J ' / #.} | | ,.| 3.#.| 3.:.3.,.:.[ ,.3., O O = u B x b G M G G M G G M m x b M M M M n b b n j B x B n v v G G G v G b v M M U b ~ H m M M x x N N x M b v p u q V i D <.:.4.<.4.A.4.D. .D.I <.I D. .,.3.:.<.| :. .:.| :.' i *       @ 0 w + # 4 : O q q > > e y s c y = > q q p f Z p e i i h 5 q i C 6 O       ; 7 r j j x n l l x j x x n N T n B l G M y z n z n x x v n z x w G n x x l m G l n y j b y 0 r j j t j z j y 0 - & O P I 3 t 2 * q H d * = y H = 2 2 * & 2 0 u 0 u 1 2 0 q g X   . ",
"b 3   . $ + @ O @ O X X O @ @ @ @ @ @ @ O @ O # * * > # O o o . @ 2 1 3 t 2 e w e d d t w 2 2 2 q 3 2 2 2 2 1 e e 3 2 f d d d 3 3 2 1 1 d v d c q 3 d w 1 1 1 1 * 1 q e 3 w 1 w 3 t e 1 1 + 1 < # # % @ # % @ # % @ @ # $ # # # # # # : < : : , #         . e G M b 2 o . O @ @ @ @ O + + @ X O O @ O O O O . O . . O . . O .         O > e e e d e e e 2 e 1 w 3 1 1 @ & 1 w q 3 w 2 0 1 2 2 2 2 3 2 1 1 2 1 f c 3 v e 3 0 0 0 2 0 1 d e 1 e 1 1 0 q q 1 1 : 5 4 # O % < % % # # % @ % # # # # # # % # # @ O O O O         . 1 s x d & o 4 5 i g h d i 3 3 5 e i 5 q 5 3 3 3 4 3 2 4 4 3 5 4 h Z . . # V u u q e w e q 0 3 e d e q 1 q q q q y 3 q 0 2 > = = = 1 2 2 e d e q q 0 2 w y q q f f 2 0 2 * 0 y > > q q w 0 3 > > * 4 D P L L L P L L L P L K K P K K K K K K S K K L L C @         + 0 s 8 . . O @ O o O O @ O @ % @ O . O O @ % : # @ # # % O . O i O       o $ - 7 7 V V 0 8 1 1 = = = 0 V = = $ & 1 1 % = - * * - & & & & & * 2 = & * = 1 1 = = & & = @ X $ $ $ $ $ * - & $ $ X + # #   o     o       o o o o         o   o . o o   o         o ",
"Z G 3                                                         o o o   . . . . . o . . . . .   . . o   . o . o o . . . . . . . . . . . o . @ o o o o o o o O o . . . .       o o .     .           o                         o o o                       o = c b H A g * o                                         o o                       o o o o   o .   o o     o o o o o o o o o o o o o o o o   . . .   + + + O     o .       . d 1   .   o o o o o o .                                             o                 @ 0 s x f d O o                                                       o o o o o o o o o o o o o o . . o o o o o . . o   o     o                 o             o o   o   o   o o o         o                                 + . o o                               o 1 0 d d &   o                                                                     o   .   o o   o                                                                                                                                                             . ",
"g K G d 1                                   o o     o o o           @ o . .                                 . . X . . . . . . . . . . . . o     o   o   o           .   o o   o         .   .                 o                             o     o   . & d H c c f c f * o                                                               o o o . . . . . . . . X . o o o . . . o o . . . o . + . . X + X + . . . . . + . . . X O * 3 2 @ X O + $ @ # @ @ + .                                       o o                   . * e d c v f 0 + o o o     . o   o   o   o           o         o           o                                 o                           o   o o o @ @ * % i e                                             o   o   o   o X   o o o o               o o   o       . + 1 2 d s d +                                                                                     o     .   .   . o o o .                                                                                                                                     O * ",
"#.@.g f f % + + X . . + . X X . X . X . . . . . X . . . . O @ @ > H f e + 1 1 1 & & & & & % 1 & & $ 1 1 1 % 1 f v 1 2 2 1 % 1 @ 2 2 q d d d 1 * 1 * 1 1 1 1 1 1 1 1 1 2 1 q e q d q d 2 1 1 & % @ O O X . O O . @ O O O & % + + @ @ @ X . . . . . X $ 2 y b H G x G b c g 2 @ @ X . . . O X . O X O . X O X O O @ O . X O . . @ O O + * * @ % 2 2 3 2 1 1 1 * q x d w q 1 1 d w w G 2 * 2 d d s G q 2 f d d v e 1 d t f d d t e f f G e 2 c d x G G G G c c d 2 . o o o   o o o   . .     o o . . . . o . o . . . . . @ $ = q d f c G v d q 1 @ O . + . X O . X X X . . . . . . o . . . . X . X $ # O . . . . O X O O O . O @ O @ $ @ $ @ @ $ @ $ $ @ @ @ @ @ @ $ % % 1 * 1 * d a f 3 5 * X @ @ @ @ $ % % X         . $ @ X X o X . .   o     o o o         o o .   . .       o     o   . . . % 2 d d s s d * .                                                         o . @ @ % - = > 2 = 2 0 > 0 > 2 > 0 V 0 3 2 1 * 1 * - = * - $ $ X .   o o o o o o o o o . o   o o o o o         o o     o                                                       o @ 1 1 ",
"2./ ^ / H b M b c G b G H H H H K G J G G G H H g G b G G b b / $.G d G d G G G G G f G d G G G G G G G G G { G K #.G G J G G G / J G H g G G G J H G J H H G G H G J H H G H { ] ~ / / ~ A A c f x f f q q A H b ~ M v G H H G A c b v f p y e q q q p v v H ~ K G f G c f f f d f d d G h G G A b A b b c v v c g c f f b M c f G G G b G H H H d / G e d d G G G G J H / _ G G G d i G / H G 1.f b H Z b b v b } / b b H Z b H H / H H H ~ / ! H / 2.A b H / H b b f f c b b c c b x x x x f f f y d d q e e e e d e d f f f G G G G b c c d s f y f i f f f x b x x f f y q d f q q q q q d M ' c ~ b $ f x x x f f f v y M G b v M b b G b G b b b b v G f v x M M b M b y f p y q e d f d s s x G M v x q y y y b n v y q y e q 2 0 2 2 2 A g q q q q e p f e e c H e 5 q f i f e 2 2 2 q y c c G g g s x f d d e d d f d y 0 0 q q t d w e y t e e 3 0 t q w w w d d v f x G d x v v f d n c c G f c f v v b v b G c G H G b G b f d q w e d d e d s d y t e e q t d s y d y e d d w d d t e 2 3 w 2 e 2 1 1 1 1 1 1 1 1 1 0 1 1 1 1 w 1 w 1 1 1 1 w d d ",
"} _ _ _ / ! ! ~ H ! / ^ ~ _ _ _ _ @.@.1.} @.#.} #.{ @.$.| %.~ / G 3 G 3 G G d G G G G G G G ] ^ { { J { J { L J } %.G d G G G J G H G G d G G g G H H G / J G J J G G G H d / / / A ~ H C.~ ~ ~ / ~ H H G b ~ } _ } / _ ~ / ~ ! / ~ ~ C.M H H ~ / ~ H c v ~ ^ / G g G G G b G G G G x G G K G G H H ~ H ~ H H A G b G b c H ! ^ J H J G G G H H / G ] J G ! J H G J G G / H H J K G G G G / J ! { J H G H H H ~ ~ } / ! H G H M Z A H b ~ / H H H G J / H H / _ / ~ H ! H H H H M G G m M H G G G ! G R M G R M G M M v v c f b c G G G H b c v b G v v M v v G / ! ~ ~ ! H ~ M H / H G M M H M c H b b M p v / v v b b x M y { / m G ! ! M G M G n n x v v G m R M M v M v M b M M M ! G G G G G M m M M H m b N N x M M ! M R R G G G b b A v A ~ A H J b ~ ] ~ ~ f 3 J ~ H H c S J Z y f f f v v g G G G H H G G G G G v G G G v v v f x v v n c v l f s s f f G G g s G l t s x s d s d d w l c f d s v f v v v b G v v ! H ! M G b s v x x x v v v z f s s s s s s s y v v z x l n t x v x v G G G f v v G G G d d d d d G G f G G G l G s G x s d x f f d ",
"_ #.$.a.(. X X[._._. X[.{.{.{.[.{.oXoX XG._.~.^.{.}.>X-X Xy.$.^ G 3.D.D.`.G.D.D.G.).[.).1.F.T.D.D.,.D.y.1.$.y.1.#.u.3.g.1.d.D.u.1.)./.y.d.[.OXD.^.[._.^._.~.D.[.oXD.D.(.F.D.{.[.M./._.d.@.#.t.(.[.}.OX+X}.}..XOXOX}.}.[.[.}.oX X|.&X}.oX}.}.|.(.u._ ] ] c v ~ ! H G G H { g.G.F. X(.G.^.G.D.D.D.~.Z.b.^.F.~.~.F.a.F.n.D.m.f.i.) G R _ @.d.2.a.t.u.1.1.1.2.3.2.%.,.1.%.%.1.%.1.H #.} 1.1.1.%.a.r.3.r.1.*.1.%.@.-.2./ 1.#.} 2.&.>.=.@.&.&.{ =.r.%.1.#.} } ] %.r.r.r.f.a.u.r.=.=.9.1.i.=.1.=.i.s.9.9.6.-.=.$.*.*.0.9.o.R M c f f x x G K J ` ( =.2.r.y.0.p.i.s.a.$.$.&.&.@.$.o...` ( X...@.o.@._ ../ U C.c v A ~ H ! ! _ ^ _ _ ~ / @.{ G G H G R _ { @./ { ^ G ` _ ` ) ` o.o.@._ { ` ` ) ! ^ R ^ G ! ^ @._ o.$.) ..&.X.......&.@.-.=.@._ _ ;.......) o.` ../ ( =.6._ _ _ ~ ( / / %.( _ _ m y M b m v b c G / / { H / { ) ) X.( ! o.{ _ E ! o.E R _ _ R { { { { o.{ ) E x G R E R R E E E ..W X.E E o.+...X..._ { _ ^ { E ) r.$.{ X.^ &.&.{ E o.m.X.) ..) E X.o.X.X.) X.+.X.O.W +.1.7.7.q.W R n R { ^ ) X.X.W X.9.X.W 8.+.5.q.q.5.5.5.5.+.5.8.+.q.e.5.5.q.1.E k G f ",
"=.y.>XVXSXLXVXVXZXJXKXPXJXSXPXVXJXJXPXxXJXJXGXvXZXLXLXKXLX&X&.@.} u.D.D.+X8X`.G.{.OX>X4Xf.`.vXwXG.$.{.} 2.D.8X/.} D.u.{.D.D.oXD.F.8X;XN.f.8X;XOX{.D.}.7X<X0X}._.[.N.G.F.{.,X8X+X/.~.F.N.t.M.vXLXLXKXKXVXKXKXLXLXZXLXJXLXNX|.SXLXKXKXLXZXLXLXLXAX7XiX@.] H 0 v ! G _ / g.jXJXKXZXcXbXcXjXcXvXzXIX6XfXvXvXcXxXfX4X0XxXcX6XiXvXzXm.) { H t.+X).-XOXD.`. X;X{.[.qX X{.{.{..X).{.+Xg.}.+X;X,X<X.X6X4X-X;XoX/.[.[.m.>X XD.-X=.-X&X_ ~.i.a.~.N.i.N.D.m.D.d.r.2.=.2.a.-XZXiXoXF.M._.{.v./.g.a.N.b.b.M.D.M.b. X(.m.(./. XT.R.&XE R v p x G J } { =.6XJXJXNXjXvX:XdXkX4X(.I.hX|.~.>X[.$X-X(.>X X~.|.[.tX'.q.0.X._ } #.%.@.d.g.u.d.g.%./ a.r.r.%.} %.>.=.u.u.1.2.oXr.{ D.g.2.-._ @.%.@.a.u.=.=.2._ 1.#.*.1.$.{ =.#.6.=.@.o.-.&.......o.) b.).v.D.R.7.'.x.j.j.p.0.6.5...'.a.@.&.9.i.1.0.*.j.0.p.c.7XW.t v v G G H / } a.^.D.j.9.1.q.z.o.o.p.0.0.&.&.y.*.&.0.0.1.0.z.0.w.z.5.&X!.w.x.{ { $.o.&.{ +.9.q.1.O.+.1.9.q.j.+.z.0.o.p.'...1.]./.1.1.1.D.1.1.a.{ m.f.O.j.'.*.j.x.j.9.l.e.x.E.x.c.c.w.x.c.D.j.0.G *.b.b.a.R.].W.E.}.E.D.E.T.Q.W.T.E.E.W.].W.E.#Xq.iX3X&X2X3XrXlX'.l d ",
"1.hXKXoX1.z.{ @.1.M.^.D.F.(.v.u.D.D.D.D.{.a.f.f.^.D.[.PXJXHX&X_ L / { } { } >.#.#.1.1.1.$.d.D.f.D.1.G J J _ J { L G ] @.d.t.2.D.b.y.a.1.%.1.1.%.@.x 1.D.2.u.3.r.{ ~ a.c J @.{ ] } } #.%.b.xXJXAXPXzX:X).s.:XxX(.T.gXiXdX>X'.7XzXfX7X-X}.-X>X>X&XP.2XiX! M V q ! H G t.ZXLXIX8XD.2.D.D.v.g.D.D.D.#.b.Z.v.[.] r.@.u.1.1.D.a.s.s.~.9.G G G R } =.2.} { 1.2.2.=.u.r.%.1.1.d.t.u.@.1.1.1.1.2.y.u.u.s.1.1.y.1.-.-.=.$.@.{ _ { m...) o.! @.&.@.$.$.=.1.( R _ } @.t.fXKXOX} ~ =.M { _ @.r._ o.{ 1.1.@.@.{ _ =.} #.1.1./ E o.W.&X( n u c G { 1.@.cXLXxX_.F.a.$.u.~.a.} 2.2.^.2.M.{.%.oX<X#.a.b.%.-.r.gXzX3XL.l.&.H A b ~ / _ H _ #.v } r.A ~ H M _ } %.,.@.} } b x ~ b.} @.` m v / | 2.} } } #./ #.{ | } G G 3.%._ ^ M x x n n n C.] d.~.{.iX3Xl.` 0.5.o.....` ` ` ( ( / M { / ! =.! v R ( ^ R j.MXR.r v b H ~ A g.VX&X_ G z l G R G z G G G v G ) E ( ( E ) ) &._ R E _ ..=X%XE.O.s n v v v m m R m R R z z z G G z G z R z E E R ) x R { { } b 2.G H { R y k m m m R R E G G R z z m m m z z z G G b } 2.u.n.p./ ^ s v G k l G z G E G G G G z E G G k k k E 9 x.lX].l ",
"~.SX>X:Xa.^ @.@.1.%.1.2.a.b.a.t.a.1.t.2.2.{ $.f.^.(.u.8XZXLXLX2X+.o.} $.y.y.D.%.%.y.D.d.1.h.r.u.D.f.d.$.2.} 1./ _ G J D.] d.D.h.d.d.$.] 1.u.t.1.1.H D.1.1.1.1.1.%.%.1./ 1.1.1.1.%.2.3.F.xXDXZXZXSXZXF./.~.:XvX$X4X:X-X>X:X6XfXtX>X}.}.;X:X+X XN.I.L.pX].r ; * N H G 8XnXD. Xu.1.1.d.D.d.t.D.d.t.2.<X2.g.b.&.-.v _ G [.;X! >.b.P.E.X.R G M ! { %.1.{ 1.t.i.r.r.2.1.1.1.1.2.1.1.} 1.u.1.y.d.u.z.u.1.r.u.9.r.=.1.=.=.=.%.*.@._ -.-.@.=.a.y.=.-.9.r.{ { } %.B.fXKX-X@.~ &.-X_ ^ ! @.{ _ _ &.r.=.%.} ` ^ @.} 1.1.2.G x ) z *X'.7 * y G } H -XKXvX%.v.=._ _ M._.~ #.2.%.} %.h.b.2.t.u.~ b a.~ v @.%.~.lX3XQ.L.5.U b M M C.~ _ -.b ^.r.v ! H _ >.r.r.#.@.@.^ G g.3.#.J R M v v { %.} ~ } } J H H } 1.G G J 2.} ~ ~ M v M m m C.#.Z.XX[.6XNX'.( U +.X...&.r._ ! ! ! ! ! v / } M o._ ! ( R G G O.O.iX+.0 c v M b 0XLX1.x v X.) G m v x G m G M m ! ! ( ! ! ( G ( ( G G ( ! W =X=Xe.*.v v v G n G R E G m G z G G z G G G R R R G G x s l ! G H b c H / ^ R m m R G R R m G G R R G R G G z G m G G G { a.y.1.+.t / D.l l k G G k G G E G G G G G G G G G G k G G s k 0.1.",
"oX4X@.~.y.#.=.#.$.%.#.@.%.2.y.2.2.y.1.2.1.$.@.1.&Xf.$.y.&XVXLXLX2X+.{ / %.a.D.>.#.>.d.D.d.u.2.D.D.D.D.d.1.d.$._ } $.J G / D.f.d.f.u.y.1.2.g.g.1.} ] e G 1.#.} } #.1.#.1.1.%.%.#.2.=.F.xXZXAXZXDXLXvX/.b.M.>X6X4X-X-X|.[.[.{.OXoX}.oX-X;XOX).2.M y.#X#X Xt   X y G G IX6X).^.2.%.} 1.a.2.1.g.f.u.r.$.%.u.r.u.=.! o.~.D.^ ! s.Z.I.c.E.8.R Y M R { %.$.$.9.s.1.r.2.%.3.$.D.d.{ 1.@.2.t.y.2.a.u.u.=.=.r.t.y.s.r.=.=.r.=.=.$.&.@.*.@.@.@.=.a.2.@.$.$./ { 1.b.fXKX;X_ _ ! _ } ~ v ! _ ^ ~ / %.=.#.{ H G G ~ _ ' { { H x G E [.].- X 7 g G G 0XJXD.8X/.@.N.u.2.2.%.%.} / %.3.a.} H H | _ %.A w ! f.=._ z.xXrXU.W.7.Y b b A H ^ ! @.v.M H ~ / { @.#.#.@.{ / H H 2.~ H m b b x x M H H H H H b G H G g G c / J H G G M v M m A 4.).`./.qXcXk.` C.C.( M ! z.@.M M M R b b H H @.l v ! M m G G ! *.G c.w.; s s f v 7X7Xk l k *.) x z x x x x v v l n v m G G v v m m v s n G m E *XuXe.9.G v v s v m z x v z z z z z G z G G G G m z l l x n G G M c t t M G G R m m G n l x z m G z z v z k l v G v ^ 9.r.1.) G k G x k v l l l l k z G z k G k k k G k z k l s G z G l E ",
"T.M.%.=.1.%.$.%.1.%.1.%.=.=.u.u.r.y.t.t.u.a.t.1.H ^ v.9.i.8XHXLXHX3X*.{ J ' u.2.#.%.u.D.d.D.D.g.3.>.D.D.G.D.} 1.J J G G 1.d.a.f.D.h.g.1.1.d.2.J } 2.#.1.%.#.} 2.t.2.2.2.2.1.1.%.%._.VXCXAXZXZXGXcXiXoX/.-XtXdXtX7X-X-X}.|.{.[.^._.;X:X-X}.).a.{ d m &.o.r   o u G G wX4X^.D.a.%.{ ] } 1.1.u.a.a.r.=.s.u.r.r.t.r.a.b.! } r.r.v.b.^.$XW.7.E m G ! $.1.u.u.r.r.r.r.1.%.#.G G { %.1.1.a.g.f.a.u.r.2.2.r.i.y.=.r.2.r.9.r.r.9.&.@.#.#.=.1.r.9.2.$.@.} / 2.~.vXKX4X%.{ / ~ H M x m ^ ` ` ^ _ @.%.} ! H M G ~ %.2.@.] / n v ) 5.7.7 o ; w G G G.F.OXnXv.! -Xg.! } a.,./ ~ 2.r./ ^ ' %.} 2.g.f G -.=.H ^ } z.cXrXU.W.w.U b M ~ ^ _ ^ b M ~ / { @.} %.@._ / ! M H ~ M M M M m m b G G H M H H b b G H H H G ! G H H G b v N ` A.`.Z.Z.:XcXI.k...Y Y U n ! ~ v ~ U M b A U H _ v b M M M M G R R R n +...+ q e e v &X(.l l z G v v z x v x z v v v n x n v v n n x x l s l s f m z &XuXY.7.G v v l l k s m G z v z z z G z m m m v z l z l x ^ ( m x s d l m n m m R m z l v z z m z z z z l l v G G @.1.9.) m v k t s l z l s l l l l l G G k G k G G G k l G l l l G G { ",
"/.D.2.t.2.2.2.2.r.1.2.2.t.t.r.r.1.1.y.u.p.a.a.=.&.a.a.r.r.n.tXLXSXHXpXp.{ / } %.@.1.2.2.3.g.g.2.$.#.D.D.D.u.,.3.2.3.u.^.N.u.G.D.g.g.u.t.y.3.%.#.>.t.2.@.} %.%.t.u.u.3.t.2.2.%.t.,XDXZXAXCXDXbX6XqX;X3X4X8XtXdX7X4X-XoX-X{.-XoXoX:XOX-XOX.X X_._.t.d.;X..7   o 0 d x wX:XD.D.2.1.1.b.N.2.2.N.v.a.u.r.2.r.r.=.r.r.t.s.s.1.=.6.=.a.1X+Xj.#Xq.) Y M _ $.d.t.y.y.r.9.2.1.1.1.} $.1.r.a.f.v.g.t.r.y.r.y.s.s.r.$.-.2.r.t.V.r.9.=.@.@.=.*.=.%.#.&.@.o._ d._.zXKX-X} _ ~ / ! / ) ~ ;.` ! ! ` / { @._ / _ ^ / %.h.2.| } } H H A X.i.- o X e H v (.F.fXfX@.;._ @.@.t.%.#.%.#.#.} } %.%.} { %./ M _ ! ~ / } { %.r.iXpXQ.!.e.! G ! ~ ! A M ! / } ] _ ] _ / ~ ! M H ~ ~ M b n b M N C.C.H J ~ ~ H M A H ~ A ] H v f f c G m c { F.G.H. XzXZXP.=.B.! U m Y m M x =.{ v _ } G x x M ! _ ~ G ! G ! H ! R R 5.*.; 0 0 q d 0Xn.y z m n l v x G x G M n n x x x x x v l v m x d m x y l m M t ].rXU.x.R v x l s l v z z v m G k G G z G G k z x v z z m v x x z v m n m n v m G n k l z x G k k l l s G G G 1.r.p.W G v l s l G t k s s G s l v G G G k G G G G G G G l l k l l G E ",
"f.v.r.t.2.u.t.2.y.3.3.M.G.3.3.a.y.2.r.u.a.u.i.y.u.s.6.=.$.s.}.NXLXGXHXlXn.} / %.1.1.%.%.1.y.2.t.%.1.1.,.' %.1.D.g.d.N.3.1.2.d.D.u.1.2.y.t.1.2.1.2.%.%.,.%.=.2.1.1.1.1.1.1.1.h.fXGXCXCXZXDXAXqX).:X6X7X7X>X7XtX4X8X;X_.oXoX`.D.(.oX}.oX}.OX`._.{.[.:X4X+.7     7 x d 0XoXv.D.t.1.D. XF.a.1.v.^.h.u.u.r.V.-.=.=.-.=.9.-.=.=.r.$.=.f.j.}./.c.x.X.E G { %.#.9.r.r.r.1.1.y.r.1.1.1.1.u.u.u.t.1.1.2.r.s.s.r.r.=.&.-.=.V.r.V.>.=.#.@.&.$.$.&._ } ] } d.OXnXKX:Xr.! G ~ H G ^ .._ A ` _ H ! ` { } _ } 1.%.#.} _ %.%.} #.%.} } @.O.7   . q b f -XfXg./ H A @.%.r.u.} %.,.%.#.#.#.@.' ^ / ~ ! ! ` / } _ } ' )._.{ iXpXW.%XL.X.~ _ ! ~ / / / / / / ~ ` ^ ^ ~ ! ^ / ^ ! A H ~ A ! ^ ~ _ H t.! A H H ~ C.A ] J f f v c v M 2.G.H. X|.bXlXI.5.` ! M U M m m T m n m U _ _ b v H / ! _ { ` H ! ~ H H ! R X.R & 2 0 8 d -X{ l n n x z x v G G G G M U n z x x x x v m m v n v l y s x m v z #XaX!.E._ m n n n z G z G z z G G G G T G G v G v m G m v v m m m G m G G m G m m m v x z x v v l z G G } +.D.f.W k z z l k l l k s k k G k G l k k k G G G G E G G G G k s l G z G ",
"y.i.s.6.r.u.t.3.2.b.:XzXcX/.2.u.2.y.u.u.y.1.2.a.s.s.V.-.&.r.D.8XcXLXLXLXlXM.1.1.f.d.g.D.D.F.F.F.D.D.D.D.D.D.D.G. X).)._.).).(.G.`.`.[._.^.).G.^.F.~.UX~.F.F.G.T.D.D.G.D.y.^.bXJXZXZXDXZX6X-X.X;X:X6X7X4X4X4X6X4X;XoX).G.G.N.(.oX[.[.}.{.`.{.{.+XOX}.p.X.7   o 7 d G +X X^.f.1.d.v.v.f.v.oX:X XD.a.r.r.2.-.%.@.%.=.=.=.1.=.r.-.=.D.8X3Xg.n.].w.X.R R { $.$.@.$.-.{ 1.$.@.@.@.| $.%.%.-.%.=.=.&.$.$.$.$.$.&.&.&.&.-.&.#.o.@.@.;.;.@.@.@.} ;.] d.-XnXKX.X&./ ! M M G H ! / ! ! / ../ ~ @.} / _ t.b.)./.f._ } %.@.} } %.-.! &.7   X q b x G.&.x H @.=.u.3.h.2.D.[.y.%.} #.@.} } / ^ ^ ! ! / _ / _ _ / 3.%.M o.iXpX!.#XQ.o._ ] ] ] _ _ ] _ } ] ] ] @._ _ @.%.} _ / / #.;.#.;.} } #.#.} } ] } ] / ~ ] J H H ^ ! } ,.Z.H.(.}.FXkX].6.! *.) ) ! k n n n n R Y R C.U R ! ^ _ @.i.y.*.E G M H M R M R R ; e 2 1 f %.n z x x x v v G / $.y.9.O.! ! v x l B s v v m m m n l y y s x l v k ].aX!.].o.G H G G G G G R G G G R R G E R ^ G R E _ _ ^ E R / R R E ( ! E E R E ( E ^ G E G G G G G o.a.D.0.+.G G v z l l G k l s k s t k s k y k G *.1.D.w.5.G G x l l s s s z G ",
"p.u.r.=.r.r.u.u.u.fXZXGXGXdX2.%.t.y.a.f.f.a.f.a.B.v.a.s.=.$.y.M.oXkXFXHXHXlX[.8XbXbXnXNXnXAXZXZXZXZXAXAXAXAXAXCXAXVXVXNXnXVXVXCXGXSXCXZXCXCXCXCXCXCXCXZXVXbXZXCXAXAXAXNXcXSXGXFXDXDXDXvX-X,X,X4X6XtX6X3X7XtX4X:X;X{.G.G.N.[.CXNXiX>Xz.~._.[.oX:X-X}.7.) 7   o 7 d G &Xg.^.1.f.N.g.g.N.gXLXbXlX].=.r.=.=.=.@.} @.$.=.r.y.r.>.} @.1.$.1.1.3.y.'.*.) R $.y.1.1.9.=.$.1.1.$.1.$.$.1.@.@.&.@.@.@.$.@.@.@.$.@.#.-.-.%.&.&.-.&.&.&.-.-.@.@.$.$.#.d.{.VXKX[.&._ ~ v c M v A ! M ! / / @.#.} #.^ / %.g.dXbX Xm.].1.#.#.%.} _ u./ ..7   X 2 b v N._ Z.}.2.r.t.v.u.-XcX$XP.m._ } #.#./ _ _ R ~ / / ^ ^ _ _ _ M M ! M ) hXpXQ.=XL._ / _ _ _ ^ _ } _ { _ @...@.%.} _ } ` ....o.o.` ..` _ &.&.$.#.*.o.@.] ;.;.$.%.@.1.%.1.y.M.(.&XZXhX) x...Y U M n n j z n m n m m m M U ) ' a.].x.&XlXT.) ! G b m M m m z $ d 2 1 d }.@.s z x l n v ! r.6X2XL.2X(.( ! x x x s z m G M x x x l y y y l v b z #XaXQ.R.*._ ( _ ) { ..X.X.{ { W +.+.+.W +.+.1.+.9.1.5.1.*.&.*.O.&.+.&.&.{ o.$.o.@.&.o.@.+.o.o.&.1.1.O.D.{ G G k v v l l l s k k t k s s s s k G u.`.vX&X!.MXD.G G k G z l k G k ",
"a.p.s.u.i.1.1.=.d.vXSXcXT.j.#.~ 2.u.a.a.y.a.N.m.I.n.B.B.B.6.-.s.m.M.|.CXHXGXNXGXGXGXGXSXFXSXSXSXSXSXSXSXSXSXSXSXSXFXZXCXCXNXSXgX-XLXFXGXSXSXFXSXDXDXDXDXDXDXDXDXGXFXGXSXGXGXFXSXDXDXAXxXvXgXfXgX7XtXqX7XtXtX,X}.-X[.G.G.d.tXcX&X].].r.{ ~.`.:X4X,X}.k...7     = d H 2./ N.2.D.f.v.1.{.ZXmX&XW.p.b &.=.r.r.9.=.%.-.1.i.9.r.r.=.r.=.@.%.2.9.2.f.T.p.1.y.0.y.j.a.a.a.a.p.f.f.a.1.p.p.i.t.i.s.9.r.s.6.r.6.r.s.r.6.6.5.-.6.6.6.6.6.9.r.i.9.r.i./.ZXLX/.*.} ~ A M ! M b ! H ! ~ ~ _ >.| | ~ ~ _ #.:XgXx.q.w.(.*.{ %.%.] %.%.C...7   o 2 v d /.:Xa.a.} @.>.d./.xXI.8.X...~ M ] } _ ^ ^ ! H } _ ! { _ _ / ! M M H H ( hXpX!.E.5.+.9.7.9.9.5.9.0.7.9.6.6.6.p.&.+.6.0.0.q.0.7.7.q.8.7.w.q.0.7.q.+.( z.5.6.1.*.=.*.=.y.n.(.&XLX6XE m Y U U m z k z n n n m Y U U Y Y ( ^ ,.jXf.W W &X2X( ( ! G M m ! } l X 2 2 1 d oX{ d n n n b U _ wXbXT.8.e.&XE C.U n n n m N Y n x x z j k y j z v x G l ].rXQ.W.5.*.9.1.5.7.5.q.5.8.5.1.q.5.q.5.+.w.D.e.c.c.l.x.c.e.c.L.E.e.E.x.D.e.E.E.Q.c.Q.W.Q.].R.R.9.y.&.G d k G k l l l l s t t t t t k k s s G 3.eX-XE W W.].k G l G l k G l G ",
"O.p.s.i.r.2.2.=./ F.oX9.R G v K 2.2.i.y.a.z.n.D.UXUXZ.I.n.B.s.V.p.m.T.|.hXFXFXGXFXSXSXFXSXFXSXFXFXSXFXSXSXSXGXCXCXCXCXCXNXNXSX_.4XLXZXZXFXZXSXFXDXDXFXDXDXDXFXZXZXFXZXFXFXSXGXSXDXCXAXVXxXcXzXdXqXdXtX7XiXtX:X-XoX).D.4.3./.'.&.G o.{ f v.).:X5X4X$Xk.X.7     - e G v.1.f.b.v.a.#./ a.7X$X*.E n y ~ =.s.u.s.s.2.r.a.u.y.s.i.u.s.2.1.%.} %.t.s.f.7XfX6XhXiXjXzXzXbXxXbXcXoX>XcX0XgXVXzXxXzXxXzXcXgXzXgXhX7XgX4X4X>XhXzX:X:X:X:X4X-XhXhXhXgXAXzXN.@._ H ! ! M b b ~ H ! ! ! ! ] ] ] #._ ` / ] [. XO.q.7.R w b %.%.#.#.~ U &.7   X 2 c d OXv.~._ H ] #.] ;X3Xw.&.T f f p _ } _ ^ _ } _ / ! ` / / / ~ G G A b v i.N.iXiXe.l.L.L.L.c.x.L.l.l.j.c.j.j.0.j.q.7.j.L.c.w.l.j.l.w.l.Y.w.w.w.e.w.w.+.I.i.j.9.9.0.0.i.j.R.3XKXhX8.U M Y R E U m z j j n n T U ( U U U ( ~ :.,X&.Y X.9.5.n C.R M M M M v.~ o 0 0 * f b.G z n n m M M 3.qXOXp.W E E y M m N N n N x n x z j x j y x x s s s x G k E.aXW.w.l.L.E.q.D.x.e.q.D.W.E.E.T.R.D.D.e.E.E.Q.W.!.e.Q.%X!.Q.#X!.#X!.!.!.!.!.!.e.Q.%XrX#X=XaXc.E s k k G k l l l l s k t w t t t t w G G G L D.G G s { 1.G l s k k s l k z ",
"( =.(.k.s.r.r.#.b ' #.{ G f e H r.u.a.a.v.v.N.T.(.(.UXR.(.I.B.V.f.m.(.T.}.NXJXGXSXGXFXSXSXGXGXSXSXSXGXGXGXCX0XFXSXZXCXZXzX&XNX).DXFXZXFXGXGXSXHXLXDXDXCXFXDXFXDXFXZXFXGXSXGXSXFXDXCXAXVXVXxXzXhXgXhXtXdXqXtX4X4X;X XG.4.| { #._ G b b e g.oX4X0X5X>XB.X.7     = w c cXb.1.d.2.2.{ H H 1._ G M l = v #.V.u.u.u.i.u.f.f.a.a.s.r.%.=.1.%.@.$.%.2.u.oX6X8X}.).fXNX5XoXoXOX X1.a.;X[.(.<X^.Z.I.Z.~.M.~./.).~.u.a.I.).^. XUXa.I.n.~.~.N.}.b.v.b.N.@._ _ ~ ~ b N M M ! ! H ~ ! _ _ ] #.#./ / / / ~ a.t.! U R y = d / 1.>.] ~ ` i.7   o 0 f s 8X~.a./ _ ] ;.;.t.M.V.` p g 3 q ! / @./ ! { { / / / ` ) / G G M H b ! [.@.{ iX'.L.W.W.W.W.L.E.].E.E.E.P.'.L.L.c.I.L.L.U.x.L.Y.l.U.I.].#XL.w.w.Y.L.L.].x.L.c.c.c.x.x.L.pXKXvX0.j.E m U ( ` R n z x n m Y U ( ( U U U ( ~ Z  .] b ! R z j U ! M M M H ! z ; q 2 % c D.G G m m n b M J h.3.! v v 9 1 l n Y n l x x j j x y j y l l l s y t w z x t 9.5.+.o.5.O.q.w.j.1.O.9.R.9.0.z.*.Q 5.q.e.c.9.w.z.j.q.W.E.w.e.w.x.w.q.w.D.E.D.8.D.R.].W.R. X+.s x k G G 8 t l z l s s k w k k t 9 k k G l 6 G G d d G G 9 G t k s k l l z ",
"G ) M.p.s.u.s.=.H 3 g d 0 3 2 } r.u.v.v.z.n.M.M.UX(.UX/.^.UXZ.n.b.M.~.R.P.>XCXGXSXCXZXCXZXZXCXZXCXAXCXCXAXCXcXxXcXZXZXPXcXjXbXcXVXCXCXCXiXcXCXvXhXmXLXLXLXDXDXGXGXGXGXFXSXJXHXZXCXCXCXAXVXxXzXkXdXiXdXhXtXtX4X3X+X}.G.h.:.H b f e d e f ^.;X6XqXdX:Xn.+.7     - d v OX%.1.1.2.1.{ { d G v x f 4 @ M &.V.s.k.u.a.a.f.n.z.f.a.y.=.2.=.=.%.@.@.=.a.v.M.1.@.u.v.^.1.a.y.2.D.D.a.p.p.i.r.=.@.=.=.#.=.>.g.=.&.-._ -.=.@.! _ -.` ] .._ @.B.) ;.` ` ] _ ! U ! M C.! ! ` ( ! ! ` _ ` ^ &.! _ / ~ ~ H b ~ c y 3 * % f H } @._ t.=.o.7   o q s v `.d.r._ _ / -.V.Z g S a a 5 * x ^ / / _ _ / ` _ ` / / _ / ! G H M U ] } | H #.D.D.m.T.z.a.z.M.tX$X'.$X'.].R.'.L.>X'.&X$XI.i.i.l.I.kX].'.x.j.9.w.w.(.&Xk.9.T.&Xm. X$X(.7XZX2Xl.&.U Y U Y ( R m m m Y U ( ( ( U ( U U ! A x i i f y q * r ! ( U m U v y y $ 2 1 & x F.! G G M m m m v c g 5 2 2 @ & x l n x B B j x B z y y l y l s k y t t d s x d j l x l s G f G y s G t 5.E w k k k G G G m v z z l x l l k l l x x z x z k G l s s l k t l k s w G 9 w z s l l k k s k k d k G G k s w > * d w 1 1 + t z t t s s s k G ",
"T.[.&.a.z.a.i.r.@.i # @ O @ Z =.r.B.B.B.Z.B.UXUXM.M.UXUX/.'.[.'.(.R.(.n.iX;X{ 2.1.#.#.%.1.$.1.$.{ / @.$.$.#.{ _ / { 1.$.{ @.1.1.*.=.r.=.^ $.1.^ { 1.D.y.D.{ r.y.1.y.y.a.p.D.pXSXCXCXCXVXVXxXgXhXhXiXdXtX9XtX:X4XtX-X`.Z.A.[ 3 V 3 V V -.-X4XdXfXgX9XB.;.7     = t / u.$.d.y.p.%.f.=.f 2 4 > @ . 0 ! %.=.u.a.s.a.k.a.a.a.i.s.a.s.=.r.=.%.-.1.=.2.r.r.2.%.=.@.&.=.>.r.V.v.i.u.u.r.=.@.-.@.&.-.-.=.&.=.@.~ ^ _ _ ;._ _ _ / ` _ / _ ^ C.;._ _ _ _ A C.` ! ! ! ! ! ` ! ^ ^ / _ ! ! ) _ ;.! ~ ! M c f 3 * @ O q ~ / @.@.~ %.@.=.*   . 0 v s N.@.$.$._ ` _ ` b 3 : 4 , # 2 M ~ / ^ / { 1.} ! ^ ~ ^ ~ H ~ ! ! / $.! ! _ ^ { 2.! 2.1.c b H ,.~ ~ y ~ ] ] } | %.} =.d._ A ! ~ ` ~ -.~ C.~ ~ / H H M v v x b b x v C.@._ j.(.7.E Y N T U C.( E U U ( M ..( R ( Y U U ! A c V : > % O - b ! ` ! m H } %.m X 3 1 % x M.! U ! C.U N Y N e : # # @ @ q x x x B j l B j j j j y y j j B j y t y p y u y s s x x l z m y t s l l ^ +.k G k k G G G z m n z n l y y k k l l l m z z v l l l k l z G k w t k d G k G s l l l l k y y d s n m l k k 1 @ + @ .   - l l k t k s k l G ",
"0.M.6.p.a.s.u.r.>.] f 4 3 H 2.2.s.s.P.UXUXUXUXUXM.I.R./.[.|.|.].|.].].M.[.] f 2 2 1 1 1 1 3 2 2 e 3 2 d e t d d e e q e w w d q y e e 3 d w d d G d d 3 2 3 3 2 d d d d d G p.2XCXZXCXNXxXcXhXdXhXhX6XtXtXtXtX4X7X.X^.G.A.3.-.Z u c A.[.,X6XdXgXcX6Xk.O.7     - d G / @.u.f.} 2.[.^ %.H 1 * > x ! ] %.1.s.u.a.k.N.k.a.a.u.u.v.a.u.s.=.=.2.=.%.=.-.%.=.%.%.@.#.%.&.-.r.=.-.r.r.@...@.@.;.;.@.#.#.%.&.] ~ ^ ! _ ] ] ! ! ^ ( _ ` ] _ ] _ _ ../ ` C.! / M R ! ! b M M ! C.` / _ _ / ` ! ! ~ H ~ ~ b e > , f ! G ( @.@.] M M *.=   o 1 c d +XD.D.f.{ ^ ! _ ~ b e 3 2 e v G ! ` _ } @.} } / ^ ! ! M ! ! H ! _ / G ~ ! / / b M ! H b ! M } J J b H J A J ~ | J ,.] p c Z c Z ~ J S S ' ' J b Z b Z g b A Z g g g a e p C.` W W U Y Y ( ;.X.U m M C.) b M R C.U ! ` M c y > % % 0 b ( ( ! ( E ! } o.l X 0 1 @ v F.M M C.U U n N N B u % # & w x x l l B B l B l j l B j j y y j j j B y t u y u t y l z l s z s t k s k v s k k l k k l z k l k y k k k y k l k l k k v v n k s t y y y k w t k G k k k k z v z l k y y k z z z z z s y d 1 @ . X 1 s k s s t s k G z G ",
"! i.k.B.k.s.1.s.2.>.,.#.2.2.2.t.s.B.B.n.UXUXM.n.I.UXUX'.|.$X>X&X>X-X>XR.G 3 5 4 4 4 1 4 4 2 3 3 3 1 2 2 2 2 2 2 d e 3 e e 3 2 3 2 2 2 2 3 d 3 3 4 3 q 0 2 d 2 : 1 : : : 3 d G 1.].NXZXbXbXvXiXtXhXiXiXdXtX>X:XtX4X,X.X^.Z.{.~.h.n.[.:X>X6XdXfX.XdX6XL.;.-     = e v g./ %.$.! 1.1.=.1.=.} _ ] @.@.@.%.r.r.u.v.N.k.a.v.v.v.v.v.a.a.a.2.=.1.%.=.-.$.%.$.@.%.@.@.&.-.;.@.@.-.#.@.;.@.] @.@.@.@.@.@.#._ ! ^ ` ( ` ^ U N N C.( / _ ;._ ) _ ] _ _ ` ^ ) ! M ! / ! C.! ! C.! _ / ) ` ! ~ U / _ / ~ H ~ ~ H ! ~ H M ! / o.@.$.! Y -   o 1 c e 8X{.9.p.{ M _ @.@.~ M M b v M ! ~ ! ^ @.%./ ! ^ ! ! H M ! ! ! ! R G ! ! ! ~ ! M M c c v v x b / M v x x l s x b ' Z H x x x x c N N b Z S K Z g x g A f x c p i i i e a g c N ` X.W W W E ` ` Y Y M M N M M ! ` ~ C.M M M B p B x M ( ( ! ( ( R E x m m X 2 1 X H ^._ ( U U N z n n x n B y y x z n l B j j j j l l x n l y t y j B l B j t 0 r t y y s l x l l s t k k s v m k k G k G k x l k t k y s y k s s k y k 9 k l l k k k s k s k G k d w w G G z z z n n z l l l z m m v z k y k w w 8 t l k s k k y k l l G k ",
"X.6.u.z.s.1.r.s.r.s.=.s.r.u.r.r.s.B.n.P.P.UXP.B.UX'.UX/.].|.>X>X&X$XM.H 3 4 4 1 % 1 % * 1 : * 1 : 1 # # # 1 : : 2 2 2 2 3 3 2 * * 1 * * d G @ * 1 & * : d : @ < # # # % 1 1 3 G { R.CXVXlX6X6X7XdXiX6XtX4XtXtXtXtX4X7X,X:X-X).).:X-X{.:XdXdXdX:X6X7XB.;.-   o - d G 1.1.3.! %.2.1.2.r.2.r.=.-.#.%.=.2.s.i.a.a.a.a.v.M.N.n.M.n.a.v.a.r.=.=.=.%.-.-.$.} @.%.&.] #.>.*.;.#.=.*.` _ @.@.@.;.;.@.-.@.@.! ~ ^ / / ! U M N N ! ` _ @.;.;.@.@._ ] ` ` _ ~ ! ! / ( ! ! ( ` _ ) / ` ! ! ~ M ~ ] =._ ~ _ H C.~ ! ~ G ! ! H ! @.-.U ( =   X 1 d d F.f.1.9.$.@..._ ] _ / / H M ~ ! ! ! _ @.} { ^ ( ^ ! ! H ! ! M ! M ! G R G M m v v m v M v v v x v x v x y y x v v y x x v B N B B B B y B x f f x p _ f q q q 0 q q y p a Z Z Y ( 8.0.W Y E E E E Y U Y U M M ~ / ^ A U M N n b ! ! ` ) ( _ ( ! G m R Y X 3 2 $ f u.] C.C.U N x x N N n N z n x v N n l B j j j n x n n n z j y j j l l y y u u t t s l l l l s y y k t t l z G l k G k G k y y k k l k z l k y d y t w 9 k y s k k t k s k k d k k G k z x n n n n n z l z n z l z l l l s k k k l l l k k s s s G k G l ",
"..t.r.r.r.r.s.i.s.i.9.u.g.a.f.a.s.B.M.UXM.L.B.M.~.(.UX(.'./.[.].>XT.b 4 4 : * % 1 1 1 3 3 3 e d d e i e e e e e 3 d d f d g G d i i f f G d 3 1 w d 4 G G d 4 3 3 2 3 d 5 1 < 3 H _ D.NXcXhXhX7XhXhX6XtXtXhXdXtXdX6XtXtX9X-XOX,XdX7X7X6XgX6XdXgXdX<Xs.;.- o   - d v {.}.{ #.r.r.=.1.a.g.r.1.=.=.=.r.r.t.a.a.k.a.a.v.v.M.M.b.v.a.g.t.u.r.=.=.=.=.=.=.-.=.#.&.#.&.#.;.@.&.-.&._ _ ;.;._ &.@.@.@.@.;./ ` / ` / ! b N N M ( ` _ @.@.@.@._ _ ..;._ ` ! C.( ~ ( C.! ! ` / _ _ ^ ! ! ! A / #.A b %.] H ! / ` ` ! ! ( / ..&...M ( =   o = s q _.u.$.9.$.) ! M ! @.! / _ _ G ! G ! / _ ) ` _ ( ! ^ G H H ~ ! ! M R G ! M b m m x n v v v v x x m x v v x x x x y y y x n j B n B B B j B y y y q _ M p x B t u u y y e e p C Z C.X.W X.W W E R R U U n U ! b R A ~ ! b v M ~ ! ! H G ! ( _ E G ! G m z + 1 1 @ f UX/ C.C.N Y B x T A N N m b n z x n n l l l l x x N n n x j y j y z l s y t 0 y y l l l x j x j t t t k z z z z t k G k k t t k l l z k l k y z k t k t w k t k t s k k G w w k w k k G l z z m z l z z z n z l z z l z l k k G k z G s k s k s t k G l ",
"^ 2.t.=.r.s.u.i.s.u.u.a.v.y.a.z.s.B.UXM.M.UXB.P.UXUXI.(.R.(.P.'.(.A 4 , 1 # & 2 d v G v G G G G M M G H J H ~ ! G G G H H ^ H H H G J H / ] G G G G G G G J G G H G f e e 1 * 2 4 G ^ W.CXNXhX6XiXiXtX4XtX4XtXdXtX7X6X9X4X<X:X4XdXhXhXtX6XgXdXdXdX6XL...-     - w H / c v y.1.u.a.g.g.a.r.>.2.=.>.r.u.u.B.a.s.p.z.N.m.T.M.N.v.a.a.s.r.=.r.-.-.r.=.=.-.-.-.$.%.@.) _ ;._ #.;._ _ / @.@.@.#.@.@.@...` ` ) ^ ( C.N b A ` ! ` ] ;...@._ ` ` / ! / ` ! ` ~ ! ! C.! ! / _ _ ) ` ~ U A ! _ / ! / ~ ~ M ! / ) _ ! ! ` ) _ _ _ ( U =   . = d d _.z.=.=.@.! M ! ! ^ ! ~ ! _ G G G ^ / / ` ^ ! ! G G H H G / ! M R G ! ! G M M n n x v v n m x x v v m M v x m n z x x n n n x n n z l x l y y x y ! y y s y y 0 y j y p e q i a c ` X.8.X.E R Y m Y Y M ^ / ! ! ! M l M ! / _ M M R R ! ( R E R R G m G + 2 1 + x N.C.U C.U N n x l N U x m n n n x n n n n n N N N n N l l y k B y y y y s s y y l z z z y j z y w y s s v G m l G k t t t t t y l l z l l s k l t t t t 9 w 9 w t y s s k k w 9 w w k k l k l l l k s s x z z n v z z l k G G G k G l l l s s k t t z l ",
";.A @.>.=.r.u.u.r.i.y.y.a.k.a.v.B.P.UXn.M.UXZ.B.I.M.UXUXUXR./.i.b 3 4 4 @ # 2 v H / { _ / ] G H _ _ _ _ _ _ &.} H ! ! H { { { %.{ H #./ G K G H J } G J { J L { ] ] G b G 3 = % 4 h H 1.8XzXiXiXtX4X2XrX2XtX4X4X6XdXfX9X6X7XtX4XdXhXhX6X:X:XdX9XdX:Xn.-.-     7 y ( t.~ %.%.%.t.g.a.r.y.r.r.>.=.r.s.u.g.v.s.u.N.n.D.T.D.n.v.g.a.i.=.-.-.=.>.r.V.=.-.#.-.-.#.#...@.#.V.] @.;._ ` _ ;.;.#.-.#.@.;._ / / _ ^ ! C.m U / _ ~ ^ _ ;._ ] ] _ ! _ ! ! ! ! ! ! ` C.C.~ / ) ` ) / ( ! M M @.^ M ! / _ ^ R ! ` / _ ( ! ) @._ ! ` ` C.-   . 1 e e {.a.=.=._ ! M ! / A b v y ( R G G ! _ ! ` ^ ! ! R M H H G ! ! R H G ^ ! G M M b n n v b v m b m v m M G M M M b M v m M n n n N n N x x B j x v x b x j l l s y y y j B y u e B C A ` 8.U Y R R R R m / _ ~ R b _ _ ! R / H / C.! U ( ( ! E R E R G z z ; 2 = + v _.` C.U U U Y N x n Y U x x n x x n m N n N N N N N n l l y l z k y y y y y s y x n n n x l y q 9 w y z v v z l G t k t s y y k y k s s k z k s t t k t k w 9 t t t k s d w 9 t w w t k l k l l k l l l l l l n v m m z G G k z z G k k s s s k k k l l ",
"! ] =.r.i.s.u.k.i.i.i.s.i.a.k.k.B.Z.n.P.M.M.M.P.n.P.P.M.x.I.(.A 5 5 4 @ @ 2 v H / @.{ { @.%.{ { { @.@.#.o.$.-.=./ _ / %.{ $.} / } ~ ] 1.D.G G #.%.} { $.{ / { { #.@.' / / G d 4 1 d h J 1.&XcXiX2X$X2X&X,XtX6XtXdXgXhXdXdX6X4XtXdXhXgX9X7X}.4XdX4X:XB.;.-   o 7 q d f.^ / 1.a.1.u.r.2.=.2.2.r.t.u.s.u.s.r.t.v.n.M.M.N.M.m.v.s.=.r.>.r.r.=.6.=.V.-.=.%.&.@.#.@._ &.=.@.@.;._ ` _ o._ ;.&.@.o.;.] @._ _ / ~ ! ~ M _ .._ / ` ) ] _ _ _ ^ ! ` ~ ( ! ! ! ! ! ! ` ! ( / ` ` ! ^ ! M ~ / ^ ~ ! ! ! ! / ` ! ! ( ! ` ) ) ) / ..*.( -   X 1 e f ~.} o.@.^ U ! ( ! M U R ! ! ^ _ R ! R R _ _ ` ! ! / ! G ! G H R G R ! R R M M b m M R M M M ! G G G H ! R C.U M ! b ! ! n N n n x N Y N z j U ! A v x x l x l l y p B y B c y u a F Z ~ X.W R E E E ( ! ~ ! M ! ! / H M ! ~ / _ ! C.( ! ! R m G G m z z X = * + f M.C.C.C.x x B U N x N N n n n j n m n n x n U U N T N x l z x x j l s l s k l x x n n n x x j j w w k v k z l z k k G t k s k l t y k y f z z k t s y k k w t t k t t k k k k t t t t w t y s k l y l l k k l l z z m m k l l l z l k l l k s k d k G x ",
"} } %.2.2.2.a.z.v.g.v.f.a.a.k.k.B.N.I.N.M.I.UXP.n.z.z.P.p.*.Z 4 5 4 @ @ 2 v H _ @.@.} $.=.#.$.$.#.@.#.-.@.@.&.] _ } } @.=.$.r.t.{ 1./ G / / } %.>.%.2.%.} %.%.>.=.#.} ~ / / H e = , a p Z ;.&XzX2X-X%X-X-X2X7XdXdXhXdXgXdX9XtXqX:XdXhXdX,X,X7X:X:X.Xk.&.;   o = 3 x [.@.y.2.2.2.s.r.1.=.&.%.>.r.r.u.u.d.f.a.v.N.b.m.b.v.k.v.g.i.s.r.1.1.=.r.r.r.r.=.%.} &.@.@.} #.-.&.&.] ] / ) ;._ ;.*.@.@._ / _ _ ] _ ! ( ! ~ _ ] / _ _ ` / / ^ ] / ` ! ! ! ~ C.! ! ! ! ^ ^ ` / / ` ( ! ! M M A ~ ~ ! _ ~ v ] 6.C.^ ! _ ;.o._ ` ;.@.X.( =   X 1 d d  Xr._ @._ ! ! / ` G G ! ! ! _ ! ( ! G R _ ^ ^ ! ! _ ^ ! ( H G G G G M M G M M M v b U G R ! ! ! R R ! ! ! C.M ! b U 9.M M Y N x x N T n n x s M v l x l x x x j y x z x x B B p q F C C ` 8.X.E R Y E U ` ! U ` ! M m M / } ~ b U ! ( ! ! U m n M m z G X = % + x M.! G M n n n n x n N n n n x x N N U n n T N C.N N N N m m m z s l z y k s l l z m m m n j B n k y l z k G k G t k k G y t k w t k s k k k l s k y y y y y k y k s k k s k t t k k t 9 t 9 k s s k k l k s s l l v z v m z z v z l l l l G k s l G s l ",
"! } 2.=.%.1.t.a.v.a.a.z.z.a.k.B.B.n.n.UXM.n.M.M.M.a.7.*.9.b 5 4 # % @ 0 v ~ _ @.@.1.%.*.$.@.@.=.=.&.&.#.;.;._ ] } _ { } #./ @.2.{ { J v H %.2.1.%.} G G | 1.%.>.%.#.] ] } _ } H A q 3 3 a N ` $X%X%X2X%X&XtXhXhXgXkXhXgXhXhXiXdX2XdXhXtX:XdXxX|.[..XV.) $   o 1 u M T.~ r.a.M.a.s.2.2.%.%.%.1.2.2.u.u.s.s.f.v.N.b.N.z.r.r.u.B.k.s.6.2.2.%.-.r.2.=.1.=.=.%.@.%.=.&.@.#.@.@._ / ;._ ] @.@.@.@._ / ^ ~ ^ _ _ / / @.;.@.&.] ] ] / _ @.] _ ! ! ! C.M ! ! ! M ` ! ^ ! ( ! ! / ` ^ _ H ! M / #.~ / ^ n C./ ! ^ / @.$.&...X.@.` m =   X 2 e e 8Xv./ @.( ! / / ! ! ! ^ ! _ ! ^ / ^ R ! ! ! ! ! ! ! ^ ! ! ! R G G ! G M G M ! R m b M M ! ! ! ! G ! ! ! ! M M ! U ` ! M M N N N N N x x x l l m n x l x x n x x z x x v n T B B q V a S A ! X.W E W ) ( R R Y U U M U R R ! ! n m U ( U U m n m m G G n o = * + x M.b m M N n x n n m U N x n n n x Y N N N N A T U Y N Y m m n x s y y y y s s s l l m m n j l j l l l x G k d k G k t G k l y y t t t t s t k s s l z k k y y k d k s t t t t k 9 w w w t t y k k s k s s y k k z z v z z v l l l l x v s k s f x x G z ",
"%.r.v { 1.1.t.f.z.z.a.p.k.k.B.k.N.P.n.n.M.M.P.Z.I.m.0.@.f 4 2 @ @ @ 0 v H ^ _ @.@.$.$.#.@.} @.&.@.] @.@.&.} @.} { _ { / ^ { } _ { / / _ %.1.%.%.1.} J %.1.2.1.%.%.@.} @.%.@./ ! C.C.u , 3 a g C.B.%X2X3X7XhXgXzXzXdXjXgXgXkXhXhX4XgXhX|.>XdXgX:XM.). XC.$   o 1 0 s ~.=.2 %.~.a.u.r.=.%.%.2.=.=.=.=.=.=.r.s.u.u.a.a.=.} -.i.u.v.s.r.=.=.-.r.=.=.-.$.=.1.&.#.@.&.@.] &._ _ ] ;.;._ ;.@.@.] _ _ ~ H H ! _ _ _ @.@.&.] ] ;.o.} ` / _ ~ / ! ! M M C.! ! ! / ! ! ~ ^ ` _ ) ) ! ! ! ! U ! ^ ~ ^ _ A M M U ! ! / o.@.@.o.;.UXM.M -   X 2 e c [.@.@.o._ ` ` ) ( R ^ ` _ ~ ^ ! ^ ! G G ! ! ^ ( ! ` R _ G ! R G R R ! R ! ! M M m m M G R R ! ! ! ! G C.M R b b m M U M M N Y N n N B B B l x v x x s l x x x x x n m n n x x B u u 3 a C K G W W X.( X.` ( Y m m m Y m n Y M U m m M U m m m m m ! _ R . * * $ c {.y.@.M n n l x m M m N n n n n Y N n N N U N n n n N U m m n z x s y y y t y s l z v v n x j l l l l l G k k G t s k s k s s k k y s k k t t s l l z l s z s k k t k t k d t t 9 w 8 w k t t y k y s s k k s l s z l x l l k x l x l z s l s G G d v l ",
"a.(.2.M.~ } f.N.N.a.y.a.a.N.n.v.n.UXM.P.n.M.B.n.~.(.b.b # @ # + @ 1 v ~ ^ _ _ _ $.$.$.} @.%.%.@._ _ _ @.#.&.@.] _ } _ { } @.#.@.{ { / @.@.1.1.%.1.1.1.1.%.%.1.%.#.@.%.@.} =.} ' ] ` C V V u g A ;.UX2XyX7XkXIXxXxXxXxXzXgXkXcXgXtXgXtX|.4X6X4X-X.X.XUXY ;   o 1 w d ~.v.>.u.f.a.u.r.%.$.-.2.=.2.r.r.r.s.i.2.9.%.%.@.! s ~ %.=.r.-.1.=.=.s.1.%.@.=.=.=.%.} %.@.#.@.#.-.@.&.@.@._ .._ ] @._ ..! ! ! A ^ _ ] @.#.@.} } ..@.} @._ _ _ ^ ` ! M ~ U C.! ! ! ` ( / ! ( ` _ / / ^ ! ! C.! ^ _ ] | / A U b N C.! ` o.@.@.~ a.a.N ! -   X 1 y w f.b._ ;._ ` / ` ^ _ _ _ ! R ! ^ _ ^ G ! ! ` ` ! ! ! b _ M G M G G ! ! R G b U N N m M M R R R R ! ! ! ! C.U M m M Y M m U N n Y N B B B j j l v l s s x x m n m n n m M M U N x B B u q a g H R W 8.O.X.) ` ( m U E M Y R n b ~ ~ U U M M m m m M m o.R . 1 * $ v _.v.{ G N n T x m U U N N n n n N N U N N N l l x B N Y m x s l y l x y t y 9 s v v z v n j z n l z n x t w G k t k s k s s k s s k s k s s t k z v v 8 9 s l s s t t t t k t t w w 9 9 w s k t s k s k s s k k l l l l s l l l l l l l l z l { d.] G z ",
"=.s._ q H g.g.g.a.a.a.a.B.N.M.n.B.UXUXI.I.b.k.r.k.a.c , * # @ @ = f ! } @.} } @.#.=.&.#.&.&.} } _ _ _ #.#.@.;.@._ _ _ } #.$.@.@.{ { { { ] %.1.1.} 1.$.$.%.} @.| #.#.#.#.} %.>.2.s.;.~ B V u a Z Z ` UXyXyXgXVXIXVXnXxXxXcXVXxXgXdXhX9X-X$XqX4XC.x t.}.z ;   o 1 w f (.s.i.u.s.a.u.s.r.s.u.%.1.2.s.r.y.u.u.2.#.} @.f H u.~ @.$.-.=.9.2.=.@.} %.%.%.%.@.%.} &.#.@.&.-.=.@.@.@._ ] / ` ` @.@._ / ~ b ! ^ @.@.#.@.@.} @._ @.@.} } } _ _ ^ C.~ ! ! ! ! ! ^ ^ / ` G ! ` _ _ ^ / ! ! C.! / ` ` ( ^ ! M M n v C.^ _ { } ! N ;.! b -   X 0 e 1 -X(.m @./ ! / / _ ` _ ` ^ ! ( _ ^ ^ ( ! R ! _ ! R H M z M M U G G ! H R G N m N x x N M M U U ! C.( C.C.M N U N U M n N M M M N x x l x y j s l s j v n M N N N N M C.U N x U x N B B u q i h f R z.*.O.X.) ( R U R m G m n ^ H / ! m Y U R U U U / ! z + 1 1 & v F.G G ( N N n U U U C.N U N n x n n N N n n x k l n Y m z s y t t y s t w w y y x v m v l k v m n n z n G w w d k s k s l l l l l l l l k s k k G G d d G ^ G k k y s k k t k t w 9 9 w t k k y t k t k l k s s l z l k k l l l l z l z x m b H d.%.J z ",
"z.-.H } 2.N.v.g.s.a.a.k.n.n.M.n.I.UX(.(.(.n.m.'.-.h 4 : % @ % 1 f H / v H @.] -.V.=.=.=.=.=.%.@._ / ] @.&.&.@.} } } @.%.#.$.%.@.{ / / %.1.@.%.1.1.$.$.1.@.%.$.@.@.@.%.@.@.@.%.=.] A -.-.J u V 3 g N ` |.kXVXxXVXnXIXzXzXVXAXxXzXjXgXhX9X:X4X-XV.f u.M.x $   o 9 q s v.u.t.r.u.r.s.u.r.2.$.@.=.r.2.s.y.u.z.r.$.@.M H ~.g._ #.=.=.$.=.y.-.&.$.%.$.@.%.@.@.%.@.-.#.-.#.%.} ../ _ ^ / _ #.@.^ / ~ A M ~ _ @.&.@.@.} } ] _ ] _ _ _ _ _ ` ~ ! ( ! ! ! ` ` ! ` ^ M M ` ( ^ ` / ! C.C.C.! ! ! ! ! ! ! U b v v b ^ _ _ _ ) / M n ) $   X 0 d 3 D. X%.! ) ` _ _ ^ ^ ` ` ( ! ! ! _ ! _ ! ^ ^ ( ! ! ! R M M M M G R G R G G N M m x n m M M ! ! U ! C.C.! U C.U n N n n n M U U U N v x x j f l y x x N b m n m N N M m U N N N x T N x B i 5 3 a b s Y 8...X.X.E E ( Y n n v ~ M m M U U R R ! E R C.( k X 1 * $ d oX/ d t j U U U U U U U Y x B n n N N n n m m n l n m m v z l y t y s y y y x k l x z l v v z v n n z s k k t k t k s s l l k l k G l s s k s k s d x H 2.1.l k k t k t t t t t w 9 w t y k y k v z l l l l k s s l x z z x l l l s s l m ! J i 3 f 0 m ",
"|.I.s.d.M.F.b.v.B.a.B.v.n.M.I.M.I.UXI.UX(.I.}.].p 5 : @ @ @ 2 f H / M M ~ _ &.=.=.=.=.=.=.-.#.@.@.@.] @.@.#.@.@.] _ @.%.=.=.#.&.{ } 2.a.1./ { 1.} 1.1.{ 1.$.$.$.#.@.#.&.] @.} } r.@.J A ;.` u , B a B -.'.kXIXVXVXIXxXIXVXVXIXVXxXgXhXhX7XdXzXoX&.UXi.n $   . 1 q n z.u.g.a.t.r.r.s.u.2.%.&.%.=.2.r.s.y.u.r.r.@.~ @.} &.#.&.%.@.=.&.@.&.=.%.%.-.@.} @.%.@.} %.@.#.@.@.;.` / ` ! _ ;.#._ / _ H M A ! _ ] } } @._ _ _ _ _ _ _ _ ] ] _ ^ ` ` ! ! ! C.! ^ _ ^ ( ( _ ` ` ! ! M U C.! ! ! ! ! ~ ^ ` ^ ! G H ! _ @.&._ _ C.B =.-.;   $ 0 d t F.fXN.! _ ` { _ ! ` ^ ! ! ^ _ ( _ ! ! ! ^ ! ! ! G G M M M U U G ! ! R G G M U C.m m M M U C.U U U C.U U C.C.U U B x x m U M m M m n m n x l l x v n n b n x N M U U N N U N U x n Y c N B e e 5 h b x X.8.X.X.) ( ( ( m n b C.M Y U R Y R ( ` X.R M.( r X * * & v %.x l w x U U C.U U U U N A n n l n N n N N Y M m m Y M z v l z s t y s y s z x s z l v m z z x v z n x s s k s k d k k G l G l l z s s s s k t t k G +.G t k k y t t t t d w t t w t t k t n s k x z l k k s k k l z v z l k l l k s z M ! { } ^ M ) E ",
"9.T.n.~.Z.M.~.M.Z.a.a.v.N.Z.I.I.UXM.I.UXv.M.%.i 4 : @ O ; 3 x H _ { / _ @.#.=.-.-.=.-.=.-.*.;.@.#.@.&.-.#.&.%.&.} } &.-.-.-.-.@._ %.2.x H 1.{ } } 1.1.L 1.1.1.%.&.#.=.#._ ] ] ] ] C.>.] -.| ` u V a B N ;.].kXIXIXIXIXVXnXIXAXIXcXxXcXjXhXfXmXzX4X(...r ;   . 2 y l 8Xn.~.f.2.=.r.t.2.r.2.%.} =.1.2.s.u.r.s.-.@.u.-.~ } =.%.@.>.#._ @.%.-.%.=.%.@.} } } #.@.#.&.@.#.@.@.;.;.] ^ ;.;.^ ^ ^ H H G ~ _ @.] _ ! ~ _ } _ _ / / / / _ _ _ ` _ ! ` ( ~ C.` _ / ` ` / ` _ / ! M b M ! ! ! ! C.! C.` _ _ ^ _ @.$.9.s.9.@./ X.C.=.M .   X 2 e e M.@.v _ _ _ o._ ! _ ` _ / _ _ G ! ! ^ ! H ! ! G G ! M M R ! R G R ! R G G m U U N N m Y U ! M M M C.U U C.M m n n n x m M m n n m b n n n x n m b m M M n n b N N U Y U N N Y N n N n T B s e e 6 g f ! &.+.X.W W W E E M U U Y U R R R ! ) ` X.&...z r o 1 1 @ c [.n.z R U U U U C.T A T N T n j x n n m M U m m m M M Y G v m v k s k t y k l x l z l l l l x z v v m z k G l l l k d k z l k z G k l k t k t s k s s t t s G t s k y t k k w 9 t k k k k t G s y v z z s k t t s l k G x z x l l l x M G ( O.*.&.E 7.8 ",
"# M *.n. X^._.}.[.N.B.N.UX(.UXUX(.n.n.B.(.>.g 5 # O X @ 0 f H / @.@.;.=._ _ ;.@.#.=.=.=.=.@.@.@.-.-.-.@.@.;.` @.&.#.-.*.@.#.} } _ b H / / } %.u._ H _ / ;.#.=.=.#.=.=.=.-.} G } g.#./ d.2.J v x 3 2 d i v &.].lXmXdXcXCXnXxXxXxXxXnXzXzXgXzXxXzX|.( w * o   . 1 p u ! =.a.#.&.%.r.s.s.u.i.r.r.r.=.V.t.r.1.%.%.$.%.F.b./ ~ ! =.b.&.%.#.%.&.} } @.} } @.} %.@.%.%.} %.#.@.@.@.@._ @.@./ ! H H M H ! / _ ;.] / / _ / _ / ! / ! ~ ^ _ _ / _ _ / ! C.` ` ^ ~ ! ` _ _ _ _ / ! M M ! ! C.! R ! ` ;...;.-.V.r.B.n.B.V.;.` 5.E x u o   X 2 q p #.G.I._ ..&.@.! ! ~ ! ^ ` ) { ^ ^ _ E ^ G ~ U M C.C.C.U C.! U U C.C.! U n n m U M M M U n n M M U R M M M m m b M m M m m N n m U U N U n N N N Y N A N N N T C.n N U C.U U N N N N Y x B x B p e p a p ` 7.W Y X.( W ) U U E R U R ( ( ( G E O.O.k 0 = o * * @ b 1.K H m G R G m m n z v n n x z m x m M m m m m n n n n m n n n z l l s s l l l z y t k l s G l G l k G G k k l s k l G z l l z z l k t t k t y y k y k k k d k k t k t t t k t d l k s l l t y z l l l k y k y s k l l G G k k l z G G X.o.+.X.+.7.9   ",
": : b @.I.>X-X;X,X'.[._.~.I.UXP.'.B.-.B.v.Z 5 : % @ @ 0 x M ~ @.@.@.@._ _ ` ..@.@.o.@.;.;.@.@.@.@.-.@.@.@.;.] &.#.#.-.%.@.@.} ! { / %.H { $.=.v.t._ @.#.&.*.%.&.&.-.>.=.=.=.t.f.2.%.1.@.] f G J f 2 q d f f ..&XzXkXVXmXxXxXlXxXxXxXxXzXxXIXzX|.! e 2 .     . 1 e 2 2 e n ! =.2.s.a.a.a.t.&.V.s.=.=.=.&.@.#.=.$.$.{ (.M.@.u.v.=.=.=.@.%.=.%.@.@.@.@.@.%.%.} @.&.@.@.@.@.@.} @._ @.@.@./ ! ! R ~ ( _ ;.@.o.} _ _ _ / ! H ! / ^ ~ / / / ) ) ! ! ! ~ ^ / / ! ! ^ _ .._ _ ` ! ( _ ! C.M ! / ;.;.&.V.k.B.I.UXUXa.o.-.7.X.r 2 %     + 0 0 c p :.`.` ..*.@.! R U C.C.! / / R R ^ ^ ^ ! C.~ ! M M U ! ( ! U C.U ! U M b m C.C.C.! U M x x n m U R M M U M n m ! U b x x x n m M N N N N N Y N N T N N U N x N C.N C.U C.U N U U Y c U n x x x B e i a C ` Y Y W ( X.) U E ( U Y R R ! ! ) &.o.x 1 $ o X 1 * % e 2 C K H Y E R m n z l x x x n n m m m U M n n n n z l x n m n Y m m n z l s l l v s t s k t 9 k G l G k k G k G k G G k s s l x l k y y t t t t k k t k t t t s t d k s k k G s k l k l l k l k l k l z d k y k d y s k t k k G m R _ +.*.0.w.+.X.k   o ",
"q # , C.0.}.7X7X6X4X|.).).'.UXL.l.(.i.` h a : % O $ q x b ~ / o.@.-.@.] ;._ _ _ _ ;.] @.@.@.@.-.=.@.;.;._ ;.@.@.#.*.#.#.} / / ] $.%.M H %.! $.=.C.@...@.@.@.@.#.@.=.=.=.2.u.=.@.%.1.@./ } ] d.1.v b d 2 2 3 f @.&XkXmXlXzXkXgXcXmXxXxXxXAXgX|.` i 3 O o     o 2 e q 2 2 y #.u.t.s.a.g.z.a.=.&.#.-.| | &.%.$.@.%.%.#./ -.}.a.r.=.%.@.#.&.@.@.@.%.-.#.#.} @.%.@.@.} @.#.@.@._ / ..} @._ / ! ! ! ~ / ] ..] ] _ / / _ ! G ~ H ! ~ ! ! ~ ! M ! / ! ~ b ~ _ / ! ! ! _ _ ] _ C.M ! ! M ! ! ` ..;.-.r.B.I.UX(.UXM.i.&.I.E y 3 O . O   + 2 0 b a 5 C Z ) i...R U R ! U ( { _ ) ^ ! ^ ^ ^ ( ! U U C.! ! U C.C.C.! R b M U C.C.U C.M M M m n n m U M M G M j _ -.b U M n v n l n n N N N n N U U N N N x N N x N N C.C.C.U U N N N N A x B x x n x B e q a x C.X.Y Y W W ( ) ( U U U U ! ( *.) x 2 % . ; X * 1 $ M e 3 g K v z m m m s l l l l z m G Y M M n x x z l l l k n m n Y R m v n z z x z z k k s k s k k k k G G k G l G G k k G k s k s s y t k k t k t y t t t t t t t t k t k s l l l l k k l y k l l l z z l k w w y k l l l G G G G X.1.9.0.w.7.L.q.-     = ",
"p 3 % , ~ k.2XdXdXkX6X-X[.[.R.B.j 6.V.Z 6 , # @ $ q x b ! ~ _ o.@.-.@.@.@.@.;.;.` ` / / _ @.=.=.-.*.@.;._ _ @.;.@.=.&.@.@.] &.%.$.@.@.2.g.@./ f ^ @.@.] ] ;.} ] &.=.=.V.1.%.%.%.#.#.} @.{ { G G H H v 3 : e e y O.I.>XyXyXtXkXlXcXVXZXVXzX>X` B 3 @ o . .   o 2 g y 4 @ > u u.a.r.u.u.a.s.r.&./ _ @.@.=.2.=.#.@.&.} } g.-.a.v.@.} %.@.} } } } @.@.} @.@.} @.@.} @.@.@.} ] _ ! _ _ _ _ _ ^ ~ ~ ! _ @.@.@.@.@._ _ / ! ! ~ ~ ! G ! H ! U _ i.M ! M R ~ H / / H ! ^ ` ^ ! ! ! ! ! ! ! / ..@.V.k.n.UXUX^.(.Z.a.I.I.N d 2 O   * *   + 0 q p A 3 h L ' o.*.` ~ ( U ` o.X.{ / ^ ) / ^ _ ! ! ! ~ ( ( C.! ( ( ( U M R U ! C.C.U C.U ! M b v N N C.R G x M &.r._ M ! U b m N N n n N T N x U U N U A T N x x Y Y C.U U C.N U N C.Y Y N n x n n N N x e 3 q a g ` W W U ( ( X.( Y U R R E E R z 0 @ . $ r X * 1 & ! G 1 3 h K v z z z z k l l l z n m m U M m n l x l x x x n m m m m m m n l v v m s s l l s t G l l G G k G k G l d G k k k s y k k y t t t y y y y t t r w k k t t t t d s k l k k G s k k l l k l l l l s k k k s k G l G G E +.9.z.E.D.j.7.O.7 .   $ 0 ",
"c v > % > ! p.hXqXiXkXtX:X}.'.p.` ` Z 5 , # @ % u x v ~ / } ] _ ] ..-.=.-.@.&.;.^ ^ ~ ! ;.@.*.-.&.;.@.&.@.;.&.@.@.;.;.@.@.#.=.#.#.-.-.@./ / _ @.$.&.@.@.@.@.@.#.#.-.-.-.=.-.=.=.1.@.@.1./ { @.H H @.{ G f q 3 q B ! +.$X2X3XcXmXnXZXJXVX$X;.u q @ o . 1 X   . 0 d b c # @ % s 1.-.1.=.1.r.=.*._ / o.%.=.=.=.=.%.' } 2._ @.r.=.&.} @.@.} } } @.} } _ } { _ } } @.@.} @.] ] ~ ! ] _ / _ / ! A ^ ) _ @.@.} &.} @._ ! ~ G M ! H M ! A M C.~ / ! ! M ! ' H ~ ~ _ ! ~ ! ! ! ! C.! ! ~ ! ( -.*.r.~.'.(.(./.[.V.k.'.T V 3 @   # e 1   $ 3 y q t._ q a J ' _ *.o.&.` o.;.{ _ ( _ _ _ ^ ! ! ! ! ! R ! R U R R M M G ! R U C.C.Y U C.M U M b m M U M n i./.@.b ! ! U M m m N N n n n n n m N N C.N N U U N N N U U U C.U N N N U U N N N N U N n N l j u e p C Z U ( X.U X.) E U U U U ` R n 1 O .   0 u X 1 1 $ / / 8 1 3 C K f z z z l l z n n n m U m U U m m x j n x x m Y m m m m v z G k G l z z x l k s l G v z z v k G k l G k G t s t s k y k k y t t y y t t k r w 9 t k s k s k k l l l k l G k k s y k y y k l k y k s s k G R E +.q.j.j.D.R.E.8.O.u o   X 3 w ",
"G Z f 4 # : U T.lXdXqXtX4X$XI.i.;.Z 5 < @ @ % e x H ~ / { &.@._ ( ~ ;.;.@.@.#.;._ ] _ _ _ @.-.#.&.#.@.-.-.#.@.@.@.;.&.#.@.@.@.;.@.@.../ { _ *.=.=.-.#.&._ @.-.=.-.=.6.$.%.=.=.=.1.%.1.J / 1.1.} / { #./ g 2 2 q e x ~ I.2XkXAXAXDXAXNX>X` 3 , O o o 1 y ;   o 0 f c J 3 % % % q ` s.*.r.r.-.] / / _ @.#.-.%.%.@.2.=._ #.@.} } } @.} _ _ / } _ } { } _ _ _ _ _ ] _ _ _ ] ! ^ _ / H _ ] _ ~ ~ ^ ] } @.] _ } } _ ] / ! H G M R A ~ ~ M ! M M ! ! M ! ! H H M f M ^ ! C.! C.! ` ! U C.! ) @.p.[.}.[.[.UXI.|.(.l 2 e @ o % e f 1   @ 0 y q  X-.y 3 a J ' @.+.+....._ _ ( ( _ _ _ R R ! ! ( ! ! ! ! U G M M m b ! U ! C.U N C.U U U M M M M x ) N.u.b b R ! R M M M M N m N M N M m b N U U N N N N Y N U N U U N M U U N N N N A T C.U N n n x B B y p h a g m ` W X.( m o.E R ( ) U = + . . & y 8 . 1 2 & / { t 0 1 4 C K g s n z n n n x n m m U M M m m n j n x n n m Y m m R v z l G z z v v z v G k l l l v l x k k G l s s s k s k k t y t t y k t k t t t j t t t w k k d s k l l l k d k t t t t t t t t k t y k d k k z G X.0.x.D.E.T.W.T.W ( =     X 0 q y ",
"H b b f > # > y $XVXtX7X3X$XM.=.Z 5 < % % - u N H / _ _ _ } _ _ _ ! _ @.@.-.@.@.;.;.] ..@.@.@.@.} @.*.@.@.#.@.] _ @.*.@.@.*.@.-.@.] / ` / _ &.=.6.-.=.$.&.%.-.&.@.@.-.-.-.=.=.=.%.@.G G @.} #.} _ @.t.r.{ c d 2 3 a B ! R.hXNXAXAXzX}.;.V : < O . = x x ;   X 0 d m / i 5 2 : 4 q ~ m.@.-.&._ ! / _ @.@.%.@.@.2.1.} } #.@.o.} @.] } } _ / / } / / / ` / / _ _ _ _ ] ^ ^ _ @.@.^ _ } ] / C.! / ..@.@._ _ / } } _ / ! H ! A ~ ! ! ! ! M H M ! H M H ~ M M M ! H ~ ! ! ! M M ! C.A M ! / @.n.-X>X2X4X$X:X#Xr q a $ o $ q x x 1   + 0 d d u.^ b B 3 i K J _ ..` ) ` ^ ( _ _ _ G G ! G ! ! ! ! R G M m b M M M G M ! C.U M U U U M U M M n u.~.R v G U M M M m M m b m M Y m M n m m U T N N x Y n n U Y N U M U M N Y C.C.N N T A N Y U Y N N x N N B u u a g M ` E E z 6.X._ 9.! 1 @ . . $ u y r X % 2 # / { d y 1 = q h K c v v m m m n n N U U C.Y m n N n l n n n n n m z z n x v z m m v z G l l G G l z l l l G k l l k G k s k s s t k y t y k y y t y y y y t w w k t k k s k s l s k t w k t k 9 t 9 w w t k s y y s G E 1.D.R.R.D.D.D.q.) * o   . 0 y l x ",
"~ J A A c 3 % > U tXCXgXtX/.>.C 5 , # $ % B b M H _ _ _ ] _ } _ .._ @.-.@.@.@.@.@.;.@.@.&.@.@.@._ ] @.@.-.-.#.&.;.] @.-.-.#.@.@._ _ _ ( ! ~ _ #.*.=.=.-.=.=.=.@.@.o._ #.-.=.=.%.%.1.] } 1.1.#.{ { / / #.%./ b d u e e x ` ].mXDXJXtX;.u , % X ; = l x x ;   . r c f G M c q * $ 3 f =.@.} @._ / / o.} @.@.#.%.@.} @.@.@.@.#.#.@.@.@.@.o._ _ _ _ } / ! ^ / _ } } ] _ ~ H =.} _ ! _ _ _ _ ` ^ ` ] &.} / ~ ^ } _ _ ^ ~ G M H ! A M ! H H ! M ~ ! ~ ! H M ! H ~ ! ! ! ~ C.A C.U ! U M ! / @.V.~.4X<XkXzXR.V V e % o $ y v x l 0   + 1 y d 1.( b v j , 5 S ' ~ ` X.C.( _ ^ ( ! G G ! R G ! ( ! R M M m v m b M M R M C.C.U U C.N M U m b _ &.b R M m m M M m n m M M M U C.M M b m m N N x B B x x x N N N N U m m N N N U N n A T N N N N N N Y N N N B p u p g _ 5.+.R Y R z.E = @ @ o % 1 y k 9 X 2 2 % 2.$.v z w 2 2 3 6 K c l m Y n n n N N m m N N N n n n n n n n x n n s l n z G z G m m G z G l k l k x z l s k l s k s k s s k t t t k y t t y k t j B k y k t k d G l l s k G k l s k t t d k s t t k 9 y s k w k k k G *.c.R.R.].W.].e.1 .   . 2 y s l l ",
"^ ! H H H G 2 # 2 @.zXNX(.;.~ a 4 + @ 1 x G G H / _ _ } / _ _ _ _ &.&.@.#.@.;.@.o.@.@.@.&.@.@._ _ @.@.@.&.#.-.@.@.;.@.-.#.#.*.@.&.#.@.! M H / &.%.-.=.1.9.=.@.@.@.&.&.@.$.$.%.-.1.%.2.=.%.#.%.=.} { } t.%.%./ H f q 0 i x 6.>XxX2X;.u u 3 O X 0 x M M x ;   X y x G 1./ 1.G 3 & * 3 G #.u.6./ _ ] } } @.@.@.@.} @.@.@.} @.#.%.%.%.&.} _ ] } _ @.} _ ] / / _ @.@.} _ } _ ^ H ! ! ~ _ _ / _ ] ..@.#.@.^ A / _ { _ / ! G ! ~ ! ~ M b b ! ! M ~ ^ ! ! G H H H H ^ ^ ^ ` ! ! ~ C.! C.! ! _ @.=.=.N.NXKX>XY B f 3 X * w f ! R s =   + 2 e s g.@.G M c y 3 i  .h.b ( C.! _ ^ ! ! M ! ! R ! _ ! ! G m m v v M M M M U U U C.U U M m U x / $.U n U U G v m M m v b m M m M m x v n x v G M x B x x l l x N N x Y N N N n Y N N x T N N N N N N U n x Y c N n B y p a g ] ) ( R.@.Y y = X X $ 0 0 y n 8 X 2 0 # %.=.x m d w 2 2 q h S K ~ Y N x n n Y U x c T x U U x N T z l x z l s l m x G G l G z l G n z l l l s l l l v k s k s l y t t 9 w t w y t r t j z n x y y t t t k s l l G l l l l s t t t t k y t k w t k d k y y k l G { 5.>X].E.#Xm.n *   o = w y l m m ",
"_ / / ! H G c 2 2 ( E.6Xi.>.] p : 1 3 c H H H ! _ } _ / / / / } } @.] } @.;.@.@.;.@.@.@.@.@.;._ ;._ ] @.@.#.-.@.@.#.@.@.@.&.;.@.#.&.@./ ^ ! / &.$.$.$.$.-.-.#.*.-.=.=.=.$.-.-.=.1.1.=.%.r.f.u.! / g.~.u.3.2.%.{ J f p p H $.x.[.V.T B Z * ; r n M H R m $   X y x H 1.~ H H G d 1 < 1 d a.v._ o.} @.&.@.@.#.#.@.} $.@.$.@.@.@.&.=.@.} @.@.@.} @._ _ _ / _ @.{ { } _ ] ! H ! H H ! ! _ _ _ _ @.@.&.} _ _ / ! / / _ ~ M H ^ ! ~ M b b ! A M H ^ ! ~ H ! ! ! H ^ _ ! ` ! ! ! M M C.! ( _ @.=.o.p.3XqXn.C.! x $ * y x v G ! s =   ; 0 d c N.{ ! G b x x f :.h.| &..._ ! Y M M M M M H ! ^ ! ! R M M v m v v b M M R ! U M U M U m -.$.M M M M M M m x n x v m M M M M m x v v n v v N l l l x x l B x n N N Y N N N x x x n B n N C.N U U N N Y N N N x x B e p g p o./._ W O.t = . @ > 0 y j x r ; 2 w & { 2.m M n l y e e H ,.3.=.U Y x n m n l l B x U N B x B B l l s k k s k v G k z G z G k G l x x l z k s k z l s k s k s k t 9 t t t w t t t t r j n y k t s t t t k l l k z s l k s t t w t k y k y w k G k t y k s d G ^ $.v.6.X.z.1.f &   - 0 t y k l y ",
"! _ / { _ H G d 2 o.y.$XM.v.$.f 1 3 G G H ! ! { _ _ _ / / / _ _ @.;.;._ / _ _ _ ] o.@.;.;.@.@._ ] ..@.] &.@.;.@.-.@...&.@...} @.] @.;./ / / / @.#.&.*.&.*.=.=.=.=.=.=.=.$.-.#.-.$.$.$.@.~ / b ! 1.@.2.1.@.} H f._ b c x ~ =.a.n.` A u u * = m C.! ! H m $   @ f f H 3.H H / ] H d 3 q d =.=.@.@.%.-.=.=.%.-.@.@.#.&.%.@.&.-.%.&.@.} @.@.} } _ } / / / _ &.} _ } _ _ ! H ! A H M ! ^ / _ @.;.@.@.] _ _ ^ ~ ^ ~ ! ~ M v A C.! ^ ! ! ! C.M A ! ~ ! G ! ! J G M ! ^ ` ! ` / ( A M M C.! _ @.=.@.(.M.[.-Xn ` n & = x c R ! s c -   + 2 e v 2.G H H G M A ^ ] A #.[.@.{ v x v m b M R R ! / ! M M M m v v m v n b M M U U M U m j ~ &.U M M m m Y M n x n m m M G M G M M x v v M M M x l B B l n n x n x x N N n n n x j B x n B N N N N C.U U N n Y N U T x B p g c *.m y R E y = O - 0 r r y m r X 0 q % @.%.M m x l l s x } g.M.s.U x B z n n j l x x T B B x T B s l l y l s y k k k G G s G z k y k z l s l l k l k k s s k y y w t t t t t t t k j t r r t y k k w t s s k k s s s y s t t t k s l k l k k k t t t k y s k G ^ 9.M.@.v a.$.q % $ = 0 y l y 9 t ",
"~ _ / / _ J G d e / 0. Xv.g.&.m l d H H ~ ~ { / _ / / { _ _ ] _ ;...] ] @._ ;.@.@.@.@.;.;.] ;...@.@._ ;._ @.] @.] ;.A ^ / @.@.@.@.@.@._ } _ ] #.&.&.#.=.-.=.-.@.%.=.=.$.$.-.@.@.{ { @.} } _ @.%.%.2._ A G ^ t.%.%.t.| b } %.r.(.V.C.T u V y M ! ( ^ R b $   X x G G } { ] ] @.' G q w G =.>._ @.-.=.=.=.-.%.#.@.@.@.} @.%.-.-.#.@.} } _ @._ _ ] _ _ _ #.&.} } { _ _ H M M M G ~ H ~ ~ _ _ ] _ ) _ ] _ ~ / ! ! / M M R ~ ~ ~ ^ ( ` ` ! M M ! C.~ ! H H G M ! ~ ^ ` ! ! ( ! ! C.C.! ! / } >.v.u./ t.B.Y X.M = 0 v G ! _ G v =   & 2 d c r.~ H ~ H A ~ | b.Z.M.UX;.R z l l n m G ! ! ! ( ! m v v b m v m v m b M U U M M B M / C.M ! M b M M M v x l b M G M M R M M M m M G M v n x x l B j x M m x x x B n n x B j l l x B n N N T A U N U n n c N U N U N N N b m x y m z y 1 $ = 0 r j n U y X 1 0 $ @.2.m v v x x v M 2.M.(.z.N z j B n j j n T B x B x z B j y l l l k y s v l G l l l k G l l l s l l l v s s s s s k s k t t t t t k y y s j j y j j y t j y 0 t k s k s s k y k w t t 9 k k l z l z s s y k t d k k d l H %.F.d.b x.s.0 = $ 0 y l l l l l ",
"{ { / { { / G g e _ 1.T.a.f.@.m z x G ^ H _ / _ / o./ / } _ _ } @._ ;.@...;.@.@.#.@.o.;.@._ @.@.@.@.] / / @._ _ _ @.=.A _ @.&.@.@.@.;.@.@._ ] &.@.%.*.&.#.@.@.#.-.=.-.-.@.} } @.@._ @.%.1.y.2.r.2.1.2.=.(.2.2.F.b.F./ ~ >.=.v.}.i.C.Y j 7 y C.! ( G G G &   X j b i d { { #.@./ G w y l y.9.@._ @.@.@.@.@.@.@.#.2.@._ _ @.%.$.@.@.@.} } _ _ } } ] / ^ @.@.} #.@.} _ ! A M ! ! / ~ ! ^ / { _ @.@.@._ _ / ! / / ! ! ! ! ~ ! ! ! / / ` ! b M U A ^ ` ~ ^ C.H ! / / ^ ! ! ! ` ! C.! ~ ( _ _ 2.N.G.g./ C.( X.U 0 y m G R ^ ^ G &   + 2 d f a.#.} H H ~ ~ =.b.v.B.I.o.m x j B z M M R ( _ / ! M M m b v G b m b M M C.C.N l &.s.M b R R M b U G v m n x G H G M m M m M M m M M m m x x B j B x N M m Y B l v n N x j B x l n l n T N Z T U N N U B B N U N N Y M M v G v s z k k 0 & 8 t 0 M G t 9 + 1 2 $ / 2.! M v x l x H 2.F.M.-.T B B B j j B B B T B N N B u j k s k l s z l z s G G k G G k d z l s s l l l l t t s k k s k w y t 9 t y y k l y y y j y k y t w 9 k y s s k w d 9 w 9 9 y w k t s k z l s k k k y k s s k l E 1.F.g.~ p.` y 1 - 8 t s z n n z ",
"} } { %.%./ G c f / 1.(.a.g._ n G s G ^ J ~ / { / _ =.%._ { } } @.;.@._ ] @.@.@.@.` / / _ @.@.@.-._ _ _ _ _ ;.] _ } ! ] ;.;.;.@.@.@.-.-.@.) @.&.#.&.#.#.@._ @.-.$.-.=.%.@.@.@._ _ ] _ } =.1.2.r.2.=.=.=.2.@.} %.} %./ %.t.v.(.oXj.C.Y j V B C.` ! ! R v &   X x G f t.#.} %.#.} G w d v 1.r.] } @.#.&.$.@.@.@.@.&.$.] ] @.-.-.%.} @.@.} _ } } _ _ ~ / @.#.@.$.{ / / ~ / ~ ! ^ ^ ~ ^ ^ ! _ { _ @.] _ ! ~ ! / ` ` / ! ! ~ ! ! ) _ ) ! C.M ~ C.! ` ^ ^ ~ ^ ! / ) ` ` _ _ ~ ! ! ^ ! ! ! ^ / 2.v.M./.4Xr.U ..U 0 t M G ^ ^ G v * o @ e d v d.$./ ! J ~ ~ #.u.s.B.Z...m B j j x b R ! _ ) ( ! ! U M b m v b M ! M A C.N ` a.6.v v U U M U U M v x x v m M M G R G m v b M m v M M m n n x x v m m M m N x x N n n n B j x x x T x B n B B U N x x B B n N N U M M M H M x s z n z 0 - 0 t k y 8 y l + 1 2 % H %.^ m f y x n ~ r.b.g.=.n B u j j B j B B B B B T B B B l s l s s z v l s l k G k k l k k t y k l s k s s k k s s k y y t t t t y k l l k y t t t y y t t t w 9 9 t w 9 1 9 9 9 8 9 9 t t t s k z s t t w k k t t d G ^ =.f.d.R R z s 1 1 d k l z n n l ",
"{ J { @.{ / H f f _ @.n.d.v.] v x x G G / / ] _ _ ^ H &._ } @._ ;.@.@.&._ ..@.@.;.;.` / ;.] @.;.@.@...] @._ ;.@.] _ ] _ ;._ _ ] @.@.@.;.@.@.&.@.&.@.@.} ;.@.#.@.-.$.=.$.#.@.} _ _ } @.@.%.=.=.=.%.=.=.=.%.} { H G.<X2.} =.k./.4Xs.C.T j V y C.C.! ! ! M &   X v v d { 2.%.1.%.| G d x f y.=.{ } %.=.%.-.@._ } @.} } _ _ @.&.@._ _ _ _ } @.} @._ _ / _ @.} } { _ _ / / / / / ! / ~ ! ^ ~ ~ ^ _ _ _ / ! ~ / ) ) ;./ H ~ ! ~ ! / @./ ! C.M ~ C.^ ~ ` ^ ^ ! ` _ _ _ ` _ ` ! ~ ` ! C.` / ^ / 2.M.(./.dXk.Y X.E r y b G ! _ ^ G *   ; 2 d f 2.} / ! H ~ ~ >.B.a.B.z._ n l j j m M ! ^ ) / ! ( ! R C.y v ! x v M H b x / r.` x b M U M M U U M m m l x m M M R G n c n v n v b v M b x x x x n M M U N N x x n n x n l j x n n A N n n x T U U T B B T n n m m n m ! ! c f l G Y l 0 = r y t y 0 &.! X 1 2 & H @.x v s l x M ^ 2.a.g.r.T B j u j j B z B B B B B j j u l l y k l v v l k x k l k l l l y t k s l k s k k s k y k s s s y k t t t l l k k y t y t t t t t w t t t w w 1 9 9 9 9 9 1 8 w 9 w t k k t t w w k y t t k G ) 1.%.$.o...R d 0 1 9 s l z v z l ",
"} @.^ / } / J G f } y. Xv.h.&.v s d G ] / ~ _ / _ } A H _ _ @._ _ ] ] @.] @.@.@.;.;.@.;._ @.@.;.;._ ;.@.@.@.@.! _ &.&.@.@.;.&.&.&.;._ ;.@.*.@.@.} @.@.@.@.&.&.#.-.=.=.=.&._ / / _ @.&.%.-.=.=.%.%.=.u.a.$.%.} { $.1.{.:X>.b.n.u.-.` C.j > u C.! ! ! G G &   X x G b | } } 2.%.#.G d s v 1.r.&.@.@.=.%.&.@.@.@.#.@.@.} _ / / / / @./ / } _ / ^ / / / %.} } / ! ~ ! _ _ _ ! / / _ ^ _ _ ~ ~ ^ / / / ! ~ U ! / @./ / ! ! ! ^ ` ) / ) ! ~ ^ ^ C.^ / ^ ^ ! ^ _ _ _ / ! ^ ` / ) ! M ! ` _ _ _ u.Z._.[.N.s.C.X.( r y M G ( ^ R G 1 o ; 2 s g 1./ / ! J C.` >.N.B.).:X-.M l j n M M ^ ! / ! ! / ! b ! t.n.{ b v x N M i.r.Y b M M U M U C.M Y M v n x x M M G G v x v v x v M G v m m m x x v b C.C.N n Y N m N x x x x x n U n N x B n B N N N B B B B N N n x x U *.v c M x E Y l r 7 r k y t y l 1 ; 1 2 & / @.v v l x v M ! u.F.N.a.Y j r r j B n B z z B j j j j j y s l l x l z l l l s G l l l l s t y s s l k s s k s s s k t s l k l l k y l l j y k k t t w 9 t t t y t w w 9 8 3 9 9 8 8 9 w 9 w 9 w k d k t w 9 w t t k l E r.(.u.X.0.E s 8 1 w x z v z l l ",
"#.} } / _ / ~ b f @.n.oXg.d.$.n x x G ] { J G } } J { _ _ _ { { _ _ ;._ ;.@.@.;.@.;.;.@.;.@.@.@.#.@.#.&.-.-./ H ` @.@.;.;.@._ @._ ;.@.@.-.&.@.@.@._ } @.@.#.#.#.$.$.%.@.@.] _ ;.@.#.@.@.@.@.%.%.=.@.%.} { } @.t.b.2.} F.%.r.M.^.i.R U j 0 y G ! ! ! ! A -   X f G J ~ %.%.2.2.2.~ f f f T.[.%.-.%.} } %.@.} } @.} } } _ / ~ ! / _ _ _ _ ~ ^ / _ } } _ _ { / ! ! H / } _ / _ _ / ~ ! ! ~ ^ / / ~ ! ! ! R R ~ ^ / ~ ~ ^ _ _ ) ) / _ ` _ ;.` ! ! _ ^ / ^ ^ ` ` / ` ! _ ^ ~ ! ! C.! / ) ` ] r.G.[.[.;XT.G ..) 9 w G G ^ _ H M =   $ e d c r.%.} ~ ! H / 2.~.v.b.|.*.U x x M U b ! ! ! ! ! v _ v./.a.G b M c s { m.$.v G G G M m R M m N N M v v x x m M G M x x x n N M M M N n v b n N M U ` N N n M U M M N l x x x U U U n j j x B N T B j j x B n n U U Y U x N b M N R z z t 8 t y l y l s 9 ; 1 0 * ~ #.v n s x b m U =.t.B.a.Y x r r k B x x T N B B u r j j y k z l y j l x k s l k l l s z s k t k s k s k k s l G t t k k l l l l l y k l l y j k y r r 0 u B t j t t u 9 9 7 9 9 9 9 9 9 k 9 9 8 w k k t t 9 t t y y v _ D./.2.) 6.` y y = t l l z n y 9 ",
"@.} } { _ / J b c / 9./.3.a.} n l G H H { J { $./ G 1.J { { @.{ @.;.@.;._ @.;.;._ ] @.-.&.-.#.@.@.&.#.@.&.-._ _ @.;.] ..@.o./ _ ....@.#.@.@.@.@.@.@.;.@.%.&.%.&.@.@.@.@.@.@.&.#.=.-.@.@.#.@.&.#.%.@.{ } %.&.} a.%.' } v ! {.cX4X6.( U l 0 s G ! ` ( ! N $   X s G G / a.| %.#.} H x f x #.r.=.-.%.@.{ @.@.} @.@.@.} _ } _ ~ _ / _ } } / _ _ _ / / ! ~ _ / ^ _ ! ! / _ / _ _ _ ~ ~ ! ~ / ^ ^ ^ ! ! ^ ~ ~ ~ ! H H ~ ^ _ ~ _ ] _ ) / _ _ ` A v / _ ^ ^ ! ! ~ ` ) / ` _ ! ! ! ! C.! ! ` ! ! =.g.~.~.b.z.R ..E 8 w G G ( ^ R R 8 o $ e f c 1.} / ~ ~ / / r.F.v.b.}.;.M v m U M M ! ! M x _ u.g.=.c f H H H J G a.G n G M m M G M M M M b b m m v v v m M M m v m v x M M M m N n n N m U M M N B N N m M C.` C.x x N N n N U N l n N T Z B Z B B l B B j _ -.B.C.l N b A M M k z r 0 t y l z l l 0 + 1 q 1 / %.v v n m N N ! =.N.b.i.Y B y t j j x n B N B u j u j j l l l l y k y j l l l s k s s z k y s l l s s s s k l l l k t s x l k l l l l l l l y k u r t t u j t u k u r r u u u 9 t t w t w w 8 9 t t t t t t k t t t n { D.G.=.E 8.( t u 8 y l l l l z ) ",
"#.$.@./ _ / ~ A f { z._.^ ~ ! x w w H ] %.} / ] _ { G E / _ @.{ ;._ _ _ _ _ / _ x v _ ..&.@.@.@.@.-.-.&.#.@.@.&.@.@.@.@.@.;._ _ @.&.#.*.#.;.] ;.] @._ @.@.@.&.#.@.@.@.@.@.@.@.@.*.#.&.@.@.@.#.%.%.=.%.=.=.%.t.H ] / =.@._ v.M.a.&.` U l u y G ! R R ( M $   + t G G / / #.$.#._ H x x x @.-.#.#.@.} _ @.} @.} } } _ _ _ _ _ / / _ _ / ! ~ / ~ ^ H H / _ ` _ ^ ! H ! _ _ / / ^ ! ! ^ _ / / ~ ^ ! H ! H ! M M ! _ ` ` _ _ _ _ ) / ` _ / ` ! ` _ / ^ ! ` ( ` ` ) ] ( ( ! ! C.C.! M C.! C.^ =.b.^.(.a.1.E E E w 1 s b G R M G 0 o $ e d c @./ ! ! H ! ~ 2.D.n.M.}...M z v v m U b y _ b.b.} M ! b b H ' / G v v M G M M G M M M v m M b m m m m n m M U m x c n x n M M M M N N n N m M M U N N Y U M M A N U N N N x N N N Y N n n B N N Y x j x B B ;.N B U x x B x v n Y z j 0 = w k l l k x w X - w * ~ @.v m m m m N ! t.b.g.,.n B y y B z z x B B j r r r j B l l y t t y z l l l k s l k l l s s l l k t k l k s s l G s k k l x l l l k y l l l k t r r u r r y r y u y u u y u 9 u t 9 t t t t w t t t t t t k y t t k n o.b.OX=.E +.C.y 0 8 k z l z t d z ",
"{ ! @.y.1./ ~ b f ! i.N.%.$.! x y G J G ] ] %.{ G L G { / { @.{ _ _ ] _ @.;.) b } -./ } ] @.@.#.-.&.#.-.@.&.-.#.@.;.@.@._ ;.@.@.} &.*.@.@.@.@.@.;...} _ @.@.@.} } } _ } @._ ] #.%.#.%.%.#.@.} @.%.=.2.=.%./ @.F.b.d.} / %./ _ r.*.( M z 0 u s G _ r.=.v $   X y c G { { $.#.&.} ! f c c @.&.=.#.@.] _ } } @.@.} } } _ @._ _ _ _ _ / / / H ^ ! / / v H / ~ ^ ~ G H ^ ^ / _ / ^ / ! ! ! ! ^ ^ ~ H H H G ~ G ~ / / / _ _ _ ^ ~ / / ! _ _ ) ` ` ` ^ ` ^ ~ ! ~ ! C.) / / ( ! ! ! ! M C.! M ~ 2.b.{.`.[.v.E ) E 8 0 v G G G M M = o $ d v g 2./ ^ ~ ~ H } u.M.b.n.N...M M M G x y ( M.~._ b A ~ M M x v H / M v m m b m G v ( ! m m v n n n n x x M M U M b m v v x m U Y M b v n N n N M Y m Y N C.C.M M U N l N T N N x N Y x N N B B Z T N U n x B @.@.U B B x x C.N x U l 0 l r = t y s z l x 8 ; 1 w 1 ! %.v m M m M b C.2.g.>.2.n j t y B l l x T B u j r r r j y l Y t t s l l l l l k l s l l s k k l l k G l s s k s k s l G z n l l l l l s l y y y t r r V 9 r B y u k k u u 9 r r 9 t y k k t k 9 t t t t t t y t t k m o.a.M.$.X.+.U y 0 = t l l l t t 8 ",
"/ } } =.1.} _ b f { *.r.@.@.G l s G 1.} / G K G / @.H H { { ] { _ _ } @.@.@./ ! s.t.! @.] @.-.=.=.=.-.&.@.&.&.#.@...@._ } @.@.@.@.@.&.} ..@.&.&.@.#.#.;._ ~ =.A / _ ] / _ @.=.=.=.=.%.@.} } @.&.%.%.%.@.-.#.=.u.2.~ H #.} $.&.>.$.( Y j r y f 1.@.} q q ;   X y v b } } @.@.} _ H f x v u.} #.@.@._ _ } @.@.@.@.} @.} } _ } _ } } } _ / ~ ! ! ! / ~ ! / / / / ~ ~ ^ ! ~ ~ ! ^ ^ / ~ ` ^ ! ~ G G G ! ~ ! ~ ! / _ _ _ ] / ^ ~ ^ / / _ ` ` ! ` ! ( ! ! ! ! ! ! M ` ` ^ ! ! C.A C.C.! ~ H ~ -.v.-X<X^.9.R E ) w w x G R ! G M = o $ n G e d.1.J ~ H ^ ;.V.Z.n.B.M.` R @.! y ! b.~._ b b ! M M M N v f n ! v v v m m v v n _ v n v n v m n x x M M M R M m G m n v G M M U m n n M M M N Y N N x x x N N l x N N N N T N N C.m N n x B x x N U N B ` @.B n x x x M C.( M t U =.Y r 7 0 l s z l x w + 1 q % / 2.v G M N n N C.#.d.g.u.T j k u j l B k j j u u r k j u y k k y z s l l k l y s l l l l k l t G G l l k s k y k s l l x x l z y y k l l j j j r t r r r 9 9 y u t t y y 9 u 9 r t t k k t k t w 9 t t t t t t t t k m { a.G.$.) O.R y 0 1 t k l y t t 9 ",
"%.} } { / / H M e 3.-XoX/./.u.R G G d G } H G G H / G v ^ { ] ] _ ;.@.] _ { _ g.! v ] @.] ..@.@.&.#.#.@.;.@.} @.;.@.@.&.&.@.@.@.} @.} @.@.@.] @.;.@.%.&._ M r.&.} / _ @.@.} %.@.u.=.$.-.$.=.-.>.%.&.@.%.$.@.@.] _ } } } %.1.~.-Xr.R m j 0 s ~ #.f i ~ / ;   X t G G } } @.} _ / M x v f [.g.@.@.} } _ _ ] { @.} @.@.} } } } } @.o./ ^ ^ ! ! ~ ! / ^ / ! ` / / ! ~ ^ ^ G H H ~ ! ~ ^ { / ^ ~ ! ! H ! ! ~ / _ _ _ _ _ / / ~ ! ! ! _ ` ` ! U ~ ! ! ! ! C.M C.C.M ! C.C.C.A M N M C.! ! ! ! =.g.Z.{.g.1.E E E 9 t v v v s n G = . - f G c / F.r.H / ] ] >.I.b.N.~...o.! ^ n.~.} y B ! / v b N M N n x x x x x n v v v n n d v n v n n m m x n M M M U G M v n n M M M U M M U n x N ;.x x U n n N N x U i.n N A x n N N N U N n n l B B U N U N C.N C.v x x x x m M x N n.|.-.j r = 0 l n l x l 9 + 1 w * G ] M G ! M m N C.=.u.g.t.B B B B l l B y r j r r r u u u y y y l y k l y y y s k k x x k s k t l k s l l k w k s k l l z l y t k s l k k B B u j t r r 9 r r 9 u j j j t t r 9 r 9 r t t k t k t w t t 9 9 y k t w k z { g.Z.&.W +.U y > - t s s k s t 9 ",
"%.%.} { _ / ~ v d { $.D.s.a.9.E G E D.g.%.G J G / { / ! G ^ _ _ ] @.@.@./ / ! ! ! _ @.) ;.@.@.@.&.&.@.@.@._ @...@.} @.@.} @.{ { o.] @.@.@.@./ _ _ ] @.-.%.} _ ~ ! M / ] @.} @.&.*.@.#.-.=.2.2.=.-.%.%.@.} @.#.=.%.%.%.} %.v.M.~ y ( Y j w y f b _ | ~ H ;   + y G ! $.} @.@.{ / G f v M v.@./ _ / / / / { } @.#.} @.} } } @.%._ / ~ / / ~ ! ! ~ ! / / / ` ~ ~ ! ! / ~ ! G ! ^ ~ / / / ~ ~ ! ~ ^ ` ~ / _ _ _ _ _ / / ! ~ ! H ! ~ ! C.A N b A C.A C.! M M ! ~ ! A U M A Y b M M C.! ! ~ ` =.u.N.~.D.y.G E R 8 t x v G o.G M 1 o & g G d %.2.{ _ @.=.@.-.N.n.N.M.` @.~./._ x v ~ M _ _ H ! M M m x x m G x m M v v v v l v n v n n N m M n n b U R M m n l s v v G M n N N x l n l B N m N n U Y N b N N x N T N x N Y U N n N n j B B T N x U N B x x B x x x y B p.[. Xn j l t = r y z z z x 9 ; 8 w = G { G M M M U Y ! #.g.M.u.x B z B B B B u r B r u r r u j y t t k y l k y k l l l l z x l l k s l l l l l s k s l l l s l l y t t k y k y r t t j y t u r r t r y t j j y t y r r 9 0 t t t k k t 9 t w 9 9 t t t t k m { d.^.=.E 7.` y 0 - t k l k y y 9 ",
"~ =.{ } _ / ! M x R ^ D.9.*._ m l G { p.g.y.} #.2.@.{ { { { { { _ @.@.! v.m.! _ ~ b ! @.;.@.*.-.%.-.-.#.@.@.@._ _ @.} &.&.$.@.o.@.@.@.&.-.-.~ ! } _ &.>.@./ / / } @.&._ _ _ } %.&.@.&.=.-.%.%.&.$.%.%.$.%.-.%.%.%.@.@.&.s.N.=.a...` ! l 0 y b H A H / v ;   X y G ! %.@.#.&.@./ H f b v 2.@.! / ~ H ^ @.&.@.@.@.@.} @.@.@.@.} _ ^ _ { _ ~ ! ! ^ { ^ / _ ^ M G ! ! / _ ! ^ ! ~ / _ _ ^ R ! ^ ! / ^ ~ _ / ! _ / / / / ! ! H b M ! ! ! C.b U ! ! ! ! ! ! ! C.M M M M M M b M U M M C.( C.( %.g.Z.F.D.y.G W E 9 d v v G #.H R 1 . & f G e a.G d _ } @.#.>.b.N.a.^.M.}.u.A H ~ ! M A M ! / ! C.b n n n n m m m M v m v l s l n v v G M n N N N M M M M n l y d l v G n j B l l x x x M n m N x n x x x N U M A N T N x N U N m n n x T B N B x N x n x j x B t j 6.[.B.m t p l l r = t z x n z x w X 2 w * J %.H m M U M M ! -.Z.b.=.T B B j n j B k j u j j j j u j k k y k t y y k k y y l l l l l t G k k G l l l l l z l l z z l l l t y s s s y j u r u j j t r r r y j j l z y t t t r w 9 t t t 9 t w 9 t t t w t t t t y v @.u.).@.n I.r.e 0 - w s l l y k t ",
"~ _ @.} { / ~ v f ^ 1.~.s.9.o.m k G ) { H H / / y.D.v { $.$.@.{ / ` _ } ;.@._ / ~ U / ;.] @.#.*.@.] @.@.@.;.] @.@.} { _ { ` ` @.&.#.&.#.-.-.=.} _ } @.=.=.#.} @.@.-.=._ @._ @.-.#.@.@.@.@.@.} @.#.-.-.-.#.&.@.@.} &.=.%.@.=.u.v.;.C.z j V y C.b / ,.%.b @   X y b H 1.%.&.&.} / M x x b u.#./ ) ! ! / @...@.] ] { @.@.@.@.] _ _ ~ ] ] ~ A C.~ / _ _ _ / ^ ~ M ~ ~ ^ _ / / / ^ / { / ! ! / / / _ / ! _ ~ / ! ^ / ~ ^ ! H M M G H ! ^ ^ ! ! ! C.! ` ! ! ! M M A M b M M M U b N C.! ~ ! ( -.,.^.OXD.~.n ) R 9 t v M v s x c & X - f b g @./ A ! ] @.#.%.^.(.-X-Xv./ x b C.b M N M G M G G G G n l y j M Y m m m M v s s l v v v v b m M m M M G M M m v s d s x m x j j y j ! b M n x x x x l z x j b R M b x x l x n m N n m m n z l x x l l x s j x y l o.m.a.n r b ^ c y l V 7 r k n n j j 9 X 1 0 * ~ } M ! ! G M M ( @.h.Z.#.Z j j n x l j B j k B u y u u u y y y t t t k k s y k l l l z z k G k s k s s k l l G k z z x l B j r u j u r u u t u k u u B u t t y y k l j j k t w w w 9 w 8 9 9 9 w w 9 k w 9 t t k w k v o.d.`.T.) o.! s 0 - 9 s s k s k k ",
"~ H #.} _ _ ~ v f / 1.T.9.i.o.n k G / { d.u.{ @.v G ^ o.@.{ $.$.@./ &.r.! @./ ~ M / / ] @.@.*.@.r.@.@.@.@.;.;.@.@.@.~.z.} n.r.{ #.-.$.%.{ } } &.@.@.=.=.-.%.&.] @.] ;.@.@.] @.@.@.] @.@.} @.&.%.=.>.r.=.%.&.@.} } #.r.u.v.r.] @.o.) x k 7 t M ~ } g.} { +   X y b ! %.} $.$.{ / b f x M r.@./ / _ / _ _ ;.] @.@.@.@.@.} ] _ / / ^ ^ ! ^ ~ ! ! / ~ ^ ~ _ / ! ! ~ ^ _ { _ ^ / / _ / ! ! ~ / ! / / / ! / _ / ~ ! ~ ! ! _ ~ H G ! ! ~ ^ ! ! ~ C.C.! C.~ ! ! C.C.A C.M M C.! ! C.M ! C.! C.` -.s./.h.u.D.m X.E 9 e n m G ! E s & . & b G b / _ H _ @.] #.%.Z.b._.(.%.H b v B b M M M M ! ! G G G v x l n N n N M M N x v l x x x v m m M G M m v M G M M m v n z x l j y y j j x A M x x l l s x v x l x x x x l x l x m U M M N m M v x x x s s s l x x U 5.-.m 8 y n b A ~ x l r = 0 j x l y B 0 X 0 0 & ~ #.~ ! R M U Y ! #.t.~.2.n B j B l l B j j j B u u k j k B j k t t t y k k s k s s s s s s k G k s y k s l l k l x z z l k j k k j u r V r r u u B k k j l l s y k l k y w w 9 w w w w 9 w 8 w 8 w 9 w w t t t t y t l { u.b.~.=.i._ f 0 1 k y k k l l l ",
"2.2.} @.} _ / b x { 1.z.=.s.@.z s v / J 1.u.} 3.H ^ _ / _ { { { @._ ! ! ;./ ) ) ! ( ^ ] @.;.@._ =.@.@.@.@.@.@.;.{ &.@._ { a.T.y.-.%.-.@.g.N.r.r.-.@.@.../ .._ _ } _ ] _ @.] ] ;._ ] @.} @.@.#.=.&.@.=.-.#.@.] _ _ ] _ -.>.=.%.u.-.) m t = w A ` ~ b f ! .   X y G H @.{ @.@.@./ A x v M u._ } @._ _ _ ] ] @.@.@.} } } / / / ~ ~ ` _ ` / ! ! ~ ! _ ^ ~ _ ^ ^ ^ ^ / / / _ / / / ( ~ ! ! ! ^ ^ / / / / _ _ ! ! ! H ! ~ ! ! ~ ~ ! ~ ! A C.! C.C.! ! ( C.U C.M ! C.C.M ! ! ! ! ~ C.U ! ` ! ! -.g./.N.N.{ R ) E 9 8 d v M M v z 1 . & x H b } / A _ } ` ] %.M.M.*.$X#.A ] ~ x n M M A H ! G G G m m v v m v M x m N N v s v s n v G v G G G G G m m M M M m v n n x z k y y j B x x x x n l s l x z s x n B l l s s x m n z x M v x b b U m v s x s s v ! / x w s l y l b B u B j 0 = 0 r j j l j V ; 2 u = / %.! ( R U U M ! =.g.M.1.z B B k j B l j j j u r u u u j y k t t t t y k k y s l k s k d k l t k y k k y k s l G G z z v B j B B u r 9 r 9 V u k y k u j s k d k y k y t 8 8 9 w 9 w 9 w 9 8 w k k 9 9 t t t 9 t k k x { u.).@.k O.( x 0 1 w t y t k k l ",
"%.~ } } } { / M v } p.`.t.2...z k z G / G / u.H / / / / _ _ { { _ ( ] _ _ / b p ! ~ ! ` _ ;.@.@._ @.;....._ ] ;._ / _ / { ~ G ~ ! { a.$.=.r.r.~.u._ } F.N.@.H ^ } &.&.@.@.} _ ;._ _ ;.o.} @.@.-.@.} *.#.&.@.} ;...@._ ( ~ ( } 2._ ( Y y 8 u n ~ / / ! q +   X l c H %.@.#.&.@.{ H x c A } ~ _ ] / / ` / ! / ] ] { / / _ ^ ! ! _ / / _ ^ H ! ! / ~ ~ ^ _ ~ ^ ^ ^ _ / / / / / / / / ~ ! ! / ^ ^ ~ H ^ / ~ ~ ~ H H ~ ! ! ~ ! ^ ^ ^ ~ C.C.! M M M C.~ A A C.! ! A U M G M ! ( ^ ( ~ C.! ~ C.-.d.v.B.1.G E X.E w 9 s x b R m x 1 . - b H b %.2.@.#.H M ~ %.M.M.i.~.N M H b H M A U U M M G M G G G M b m x l x x x x v n n v v v v m G R G G G G v m m M v G M b v v x y x n M b n n y k s x m x s s j v x y y y l j x x l s x v x m ! -.M s s y l n R v y y x z s l x N A M x j V - V r j j y l V ; 8 q * _ @.b ! R U M m ! %.h.G.2.x x B u y y j j u t u r r k j B l l j k k t y y y y k y k w y k l s k s y k y k s y k k k l v k j z B j j r u u 9 V u u u k u u y t t k l y y 0 9 8 9 w k 9 9 9 w 9 t 9 w t t t t k t t y t x { ,.).M...j...s 0 + 1 k k s s k s ",
"! / _ @.@._ _ H v $.a.{.2.2.) k s v G / ~ %.c 1 ~ / _ _ { _ _ { &.&.%.} _ -.-.~ x x ! A / @.@._ @.@.] &.@.] _ _ / ~ ^ / / / _ / } } _ / / / / ! / _ @.>.a.-./ r.u._ &.@.#.@._ _ ] @.;.@.@.@.] ] } @.@.&.@.@.] @.;.] ;.&._ ~ ) &.! ) Y j 0 t M ! @.2.@.y X   X s b b ..] #.%.#.@.! f v M G.@.G _ ^ A U ! ^ ~ _ ] ] ^ ^ ~ M H ! / ^ ~ ~ ~ ^ / ^ / ! ! ! ~ / / _ / _ _ / / ) ( / / { / / / { { ! / G _ ! J H b H M M ! ~ ! ! ` ! ! M M ! M M U C.~ ~ C.! C.! C.! C.! ! ! ` ` ( C.~ C.! C.! #.g.N.3.%.@.E X.) 9 0 s f m M v / 7 X $ f ^ M .X<Xg.@.v M ~ ,.Z.M.9.n.C.n n l M ! ~ ! ! M v v m M m M M m n l s j x v n n v n v M M m M G G R ! G n n v G M m G ! M M R b v M M C.n m m x j x x x s s d y y s s y y x b s s y s k x n n / l l s x G n M m s s s s x s l c m x j j j V * 0 r j j r B r ; 1 y 2 %.2.v m U M N m ! >.Z.OXg.n _ N t j y y t t r t t t j j j k l l z y k y y k t k t t t y k s k l l s k s k s s t t k l z s j T B u u r r 9 9 r r r u k 9 r t t s s k d t 8 8 8 w w w 9 t t w 9 w t t k w t t t t t y t x ` t.Z.=.Y 0._ l 2 1 8 k y k k y k ",
"/ / _ _ ;.] / H v 3.1.G.h.9.) z k x G ] H b G / ^ _ _ _ _ _ { { @._ ] } _ { / u.M.r.n x _ $.@./ _ _ ;.@.@.@.] _ _ ! _ } / H ! ~ _ @.&.{ _ } _ @.@.} @.] _ ;._ ! ! ] } @.@.~ V.=._ @.@.@.@.@.;._ _ @.@.%.-.#.@.@.@._ / ^ b ~ ` ] n U M j r t M ! / ^ H v X   . y b M _ @.&.&.@._ H x f v u.~ ! ~ ^ ~ ! H / ^ _ ^ ^ ^ ~ ^ ~ _ ! / ^ ~ ^ / / ^ ~ H A H M ! ^ / / ` / ) / / / / ) / / / / { / / / H G H H H G b H H A M ! ~ ^ / ! ! ~ M A M A C.! ! ! ^ ( ~ M C.~ ! ^ C.! ` ^ ! ! C.~ ! C.C._ d.h.Z.;X9.E X.E w w s v x { h.} 7 o $ 3 ~ G J ' ^ ~ H b ` >.Z.~.s.p.U n m z v b b M M M M v x v M v v v x s s x n M b M m G G m v v v G ! M G G c v m v n x v R H R G n b R ! U M M M v x x x x s t t t t s s y y ! U t s y s s l c n y y l x m _ v G M s y l s l s v m N j t j j r - = r u t r r V ; 2 q $ 2.h.x x x n U M C.,.h.F.r.N A t t y y y y r r u t u j k l k l l l k l j k s t t t w k y k t s l s s s y k k t G k k s s s j j j u j u j r u r r u u u 0 0 9 t k s k k w 9 w 8 w w w w t 9 w k 9 w t 9 w t 9 t t t k j j ] d.Z._ U O.n x u & 9 9 t t k k s ",
"^ _ } @.o.] _ A G %.2.G.g.2.) m l G G ] / ~ ~ _ / _ _ / _ _ / ! ~ ^ / / _ { %.! M u./.b.^ M ) / ^ / _ _ _ ] _ / ^ ! H ~ ! ! M M H / _ / ~ _ _ _ / _ @.@.} @._ ! / _ ] ;.@._ C.! _ } @.@.@.&.@.@._ } @.] ] ] ] _ / _ _ ] ! ! / _ x Y Y k r y M ! ` ^ ` x ;   X y b b ] @.] _ / / H x f v =.} M G M ~ ~ ! _ _ _ ] ^ _ _ / ! _ / ~ ~ ^ _ _ / ^ ! M ! H ~ ! / ! ^ ! ^ H } ! ~ / _ _ { ! / { / / / H G J ~ H b f v H A ! ~ ! _ ~ ! A U M A C.! M M ~ ~ ( ! ! C.! ! ! ! ! ! ~ ! ! ! ^ C.! ! C.*.] ,.Z.OX@.) ..E 9 w s v M H Z f 0 o - f G f b c A M N M / >.Z.UXM.I.C.n n x z x x b R M m x x x v v v s x l x M M M U M M M v v v m v M M M M M M v m m x x x M M M H v N U ! b M M m m x z y v s y w w w y y t y x j y t y y y x m v d v x M l v M M m v l x m b m v U b x r j j r - = r r t r t 0 @ 2 q & ~ } x x x x U U C.>.h.^.=.j 9 u r t j j y u r u t t k B j y l k k y k k j k t t t t w k y s k s l s s k w t s k t t s t s B u u j r r r k u r u u u u r r d s k d d t k w 9 w w k k w w 9 k w k w w w 9 t 9 t t t y t l / t.t.-.( 5.n d 8 - w s t k y s k ",
"} _ ] } @.@._ M b / [.1Xu.1.o.m m G H H ^ ^ / _ / _ _ / ~ H ^ ! ! _ / / _ / @.@.#._ _ n.[.M.@.! ! / / / _ / _ ! ! ~ ! ! ! M H ! H H H ~ / _ / _ _ _ _ _ ] ^ ~ ~ ^ _ @.@.@._ ^ ^ @.@.@.@.] ] ;._ ] _ _ @._ _ _ _ @.@.@.#.-._ -.=.m M n k 0 y v ! _ } { M X   + f b b _ ] _ _ _ _ ! f v v g.-.~ R ~ / / _ ] _ _ / ~ / _ / ~ H H _ _ ^ H H H ^ ! A M ~ _ ! H ~ ^ ! ~ A H M G ~ _ _ / ! _ / ! _ H H G G b c b b M ~ ! ! ! ` ! M C.! A ! ! ! C.C.C.U ~ ! ! C.! ! C.! ! ! ~ C.C.C.C.U ! ! C.b /.[.] b.G.>.) o.E 8 w l x G ! y y = . - f H s d.=.c v c ! ;.>.Z.(.M.I.C.n x j l x n v G M v x l s l m v y t y x m b M R G M M M m v v M R G R M m G M m v s l v M M M ~ C.~ C.m x x j x x l y r t l y t t y t w y y l s t y y l y j R n y M n x v m v x x v x l x m m v m N l t j B 0 - V r t j j j V ; = w = A _ v z x x x N C.-.v.~.&.9 r r r j B l y j r u j t B k u y k y y y y y y t t k t k y w k t k l s k k k d k s s t k s k s j j u r j r u j u r u k j u j u k k s k k t w d k w k k k 9 w w k w w k w 9 w 9 r 9 r r r r B / Z._.&.C.o.m s 1 * 9 s k t y l z ",
"] @.} @.@._ _ M v ^ t.9Xt.r.@.n x n H ~ / { _ / _ / _ / ! H ! J G ! / { _ { / _ ] #.-._ _ u.~.~.2.G ! ] ^ ^ _ _ / _ _ ;.~ U ! ~ ! ~ ~ ! / _ _ _ } @.} } @./ ! ! _ } &.#.@.] _ @..._ } @.@.} ;.} _ _ @.] _ ;.@.@.@.@.#.=.=.i.-.2.! n n k 0 t m ! ] &.} A b . & c f b } / _ } _ / H x v H N._ { } ] _ @._ ^ ~ ~ ! / ! ^ ~ H ~ ! _ _ _ / A x M ~ H ! ! ! ^ ! G / / H ! H G H ! } / J H ! ~ ! ~ G ~ H A v b M H ~ ! ! ! ! ! C.C.C.M C.! C.A ! ! U C.C.~ ! H ~ U A M M ! ~ ! b b M M U M C.U @.[.I.t.`.=.( X.( 8 0 x v G ~ m 8 $ o - c G d { D.G c G ~ _ >.Z.~.m.UX` z n j y s n v M M x x s s s n l t w u y v m G G M G m v n x m m M m M m U A M M n x v N M M M ~ A ~ M m v B j j B t r 0 9 u t j B u x x t y u y y y d y l s l l x j j x x x y l x l n l l x x v v b n y t l r = V t j l x j 0 $ = 0 = b ] _ n j n x n ! ,.u.(.>.j r 9 r j B z j j u u r u j j r j k r k r j j r u k u j j j r u u l l l l j k j j j j j B j u r B j r j j r u r r j k j B j u k j k j j t r t k z l k k t t t y 9 t t t t 9 t t w 9 s 9 w 9 x { g.D.1.G ) m y 8 - 0 0 t l l z n ",
"#.&.@.@.@.] ^ A c / @.G.3.u.{ z z y M _ _ { } } _ } ~ ! H b b G G H / / / { / / _ @.] @.&...` -.F.~.-.G ~ _ ^ / / ^ ` ] ! A M M ^ / ! ! / _ { } @.} } _ _ _ ~ / _ _ _ } @._ _ @.-.#.} _ @.@.;.@.} } _ _ _ _ _ ..@._ _ ..o.-.=.u.#.Y x k V y b C._ =._ / r.. ; f H ~ / _ / _ _ / H x f v r._ / / _ _ &./ M A A ~ / _ A H ! ~ / _ _ _ ^ G b G ! ! ! J J G G b G H G J G G H ! ! H G H ! H H G G M ! ~ A M ! ~ M ! ( ` ! ! ! M M C.C.! M A ! M A C.U ~ b M M A H b b M M v x c b M ~ M A b ` ] Z.).^./ ) X.R 9 0 s x H ~ v t = o - f G d H #.c f G ` ;.>.Z.~.B.I.C.m N x j s v G G G n l s s s s d r u w y n M m G G M b x x b b M M m n N C.A ~ M n b v M R x M ! ^ b v v x j B j u r 9 9 V 9 u u 9 B -.N f t t y _ y t y t s s k j x x l x y l x x x x v x x m m ! ! M x j j r * r t j j t j N - = q % / =.M x n n v n A #.N.b.&.k r u B B B B B j j j u r r j j r u r r r u k j j j j B j j j j j j t y l B j j k u j j j z r r j r r r u r r r r j u B j B r B l u k t r k j k x l k t t t k t 9 t t t t t 9 t 9 w t 9 9 w l { 3.N.1.( z.R t 8 - 0 r j l l v t ",
"-.>.&.} _ _ G v f / _ Z.3.2.R x z m R / _ } _ } } _ / ! H b b M ! ! / { / ^ / / _ ] ] _ / ] _ ( ! =.F.~.@.^ ( ` ` _ _ _ / ! ~ / _ ^ ~ _ _ _ _ / / _ / _ _ _ ` / _ } } } @...] .._ @.^ ] } ] @.@.} _ / ! @.;._ / _ _ ] @.&.=.-.@.x U j j 8 t n U _ %.} @.c   $ b } } _ / ! / _ / H f s c =._ / / _ ~ H H M M M M ~ ^ A ! ^ ~ / _ _ / / ! H ! ~ ~ ! ! H b G G G H H H H H ^ ! G M G b G H ! H G H ` ^ C.~ ~ ! ! ! / ! C.~ ! M ~ C.A C.b U A M U C.! ! M b v x b x x b v v x x b A U C.b M ` -.,.b.gXu.R X.E 8 8 y c H H b t & X = f G d | { f c G ~ ] >.N.M.k.I.o.) m x l l n b v v v x l y s s t u y j y l m M v M M M m n b N N m n x n C.~ ~ N v n v U M x n m b M M n x x j j u r 9 9 0 0 u u y 6.x t v y t y s w s y w t y y l v v l t y y x v n x x n z x M ! _ m m C.t r - 0 y j B y j = $ = 0 $ ~ u.v j x x z n M %.u.>.@.B j B j u j j r r j j 9 r u j u k u r r r r u r j j z z B j r r t t t k j B j t k u k j j j r j r j r r r u u V u u j j B r u k k k k k k r k j j j t t 9 w t t t 9 t t t t 9 w w 9 t 8 8 9 y / d.M.f.) }._ 0 = - 0 t y l H 2.v ",
">.V.#.} @./ H f x ~ @.^.2.2.` z n n b ! _ _ { _ / _ ^ H G b G H / { / { _ _ / _ _ _ _ ~ / / / @.@._ H $.V.~ ^ ~ ~ ` ` _ / ! ! / / ! H ! / _ { ~ ! ^ / / / / ..] @.@.#.&.@.@.] ] ] ~ _ @.@.@.@._ } } _ } @._ _ ) ` _ ;._ @.$.=.%.b Y z r 7 t v M ! } } e     + f f f / / _ } _ _ H f x c %._ ~ _ ( ! b b M b A H A M b ~ ^ _ ] _ ] / ! ~ H ! ^ ` H H H G H J / H ! H H / ~ H G c f G G G M M H ^ ) / ! ! ! ! ! A ( ! ! b M b M C.U M b M N b U ~ ! ! M M v x f y p x c v x N U M C.C.U b t.s.t.d.F.=.R X.R 7 8 s d v H G y t X = G G G } e x G / ;.] ,.Z.M.6.&.( X.x x x s s x n v n v v s s y l x B x x c x M M M M M m v v n n m x x Y n n b A C.M M b v v x n M U R b n N n y u u u r u u u 9 r.M u l l l x l t s l t w y y s l x v l y x y y v l s s s y s m m ( n y j j 7 - 7 j j z j B y $ > 0 $ ~ _ B x x B x v b } g.v.=.Y B B B j u j u j B B u r j j j B j r j u j j B B z B j B j j j r r r r t j u t u k k r j j k j B u j B r r r r j j j u r r B j t t j u k u t k k k r t t w 9 9 t t t t t t t 9 9 t w 9 9 3 s { b.G.9.R a.&.9 8 - 0 t k x p / = ",
") =.2.%.{ / ~ x f M } ^.t.d.( n v x m ~ / / ! ~ ! / H H ~ G ! ^ ! ^ ^ ! ^ _ _ / / ^ ^ ^ ` _ _ ;.{ _ _ ^ ! / _ / / _ _ ) / / _ / ^ ! ! ~ ` ~ / ~ H ~ / ` / _ @.@.] @.} &.} ] @.&.@.@.@.&.@.] ;.@.@.@.@.@.@./ / / ! ! ! ~ _ &.#.%.C.M k 7 - 0 x M ' 2.M e +   $ H ~ H / ^ / } } _ H f x v %./ @.2.M M A v b ! ^ ~ b n ! ^ ^ _ _ _ _ _ ! ! ! H G ^ H H G G ! ~ J H ~ / ^ / ! H G b v M M b M A H ^ ` ` ^ ! U ! ! C.! ! ! ! A M U M b b N x n v b ~ ! C.M b v B y y x p v v f A C.~ ! C.A b u.4X).~.^.} ! ) m 1 8 d G } { G d x X 8 c b f H c b ! / ;.@.| v.I.i.5.U M n x l l s v x v m m M n x s x M U ! M x x v M M G M n v v x n M M M A ! b ! ^ N M b x x l l x n N M M N n x y t k r t y k 0 =.^ 0 l y s x m x l x x y t y y s z s s y s n n d t s s t t y t x j t y z z t V - 8 y n x y ! y X = > $ ~ _ x v j x j x v ] g.s.@.T B u B j B r B j B j k r j j j u k B u u u j j B j B j j j u r r r r t k u u j u u k y r j k j B j B u u u r V u u j j j j r j k u j j k r u k j y r r r r r r w 9 t t k t 9 t t t 9 9 8 0 s %.h.G.u.( &.! t 1 - r t y y u y w ",
"/ b H } $.{ ~ b x M ,.G.%.d.{ G z x b ! ` ! ~ ^ ^ / ^ / ^ / / ^ / / / / / _ _ / ^ ^ ^ ~ ^ ( / _ { / / / _ / ^ _ _ ) } / ) _ ../ ! / ~ ! ^ ^ _ ^ ! ! ! / _ o._ } _ } } &._ ] #.&.@.@.} ;._ } _ _ _ ) _ @.@./ ! ~ ! M b A / @.} %.! U l 7 - 0 x ! %.G d d $   @ M H b / / _ _ _ _ M f c b #./ &.} ~ M M ! G ! ~ ~ A M / / ] _ / ( / ^ ~ ! ! ~ H M G b b G H G G G G _ { _ ~ ! G b b b M M M M ! ! ` ( ! ! ! ~ C.C.! C.! A ! C.M b b v x x x v N M C.C.C.A v B p p f x x c v A ^ ! ! C.M C./ N.Z.{.5Xo.U ) z 1 8 c / { G s y ; o 0 c G f { G H / } ;.&.#.g.Z.V.5.U M m x x y s l s x M b M M m n l b C.M v x v v n M M N x x B l b M M M ! ^ x A ~ ~ C.n v l l j B l l n n n n y y y y j B x 8 -.=.u y t t t y y s l s z x s y s l d y y s l l s t t y t t t s y s y r y x n j 7 $ - u B y f A 2 ; = = $ ~ ] x x y j x x b _ r.u.&.B A B u u j z B B B B j j j u u r u k u u u j j B j u B u j r j t r r k u t k u k r u y j r u u j j k j r r r 9 r r r u r j j r t u t k u u k u k t y r r r 8 r 9 w 9 t t t t 0 9 t w t z w f ~ h.G.r.E s.{ 0 = $ 8 t t y y y m ",
"{.g.b G / _ _ M x ! %.G.g.g._ l j x M ! / / _ / _ / ^ ^ / _ { / ^ / _ / / { _ ~ A ! ! ~ ^ ! ` _ H ! @.^ ( / ( ) @.@.~ / ] _ _ ^ / ! ! ~ / / ^ ^ ^ ! / / _ @._ _ _ _ / _ _ } ] ;.} @.@._ ;._ _ _ _ ;.@.] _ ! ~ M b A v b ! ] @.#._ ! z 8 - 7 x ^ b f ! q .   + v / H } ! / _ _ / v f v ~ Z.t.v H H H ! / ! M M ! ! ! ] ] ] ] / ~ / / ` ^ ^ ^ ~ M M G G G H ! ~ M G / / ! ! H G M b b M M M b M C.! ! ! ! C.H ~ C.A M ! ! C.M C.C.M N B x x b M C.! ! C.M b x B B x b v x N ! ! ! ! C.M b ] >.g.^._.! G X.R - 0 v H G 3 y.%.y o 0 v G b } G ~ { _ -.-.-.A.M.i.5.C.M M x l s l l v v m U b n v M x M M x v x z x n M M m v j j j v M M M M M M A H b p v B x B t j n x x j x B y y t t t x 8 @.n.f y u r u w t t y y l s x x s w l t t t s l x y y d w t d y t y t t r k x l k r $ q ] f b f x x $ - > % H _ x n y y y j b @.t.N.=.u T B j j j j j B z j j j u r r j u u r u 9 u j B j j z j j j u t r y k r t j k k r u k r j r r r u u r r r r r 9 r r r r j r r B k u u t t k u r t t t t j y r w 9 9 t t t t 9 9 y 0 s G y x } b.G.y.M r._ 0 = - 8 t y y y M q ",
"y %.^.N.~ v b b x } Z.}.b.r.M y y l M ^ _ / ) / H ~ ! / _ / / / ] ! / ^ / / _ / ! M ! ~ ` / _ _ ! ~ _ ! ! ! / ! _ b.H ;...] _ _ / ! ~ ! ~ / _ ] _ / / _ ] _ _ ] / _ _ _ ;.;._ / _ ] _ _ @./ / ^ _ ] } _ ! ~ M M M b v ! / &.=.#._ ! z 7 - 7 s M H H %.d 2 o + f H H ~ ~ / _ ] ] A y v H M.2./ } #._ _ / ^ ^ / ! ! ! ^ _ _ _ / ! / _ _ / ~ H G ! H ! G G J ! G R H ! ! H H G b v N M M n b b ! M M A U M M A C.! C.U C.A b ! C.M A N v N v M M C.C.A M A b v x c v b N v A ! ! ! A ~ C.A _ r.d.~.2.^ E +.z 1 1 v H G d s 0 0 o 8 f c f #.! ! / / ;.-.,.Z.I.@.6.! U M n x s y x n b M M M b v b M M M x x x v v x m b v v x B y v M U U N x A b x x B x B C.n j l x l l y j z j y y y j 8 @.M.R b y y y u w 0 0 y j x x z y =./ w s y y s s s y y t s t t w w t w u u r l l y 7 - * p Z b / } y $ = = $ ~ &.n j y y y k b ] t.UX3.B r B B j j u u u B B j j u j r u j u r u 9 r j B j j B u j r r y y y j y k j y t r u B j j r r 9 r r u j r u u V 9 r r r r u j u k j B k u u u r y t B C.N b y t w 0 t t t 9 w t t 9 w w y v 2.H./.r.) o.M t = - 8 t y v 0 0 u ",
"2.^ H =.b.).b x x #.2..XN.=.M k t x M ! _ _ / / ^ _ / ! / _ _ _ { _ _ } / _ ^ / _ / ^ / ! / ) / ! ~ ! ! ! / ` _ v f ] ] _ _ ` ! ~ ! ` ~ ~ ! ^ ~ _ ] ^ ^ ] _ _ _ _ _ _ _ _ / _ _ _ ;.;.;.] ^ ! ` ../ ^ ~ ! A M n v v b ~ M ^ -.#.! l l r - 7 d G / d.3.A _   X y H b { / / } %.=.~ y x / 2.} %.#.} / / ! / / ~ A v M ! ^ ! ~ ~ ! _ { / ` H M M ~ ! ! G M H H G ~ H ! ! ~ ! M x x N N M A b M M M C.C.C.M M M M C.C.U C.M A U M U M N N b b M C.U M M M N M N N M M b b M ~ M ! ~ _ b M C._ 2.u.b./.@.m R n 8 0 v b G b f 8 & o 1 v b v 1.! H ~ ! H { %.b.M.i.V.` ! M v x l s l v M R ! G v v v m M M x x y x M M x N M x x x l x M M R b N M m y x b b _ b j j j j j j y j j j t t j 0 _ ~.x M M y t r r u w R x l y l x x R y s s s y s l s s s y y y t t t r y y y y n j t 8 - ; + y ! Z b $ X 0 Z x / #.l l B j u B N -.t.N.t.B B B j r u u j u B z u u u u u k r r r k r u j j j u u u k r r t j y B u u B r r r r j j u u r u 9 r u j u j r r V V u r u r r r j j r u t u k t t w e e s z t t k w 9 t w 9 t t t t s f f G } h.G.r.U r._ 0 0 - 8 t k x j y y ",
"} ' %.v H >.] c x @.@.a.3.2.b y y y M ! _ } _ ! / ! ! ! / _ ] _ _ / ~ v._ ^ / ^ ~ ! ~ ! ! / _ / / ! ~ A ! ` ` _ _ _ ^ ^ _ ~ ~ ` ^ ^ ` ^ ~ ! ^ ^ ~ ^ _ _ ) _ _ ] ;._ ;.] _ _ _ _ _ ;.;._ _ ^ ~ / ] _ / / ! ! ~ ~ M b v v v C._ _ G v x t - r n G / 2.e b =   X y H v ~ _ } } } / M y x M %.@._ } _ { / ^ ~ ^ H ^ a.! H ~ ~ ! ! / ~ ! ^ ! M M H ~ ! ! ~ H M H H H ! ~ ! M ! b v b M b M N N N N M A U M b m M M C.M A ! C.C.C.A M ! M N M M M ! M M N M N N N N M M M A M M A H ] >.^ A A ~ } t.Z.} _ R m z 7 8 v b b b G v 1   - f G G G.b G / H c G | Z.M.r.B.V.R m m x c n v v m M R G M v x v M x x j j y x b b n n x y j y B v M b m M U b l l b ~ M j y y t j j r j t y y r y 7 @.~.x s s y y y t 0 y y.y x x y s l x y s x y t s z v x s s s y y y y y y u y r y z z k 8 - t l M H } #.u X y x p b @.v n l z j B N ;.d.a.>.x j r j j j r j k B B j j u j u u r u r u u j j j j u j u u j r u k k B B k k k k r r k k r j r r r r j u j j u u r 9 r r r r r r j u r t u B k l t l b v t t t t 9 9 d w 9 t 9 t 0 t G H M b _ u.b.r.) 5./ u 2 - 0 t y j x l B ",
"b.G.d.,.} f ~ v y _ r.F.g.>.m y y j b ! / _ / ~ ~ ! / / / _ ) _ _ _ ! ! / ~ ! ^ ! ~ H ! ! _ _ / / / ^ ~ ! M ! ! ! ` _ ^ ^ ` ! ` ` ` _ / ! / ) _ _ / ` ` _ _ _ ` ~ ! _ ;._ _ _ _ / ` ^ ^ / ! G / _ _ / / / ! ^ ~ b b N v v v b M G m z t = 9 n ( _ x v M X   X j M M / b } } J ~ b y v H r.v.s.H ^ ! ~ ~ ! ~ b &.a.! H ! R H H H H ! ! H H H ! ~ G ! ~ G G H M G H ! ~ ! A b M A U M A M M b N C.C.b M M N N M M A ! ! ! ! C.C.C.A M M b M ! U C.M C.A m N m N C.! b M M ! M ~ ! A / _ ~ #.>.d.Z.} %.m E z 8 9 w d G G f f t o - f G d D.u.H _ M M M } Z.Z.i.k.#.M v v v m M G G M G G v x l x v C.N v N x x y N U b b x l y y j x n m m n x x x v b ~ x j y t u r r j y j y y y 1 ` UXy t y y y t q y 8 9.=.y z y t y y d y t y l l s v v n v x l s y l l y j y y t x m k t 8 = q p g ~ @.H 0 ; p ~ b c @.U N n B B B c -.v.d.@.u r j u j u B j z B j B j B j j u r u r r B j j j u u r u u r r u u B u k u u u k k k u j u r r u r r u u z j j u u r 9 r r r u r u r r t t k B y l G v y y y t k 9 t t 9 w w 1 1 G s s b f v } d.b.2.U v.-.0 u - 8 t y j j M u ",
"3.N.h.Z.H ' ~ v y _ 2.F.u.-.U j y j m H ! ^ / / ! / / ^ / / / / _ / / _ / ! ! ~ ! ! ! / / ~ ! ! ! ! ^ ^ ( / / ` ^ _ _ ^ / ) / ` _ _ ` ^ ! / ( ^ _ _ _ ..] _ ( ! ! _ _ .._ _ _ ! ) ~ C.~ ! ! ! / / _ _ _ _ _ _ b b U M N b b / {.%.x z 8 - t x G ( / ! r X   . y H b / / / ' H H b d x H N.r.r.! ^ ~ R M H M ! / ! ~ ~ ! H M v A M H ! H G ! ! ! H ~ H G H G G ~ ! ! ` ! ! M C.U C.C.M M U b v b M M C.M C.A M M C.! ! C.C.C.A C.M M U C.M C.C.~ C.` C.b c x N M M M A H ! U ^ ! A U A v | b.Z.b.v.O.R T m 8 8 s x b v H c 1 o $ f G f / b b _ H ! ~ } h.b.a.a.( M m v M G G G m M R M n l x x v N x B N v j x y n M n M x x x z x n x x j x x n v A b x x j y y y y t y y t y 0 M ~.x y l s y t y y = $.v._ l y j y u w t w t t d s v v v l s v l s x x x v B B y y y l Y m 8 - t p H %.y t 8 o f K 2 ' t.M m m n x x Y ,.s.Z.-.r j u j j j j j B B j B z B j r u j j r u B B j u j j r j 9 r u t k u k y u u k u u r r u j j r u u r j u j j j u u k r 9 r u u j u u r t t u u s _ s t t y k t d t w k w 9 y G G G 1 G f x H } d.Z.=.U z.@.q 0 = w t y y k y u ",
"H b / ~ Z #.A c y _ t.Z.g.t.M x y j M ! ! ! _ _ ^ / / / / ^ / / / ! ^ ~ ! / / ! ~ ! ! ! ^ ^ ~ ! ! ! ! ~ ~ ( / _ _ ..` ` ..) _ _ ( ! ~ ! ~ ! ( ` / _ ` _ _ _ _ _ ` _ ^ ! ! ^ / ! ~ C.~ A H ! ~ ! ! / ^ ! _ / ` ! ! ~ ! ! A ! ] ).=.x z 1 = 8 v G ! U M v $   . y H M ~ / / / ~ ~ b p x H 2.! M / ^ ! ~ G G H ~ ! ^ ! ! H G M v x v M H M H H ~ H ! H M M ~ ~ / ^ ! H ! ~ ! ! ~ ! ! C.C.M b b U C.U ! b C.C.! ! C.C.! U ! C.M U U m M C.M C.C.C.! ! C.M N x c N x b b M M C.^ ! C.A U M N s.Z..X~.[.2.n R m 9 w s v H ! J } b o $ f G G ~ c G #.! H ~ } Z.Z.s.N.) G m x m v x M n b m m n v n v x y v v x N v x x v C.M M b v l j j j j B l x x m v v ~ H v B j t j y t y y y V ! b.x y l s y s s y 0 =.~._ l y l y t t w t w y t y s l n x x x v x l M v x x v l k y r k M y 9 - 0 t z = r k u . p p O #.,.C.n n B B B Z -.d.d.` r u u k B B k B x n B z B B l t k u u u j B B T j u u j r r r r u j u j B u r u j r k r r r j r r j r j u u j r j r r r r u j u t t r r r t s / f } e s t t y t k k 0 8 1 G G d H G d G s s ! | d.Z.=.` -.! B 0 - r t t k k y k ",
"H Z y d A @.~ B y ;.V.v.r.&.M j x y b R ! ~ ~ ! ^ / / ` ! ~ ^ / / / ! ^ / ! ! H ! ^ ! ! ! ~ H ! ! ! A ! ` ` .._ / / / _ / / _ / C.~ ! ! ~ ^ ! ! / / ^ ` _ _ _ / ^ ^ ~ ! A H G ~ ~ ! ^ H M ! ! ! ~ / / _ / ^ ! A M H ! ~ _ ] #.~ { m l 9 = w v R _ / ! m $   X x H H } _ / ! / / A y x H } ! / ! ~ / ! ! ! ^ ! ~ ! ~ ! H ~ G M f x v M M M M H H G M M ! M G H b H A M G C.! C.! ! ` ^ ^ ! ! ! ! C.~ ! C.A U A ! C.M b C.A M C.b N N M C.C.M C.C.M M M M l x x N N b n M ~ ! ~ M M M N A >.b.Z.G.OX$.m R m 8 w v v / | ! ~ t o & s b c } ! G @.@.` H ] h.b.t.V.U v s y y y l x x x x v x x v l s x x x x x v b b v M U b m m x x j j j B x l B x b M H ~ b p j y y y y u y 7 M (.x y d t s s t s y n n...y t y y s t w w 0 w s t s s x n l x x x n x G x M b v y r y 0 z z 9 9 - 8 r r t y j r - f V @ ' ;.m n B j z B Y -.B.s.` r 9 u u r j j B z x B j j j B t B u j r u j ` C.u u r r r u j j j j j j u u u r u u u j j j j j r r r r j u r j r r r r u u j j j t t r t w f b f f c c 0 w y y w G G { l 1 G d G d G G G t ~ %.h.A.=.( @.! B u $ 9 r y z j z y ",
"} } %.%.] ] ~ c p @.V.:Xr.;.M n z y b H H ~ ! / / ! ! ! / ! ! / / / / ^ ! ^ ! ! ~ _ ^ ! H H ! ! ! ! ! ! ~ ! / ) _ ..` ` ) / ` ` ~ ! ! ! C.! ! ` _ _ _ _ ` ! ` ! ~ A N M ! ~ ! M ! ! ~ M ! ! H G M ~ / ! ^ ~ M M M b M C.^ _ #.#.` n z 0 7 9 v G _ _ ~ m -   + y H c / ~ } / / ~ H s x M @./ ! ! ! / ^ ~ M ~ ~ ! ~ G H G H H G M H b M M M v A M H H M ~ H ! H G b H H M N A ! ! ~ ` ! ! ! ! ! ! ! ! ! U U C.C.M H R M C.A U C.M c x x N N M C.C.C.M N m N x x N n M N b M C.A M M M N A -.a.d.h.b.=.n E Y 9 y s b / %.J z 1   - f G c ! G ^ =./ M ~ } b.M.s.6.N y y y l x x l x z v b v f H x y l x j x x b x B b v v v M m n x l j j B x l B N M v x M x y j j j j r j 0 ~ $XM t y y t t s y t M I.@.r s y y y y y w w w w t t t l l s l s y l l M ^ b ! ~ v y r 0 7 y l 9 7 - 9 r k k n k r X $ > 0 C._ Y n B j B B A ,.a.B.` r 9 r u r u B j j x l l B j y j j u j r u B B u r j j r r r r u j B j r u r k u u B B j r j u r r r r j j r r j j r r r r u u j j t t t 0 M H f y x y s t w t y t s G G s w G f x G G G l l G } h.Z.>...;.M x 0 * 7 r j n k j y ",
"/ / ' } ] ' ^ x p r.&.N.r.@.m j y l m H ! ^ / ! / ! / / ! ^ / / / ` ` ` _ ~ ! / ! ! ~ ! ~ ! H ! ! H ~ ! ! ` _ ;.] _ _ _ _ ) / ` ` ! ` ! ` ! ~ _ ` / ~ ^ / ! ~ ` ! ~ M M ~ C.! H ! A R ! H H H H M M M H b v v b v v A ! / ] @.=.( y n 9 = t n ! _ _ ! M -   X p ! v } } } / ~ ~ H y x H %.` ( / _ _ ^ H v G M G ! H ! H M M H H b H M ~ b M H M M v H H G ~ H G G b H x N b A C.! ! ! ! C.C.C.~ C.! C.A N ! ! ! ! C.C.C.C.C.M N l x x B N M A U C.M x b M M N N N b N n B x N N N N N C.>.3.g.UXM.&.n E R 8 t v G J b b y ; X ; v M G / ^ } H H ! M } b.Z.u.V.N l l x b x l s y x v n x H H l t x j j B x N x x l x B N M b n n x l j y j j j n n v x j j j j j t y y 0 U n.~ y l t t y y s l l u.u.y y t y t s 0 t s s e t w t d l x s s l s y l x v x B p v j y t 7 t y 9 7 - 8 t t k z j 7 $ e v 0 / _ n x j j u B N ,.s.s.;.B V r 9 r u u j x n n n x l j j j u u u u u u u j r j r u r j B B j j k r r j u r u r r u u j r r u j r u r r r u r r u r r r u t y t t y v y f ! ~ x s 9 9 t y t s l s l G G G G / G d s x { %.d.Z.V.( _ v x 0 = r j x j j j t ",
"/ ~ J ! #.} ~ f p t.&.B.d.~.m 0 9 y M ! ^ ~ A ! ! / / ! / / ! ^ ^ ! ! ! ` ( ! ` ( ! C.b A ( ` ` ^ ! ^ ^ ! ~ ` ` ;._ ] _ _ ) _ _ ` ` ^ ( ! ~ / ` ^ ^ ~ ! ^ ^ ~ ^ ^ ! C.! ! ! ! ~ ! H C.! H ! ~ A M v v b b N b M v N v A ! ;.-.r.! j j r 7 r v G _ _ ! m -   X r H ! 2./ / / J _ M f x M u.$.~ ! ^ / ) / H A ! A ~ G G G G H ~ M v A G ~ M M M M H R M A H H H M H G g b v b M M H H ! C.! C.C.! ! C.A N M C.` ^ C.C.! ~ ! C.N N x x x x x M M M U b M ! M M M M M M N x B x x x b n x A =.2.t.g.~.=.z E Y 9 y z M H H } G & X - g G c 2.&.` ! ! C.M ] d.v.r.i.b k x x x j j j x x x b ^ ~ b b y y j j j j y B l B j x M M b M b b v l x j j z j y k l y y y y y y y = ~ f.y t x j y y y y x x =.v.B x y y y t - &.u.y x y y t x m f s l l x s s n s s l B b M l y y 7 9 t 9 7 - r t k j z l V V c f 2 / _ n x k y j y M >.b.~.,.l j V V r t t B n n x x j j j y u u r r r u j u j j u j u j B B B B j j j u u r r r r r r u j r r j j u j u u u j 9 r V u j k B j j u B B j x N v c ] y y r t t j j 7 x z t j r r n j n m v ^ } d.N.=.C.9.~ u V % r t k j x k t ",
"' } #.d.J { / c c t.U o.=.v.Y r r j A C.C.~ ! C.! ` _ ^ ^ ! ` / _ ( ~ ~ ! ~ ` ! ! ~ A M A ~ ( ~ / / ^ _ ^ _ C.! ! ` _ ` ` / / / _ _ ~ ! ~ ( ` ^ ^ A ~ ^ ! ^ ^ ! ! ! ! ! ! ! A ! ! ! ~ U A ! M ~ H b M b b ! ` ! ! A M b M ! @.;.m x k 9 7 t b ! ( / G b &   ; y G / %./ ~ ~ ^ J b s v A } / G v ^ ! / / _ / ! ! H ! H H H ! H M M M G H H ~ M M M ~ H M ~ ! ~ H H b b v v M M A M ! ! M ~ C.M ! ! C.m N b C.! ^ _ _ ` ! C.M c l x x x N n b ! U M M M U M M M M M C.x B B B B x x x x ! >.d.v.~.u.A E ) n 8 y n m b b G w & o - s G H 1.H / / ~ A A ] r.Z.N.B.U x x x x n j l B x n _ N ~ ^ H x x v x j j j j j B x x n U R M m m x j z y y y t y y y y y y y t l = ! a.s y l s x l y y v M ( ~.m y p j s 8 0 N.|./ y n B y y n m y x x x x x l l v c x N @.U y j u V 7 k r 7 - 9 t j l l l V 0 c q 2 / _ x x j y B j M >.u.{.M.y t r V r t j B x l z x x x y j k u r j j u r j r u j j B k j j B z j u j j j u r u u j r r u r j u r j u 9 r r j r r r r r u k r B u B U C.C.x l y x w r t x v ;.o.7 y x t j x x x M x m M M | d.h.=.C.M.@.0 V $ V y t j j j j ",
"} / ~ } / } ! g c u.@.u.,.>.x t 0 y M C.H ! ~ ! ( / / / ^ / / _ / H C.~ ! ! ! ! ~ ! ! ! ! C.^ / ` ` ^ / _ _ ^ ` ` ` ` ^ ` ^ ` ! ! ) ! ` _ / ( ` ! ! ! ! ` ^ ^ ) _ _ ! ! ! ! ! C.A ! ~ H M ! C.C.! M M M A ! ! ! ~ M M b ! _ _ @.M j k 8 = y m ! ! ! C.M -   X p H ! ~ { / J { / b f v M 2.} r.N.M.@.M / ~ ! A ! H H H H H ! H G v A M M M H A M H ~ M ! ! ! ! ! ! G b b b A H v v ! U b ~ ! M U A U M N U ! ! ^ ! ^ ` ! C.N x x x x x b M M M A M C.M j x M M M M n B B p B B x x x M _ r.N.^.^.2.~ n R G 8 t x z v m v m & . - c b M b._ ~ ! M M M ] t.g.v. X` n x z x x x v A M C.v y v M H b N B t y y j l B v N N v v b x x x l y y y y t y y y y t y y y l 0 ( z.f y s l s s x B v b ( b.v x p v B 1 ! D.r.y l s y y y p x y s x v x l s s s x x x U U N j y y 7 r k t 7 - 9 r k k l l V ; x x > ! ~ z j l j j y M ,.t.g.#.t r 0 0 0 t j B B l B B j y j x j r u j u u r r u r B j j B j B B B B z j j j j u j j j u j B u j j r r u u r j j r r r r u u j N A C.B j B B N n v u y y n x t U y 0 t n j l M M n b M v n ~ @.d.b.r.( ( ~ q > $ = y j y l B C.",
"/ } / / } / / f b r.k.UX2.=.j r 9 y N C.~ H ! ! / / ! ! ~ / / / ~ H M C.! ~ ~ ^ ^ ( ! ! ! ! ^ ` ^ / ! ` ` _ ! _ _ _ ^ ! ~ ! ! C.~ ` ) ] .._ _ ..@.` ! ` ) / / _ _ ^ ! ~ A M C.C.! U M M ! H ! ` ! M H A ! ^ ! ! C.M M M ! ! _ ` n j y 7 - t b G ~ ` ! m -   $ y b ^ H ~ { { } { b f x b v.} %.a.~ H ~ ~ ~ ~ A M H ! M b G H ! M M M M ~ M ! M ~ ! M v b H G G ~ H H G b v b v G H A M ! C.U A C.C.U M M C.! ! C.A C.! ! C.M N N N N v N M C.! U v ! b x x n v n c M x y B B B x x x v b >.~.}..Xd.A z E z 8 t x x n M _ @.G o = f b b _ H H ~ M M A ] >.B.B.(.@.m n j x x B C.} b U b x p v A A v y r r r j B j y M ! b ~ A } v x j s y y y y t y x M s t t y t ( N.y x l y y x s l x n C.^.H f x v y r a.M.v t v x s s y y y y y l v v n x s x y k x m n x y y t r 0 t 9 r - - 0 u t j k l 9 u x y = } ^ z x k t j B b -.2.v.>.r 8 r r t j j j x B j B x j j y j j j u u 9 V r u j j j u u k B B z B r u j j u j j r u u j B j u u u u 9 9 u r r r r r u r B B C.C.B u B B x N b v v z z y l y r y j k m U v ~ x x v v x x b %.b.~.r.M k.>.2 = X > p x x x ! A ",
"~ { _ ^ / / ! b b =.N.^.t.s.n t 0 t m ! ! ! / ! ! ~ ~ ( ! ! ! ~ ! ! C.! ! ! ! ( ^ ~ ! ! ( ` ;.;._ ] ^ ~ ! ` _ _ ~ ` _ ^ ! ~ ! C.` ` _ _ _ o.@.../ ` ` ` _ ^ _ _ _ ! M M M A ! ! C.! C.M A ( ` ! ! U A A A ! ! ~ C.b N C.! ` / ! m y 9 $ - t m ! _ _ ! v -   X y H H } { ! / | { M f x b #._ ] A H ! H H H H M H H M G G M C.M M H ! ~ ! C.! M H M M M H M H H H ^ ! G b v M M H C.! C.! C.! M A C.A C.! ! C.U A C.! ! C.~ M N C.A U A M C.M U M M U M b v x y B N N x B x b x x x x x v 2.~.[./.g.{ 9 E z 9 d z m M ! ! v 0 + = f b f } / } ~ M C.M } r.B.n.~.` n j l j j B v N b v x l B v ] / x v r r r t t j y x N A ! H ~ n z j j p x l s t u A b j y y t x o.x y l y y y y x y x v ^._ f v v 0 ! [.a.y y l x l s l k j y y y l s s B j j x l j x n l y u u u q y q 0 9 * $ 0 u y y k l t 7 q e 1 ! { s l t y t y b =.u.d.] k 0 0 j l y y y y j B x j y y k B u j r u 9 r 7 r r j u u k j B z B u u u B B B j u u j j j j j j u r 9 u 9 u r r r j r k r u r N n r r k x A n M M v x N N u m _ ! x x M c c Z b A 0 j s e G t.Z.d.-.Y &.~ x = X 0 g p x M b s ",
"{ / { / ~ ^ ~ f Z #.k.[.r.-.m j y x M ~ / / H ! H M G ~ ! ~ G ! ~ ! ! ! ! A ! C.! C.C.! / / _ / _ _ ^ ( ` ! ` C.C.~ _ ^ ! ! ! ` _ _ _ @.@./ ` / ` ! / o._ _ ) / ^ ~ C.b b C.C.! ! C.~ ! ! ( ^ ^ ^ ! ! ! U ! C.M b b b ! _ &./ M l t 9 - $ t M ^ _ / ~ x -   X y G ! @.H G ~ } / M f x b } ! @.^ M H M H M M b ~ ~ M G b M b ~ ! ! / ! ! ! A M M v b H H H G ! ! H ! ! ! H H H M ! ! A M b M A U M C.! ! C.! C.M C.! ! ! U M C.M M C.! C.! M M b M b m m n x x x x B B v ! ^ x x x v v J h._._.r.3.{ t R z 8 d l M R G x x 8 X - f f f 3.3.} ~ ! ! _ #.2.r.~.}.m N j y y y x n N n x v x n M ~ A / A x j j B x x x y j b / b B l B x n x l x s y y y y x y y x R q y y y t y y x x M U /.=.f M x q r.[.! u x s y y s s s y y y j y t t y y t j j j x j j j j u u t t t y = 7 - - V u j k B x u 7 e y * ! ^ t y t t y j N -.r.d.=.y y 0 t y y t t y y j B y y w t u r u V r V 9 r r j u B j u j B z j u u j k u k r j u j j j j j j j j u r u j r r r r j j r r u B t t k k x B N / ~ b n N B ! c H H A x H / v x A ! x x f c ~ g.Z.Z.-.n ..n r * + = p c M ~ ! v ",
"/ { _ ! _ / ~ b A >.r.UXu.=.R M m ! / ~ / / ~ ! H ! H G H ! ! / ( ! ! ! C.C.C.! C.( _ _ ^ ^ ) _ ^ ( / ! ^ ! ~ ! ! H C.C.~ ^ ` ) _ ` / _ / ! ! ` _ _ _ _ / ` ^ / ! C.M A M M C.! ! C.! C.C.! ` ` ` / ! M ! C.C.v x c v x C.^ ! b w 9 t w e l R R ! ^ C.n &   X t b G { G H { ] / M c x p 2.A H b v M M M M H R M ! ! H M M H ~ ! ! ! ! ~ M M b v b M ! H ! H H ! H ! ! ! ! ~ G M C.! M M ! M C.C.M ! ! ! A U M ! C.C.! C.M M M M M M M M M C.C.M M M b n x n x x x x v M ~ ~ ~ N v b ^ t.[.-X$Xb.g.' 9 G v 1 t x M G b f v t ; - t f G | ' } / / | } 2.b.b.t.&.C.C.M y y k l x n x x x n b ! v H ] ~ A M b b N A _ v x b ^ ! n n n j n M v x l y y s l y y x _ y w y y t u t u y v v M.s.x H y G ~.n.y j x y l s y y y l y r t t y r t w u w t y j j B j t y y y 0 8 u = 7 7 - = r j j B l T u 0 d q * J ^ y t y j N x ~ 2.2.h.d.y t t 0 t y y y j x l B j t u w r r r r r V u u u u B B B B j B j u r u u j j u r r r u j j j j j u j u 9 u u 9 j r u k r r r j t j t r B y B ] b p N C.n B A u v A b ~ x v y C.y 0 0 y i H +XfX,X/.3.B X.U j * + 2 g f x ~ x v ",
"/ / ! H H ! { J ! N.p.=.r.r.) ` 9.i.&._ _ _ / ! ! ! ! M H ~ / ! ^ ! ! A U A C.~ ^ ~ ` ] _ _ ` ( ~ ` ` ~ ~ C.n b b ! ~ ! ( _ ` / ` _ ` _ ) _ ! ! R / ` ! ` ` ^ ^ ! A A M M b v C.! ! A U ~ ! ! _ _ / ! ! C.C.M b x x x x N b ~ ~ l n E ) R ! ! H ! ` ! x &   X 0 G G / H / J / / / ~ / r.a.b v p f M M H M M M ~ ! ~ ~ A v b M ! ! b ! M A U ! b C.H U ! ~ M ! H ~ ! ! ~ ! H H M M A ! A M b M ! U ~ ! M ! M M M C.C.C.M M M M b M M M C.C.M C.N n b M M M x x x v x b ] _ @.} M H } N.4XmXVXgXUXF.J z z R G f G M M m v v w ; - d f v 3.3.} ~ ~ } %.(.jXfX|.B.M M N x j y x l B l l v m b N C./ v ~ C.A A b c A / A n H ] ! n x j x n M m v x y y y l x x @.A q w t w t y u y u y &./ A H x r.(.] y ! b l l s s s y x l y y r r t t u r r 0 0 t j j j y t u y y 0 0 0 0 t V 9 q B l x B B x r V e q * ! ~ l y x A C.A u.XX,X`.g.y t 0 w y l x x j l x B y r 0 0 r r r r r u B B j j j j j z j j j r r r j u u u r r r r u j j j j j j r u j r r r u j u r r r r j j B t u B ~ C.N U N M b M l x n b ~ ! b ! y v x > y y H }.AXPXVXfXI.y _ &.k 7 $ y b f b f b M ",
"{ / / / / / } 2./.v.$.r.2.v. XU.%XT.a.=.] _ ] ] ` ! C.~ H ~ ! ! ~ C.! ! A M C.! ! H ! _ / / / / ` ! ~ ! ! C.M b N b b ! ! ^ ^ ` ^ _ / _ _ _ / ( ~ ! ! U ! ! ^ ` ^ ! M A U M M C.! M C.M N C.` _ .._ ` ! C.C.C.M b N x x c v b A ( R.q.Y.Y.+.( ^ ` ` A x -   . 0 M G / H ^ ~ ^ ~ ] =.gXqXA x y y x v M A M H A ! ! ~ ! ! v b C.~ ~ b A ! C.~ U M M ! ! ! A M ! ~ ^ ! ! ! C.~ U ~ ! M C.M C.b N M ! ! C.C.M M M n M C.C.M m N N N b M M C.M N M N x x M ! M n x x v N _ / ] C.A ' #.~.dXZXDXJXLX-X,./ m L.uX8.] / M M R ^ ! 0 X - s f d 2.#./ / { @.^.nXLXKXJX^.M B x N v n c N B s y x m m x n b l M ! y b C.N b x N Y C.C.U n B j l N U N x B j y l z x x x N x y 0 u u u w y l y./ l x G g.y.s d n G n l x x s s s l y y t w w s y t r 0 r 0 u y j k y y y p y y q 0 y m Y Y Y n M n x l x 9 . q e * #.^ B x ~ ] ] t.9XPXKXJXt.0 9 0 t y y x l x x x x y 0 0 0 0 u 0 0 9 u B u u j B B j u k B u u u u u r r r r 0 0 9 u B u k j j u u u u 9 r r j j r r r j j t M B y 0 x ! b C.v q x l x M ` x 0 u v x n x y v M v ~ [.AXZXAXJXZXN.m M ) W n x b b b c c c c ",
"_ } { _ / } a.`.>X0._ ,.2.3.>XBXuX%XR.j.>.] _ ! ! ! C.M ! ! ~ ! C.C.~ ^ ! ~ M ~ ~ ~ _ _ ! ! M A ! ` ( ! ~ M ! M M b b ~ ^ ^ ^ ` ! ! / ..] ] _ ! U ! U ! ~ ! ` ( ! ! U ~ C.! C.~ ! M A M b U / _ _ _ ` ! ` C.M C.C.M M b b A A ~ H @.L.U.!.Y.O.` _ A b x $   X 0 f M } ! ^ / ~ ] s.zXVX=.c p u y c v b M H C.! ! ! ! ^ H M C.~ U ! b M ! C.U M C.! A ! A ! ! U ~ ~ ! C.C.M ! C.C.! U A U M U M M M C.M C.R M b v A C.C.M b x y p N U m M b M A M x x M M N x v N b ] g.u.d.#.#.#.^.zXDXDXZXLXLX~.J J _ 8.yXaXw.../ G ! v f 8 X = G ! g { H / { } Z.AXKXLXKX,X..b p x N m M M M N m x v N v x n x x b N x n b l n N N N C.! N l l B l N n x B j y s s s x y l v v ~ H u r 0 y q r.{ d q @.~.H e f l s v v x x x x l l l y y y t t l y s t r r t t t j y r y y e p y y y y Y w.w.8.Y n v x j j V $ e e 2 _ } N ! ' ` 3.,XAXLXLX(.x t 0 8 w y j y f x j p x y 0 8 8 0 9 0 0 y y n B j B B B j j j r V 9 u 9 r r u r u r V V k k B B u j j u j r j r j k j r k r j u B C.C.j m ~ M b x x t t t t p x y y r t x t t y f f ~ {.ZXZXAXJXSXy.l x d n 0.Y.) b c f c G H H ",
"} @.} / _ =.~.7X&.M M ~ #.| @.:XMXuX%XR.j.=.` ~ H A C.! / ! H H ! ! b v ~ ^ ! ! ^ _ _ / / ~ M C.! ~ ! ! C.U ! C.U M ! C.~ ! ^ ^ ! A / .._ _ ^ ~ v v N b M ! ! ! ! ~ U ! ! ! ! ! ! U C.M M ! C.^ _ ! ` ^ / _ C.( ! A C.C.v A A v H b +.!.Q.!.Q.+._ ~ N x -   X q c b / / ~ ] ] B.VXVXi.N x y y x x v b H b M ! ! ! ! ! A A C.C.M M b U ! ! C.C.C.C.! M A M C.! A A M M U M M ! ! M C.A C.! C.C.C.M ! C.! M M ! ! C.C.C.M m x B B N M A A b A C.b v v b N N N b M b #.,.A x A >./.zXJXDXDXLXZXb.~ J H G ~ 8.tXMXY.@._ v e u = X 7 G H f ~ / / ] D.AXLXLXKX-X` N B y v m M M M M M v v M ` v x x x x M v x n n n x Y N x l x x B x l x x j j y y y l s l s s x x x ] ,.b u y 2 ! $.0 G @.! f x x t s s f x x l x y s s s d y t s s s x y y r t y t t t y r y y y y y w u y k E w.w.8.Y x k l B V - e d 0 ' _ b / ~ -.-XnXLXJXB.j j 0 8 8 0 l p s x x y j y y y 0 0 9 0 u u B N x B 9 B N B j k u r r 7 9 u j j r r 0 9 r r 0 u B j j j j u u r j k r k r u u r r u B y B B y y M A x n m j y t j B y x r 0 y r t j y H {.AXZXVXSXJXD.M y u t x ) 8.w.W m v c d f G ",
"@.} ! { z.~.:X$.b v y x J [ | / &XBXrX#XL.6.] ] / ~ ^ / ! H M M ~ ! / y 2 x ! @.&./ _ _ ! ^ ! ^ ( C.! ! A C.` ` ! C.C.M C.~ ^ ! M ! / / _ _ ^ M b N N N C.! ~ C.A M b ! ! ! C.C.M C.~ C.! C.U M ! ` ! A C.U A ! ~ ! C.b v v x b H J g X.#X!.!.Y.@./ Z y -   X u v v _ / @.-.Z.ZXcXr.M b v y y p f v v H b b ! R ! ! A U C.C.U M M M M C.! ! ! A ! ! M M H M M ! H M A C.b ! A M M ! U A C.M N b ! C.A M M ! M U C.! C.M m c x x N N b b M C.A M M b M b c x N y A >.~ / ~ / A.IXJXDXDXLXJXN.G J H b f f / 5.tXNXL.&.~ x k 7 ; - c v d / {  .D.AXKXJXKX|.~ B B p B x M M M C.M M b m v C.b j x x n M x j j x n m N x n l y k x l l x l B y y y j x s s s l y x n c A ! x 0 o.{ u x #.G t s s l y w t l s x l l l s t y t t s s l l y y t u 0 w t 0 r u r r y y y y 2 2 w t k W w.w.8.R z l l r - 1 e * _ ] A J #..XAXKXPXi.j y V 0 8 0 u y x x f x x x y w w u u 0 q y r B Z c x B Z T Z B r u r r r u j j r r r V 0 r r V r u k u u j j j j u r r r j j k r r r y r r y B N N y y x l x C.y B b j u y 0 0 u v B ~ ^.jXZXAXZXJXF.e q w 0 y x ~ ` q.L.E m c f f c ",
"$.{ @.v.(.>Xs.! ! x c G G K L | _ 8XBX=X%Xi.o.;.] ^ H M ~ ! H ! ~ ! a.[.~.o.0 0 ~ / _ _ ! ~ ! ! ~ ! M M A ! ( ! ~ ^ ! C.C.C.! A _ / ~ ! ` ! A M M N M M ! M ! ! C.b M ! ` ` ! C.M M C.! C.C.M M A C.C.M M b M M M M A v b N M A H M b c ! ].%X!.L...~ b -   + p y x _ } r.F.AXcXV.C.A c N x B p p v A M b C.M ~ ~ C.A M M C.C.M N M C.M ( ! C.! M A b b M C.M C.! A C.M M C.M C.! C.C.U A M M M M ! M M U A M ! C.C.M M b n x n N v v v M A N A ~ ~ M A b %.~ x t.] ] ] t.t.qXJXDXDXKXDXN.M b H b c d s b _ *.rXBXU.*.~ f 1 ; $ q f x  ./ M.AXLXLXKX(.! H y y B x N N M M A U U M M M C.v p B B N ` x j j B j n x B T N j x l l x v v l l y y x x s y y y y j y y t f w _ r.! a.n f l x l t t s t y y k j j j y y y t t n n s v x y t t r r t 0 0 0 0 r t w y y u 0 0 q w q x R q.q.8.Y k x 0 ; 1 d 0 _ _ v ] -XAXKXDXp.j u 0 0 0 0 0 q y f c f x f y y u y y u u q y B u x c C.` B B B u u u u u u u j j u j r r 0 r r 9 0 u u j j j j j u r r j u j z u r r k y r B x x j j y l l x B x B N B s y y y b x l / G.qXAXNXJXLXM.e e w 2 w y x H @.R 8.Y.E s ^ v f ",
"} } a. XtXi.~ _ A v v v f c H / } ^ 3XNX%XU.w.&._ ~ A b ! M H ! M ! M / B.}.-X~.} y 2 f ! ^ ~ ! C.C.C.! ! ^ ~ C.! ` ^ ~ ~ ! ! C.M M ! / ! ! A U C.M C.C.! C.! ! ! ! M C.! ! ! ~ C.M C.M M M M U U M C.! N m M b b x v v U A U M f y f x c ^ c.uX!.L.] #.=   + y e H @.@.Z.LXcX..M m b v x c p x x v b M M A ~ ! ! C.U ~ C.U A U C.~ ! U ~ U ~ C.! C.b n N M ! M b ! U M M A U M M ! A A C.C.C.! M M C.M C.M C.C.M M C.b M v x x b N N N b N M b ~ ^ x H r.>.x B ~ ~ =.:.' ,XPXDXJXLXJXM.A A A b c f f d v J ] ) &XBXQ.$.G q X - 0 f f u.t.jXKXLXKX/.C.M v x f p x x x v x n b M M C.A ^ @.x x B x B B p y j B N x j B B j j l n l v n x s y l x x z z v l x j t t y y G r.b $._ m M x f l d t t t d t s y y y y y t t s f v s l x y t y t y w 8 V V 7 0 0 w y y 0 2 0 0 0 y l l m 7.7.8.R k 8 + d d 1 ~ ,.] ;XVXKXAXs.y y 0 V 0 2 0 0 y d e p x y y y y y r u u r y y B c Y u B u B T k j T B B T B u u u j r u r 9 u 9 V u u u j u j j B j j u 9 r u j j j j u t r B N B y j j n n k x u j c u y M x w y x / /.6XnXxXZXAXF.v x w 0 0 e f f f v R W q.U.E ) M x ",
"_ @.~.|.r.H ] ~ H G c x d f G J ~ ] #.}.pX#XU.w.6...( ~ ~ H G H ! ~ ! A M b _ b.}.&X~._ q 2 y v M / @.! ! ^ ! ! C.! ( ! ! ! ! ! G H A ~ ` ~ A N M C.C.C.C.M C.! ! ! C.A A ! ! ! ! M M ~ ! ! ! C.! M M C.c n N N n v p x M ! M b c x f f b b M L.uX!.Y.o.u   X y M ] %.M.JXdX-.A A b x x B v c c b b b b n M ! M A C.! ^ ~ U A ! ! ! ~ ! A C.M M C.C.C.b b A A M M C.M A M ! ! M M C.M C.A U ! C.! C.U M M M M C.M M C.M n v x x n b b b M b C.b M b H M ~ ~ >.' ] ] ' ] Z.xXJXDXJXJXM.C.~ b M f f f f c A ~ H b o.&XBXW.5.x . $ y f b Z.wXKXLXKX|.U b v y f x x x v x B v N N v n ! b b x x n x B y b b B x n N x j r j x x z l G M v x l s x x x x x x y s t y y e f t.{ *.x w y ^ { l l d t t t t t d y y y t t t r y y s s d y l y y y k t 0 8 0 0 0 y t w t 0 0 0 0 w e y y p m 8.7.) n u $ G g & ~ >.{.VXLXAX6.B B e V V 0 0 q y y y y y y y p y q 0 u 0 r u y p B n B u u Z B j B Z N B B B r u r u j u u u u u 0 9 u u u r j j B j j j j r r r j j j j r t t j y B B B t r l k k r t j N M x y j y ~ {.qXzXVXCXJXM.b v y f 0 0 e 0 q f f m R Y 8.Y.+.! s ",
"o.M.6X@.A ] _ ~ M c c f s x f G H H ~ ~ |.pX%XU.L.i...~ ~ ! ~ ! ! M M ~ ! ( ` M M / s.~./.v.r.@.x f } u.;.~ ` ! A U ! ! ~ H H M ! ~ ! ^ U M ! M b M M C.C.M ! ! ! ! U A ! H ~ ! ! M U U M b ! ! ~ M m M N N N N N x x x b C.C.A M b v f f M H v w.yX!.!.U   $ f H ] u.cX:X@.M M A v b B c x B v x v b v v b ~ ! ! ! ( ` ! ! C.! _ ! ( ! ! C.b N M C.! M M M M M M M M C.A ! ! ! U A M M C.A U C.C.C.M M b C.M C.C.M A C.v x v x v ! A A C.m M A A b H ~ ,.u.] A C.' @.[.AXAXAXKXDXn.C.M b b v c d d f f J ' A v } 1.&XBX2Xm o ; y b Z ,XLXKXLX^.U M y p p y y x v v v n b M n x N C.N N x B x B p B x B B x n N l B B u y x l s G n x l s y s l l x x l y y y y y 0 1.b } s y x s t x x l s d t y y t y j j t t r r t t s l y y j y y y y x y r 0 0 8 0 s 0 0 8 u 0 0 0 q e y e y y n 8.+.E l - G f 1 ~ d.4XLXcXB.x y q q q V > y e e y y y y y p y y r u r 0 0 0 u p B B u x A u j j B u B T B r u 9 r r r u 9 u 9 9 V V 0 9 9 r j j u r j r 9 9 9 r r u u u r t t t j c N y r t x j j r r N N s u y d ~ OXjXnXCXJXPXs.v x = 1 2 1 u 0 y w i f x m R Y X.8.+.x ",
"$.6X1.H / ~ J H M f f y f y f v G b d J _ &XMXW.#XI.0._ A ` ` ~ H M M ~ ! ! ~ / / M b M / r.UX:X6X/.@.n b ! _ ] _ b M ( A M ! H ~ H ! ~ ! ! A M M M N U M ! ! ! ! C.~ M A A H ! ! R U M M m ! ! ! ! M v N x v N v x b b M M A A H M x y y x v ! b w.!.!.(   + y H @.qX|.b v b f b v v v x x x v x v b v v M M ! ~ ! ! ! ! / ` / ! ! ! C.! ! v x M C.A M M M M b M A M M M C.C.A N b b M C.C.C.C.! C.! C.b M C.C.C.M C.M M x x x b ~ ] H H M M b H A M / u.,.~ ] t.N.5XJXAXVXKXxXu.b H G b b b c f e f f b J H f p A _ ].pXz X ; e H H nXKXZXm.U M l B y p x B v m m v m m v x x v x x x x p y M M C.M ^ v y x x x n B l B j j x v m x l s s s y s n s d y y u r 0 M f.v 8 l s s s s y s l s y s l y y y k y w w t t t y x y y y y y j y x y y w 0 8 0 w 0 0 1 0 w w 0 0 0 w 0 0 u u 0 m X.X.r $ d d 1 J OXKX5X1.@.B y q 0 0 0 0 u u u q q y y s x y y u 8 0 0 0 r j B j j u B N u r B l B B N B u 9 9 u u B u 9 u 9 7 V 9 V u u y k y t r r t 8 0 0 r r r r r r u t u 9 x N j r t y t t u 7 y y u y f } OXnXZXZXGXLXv.d f 0 1 1 1 - 1 0 v A i p p x N U N Y w.X.",
"z.} H / / G G H G v y f f y s v G b v c H ! /.MX%XU.x.V./ ~ ~ ` ~ H ! H M M b H r.] ! ! ` ! M b -.[.4X/.v./ v v ! ~ M b C.! M ~ ! A G ! _ &.;.( C.! M b m C.! ! ! ! ! C.A M b ! ! ! ! ~ ! M M C.` ` ! A M x x N M ! U U ! ~ U M v x f q q e x A ~ Y L.W t   + y c ] OX3.,.b Z A b v c v x c v b b c c M A A M M C.! ` ! ! U ! ! C.~ ~ ! ! ! C.x N C.U A M C.M M N N M M U A C.C.M b C.A C.M C.! C.A ! C.! M C.C.M N v b m x l l l ! _ b H b M M ! A M b M H ' ] Z.IXAXnXAXKXcX@.f b b b b c f c f y p f C K K f q e c C.9.9 o ; q G b 6XxX6.! M B B B p x x N N M M x v M M v x x x x v v p M } A b ! ~ v y l x x j j x x l x x x x s s l y s y t y y l y y y 0 x (.G y s s l s y y s d y y t G A p y y y y t t t y t t j y j y y y y x x y t t w w w 0 9 0 8 w t w 0 0 0 0 0 0 0 2 0 x r ) Y X 1 b 1 J wX-X! G v p y r y q u 0 u u 0 u 0 0 q y f y r u 2 0 u t B u u l B l k r u u u j B n B u u u r u k u u r u u 7 V 9 V 9 u u y j t 0 r u y r u u r r 9 8 r r j u r r x x n j j 0 0 u 0 r u y f _ -XnXZXSXPXJXF.b b y = = = 1 1 u t c p e p c Z g c C.n Y 8.",
"{ f / J g f H M b c f s M f f c c G H b M M f (.kX!.I.B.r.] ` ` ! ~ ! H H H M M _ -.M ^ ( ` _ ^ M B m =.[.4X}.9.v y v M G G ~ / ^ H ~ ` / _ ;.#._ ( C.! C.A M U A ` ` C.M b M ( ! / ) ! ! ! ! ~ ` ` ` ` C.M N M C.! ~ ! ! A A v x x x f e y n A ~ M n n 8   X p b A 2.' 3.3.Z A f b c c f b b M b M b v M M M H H ! ! ! ~ b M ! ~ ! A ! ~ C.b B n M C.C.C.C.M M x B b M U U C.M M m M M M U C.C.C.! U ~ ! U M b x x x x v x v y x l x x m M b M M N x v H / K b.xXPXAXAXKXjX=.M c s c f f b f f d s y b J K g c f c A f N - o ; 2 f f u.z.b M x y y B y y v b M M M M M M m v n x v x f x x _ H ~ ^ x M x x x y l x B m l x x l y y y t t w y t y t t y y l 0 ` b M x x x s l s s t y t y f b ~ A f t y y t y y y y r y y y x y u y x x x x y w r t t 0 0 0 0 w w t w w u u 0 0 q y q b f ! y ; b f 1 } M.c x x y y y y y u y q 0 r r u w 0 w e y y y y y y y y x j j j j x j u r u t j B r u u u u u u u u k 0 u 9 V 7 V V 9 u y j y t r 0 0 n y r t r 0 r r 8 u j j t j j l l y r r r y b y y f / OXxXCXDXJXGXN.b H G w = = = 1 1 w t e g f y A Z g A j y ` Y ",
"/ H G g e f A H M b x s f f f c c c b G b b H x /.pXU.P.p.V.;.` ^ ! H G M M M ! ! b ~ ! ` ^ ^ ! ! ! ` C.M ! u.[.-X(.@.y y b M ! ! ! ! ! ~ ! ! ^ ` _ / C.U C.A b x C.M ! C.b A ! ` C.C.` ` ! ^ ! ! ^ ` ( ! A N U C.~ ! ` ! M v x f f c v y f b M ~ ! M m $   @ f c ~ | ~ ,.J A v b c v b v A A ! M A M b v M M H M ! A ~ U M A ! U C.! ! M M b B x b M A C.M b N x N N n b b b b M N m M N b M A C.! C.C.C.M N v M ! x M M b b v x n m n n M b M N x v M _ #./.VXJXZXDXKXgX=.b v s s y f b f f f s s s d d v G G f x b p u ; o X 0 f G u.%.v x x B y y B x N M U M b M M G v M x x x H H x f M ~ _ M p f x x x y v j j x s y y x l y w 0 w u 0 0 w w u t B r _ ..w s m v n M x y t t t w x x f H ~ v t y y w d y k y y t y y x y 0 y j v m x s y t y y t 0 0 9 w 0 9 w 0 w q y y y q p A y R 0 + f e % H #.x y s p j y y y y y 0 u y u y q y y y y q u q y y y y N B B j j x t u 9 9 t B j j B B j k u j j u u r u u 9 7 V V u j j t t t 0 r w t y t j j r 8 r r r B t j x x j y r r 8 0 0 y 0 y / {.vXVXDXPXGXZ.M ~ K f 0 1 = = 1 0 w w 0 H x = p g Z ! V M ! N ",
"H G f e M / M M H b x f x x b M G v G f x M H H x '.pXI.L.k.t.;.~ ! H M G M H ~ ! ! ! ! ( ! ! C.M M C.! _ _ M x ! a.|.}.s.M M G M ! ! ! C.C.! ! ! ! ! @.` N x l x N C.C.! ! ( ! ! C.A A U M M C.! ` ! ! ! N M ~ ! ~ ! ! ! M v p f x x x x v A ~ ! ^ ~ x $   . x c b b.3.i e ~ b v H A M ~ ! A A ! M M b m M M M A A R M M ! A U M A C.C.b v b v n N N N N N M c x b N N c N M N M A M M b N M M ! M ! C.C.b b c H M p ] } ~ ^ H v v M v v x n n n x N ~ ] [.PXPXPXDXKXgX&.A M s d s f x c v c c c c c x f b G G b f } 1.u ; o X 0 c G d.f H ~ H x y j x b M M M M b m n n x x v v v Z ~ v x x b v x x B j x x z v l x j s y y l x y 0 u 0 9 0 0 u w t y 0 ) o.r l s x x l y y t t 0 t 0 x x y c v y r y r u y y x x l x s t y y 0 0 s m b v l y t t t s t w 9 0 0 8 8 w r y u y y y v b t.] 8 ; d e 1 b %.v 0 t y y y y y y y y y u u u u y q y q 0 0 u y y y y B j j B x B j r 9 u k j n T T B B B j B j j j j u j u 9 V r r t t r r 0 0 t w u r r r r u u r 8 r u u B x x j y 0 7 7 7 = = u ~ [.xXAXZXJXJXUXb / y e 3 y q - = 1 8 w 0 t w r y x A y 0 N ~ c t ",
"! G v b H H H v M M v v x c x b g G G G b M M H C.x |.yXI.I.B.V.{ ^ ~ ! H H ! ! M ! ! C.C.! C.b x M C.! ~ ! ` ` ! n v _ N.v.! ! ! ~ A U M C.! ! ~ C.! U U ~ M m M M ! C.U ! ! ~ C.` C.U M N M A ! ` M b A U C.! C.M ! ! A M x y f x v v b M ! A H _ ~ x ;   X y A Z A Z H #.H A _ H H ~ ! C.! U A ! H b b x M A ! M H A G M b b b b M b M v v x N N v x l x N x x M M m x N M b m U M M N b M M M U M M b v G M b b f J / ' ~ M H M m l x n n x n N ~ @..XPXPXZXPXKXfX@.! M p f s s v v x f c v c v b v b b G J b b c b x ; o X 2 s G 2.d c b b y y x v M M M U U b n v x x x j x v f f b x H v u p x x v x x x x x f j l s s x x y t w 0 0 0 0 0 u t y ! @.u j y l x x s y y t w u w r t t s x y t u r r r u B x s y x s s y w u 9 y m M b x s y y y w d t w 0 w 0 0 8 0 q y r y H J H p b t + t 3 % H %.d t t t t w u y y y y y q u 0 u u y y y u 0 u y y y j k u r B j j j t r u B j B B j u j j r B j j u u r r u r r y r r r u r 0 0 t t 0 r u 7 0 y B r 0 r 9 r t l B j y r 7 7 7 0 r ( }.xXDXGXLXLX^./ b q e c q q y j 8 1 1 t t t w y t B x 0 8 r p B u ",
"! H H H G H ~ M G b b b v x v M v G G H A A C.A N C.x UXtXL.P.P.i.} / ^ ~ H ~ R C.~ ! A M b b M N M C.C.! C.C.M ! / _ ! v M ! ! C.C.C.M N M C.~ U ! ! A N M M ! ~ M C.! ! ! ! U M M M M b M M U M ! M b A C.~ C.M v x b A M b B x N v A A C.C.~ ! M n b ;   X y A Z ~ ^ H H A ^ H H M ~ ! ! ! C.C.M ! M b b M H H H H ! A b M b b b N b v c v N N N N N N N N x c N M N v b b x N M b b x B x N A M M n v v M v H H H H ~ c c J ~ A N x x m b M N A | .XPXDXDXDXLXqXV.C.v v y y y y x x x y y x v v b G G b H ! b G e b M ; o X 1 x v 1.v v y s y x N M M C.M M M N n x v x B x v v v H H M v v y x v v x f b v v v v x s y l v x l d y t t u 0 0 w y y b k y l j z y y t t y t t r r r r y s x y y r t u r r j t w s s y y y y w 0 w s n x n x d t t s y t w 1 8 0 8 0 t y y q q M b b 3 v t X 2 e = b %.d q t w 0 u t u y x y y u r 0 u u u y y q u t y j j j j u t t y t t t u t j j B j B r j j j j B j j u r r u r y y t u y u r r y t t r 0 t r u j y u r 9 9 u t j l j t u 7 V 0 0 ! }.AXJXJXLXLX~.M b y = f 0 = 0 q 0 = 1 0 y t w t r r u 8 r r r y b y ",
"! ~ M M ! H H H M M M M v c v A G G J H C.A M A N A C.x I.&XL.I.n.s.@./ ! ! ! ! M A ! C.N N v N M C.C.! ! C.M M C.! / ` ! ` ! H M M N N b b C.! M C.M N b M M M U M M A ! N x N C.C.C.M M M C.M M ! b n N U ! ! b x x b C.C.C.b x b M U C.! ! C.~ b ! m ;   X q p v ] b M A } M v M M R A ~ A ! ~ ! ! H ! A M H ! H ! ! M M M b M M M A b v N N b x M N N N x x x n N c b b x x N M v x f p x x v N b b x N g.H f c b } ] H ~ H _ A n n m M m M A #.;XZXDXZXDXKXzX-.C.A y y u u q f f f x y y y v c g G G ! J H J J / d.T ; o X = f b 1.G f s l x x b U C.M N m n x x x x x x v B y f M H ~ c v B n v f _ _ c b N v b x s y l x s l y t y y y y t y y y t y B l j y u r y y y t t r 0 0 t y x x y y y u u r j l y s l y y l l y w 0 w l x s x l y t t s y t w 8 8 8 0 0 w t y y b ' ~ f M H 8 $ f c 2 H 2.f t e 0 u y y y y y y y y y 0 u y u w y y y y y j k j j u k k y k t k u j k B z B r r r j r k j j u r r r r j k j y y t t y y y t w 0 0 0 y y B y y y u r t u t j j y r 7 0 u ~ |.VXJXJXKXKX/.l y 0 0 = = 0 w t 0 = 8 0 9 y y 0 t 0 8 0 r r t u y ! y ",
"v b M ! ~ ! A M U M b M b b M A H H H H H G M G b H H / c x.*XW.E.I.r.@.] ! ! M ! C.C.H b c x v M M ! ! ! M n M ! ( ^ / ` ! ! N M U N c m N U C.A M M N N M C.! ! ! ~ M M B B N C.C.~ M M M M M n C.M B N A ( C.b N c v A C.A U b M C.! C.~ C.C.~ _ _ x X   . 0 > ! =.H ' ~ N y x M A C.M b M C.C.! ! H ~ ! A M R A ! M M H M A ! ! M b b b v b M m M M N B x y B x N M N x x x N c x x B B B B B v b b v b f f x H ^ v A b N M A n n n b M M M / ;XPXPXZXZXLXcX9.` M j y u 0 t f c x f x f y x l v b H ~ ~ / | ~ J ^ H v $ o o - f v t.M x x x x m M U M M N M M v x v x B x x y y B y B c c v x x N N A v N M x x x x l x y x j f y y y l j y t y j y k y x z r r r t y y u y r 0 0 9 w s x y x y y j r y x l l x l y t r 0 t r r w y y s x l t w y y y y u 0 0 0 7 r r r y x A #.c Z b y 0 - J f 8 H d.v v b u t y s x p j u u y y t w t y q y y y y A x p y j t r y k j B y l l j l B j j r r j j j y r r t t r r t y j y t y j l y y t t 0 V r y y k y r y u V 7 V t B B j 0 t y H }.VXGXLXKXKX/.M l t 8 8 1 1 2 8 0 0 7 8 0 r 0 0 y 0 7 V 9 t y y j u 0 0 ",
"/ M M ! ! ^ ! H M M A A M U ! A H G b G H G H b M G M b M l n.2XI.W.n.V.@.~ ~ M M ! ! A M M x v M C.! C.M M C.! ~ ! ` ! ! ~ ! M M M M N N M A M U C.C.C.C.M M ! ( ! ! n x B x M C.M C.U b x B B N M N M C.! / ! b v x N N M M M N M M ! ! ! ! C.! x x v X   $ p q x A J h.#.x y x b M N v b A ! ! b H H A ! ! b b N M M A H ! ! A M M b b b N M C.b N N c B B x N N m b M N N x x x x B x x B x c v b C.v b v x v b #.~ b N b b b M x v U b H @.-XPXZXZXZXKXvX&.U N B y y y y y M v x x x x y B c b H J / / / _ ~ b v p y $ o o - p A } b x l x v m N M M N N N M m n x j p y y y v x B B B x l x n b M c x n x B y y l s x y x x B f x y x j x l y y y y y x x u 0 0 8 r r t r t t 0 8 w l v f x y t j j j B j x x x y r 0 8 8 0 0 w t t y y l t y y y t y t 0 r 0 0 r u r y c c > u ~ ~ ! 0 ; d x d G h.A v x t w y y y p x y u y B u t u u y y y x b A x A v x j j j x B x l n x j B B B u j u B j u u u 0 t j y y j B y p x u t y y y t t 0 0 t t r r r r r 9 7 7 V 9 u y B x x ! _.nXPXGXLXKXI.m j w w 0 t t 1 8 1 8 = 8 0 r r 0 t p x r 7 0 y B x x r y r ",
"^ M U M ! ( / ! U b b M ! ^ ~ b c c c G G ! H M b b b G v b x P.yXI.L.B.-.! C.U b ! ! M v x x v M C.! C.C.M C.C.M ! ` ` ! M A U M M N n N M U C.M N M ! M C.U ~ ! ! ! M x n N N C.C.C.M b x x v M A o.( C.` ! C.C.N x c x N M N N M M C.C.C.! C.v ! -.y X   $ u q b &.H | ^ v y c N v v v v b M b v b M A ! M M b b M M M b M M ! H M b M M M ! M N M x c B x b b A M M M N N x n x x x N x v c B N M b b b M v b b C.N N M N b M M N b ~ ~ #.,XJXZXZXZXKXhX..n c y y y y y y x M v b v x p x x v b G ! ~ _ } / / A v x x & o   % p H %.b m v x v M b M M M M N b n x x B j y l x b x x l B x B l l N N N n x B y y y s s y j x y v ` p x y y y s y r y x j t y u 0 0 r r 0 r y x w 9 0 u y v v j y t r y j j j y y y y 0 8 8 0 t r w t y y s y y y w t u u y y B u r t y t y x b b A ] >.| t X $ v 8 v N.x y y y y y y x B y y u u t u 0 y y y M v y v A B b ' A B B l x x N m U N B B j B B j B c u u u 0 0 u y x x U x u @.C.r y j y y t w u r y y t 0 r u u 0 7 7 V r r y n b ~ -XzXbXSXLXLXI.x j r w 8 9 y 0 1 0 e 0 t 9 0 r r y r 0 y r 7 r j v v x p j r ",
"/ M ! ! ! M ! ! M b b b ! ~ ! H b G v G H ~ ~ ! G b G H b ~ / R '.'.l.I.k.&.~ A U M A ^ G v b v M ~ C.! C.b b b M C.! ! M M C.A N v x x c N M C.M M M C.M M M ~ ` ! ! C.C.A v N C.! ! C.M x x v M m A C.! ( C.A C.M N N M M N v b M C.! C.A C.b b A ! y X   X y q x _ v y b M x N N N x x x v c v v v A v A H M b A C.A b b v b M M A ! M M ~ ! ! ~ C.M M M M A ~ C.! A C.A A A M A b C.A M M A M M A A ~ M C.~ M ~ A C.A A b A ! M U ! ^ #.,XJXZXZXZXLX6X..y y j u u B y y f v A b v c x x x v m b H H ~ / [ } ~ ^ U x x - o o $ y b =.M ! M N v b m M U M M M b n N x v x x x x m B x x n p y y y x x v x x x x y y l l x l x v v N N x y B y t y y y j y 0 t w 9 r r r t y B s y t 0 0 y v f y y r r t j y j t t t w 0 8 8 0 r 0 0 t y t y y y s y w y y y x N j y y y t y x b ' A c v x j o * c 1 G b.G y y f l y t B x y y 8 8 8 0 u y f x f y y q c A ~ C.l x l n n N n U N N n B x B l N B B B B u u u y x x M ] >.] A B j y y x d y t y B B j j u r r j u B u r y y B A / OXAXcXbXSXGXn.z l r 0 8 1 8 8 e 1 t G B y r 7 7 7 8 8 0 7 0 0 x x x y v r.v y ",
"M H ! ! ! ! M x n b M ! ! M H ! H ! H ! ! H ~ ! H G G ! H H J ! C.j.I.j.l.i.&.` ! H M A ~ ~ ! ! ! ! ! ! C.M M M M M C.C.b ~ C.M v x v v N N M ! ~ M C.C.U C.C.U C.~ M N A M M N C.! A U A b f x N M N C.! C.C.M A M M M A C.M M M M C.C.U A M N M b N y X   X u p B @.) ` ( C.M M M U M b b b v N N b b v M M b M C.C.U b v v v M ! ! A ! ~ ^ #.%.] ] ] ;.@.-.;.-.#.#.@.] @.| ;.@._ ] ] _ ] _ ] ` ` / ` ~ _ _ _ _ ~ ^ / ~ ~ ` ] ~ / ' ] #.:XPXDXZXDXKXqX` n B r t y y x b b b H H v c x b b v v M M b A ~ } ' _ ^ ~ / b k 7 o o * y b #.v C.! U U M M M M M A M M b m N v v v x n b x l B x x l y B v x x N N N l y B x x x x l N M N M x y y y y y j y x t u 0 0 0 w t y j j y c v A v l y y y y r r r 0 r y y w w 0 0 0 8 0 0 7 8 t l y t s x l y y y y p x j f x B B l B y x c M p M } p u o * e - ! %.s s l x s y y x B B y r 0 0 9 8 y f x y y y n N b A x l j B l x x N N B n Y N T M N R C.B x N N N M C.A R C.~ d.| B C.b n M M U M M ! ~ H ! A M M b ! H M b c v b C._ G.cXVXAXSXSXx.R v w w 0 8 8 y y w w w t y j r 7 7 7 8 8 V r t B x x n z x s x y ",
"r.! ! ! M M b m M A A ! ! H ! ~ ! ~ ~ H H ! ~ H H H ! ! G G ! ! ` ! 5.L.8.i.s.-.( ~ A M ! ! ! ^ ( ! ! C.! M b A M A @.@.! _ ~ M v v n b b M ! C.U M C.! ! A N v M M C.M x x n b M H ! A M v x f N M M M C.A C.M C.C.M U U A C.~ ( ! ~ ~ M b b N b b x y X   X y y N -.@.X.( C.U M ` ^ C./ ] / ~ A b A A A G ! b M C.C.A b b v v U A U ~ ! ` 2.[.;X;X4X,XqXqXfXdXdXfXdX5XvXfXqXqX6X6X4XOX4X4X5X5X4X7X<X4X4X4X4X4X4X;XOX}..X-X-X{.[.OXXX,XgXJXJXGXDXKXtX..Y l B y y f y x b b b H v m x x b b H ~ M M b C./ / ] ' H b / b j - o o = y v %.v U ! ~ C.U M b M H ^ ~ M b n m x v M A M A m l y B x B x B v x x b b m m l n n l x l x m M M x x s l y y y l v x y r 0 w w w t y j y ~ ~ v ^ A H x y y t r r r r r r r w w t 0 0 7 = = = 0 t s y t y y x j r u y j y x v v x v v x x j y t y M ! n 0 o 1 2 & R 1.d l y y l y y x v N v x x y t 0 y x x x j j j l A b N x t j B x Y ! ! U C.` E X.U X.+.O.8.7.8.7.7.7.7.9.q.0.[.k.k.L.w.j.7.j.I.l.P.q.j.L.L.c.P.E.W.'.T.x.L.m.L.I.I.(.).qXAXCXCXCXz.R ) y w 8 8 0 1 d e t w t t t y y 7 7 8 r r y p B j j x j l z x n y ",
"` G ! ! M M b R ! ~ ' | ] ' K ~ ~ H H ^ ~ ! H ! ! H G _ H G v G ` ` ( 0.R.x.k.7.o.~ M ! ! _ ` ( ! ~ ! ! C.A M b ^ ] v v ^ ! N M m v m b M U C.! ! A C.C.` ! M b C.~ U C.M B y B M ~ A ~ b x x x b M C.M C.A A M C.C.M M M A ~ @.#.] ~ ! M b b N M / x y X   X r p x A ;...` C.C.C._ ^ ) ;.&.@.~ ~ v v b M H M U M M C.C.M b N b M ~ U ! _ 1./.5XnXLXLXLXJXJXDXJXJXPXGXmXfXZXLXPXPXLXPXJXdXtXKXJXJXDXZXDXgXDXZXDXCXcXnXVXmXVX4XvXZXxXIXZXJXDXGXGXKXgX..m c x B B x v x s f c H H b A v v n b A A ' [ ' / _ ' _ ] A x b M x - o X 0 y c %.b b ~ H C.A A A ~ ..] ' ] A M m x x ! ^ ~ v v v x n B B B x x B C.~ n C.U m m n x B x x n M x x k y y s s x y ~ v q t t y r t t t y u v c C.! v v y y y t y y t r r r r t s y 0 0 7 V V 0 t y y y u w t x y u 0 u x v v M M b ~ ` M x y y B x y q b k o * 0 1 G =.s l y y y y y v H ~ J ~ b v y y y x x v j x x x N A n B u r u N ! ;.;.....X.8.q.8.w.w.Y.Y.L.Y.L.U.W.l.e.c.l.$XI.W.W.#XL.L.Q.%XQ.*XL.!.=X%X!.!.=XrXuXuXuX=XyXaXrX&X#X&XzXVXZXNXx.E _ d 0 t t y t 0 1 t t t t t r r y t t y x b A x B k y j j x n x z t ",
"M R G m m v G / | ,.^.).v.2./ ~ ~ H H ^ ! ! ! ~ ! R J H H v G ! A C._ ` i.L.0.9.@.! U M ! _ ) _ ( U A C.U C.~ ^ ^ ~ #.] e b M U G M b M M M A ! ! ` ! ! ! ` ! ! ( ! ! ! U y p x b M ~ U n x x v M C.C.M M U A U C.C.M M M ~ 9.(.].N.@.^ U N N v ~ ~ x k X   o r x A ;...o.` ( C.! ] ] n.4X$Xm.#.^ A v v v b C.C.C.! C.M M b N M A U ! _ i.m.(.-XVXPXZXPXJXJXPXPXDXJXJXzX:XZXDXJXJXZXJXAXvXJXKXZXdXAXDXvXmXJXZXLXmXzXZXVXDXzXtXKXcXdX5XxXDXLXJXKXzXo.U n B n x x v M v f x v x b M ~ A b N b J ~.$X/.V.| #.] / / A x N v x $ o o 2 y x %.~ n b M M M C.#.9.[. XB.@.~ C.m x N ! A b v N b C.x B x j B x N M A C.R C.C.U m x x y l v v x y v s y x s y y x y l l s y t t y y j ;.x y u l M x x x k y y y y r r 0 t y x s 9 0 V V 9 w u y y y t y y x v x x B x v A ~ @.v.Z.=./ N x y B B j = m j   1 w * G 2.f y s s y j v ` } N.).M.y.M l y y x N b v b N n x x N j y t j U ` ;.-...` X.l.Y.l.Y.w.w.l.7.w.w.7.Y.U.w.L.I.iXl.Y.#XW.L.U.Q.L.L.W.U.W.%X=X#X!.%X#X=X=X=X=XrXMXuX%X%X$X;XxXbXv.( R z 9 0 0 s u t 0 0 t s y t 0 r r y y x ~ ;.k.I.i.M j y y t j n n n u ",
"/ ! ! M v m G } | {.VXKX&X6.>.~ ~ ~ ! / / ! ~ A M ! ~ ! H f b _ ` ~ ! _ ( ..o.*.&...! R ! ` ! ~ ! G ! ! H ^ H H G H J { { { M R H G ! R %.2.v M H _ _ o.) _ ! C.` ` C.` ! A x b C.M b M C.b b U H ! ! C.~ M M N M M M C.~ &.|.mXiX].s.~ m N U M A ~ c y X   o 8 u v ] ) &...` ! ! _ ^.ZXGX:XE.a.~ H Z v b A A U ! / C.b N v v b ~ ` ..i.f.'. XxXLXJXJXZXnXAXCXSXDXAXVXVXZXCXZXhX>XAXmXgXgXnXzX4X,XbXdXqXVXxXzXzX>XW.iXjX].UXdXzX3X;X$XdXVXcXDXhX5.M U M x x m v M ! ! M x B x N ~ C.~ b A b b.JX&X*XW.&.` ' ~ ' A B u B x X o X 2 q f #./ ! f x v ~ } @.<XzXn.q.v.) b b x y x N l x x x N x x B x M M v b U V.&.=.m _ ) R x y x m m b M b v j x x x M m v x x s y y t y t y _ U x x n n M U x y B x y y y r r B T B q V V V V V w s y t y y y y y f l x y N A A t.OXD.3X0Xd.R s y x j y 8 k y   * 0 * ~ d.y x j y s x H 2.XXPX4Xl.2X9.x y y y x b n N n x y x B y B n C.( C.` ..R U _ l.P.( 8.O.O.O.q.7.W X.8.q.7.X.|.kXi.&.L.x.l.x.x.l.l.c.w.w.Q.#XL.w.Q.l.U.L.L.E.E.$XW.iXW.D. XoXf.R G z d y t 0 1 0 8 0 t y k y t 0 r y y x A t.4XE.w.&Xz.x y k j j x M n r ",
"^ R ! ! ! ! ^ } #.-X&X>Xz.U _ A M A ( ` / ( ~ ^ ! M ~ M M y b J C.&.&.` &.o.! o./ ! ! ^ R ! H G x c A M b G G c b H b f J J b v M Z b d p f c c b M ! H ! M v v b C.~ ] b ^ N N M ! ! ! ! ! ! b b v ! ~ C.U N v n N M A ] v.|.I.-.] ' A N N M M C.v b y X   X r y x ^ ) o.@._ ~ _ } {.$Xn._ ) ! b ~ A M ! ! v ! ! ` ! M N b v ~ ..;.6.z././.&XxX2.N.h.2.%.#.1.2.u.t.-.#.] { @.^ ` >.;.~ ] ] ] / @.] ;.;.;.;._ ;.( ( 6.-.! @.@.@.] ~ A _ ;.;.a.o.U U ! b n v x x M ! ! A N x M b ~ H A A ~ A ^.}.l._ W ` A C.J ` C.A y N b X o o 2 y f %.! v b b H #.} g.VX|...M @...v N z y x v M x x x x l n N N C.N N U M =.( l b M M x y e i p f f f v v x p f f f y p y y y r r u 0 t u 0 y d i j y y j y q y x e i q q y Y U u 0 u 0 9 0 V r t u t y y f k f f x y y v b 3.wX[.E ) }.m.G s y y y y 7 u 7 o - 0 - M h.v x y y s x _ h.cX:Xj.W E ( x j y y x M v l l B j j y j x C.C.( ( C.` R Y ` ! ~ > q q y q H s t l y l t q u u y b x c ~ c p J Z H A x j v x l t z s v d { ) l s *.x v R k 9 R m z z l t y t t 0 w y s j y 0 w r y j x ~ G.-XE k R k.M r r l ! / M j = ",
"/ ! ! ` ` ! / ` [ s._ G N y p v ! ! ! ` ) ` ^ ^ ~ M H ! M p v C._ 9.n...) A i i q 3 3 f q 3 i f q 3 e 4 2 4 4 2 h h h g C S K C K C K K K P K S P K K S K P C K S K K L L Z b ! ( ! ! ! ! ! ! b v ~ M C.C.A b x x N N A J t.1.H A S S i v M M M M x M y X   X r y b _ _ _ / / ( ~ ] 3.#.' b x c e H M ! ! M b M M ! A M b b M ! o.V.k.~.$X'.vX@.g K K J K K J J L L ' A K Z Z A Z S S Z ' :.[ ' L L ' ,.:.[ L L J ' ~ J ' ' ' A S J J S Z J [ ~ N ( X.A M n z s M ! ! ! M M C.b A ~ A A ! :.,.' ~ A p B u c C.` ~ C.N C.( X   X > u p =.v y g.] H } ~ %.b.@.C.f y p p n x x v x v v x x x N N M b N N m C.M x j t f h i 5 a 6 C P C F D D C P D P P P P P I I P L L P C P C C D P F K K C C D C C C C F F C C Z C.Y z u 0 9 V u 0 r r t y k y x M M x s x x c G.,XH G G l v x w u y w u 7 0 =   = e = ! 3.b x y s s x ^ %.Z.;.U n Y y u x y x M b v x l j B j t j N ~ C.! C.U U m ` A C S g h h h C g C g g c g _ f i h q e 3 e h h i g Z S S C e i i h i a i h 2 3.g * e d h g d w 1 x X.G n t t t 0 r t w y k y r u 0 t k x x K h.l y z s y 8 7 t y b b y r.! ",
"&.! ! _ .._ _ b b K M A p p : y ! ! / _ _ ) ` ! ~ ! M M ~ b A C./ 6.k.=.c h 4 . o o o   o . . . O . . o o o . . O . . O O O # @ O O # @ # # # # # # # < < # # @ # # # % < i Z A ` ..` ( ! C.~ U v n p b M C.N c x x v A A ~ Z Z L L C > v M M C.M N N u X   X 0 y v ~ ^ _ ) / _ _ ~ J ' J S g i : H H H ~ b ! M M ! M b M b ! ` #.j.~.'.}.dXg.c K G K K K K I  .:.[ L J K L L L :.:.<.<.I <.<.:.:.:.<.<.4.:.[ [ :.:.4.:.:.<.:.:.L [ :.:.<.:.<.,. .^ ..( U ! M n R ( ` ! ! C.C.b N A A H ~ J L J Z A i i * B C.J ~ N C.N n X   o > y y >.v p x x H _ [ J K Z Z p i > y x x n M M M N x v N N b M U b B M ) n B y g i # O . # * O # # # < # # # # # < , < < < # # < < < # # # # # < < < # # # < # < < < # < # < D S Z z k u 0 u V r t r y y y w y M s u s x v A J L ~ c f f q 0 w q y y u 7 u =   2 e = A d.b j y y s x M g L ~ A x f * - x x x b A M B j B j y j x M M ` ` N U U ` ` e e 5 6 C C h C S C Z h C K L h C D C a i a h i h a h g C g a a h g g g h h q 5 5 h g h 5 d 4 3 q w k k k t k t y t l t t y u r y t y y x x f h b x d s d + 8 t j y b U ` x ",
"} } M ! ) / _ ~ p g Z g h , # x ! ^ ^ _ { _ ` ^ ! ! ~ M C.! ^ / C.V.V.A 6 #                                                                                               . 2 c A ! X.` ) ! ! b b v y N b b N x x x v v A f g h D C < > M M M C.C.C.B u .   X t u c H ! _ _ ;./ ` ! Z C C F a # > ~ H H ! C.A v v b b M M ! ` @.r.B.R.|.F.%.h 5 < < # % @ # # % * : # : # * * : > , , , : , 3 3 , 3 3 3 e , , , 5 5 i 5 i a a a C i a i a a Z L <.| ` ( R ` ^ m U ! ` ( ! M M U M b b A ~ A a L S a a , @ v C.C.C.A U -.Z .   X > q y t.p u f x A ! ~ c C S h h 5 @ y x n M U M M N B x x N M M b x x x C.l u p 3 .                                                                                         o # F S Z x t u 0 9 0 0 u r j y u t l u 0 t x x A c i g g e q $ 0 y f v f 0 8 0 = o = q - H A.M n y y y l M p , q 5 q : . V B j v M M N x B B j y B M M x ` ! x U @.! > .             o o o . . . X   . o     o   o .     o           o                               # 5 d 2 w k s k t k y d y y y y u u t y y x j 3 : h i d e & . 0 r t y ` ! 0 q ",
"H x ~ / ../ ` ! c q , , # O q A ! ^ _ _ _ ) { _ / / ^ ! ` ! C.` C.=.Z 5 # o               o               o                                 o o     o o o   o o o . . o . . @ i b ~ C._ / ! ! b x v v b M M v x x x c v H g 4 5 < # @ x M M M ` ! C.x u .   X r y v H ! ` ! ) ! ! C.N 3 < < O @ M ! ! ^ H ~ H M v v N M ~ ) @.V.n.p.UXN.c d 5 @             o o     o o   o . . o   o   .   . . o . O . O O ; . X O X X o O ; O O @ @ + O + > a L <.:.^ R ( ) M U ! ( ( M n M C.b N x v A C.C q 6 5 , * q N A M M C.R Z ' @   X > e e @.v x x v M ~ H Z 5 4 4 < O = x n M U M M U x B B p N N N x j n x x y a ,                   o o o . o o o . . o o o   o         .   o o o o o . . o . + . o o o . o o . O O F D B j j u r 0 8 0 r y 0 w 0 t 0 0 0 B N Z A q 2 3 * @ @ 0 v v y y u 8 0 =   2 2 % / u.U m x x z x M v % . O O   @ p B x M b A U B j j r x M M M N l x ~ >.J % o                 o   o o                                                                         # K g 1 l n B y y b x 0 y b v y t w t y x y y 1 % = * @ o & r k y y y y y y ",
"/ ! v.@.) / ! ( A x > # O q A ! ! ( _ .._ o._ ` ( ! ! ^ #.] ! ` / C 5 #               . o . X @ @ @ O @ O O + $ # @ $ $ $ $ $ @ & $ % % % * * - * % * % % & * * = * - % $ + . % i Z A C.! ! H M x b ! M n N v x x c M ! M M b i q 0 p m Y N m C.` ! A 0 o   . t q ! ~ M ^ ! ` ~ ! ~ C.Z V % q C./ _ / / _ ! M M b c N b ` @.6.a.n.(.|.>.C 5 . .   . . . O + @ @ @ @ @ @ @ @ @ @ $ @ @ % % * * @ % % % : > : : > % @ % % % % * : = = % * % % * 0 e C <.<.' ! ( U C.U ( ! M x x M M B B v M A M B q : > y B x M Y x x m g [ O   o V u p #.B l x v M ~ A b c i : > e x x M ! ! R U M x y y l N x x x n z x r 5 ,           o . O + @ % 1 # * 2 @ @ O + = + X + - & * & $ & $ & % $ $ @ + & @ % * & - % $ $ @ % O O O # 5 D x B t r r 0 t t t w t 0 r u 0 u y N A c p > * % $ % 0 x H f y y r r = o = 0 = A #.M N v x x v b v u $ o o * B x c N C.~ C.b x j B B C.C.A m m B 0 |  .: o                 . . . . O o o o . o             o       o   o     o   o       o o . . . . o   . X . # K h d z n k n A c s b f 3 y y l y x x f y 0 & . . o - w y y x f v y u u ",
"H / v ! / ) ` / ! ~ b c b ^ ! ! _ _ .._ _ _ _ ! ! U C.! _ X...] i 5 <           O & * 1 0 0 u q y e 0 0 q w t t e t e y f s y d t d d s d f f f y y s f s d x x f f f y q = % O # e A A ! ! ! M v b A b M b b N N b H A ! H M ! C.C.b m M N N C.C.b -.> o   o y u H ] v C.~ ~ ! ` ` ! C.C.A C.~ / / _ } @.~ ~ A b v N ~ ;.=.p.I.(.UX-.S 5 . .   . + % 1 2 2 q q q q q q q > > 2 u 0 0 0 , V > V > e B y p u p e V > > % % V y e p q q q e e > > , q C :.4.' ` ( ! ! ! ! M v ! b x x B N A C.M b v b N B y B M A x N ` ~ a O   o > y y -.N n n v b v c N b v v v v v n M M U ! M m x B x x v N x x l x p i %         o O $ 1 1 3 2 2 q 2 q q 0 3 1 1 c q = w w t q t u 0 0 0 2 2 0 1 0 0 0 w u u r u u q 0 V > * @ @ # , C a j B y t t y y y w t u u y y t B x N f q 0 2 - = 0 y x x x q t t %   > q > b >.U M x l c H x v y y u q B x v M M C.~ C.b l x B B A C.b M ! x ` C #           . . O @ % = > = & + + @ $ $ $ & $ $ $ $ X X X X X + + + + + . X + + + + + $ % $ $ & & $ + X X . # K K 5 j x Y M b G y s y y y x x v y y y 0 0 - % * 8 t y B c ] p 0 y = ",
"} _ ! M ! ` ] ..) ` ! ^ ~ ^ ` / _ @._ ` _ ^ ! R N M N c ` &.^ a C #         o & 0 f y y f f x y x n B x x x x v v x n v M M b m v v v M M v b v x v b b M M M G M M b v B y 0 = @ % e f M ~ R M G G ! G A H b c M A ~ ! ! ~ C.! _ _ C.! ..C.~ / / _ K , o   + y 0 x J / ~ v v ! ` / ( C.~ ~ ~ / _ / } } _ ~ A C.C.b x ~ @.6.p.N.-.~ S 5 O o   . @ 2 q d f f g x d g b b f y y s p p y y p p y p p A A Z ~ b c x f e 0 u q p v b b v p v x x p 2 > = q C L ,.] _ ) R ! ^ M n A p y x v v b U M b M M v b b N M ! x f }  .a o   . u q y ,.G b G G M M v v A b H b b M Y U M v M M m x x n M N n n x n B e #         X = 2 q q y y f d y y f q d y q f x x l s s y j s l y y w w y y y y y j y x j j B y y y u 0 q = $ $ # , C h x n y y y u t u y y j y y r r y y y t y j V V 0 y p B x B y 0 %   * 2 * y | H H / Z x x y l x x x B x b M G R M H ~ A x l x x ,.A ~ ' v ~ g %         X $ * = 2 0 q e q u = $ = 1 = 0 0 r 8 8 7 = - & $ & & = 2 - - - & - - - = = = = > = 2 2 0 8 & + . . . # P K y j x m U M H v s y 0 y p x l y y r 0 7 = = y r y B c ~ 3 e f e ",
"| ' ! U x C._ #._ ^ ` ` / ` _ ..{ _ _ ^ / ( M ~ q x l N ;.] h F #         o - y b f f v v v v v M M b ! U b M H G v v M G M M G G M M R ! H M b v b M G M M ! G ! A M b v v y q 2 @ # q A M R M G J ~ J ~ b v M M ~ ~ ^ ^ ! C.! _ .._ ` ( c ~ @.~ L 6 <     ; d q p A H ! y v H ` C.! ~ ! ` _ ) _ _ / { %.} ^ ! A M A _ ;.@.-.@.S Z , O   o . < y f b b c b b b v G H H b f x s l p p N x x v b c C.A A Z A C.A b f f d x M A C.H v c b A N c y > * 2 h C I :.] &._ ! @.C.M x v B v A x b ! C.C.C.M b A C.C.A H f 2 f I 3     + y q q ~  .L v v v M N b M H ~ ~ ! ~ M A b v M m x x M M C.A c c j N a O         X - q x x x x f x x f x x x x s e q n x x v x s l x x x l s y x y f x y y x x x x v x x y y f y y 2 * * % , C C n z j y 0 u y x x v y y u u 0 9 t y j y y y u y B B c v 2 > X   = f $ 4 [ } x ' ~ v v b m m b n M N Y ! ^ G J H C.C.n x x C.c ! >.g ' p X       o $ = 8 0 u 0 w y 0 1 = 1 1 8 0 0 t t t r r 0 0 8 = = 1 - 8 u = 1 1 1 1 0 0 0 u 0 0 u 0 0 0 u 0 = = $ o . . O D K y k l b y = p q f = 0 t y s x x t j j r k t t u y p p ! v H 3 ",
"h ' q M A ! ! @.] ^ / ( ! ~ ~ ! _ / ! ! ! ! M g [ A A C.#.a 5 #         . * q v G x f M H H b b A M x b b M M M G G m M M M M M H ! R ! R ~ M b b b ! M ! M ! ! ! C.M b b v x f y 2 % @ 3 J / K ~ ~ ' J K M b ~ ^ / ] ] _ ! A C./ _ @.' [ | :.D P <.5 O     @ e y 3 Z f p f x x M M ~ _ ] ) _ _ / _ / ! @.%.} | v A ! _ ~ ;.] [ S < o o . . * y v b b v v H H H G G b G G c c v x c x N M b b A ] A c ' b A A Z c f g c b ~ ~ ~ x f v v v A b v e e > * y C L  .#.{ -.@.H M v b b b H b ! ! C.M b g c g ' ~ ~ [ A.S.I D O     X q y 2 5 g i f M ~ b C.H H H H H ~ A C.A [ c f b A c A J ' J ' Z a a O         X = y y f M v v c c c v c f b b f J | q v G l v l l x x x x t d v c c b x f x x x x B x A y y f v x y u = * > 5 P C B x l j u B c x v l y y u u e q y y y p y y y y e y q > $     1 v 0 O ' :.> b M v U b N b C._ U M M U ! M t.[ b ~ x c A ] A x } f = .         $ 8 0 0 0 u 0 q y 0 0 w w 0 0 w 0 r u r r r 0 r 0 0 u 1 1 y u 1 0 0 0 8 0 8 0 w u 1 q 2 0 2 u 0 0 8 & $ . O X # D C 3 w 0 $ = p f e > v A y y x m j n j t y t r V q v p x f d . ",
"% i ' H M M b v b M A A M A v M H M M M M M M h 4.h.S P I 6 O         . - 2 w f c Z b f b H A c M b x ! ~ n x G ! G b G M v M v v M M M b M ! M M U R M ! A G ! ! M A ! M v b v x f 0 & @ 3 | [ c J [ Z b J A H / ~ ~ ^ ~ A N A ~ ` ] K P I I P <.I . o     % y j y 4 J Z g y y p x B ! _ A ^ ~ ! ~ H J H ~ h J :.J  .[ L ' L K # o o o . = p B b A x v M H H H G c b f v f f f c A A b A A g ~ ~ J ~ A c A C.A b H b M x A b b v A _ A A A b v x H e * % 0 C L h.4.| b f x c ' A c H | H A ~ ' A Z a 6 L K C L S.@XS.<       $ y y 0 % L L f L ' g H / c f A f x A v c S p c Z C i Z J J S C D L #         + - u y x p q e v v f f b v H f e e d.Z 2 c x v x l x s s y l q H J Z Z f e q e f x p B A b u y p f x x f q V * : 5 L C i i a i p a g f y q q q q 3 q 2 0 q e e e V * = * > %     o 2 f y @ , L h > y x x d x 0 x / v N v f f v e 0 c N v q C ' ' C S f .         $ 8 0 w t 0 0 0 q q w w y 0 1 8 0 1 0 1 = = 7 7 7 0 v q - y v > = - = 1 0 0 0 0 0 0 q f = 1 1 2 0 y 0 2 1 % O @ X . P D 2 2 0 $ , h i $ 2 g c f b x r u j 0 7 0 = * - = = 2 u X   ",
"y o i J e > > * * > 2 0 q q 3 y y 0 2 2 2 2 0 2 i i : 5 D #         % q 2 2 q v M H [ c p b Z Z A p b c v e 2 y d s e y y d y d d f d q d s d v v x x x f c v v v b c v v f p l f f f w & X 4 g 4 5 i i i i i i Z i e i e i e g x g g e 5 a 6 K F .       o * q p x > # 4 4 2 4 > 0 i f f e f i i i q f g Z C J | L <. .:.I L :       o % y b N c v x v v d b v g d f v x c f c f f H A v p ' / c A c c b x q #.A b Z A A Z e g p g b b b p q p c p p y * 2 2 3 C :.P K Z C Z S C Z S J K L [ 4.:.I L I S.J.J.S.S.<., .       = y i q @ # L K h > : > g c q e e f c q i q i Z p i a g g g 3 L H.O         X > y y p x d b c f f v H y e 3 * e e 2 * d d s y d d y w t e d t b g Z C c g e q p f p c f * > y f x H b x x p 0 2 % C I C D D P P D P P D P P P P P P P D P D D P D 5 # : < o     X 2 s f 3 . # P D 5 5 i 3 e 5 : 2 * % = q 2 0 2 q e p 2 : 5 i a 4 4 .         X = 0 r r r = u y x f e t w = $ % f A 2 * * = - 0 e f Z f f y e e % * $ * q q q 2 y 2 b * = = 3 q 0 u w 0 2 * % X .   5 L : % X . % 4 $ . + @ % * = > * = % * $ $ $ $ % * = %       ",
"> >   . X     .           .                                         $ - . X $ = > @ e i @ 3 A p > > >   o . . . . . . . X O . + @ % 0 2 + + O @ @ @ @ @ + @ @ + + @ @ O @ O O @ @ @ @ + . o o . o     .     .   . o     o o o   o   o     o         o     X 3 f v b p O o o .   o . . . . O O O O . . . X + + O . O . + . O % .       o + @ $ * = * % % $ * % = # & # 1 % * * 1 $ @ $ q 0 q c = % $ . * , , e % 4 ~ g % > e ~ e > 2 % % + * p a i i g 3 % f @   o o . O O . . . . O . o O O O # O O O O O # # # O           . 0 s f d 2 .   . o .   . . X . X . O . o . X + . . X o . . . . @ .   o     o @ & & % $ * % * 4 & & * @ @ $ X w y = * 1 $ # $ ; @ & @ @ + $ X O X O O X + X X O @ O . X . . X O X $ @ @ $ X + X & $ o . O . O O # O O # # O # O O O O O . O . O O O .             @ q d y e %   o < O O . O . . .     o o . o o . o o   o                       . X X . . X . o $ 0 $ + . . . o . O + . X X X X : ' c 3 q Z % ~ c q & o X @ @ . . @ @ X X X o @ @ X o . . . o   o     o o                               o           o o .           ",
"e f 0 .                                                                             @ o   X .     y %                           o o % 0     o                       o           o     o o                                                                 * p M A b v q o                                                                                               o                           o   $ p y   $ % o     X +             O > > @ 2 @ . @ b X                                                             o % q f f f f 1 o                                                                                 o o   o . . X X X X . . . . . . o . . . .       o                                                           o                                                   o = d s f q = O                                                                                                 o     o .     $ p p > . $ 4 O y 4 2 X           o                                                                                                   ",
"A v p q & o                                                             o X X @ @ X @ $ $ @ - * X @ . . . X . X . + @ $ & + % - * * * $ @ X + . % 1 % X O 1 1 1 # 1 # 2 2 2 2 2 * > > 2 = 2 $ X .                                                   o . % q b H A x c p * . o                                 o       o                       o o o o . . o . X . . O @ . O O X X @ O + + X $ @ @ + O X % 0 = + . . . X O X + + % V = $ $ @ @ % * $ * * * X o .                                             o           o O 1 e f x f f e 1 o                                                                     o . . . . . . . X + @ @ X X X . . . + X X . X . . X . X X . . . . o     o         .     o o o   . o o   . o o                         o                     X .         X = w d d f f e = O o                                                                             o       o   o   o o .     + % * X o . X .   X . . .     o   o           o                                                                                       . $ ",
"H Z y p p y q > * = % > 2 = % % @ @ @ % % * * * % * % % * @ = 3 q q q e e i i d 0 0 e q d d f d 1 d 2 i 2 d c c d 3 f b H c G G G G G h d s w G | / G G G G G K g K ] J } H G G L G d G b b f H c 1 2 @ . O + @ @ * : * 1 * * = * * * % * % * % = 2 2 e e f H b Z f c f f q 2 2 * 2 2 2 = > 2 * * % % % * # % % * % % % % * * = > , 0 q 3 e q e d e e d e 3 d v c f f f f p f f f f b c g b v M A b M H b c x g b f f g b b A v b / ~ A G b c f c f c c x G d d w 2 2 > * * % # * % % + @ + + . . . o . X X . . . o . @ = 2 e f x c v p c f = % % @ % @ @ @ @ $ @ @ $ % @ $ & $ $ % - % = % * * * * > = * 1 0 q y d e e e q q y y q d f s d s y y y y y f x f v f d f f f f y f q y 2 u 1 3 q 0 q y y y y y l y y y y y q y y V 2 2 * = * = = - * * & $ % @ % $ % % % * % * = 2 2 4 * % * > q e 0 w f G g d e 1 = = > = % * % * $ % $ $ @ @ @ @ @ @ @ @ @ + + + @ $ @ & % * = 2 2 1 1 1 1 2 e q w t w y q w y u q u 0 y H M v x g x f f c d v s 2 1 2 2 = 1 1 1 0 2 0 2 2 1 1 1 @ @ @ @ X + ; + + $ + + + X . X . . . . . + X . . X + = ; % * % $ % * $ O @ 2 2 ",
"A A A ~ ~ J J A ~ J H ~ ~ H b b b c b b b b b H M A H M H x f c b b b b H H b b f c G G G J / G G G G G J G ] { G G G / ' #.H G K J H G J %.J 1.r.$.J } G | L G } / / #.| H ] H #.H H J G J H J H G ! H G d g G b f b v b H H M Z H v v b b v c f f y f b H b Z H b b b b b H ! H ~ H ~ ~ C.~ ~ A A A b N x x x x v x c c x x c c c b v b b b b v b b b b b v H H ~ H J H M ~ H H M _ J c ^ ~ b / H ~ / H ] _ / H M H H M ~ A ^ H / ~ H ~ ! / / / H H G H G H G H M b M b b b G J H H v f x p e w w 0 y x s x f y y s f f x v b A c c M Z b c c c f f f f f x p x f x v x x x x p B x x x v c N c b b v d b v H ! G c v M x v n v v M H M x G b A M M M M R b b v M c v b v M b G b v b ! ! ~ ~ v ! R G H G v ! M ! ~ ~ M c b M v v x x b b v v b H x f c x c c f f c p f c b A v b b e y y q u e x d f f v G v b H H v b v v b v v x x x x x f f f v f c d f f s d y f d d d d s y y q e y d y y f s l l y s s p x f f q y ~ b v H b H M x M c G b v G v b b M v v c v v v x x f g G G d s v G x c d d d e s d f f f x 0 s v v B x A A N b v b f c c B x y y q ",
"b A A N c A b b b b v c b c b f v b b f c x x x c c c v b M H v v c b c b G H G g G H / G g G G G H J G $.H H H G J H H J H J G G G J } / G J G J G J { J J J _ { ~ ~ H H H ] / ^ _ ] H ~ H ~ J H b J H H G H J ] A f c Z G H M Z H b b b A M ! / ] J b b ~ H H H H H H / { @.-.@.} { / / ~ ! ^ M C.M b C.N N Z b C.M A H C.! m v x c f f f d d f d f f f c f b v v c x f v M M M M G H x C.~ C.~ ! ! M b ( ! ) M z M b v m b U M v M H ` ` ! ( ^ / _ R ! ! H _ ! M b f x y y d v v v G M m N x v l j j x f n x b x x b c M v H M c v ~ / ! C.v x f c y x b b v M v v M M v M m x y p B y x x N s x v y y y x b G x s M M v m b M M R R G n n v v M n b v v m M G v f H f b =.-./ ! b M M ! ! ^ b ! R ! H H M ^ G / ] #.^ A C.C.C.M M N b v l x x x n n s x B j x l x y f x B x b v x B v f p y d x f G b G b M v v x s v z v l x l f x y y l p v c l s s y l s d t d d k s t t t w q 0 0 w t t t s x x n y l y y j y l x z t k y t y x m x n n m z z z l x s l y y y t t y t t s k d w t y l l d x w 1 1 - 8 0 0 9 = 1 1 8 9 k r 0 u 0 r 9 r 8 V V r u r l f y ",
"H A >.}.9XgXgXhXdX6XdX6XdXfXfXdXfXvX;X6XhX6XfXfXdXqX6XfXqXm.u.{ r.XX{.).oX5X`.M..X9XqX9XD.{.[.;XjXfX8XzXxXvXvXvXcXcXjXqX0XgXzXvXOX0XfXvXwXiXjXfX8X0XfXwXvXpXvXvXdXdXvXzXfXfXcXcXcXvXfX0X).).1X5X5X5XhXvX6X0XqXfXzXvXfX,XG.:X1X;X;XOX;X<X;XOXOX^.n.W O.-.v b ~ J H ~ ~ } b.8XfX5X;XzXgXdXtX6X5X5X<XqXqX7X6X7X6XdXdXhXfXdXdXtX~.5.}.#.Z.:X<XOX8X,X<X,X4X5X5X4X8XoX;X;X{.<X6XOX/.}.[.{.*.~.|.-X[.$X:X-X4X-X-X|.}./.[.8X8X&X}.-X[.k.[.&Xz.M.[.p./.|.[.z. XT.1.u. X X&X>X}.&X}.|.'.]. X'././.~.~.I.I.T.T.(.T.(.R.(.R.T.R.@.b f d b b M A ] ] ] =.^.}.-X^.Z.OX_.F.~.~.F.M.~.~.~.N.(.~.'.M.6.i.k.N.B.a.9.s.@.*.r.1.1.1.r.{ @.a.y.1.k.r.y.r./ 1.1.1.r.r.&.=.6.6.s.r.{ @.r.} 2.u.} ~ @.b.N.=.i.=.=.9.-.=.9.r.=.r.u.u.r.@./ &.=.r.>.| ,.d.n./.j.9.i.i.p.p.s.5.5.i.p.w.j.j.p.j.j.x.j.9.j.i.n.R.'.z.U v x B d v G G / *.p.y.=.0.0.i.p.p.j.p.p.n.z.6.*.9.r.z.z.@.p.M.*.1.*.@.9.j.+.E _ ) O.) &.1.p.*.9.p.O.1.9.p.p.s.i.s.o.5.5.5.0.q.0.9.0.q.0.7.w.*.0.q.9.5.9.9.9.*.z.8.0.p.8.j.j.q.p.0.q.q.q.x.x.q.+.+.9.v.(.f.D.x.T.9.x.'.L.l.R.].L.P.I.E.(.I.W.W.'.#X].'.L.W.$X#Xw.z 8 y ",
";.-XAXgX<X-XoX}.}.~.:X<X X:X:X}.>X<X~.-XtX:X:X|.(.}.<X4XVXrX0._ _ } A H ] #.] ~ d.(.d.D.h.v.`.D.;X^.[.}./.v.2.p.M.M.v.M.v.v.f.a.1.y.y.p.p.f.G.R.1.f.D.f.a.D.D.D.f.1.n.~.9.9.f.a.y.9.2.g.1XeXPXKXlX}.6X4X}.;X8X8X-X&X.X^.g./.[././.~.[.oX X X4X6XmXU.T ) q 3 b Z H ~ / :XJXnXvXfXOXfXqXcXfX(.fXnX.X-XqXgX9XfXAXVXVXVXAXPXKXKXtXl.k.&.] =.2.2.a.a.r.v.u.v.N.b.D.d.b.M.r.n.(.a.&.@.@.$.U o.s.M.r.=.s.i.y.9.i.1.y.@.@.D.f.9.@.1.1.H s.z.&.@.&.o.o.@.o...@.%.$.;XnXPXKXKXKXkX2X4X7X}.&X/.(.~.T./.$X|.R.|.(.(.z.m.'.'.].%XmX'.` B B N A / } / }.LXJXxXvXN.M.&XM.N.k.g.u.y.z.b.M.D._./.-Xb.B.4XI.^.[.mX%Xw.8.+.! ( ! R R G G G ! R ! ! ! _ ! _ ! ! ^ o.@._ ) ) ^ ! x _ M %.%.} -.x b R U _ @.) ` ( ` ..{ } &.H { ^ @.R x l y k B A t.OXcXKX4X5.o.) ) X...X.E R ) W E ) R E ..&.o.( ( ( ` 6.I.3XkXY t j d f c G d.8XKX4X0.9.X.O.&.O.O.O.9.z.D.o.=.2.@.=.b.~ _ @.@.u.0.i.j.lXE.1.E s k z n m R G m E v s j n M x / ~.&._ _ o.) U n z m E E z Y z m n m z Y @.m v.n.z ` E Y X.) ) E R Y R R R E R m z R .XOX{.&XL.R.q.9.c.w.+.j.p.0.0.0.p.7.k.j.6.0.i.j.z.7.w.W.].&XuXX.r ",
"UXdXjXM.C.u 0 0 y v N x M ~ ! x x v b x v b b y x c v f @.kX%X6.*._ f p x y A ] f d G @.1.G G d f G >Xb.1 G G G v v n M G M m v f G G l G G g G H x s G G G G d M v x m b x z l v G } +XeXAXKX-X^ A M x d d y l b b v A ! G M M b M v v m R ) @.k.].O.U - X 3 v Z M /.KX<Xv.@./ G / _ _ A b ! _ ..#.^ ^ ;.t.s.r.(.r.} d.6XLXFX&XI.i.! v H H H ! / / ^ / / { { G ! M U C.! ! R M M m C.U m n M ! R ! G G m M M R v G v G G g G G m v M G G G M b G ` } %.`.jXAXJXGXLX|.&.( _ n.R R n Y M U o.*.! ! ! M H R ~ _ @.#.8.%XBXn.B @ t b J M T.KXzX-.M b j x y j j x k y y y x m U H ! C.y b ,.b ~ ` L.lX!.w.p.E s l s s s l x x x v b x x M s s y y x s l y l x y 2.2.0 H Z y N v b n n z m M Y ! ( ` M H ~ y s t y l y l s l A t.;XnXLXZX6.C.M y s l y l j y l l f y y y y t y y 0 r 0 M U U 2X%Xr t 9 0 y #.{.KXhX@.m l t t r r w 0 t w v f x e s J H ' H q t v M ! G oX*X'.].v 1 8 9 9 9 9 8 9 t 0 8 V 0 0 M / A c L %.v = 8 7 8 0 y t 8 0 0 r y 1 y _ x } M y s s y y v y 9 0 9 0 9 9 w 9 t l h..XG.jX3XO.G t s t d 0 f e n y s w 7 r - 0 = r y V B ! ,.y 9 +.c.T ",
"_ k.v.=._ c B x b b A b M ! ~ M M M b b A U M A C.A C.^ A 6.tX].q.0.~ b f M s.u.{ 1.#.G G ).1.G v b f b.a.v G G ! M G ! H ! G M x G G G G f G G G G G G G s G k m v x x m v n v G { OXeXPXLX^.G ~ ~ ~ M v v m M ! ! ! / ! ! ! ! ! G M M ! / _ @._ 9.*.n -   $ q A H gX~.^.:X^ / ! / @._ ! ! ~ ! / -.@.&.b.~.u.u.g.} J /._.G.IXNX=XW.0.! M H H J / _ _ _ o.o.{ ) X.` ! ( ! R M R U U M M C.( C.U ! ! R ! G G G R G H H G G G G G M H H H M M M ! _ { %.,XSXCXGXJXLX&X@._ / _ ^ _ ( G R M ! R U ~ ! ^ H ! H b ~ ^ ] *.Y.lXL.u   - f A v gXSXs.x m M v x x v x x x s l x x n b M U U x c p y x A N w.aX!.Q.l.R d l s t x v x x v v y / r.y y t y x @./ q v b e v B p b M f A b A m n j x n n M C.C.M ] } x y t y l s s l c t.4XxXJXCXn.t x n w t y y y y y y y y t t y y t r r r 0 u r.r.U Y L.n - - 1 f %.dXAX$.M l y y t y 0 w w y y x c f d v } e x y t y y v A H d '.pX#XW.z 1 8 1 1 1 8 8 8 8 y t 0 x ] p ] H / J x - = 8 0 q u 8 8 0 8 0 9 1 u y v u y v x x 0 k l t w 9 9 8 8 8 9 d z d.+X+XZXcXw.) t s l c G 1 - 1 9 w 9 9 0 0 7 2 b b q c ~ A p y j t t M ",
"A r.t.} _ N x B x b M x v ! M M A b N M A b v A C.M N M A A o.rX'.w.s._ x Z #.A %.] J ] #.G G g G } b @.$.y s d v m M G G G v y s l d G f G G G G G l d G G G G v v x x x l x x / XXwXcXPXD.G G M v v v v v x m M U M ! M M A b M v x M ! ~ / ~ ;.;.) k ;   o 3 g } _.v ' H ~ M v b M ! M A M M A C.~ / _ ;.#.r.=./ H =.3.>.F.zXlX#XI.j./ b J G ! / ^ ` ^ _ ` _ ) ( ! ! ( ! G M U M m m U C.U Y m m m M m v M M v G G x G G G G M M M b m b G ! / u.qXSXZXGXJXLX&X@._ H G ! ~ _ H G b v x n N M b M b b c c v H ~ A w.#XX.*   ; f A v <XdX$.l x s l y s l s y y y s l l y y s x x y y u r 0 t v l q.aXQ.W.L.E l s s s s B p x x y ! M y t u 0 y / ~ q y p v p p f H v H A ~ A x j B l l x B n N M b x f y y t y s s f a.9XcXJXDXp.j B 0 w 0 0 0 t t 0 0 w w t w w y w u 0 0 0 0 u 0 0 n m C.n . + % g b 0X{.M l t 0 0 0 0 u u y t w y l 0 w s y q 0 r r t y q h K x w W.sX=X2XW - 1 - 1 1 1 0 w y r 0 p M q y i y 8 0 7 = = s l = 0 0 8 8 8 0 t 0 0 y f x y p y 0 u t 0 0 8 1 1 8 9 9 f 3.+X:XZXNXp.v n l d q t v 1 - - 1 1 8 8 7 7 u 0 x y x A g 0 7 r u y j j ",
"b ~ ! C.v v c x f x b H ~ ~ C.~ H v M b M M v M A b b b U H b =.rX'.l.i.] c c p H / J 1./ f e x H c f e 3 y x x x v G v M G v y s v v v c G G g g G h G H J G G v v b v x x f ' `.9XIXLXn.v ~ b N x B v x m b c M A C.C.M M M M b v v H ~ ~ ' H ~ / @.j X   o 7 x } } H G H ! M b v m M b A M M ! ! A H H J { 1.} G G J | { @.r.hXlX!.R.j.{ G G J ! ! ! ! R _ _ _ ( ! ! ! R G U G G m G m G G G M M m m G v G x x c G G G G G G g G g G G G J / N.jXJXZXGXGXLX$X=.$.~ M G M ! _ ! A M M v x v A H b b G b b A C.J H @.$X&.X   ; q f s @.^ R s s y y j y y x B y y l x y y y s y y u 0 0 u 0 y j v v 9.rXQ.!.Q.E B j y B y y p l x x y x y y 0 ! v.q e p ] b y x f c v v f A v y k j j B c A B y m m x y y y t y j p d.qXcXLXCXI.U r 1 8 0 0 8 0 0 9 0 0 0 w w w u y y u q y q q u u 0 0 ,.,.u   O @ 0 b d._ n w 0 8 8 8 8 0 t y 0 r t 0 r t y r r u 0 0 0 x J Z e d x 0 T.aX%XaX+.8 1 1 1 1 2 1 V 0 0 0 1 1 d t 8 8 1 1 = 1 w 8 0 8 8 0 8 1 w t 0 0 0 G c 1 H v 1 9 9 1 1 1 1 1 1 1 g %.XX4XnXFX0.m x d y t 8 1 $ - - 1 - 1 8 8 = 0 3 x i b J f y = 7 0 y t y k ",
"b l b b b f x c M A ] %.#.] ] _ ^ ! M b M b M A H C.M b C.M ! b 9.rXU.l.r./ b b G H c c b b b A G g G x G x G x G G v G b G M x x b v v G c G G G G G G G H G G v b C.A N v | +XjXVXVXv.M U N N x B v n N N M M M C.C.C.A A ^ ~ ~ M ~ ^ ~ ~ H A ] -.! y X   o = d G ^ ! G M G ~ ! ! M A ! ^ _ ~ ! H H H H H G / H G G ^ _ { %.t.a.dXlX%X#XT.1.G H H H H / / _ _ { _ ) ! ! ! ! H G G G G G G G G R M G M G G G G G c H J H H H G H G G G G H ~ F.nXJXZXGXGXLXoXo.o._ ~ ! ! H / ! ^ H M b c b J ] | %.| H A A M A A A p s.i.o o X 0 f y @.x x s y y f f c c v A v x v x s x x y t u 0 u 0 u u y B v m v 0.uX!.!.W.&.N B t y j j j l y x y B x y G -.V q b ^ p B x f f H y x x x k k j j A ~ ~ A N x x l s y y y s B h.vXcXKXnXr.n j V 0 = 8 8 0 0 w w 0 8 8 0 w f x G H b ~ b v y u u y p B Z 0   + & 2 f / v s 0 0 w 0 w t d f x y y x j t r y r r 0 0 u 0 x H f t y y s 0 U.aXsXaXq.1 1 1 1 1 1 V V 0 7 9 d 8 8 1 1 1 1 1 0 w 8 8 1 1 s y 0 y 0 0 r 0 - 0 d b x 1 1 1 1 1 1 1 1 0 G 3.XX1XVXNXp.v x y t w 8 1 1 1 - - - 1 1 1 1 = y w p f G v i A y 0 r r y j y ",
"b B N b v b v b ] ,.h.[./.a./ _ ] H H M M H H ! ! ~ M M ! M M H v a.uXI.l.r.` C.G K H G H H A A G G g d f x d G f G v G G b G b v M G v v G G G G G G G G K G G ! b A A A | XXnXJXPXp.C.C.M n B B B N N x x N b M ! A C.M ^ >.v.b.s./ J ~ H =.! b @.! r X   o = q _ r.H H M H ~ ~ @.@./ s.b.B.#.! J H H G H ^ / / G H { H / t._.~.%.:XMX=X*X'.p.! J _ ~ / / _ _ / / ^ ^ ^ ! ~ ! G R ^ ! R R ^ _ / / ^ ! H H H G H H / / / H { G J G H H H ] /.AXJXGXJXJXLX&X9._ ! ^ ! H ! ! ^ / ~ A b b N ~ | ] %.a.a.1.~ C.A A A v x b ! X o X 2 q y { l y y y y y v / #.=.2.=./ H b x f f t t 0 u u y y B B j l l v f 8.uXuX!.W.7.N x B x x x x f v v v x b y > t y B c v c c b b v x z n z j j B B x B x x N s s s y y l l b b.zXzXKXcX-.j l r V 7 7 1 8 0 0 t s 0 0 w 8 d H v | v.@.@._ b x y B j B q y V o O $ * b } c s 0 0 0 w t s H ! _ _ _ ~ y t t t y t u u r t t q 3 y t y f v v j.MXsXrXe.y 2 3 1 2 0 V 0 r e 8 w 0 0 0 9 0 0 t y t y 0 0 l l y l y t t q y M v q q w 1 1 1 w 1 9 d G ,.`.1XcXbXj.k s w 9 8 8 8 1 - - & 1 - - - 1 8 9 v M } b.! f ~ A v V u r r r t ",
"~ r.x N M v b ^ >.`.vXCX2Xz.;.A H A H M ! ~ ! M M ! ! ! ^ ! A M ~ A n.#XU.P.j.t.a.N.D.D.G.^.G.^.D.^.G.D.D.G.D.N.v.f.f.d.N.g.g.d.a.u.g.y.d.u.u.u.y.u.d.D.D.D.D.D.Z.Z.M.b.Z.XX+XAXxXu.! C.b v c x x x x v x x M U M b b ! ~ @.oXbX6X[...M ~ H v b A ~ ^ 0 o   o - q H / G H M M v b &.>.[.mXzX].9.@.~ G H H ^ _ { { { 1.) H H ! @.a.y.o.>XNX*X*X].z.%.a.D.F.^.^.~.(.F.~.G.~.(.(.(.F.(././.^.(.^.^.~.~.F.~.D.D.D.D.D.D.D.F.G.D.D.D.D.D.u.u.u.XXZXLXGXGXLXGX XO.{ ! H G ! ! ! M ~ ! H H v v A #.] B.gX&XE.P.V.! A Z c A v b Y ;   o 2 y y _ y q u y e y H u.~.6X:X].M./ G b x f y y y j B x x x x x f x f v x 8.uXuX!.].r.` ~ A C.~ ^ _ _ ] ] } _ / / ~ ` ` _ _ ` / ! / ^ ! C.U U M Y Y C.C.C.` ` C.H M M M m M / a.4XzXJXhX..l j u 0 V V V 1 8 0 t w y w 9 0 w z { 2.,X>X#X].&.M x y j y r r y 0 o X $ : f ! l t 0 w w t s J 2.[.&X'.[.` x j j t y r r 0 r t t t y y s y / H f u *.sXaXrXx.E R G G v x v v c s v v v v n n v M R G ! M G M G ~ ` M m G ! ( ! G ! R G E G G G G G G 3.G.;XcXlX1.s s w 8 1 1 1 1 1 1 1 & 1 1 1 1 8 8 v ~ m.>X&X'.x.( y 0 q u r r t t ",
"_ _ _ v v A ~ / ' ;XZXVX$X&.p.v v M ~ M ! U ~ C.~ ` / ! ! A U ! A ~ c 0.#XU.W.tXbXAXZXAXZXZXZXPXAXPXPXJXPXJXPXJXSXZXZXZXAXnXAXAXAXbXqXIXcXbXZXZXSXPXPXJXZXPXJXSXDXZXPXZXcX1XcXzX>.C.C.x x x B B B B B x N M M A M M M ! ~ [.AXxXj.'.B.B ! / ~ ! H G x t o   o 7 q H { H ! ~ H M ^ >._.PXAX-XP.0.J _ G H J { { @.@.1.1._ ! H H { r.1.$.&.3XmX=X#X(.R.:XhXJXJXGXGXLXGXGXJXGXSXGXGXJXJXSXSXSXSXFXJXGXSXZXNXCXVXVXVXVXVXAXAXAXAXVXAXbXVXbXjX0XvXJXJXGXJXGXT.) E ! G M H G G M G ! ~ ~ J H H ] ] >.PXvXP.$X|.5.-.C.~ ~ ~ b ! ! X o o 2 y e _ r y y y y f } Z.cXLX&Xp.&X$.b G m v x x x x x n n v x x x x B B z A 6.yXuX!.W.P.v.a.u.k.B.a.t.a.s./ r.M.a.a.B.B.k.j.v.B.s.B.l.k.a.a.p.p.V.i.i.i.i.B.k.B.k.k.s.p.s.i.i.F.,XZXdX*.m y 0 0 8 8 1 1 1 8 w w 0 w 0 0 w w H d.vX;X6.U.yXE.M j j j t y r t 0 . X $ % f / y t w w t y x %.+XNXT.0.tXk.z l l y t t t 0 t t w w w w w 1 8 w s z w w.aX!.rXE.c.x.w.j.j.0.p.j.0.x.c.0.0.l.x.c.0.L.x.x.x.E.e.w.E.P.x.x.P.E.L.E.E.P.E.E.R.D.D.f.z.f.D.^.;XvXiXz.w y 1 1 1 1 1 1 - 1 - - 1 1 1 1 1 1 y ! [.bXp.W c.].t y y j t V r 0 r ",
"_ C.p v v C.! H ' 4.v.M.-.m ! p v A H ! H H ! ! ! ` ( ! A M b b C.A J v 5.I.W.zXZXnXnXAXVXVXVXVXVXAXAXVXAXAXSXnX1XnXZXVXnXPXPXAX;XxX&X:X<XcXPXVXNXtXcXZXAXAXCXZXDXVXDXAXxXxX9Xo.M M x x x B y t y y B v M C.C.A U b M ~ _ ).~._ Y ! b p b ~ ^ / ~ ! H w o   o - q M / ! / ! / / _ %.XXqX_.*.m N f H H G ^ { { 1.1.1.&.@._ ! ! @.$.{ $.z.k.7XpX%X%X2XlXlXFXSXGXFXFXJXNXCXGXGXSXSXFXZXCXZXSXZXSXFXFXGXHXNXHXJXSXSXFXCXZXbXzXCXCXAXVXAXbXVXbXjXSXPXGXGXP.! { G G G M ! H M G R / / ^ H M H ' A ~.6X6.&.] ;.k ( ~ ] ] _ A A x $   o > q q @.x x f B f x _ (.cX>Xi.R v b x M b M M m n v v n N n x x x x x B s v b 0.aXuX=X!.I.T.n.M.N.B.j.I.(.*.r.p.s.l.k.l.p.k.n.m.B.n.P.B.n.P.n.x.n.n.L.s.l.B.x.B.k.n.k.k.p.z.s.~.mXdX) ( k 0 0 8 w 8 1 1 8 8 0 9 0 0 t r y y H `.jX} ( ` T E j y j B B B t t 0 o X $ % p F.x w y s t y b @.7X8X@.! m b y s l j y y t 0 w t w 0 w e 9 1 1 8 k d s G q.uXrXW.Q.L.E.l.l.L.e.e.x.E.x.e.e.L.E.E.L.e.L.U.].!.W.w.L.W.R.W.E.#X#XW.W.W.W.W.#X!.W.D.R.W.W.W.2X0X0.9 y 1 1 1 1 - 1 1 1 - 1 1 1 8 1 1 1 1 l @.+X`.#.o.Y E 1 8 y t r r 0 l U ",
"_ ! ~ C.~ ~ H H Z ' A b x > V 0 v M M H M H ! H ! ^ ! M A A b b C.x B B B 6.|.mXJXZXPXSXZXZXZXZXZXSXCXSXPXJXjX4X8XfX6XxXZXnXSXzX6XSXnXvXJXLXZXZXjX:XiXJXZXZXSXFXDXDXCXCXJX5X/ M M B y B x B y y y p x N b M C.C.b b ! M ~ | #.#.` g p > x H ! ^ { ! ( y o     = e H _ ~ _ _ ^ ! ~ _ L ' J A c a 2 Z ~ / { @.@.@.1.9.*.*.o.^ ` _ _ @.=.z.(.0.3XMXpXCXxXNXZXSXSXFXFXGXNXCXGXSXSXCXZXFXFXCXZXCXFXGXJXFXFXSXiXVXFXCXCXSXSXFXmXCXCXCXCXSXGXFXGXGXSXLXGXR.R E H R R G M b G G G H / _ / ! ~ ~ ~ A } #.] [ S p $ k ` ] | } ~ ' C.X o   = e 0 ! b N v p x v ! | p.o./ M y 0 w x m M M U M m n v m b x x x B x x x f b v O.uXuXW.E.I.x.c.z.L.I.M.I.n.z.z.z.n.z.n.B.P.UXn.n.L.x.l.l.k.z.l.l.j.k.j.n.P.l.L.k.n.z.k.x.n.9.:XhXR m t r u 0 0 0 8 8 8 0 w 0 0 0 0 0 t y l M | h.' A b p = 7 y j B B B y j 0 o X @ $ q ~ c t s l s s x J a.2.H M b y = t y t 0 t u w w t w 0 t w 8 w 8 8 y s w G G q.aX%XQ.E.Q.l.w.e.e.L.L.Y.U.L.Q.Q.U.Q.Q.L.w.L.Q.W.W.L.Y.!.E.W.%XE.Q.W.Q.#XW.Q.W.!.W.Q.Q.].W.*X&X&Xt 8 8 8 1 1 1 1 1 1 1 - 1 9 1 1 3 1 8 8 y H %.#./ m k x = 7 t y r 0 x @.v ",
"b ^ ! ~ ! ! ! ~ e i g q 4 $ X = M M M A M ! A ! ~ H ! A ! M M U A B y u y B N.VXxXnXnXnXnXIXnXxXnXnXnXnXjXjXqX:X+X0XNXjX<X6XqXvXvXzXZXIXZXbXxXVXcXcXbXZXVXbXNXCXZXZXDXVX[.! ! M x B j y y j B y B x N N M m N M M M M ~ A Z J J J a q O x G ! / } H ` l o     & e M M M ` / / H M M g K Z a q 4 < H ~ ~ { { @.@.*.9.1.=.$.o.o.{ @.%.=.g.~.n.=.7XLXKXCXhXGXLXLXLXLXLXLXLXLXLXLXLXJXGXGXLXHXJXHXzXkXLXcXFXcXcXJXFXGXCXvXtXCXmXSXCXNXfXcXLXLXLXLXNXT.) G G G R R G M M G ! M ! / _ ^ ! ! ! C.Z Z P K S S 5 X y ` ] ] } ] ] ~ ;     2 e u ! ~ / b v b v G b K H Z h e * u x v b U R M Y M M b n v x x c x x B y p x j ) P.c.w.'.$X$Xn.m.I.n.n.m.'.n.n.m.m.M.n.B.I.M.B.k.i.(.k.6.l.z.n.x.k.n.P.i.B.k.B.0.n.k.i.k.'.[...n l w 0 0 t 0 8 8 8 8 w 8 8 0 r t 0 t y y v f h 5 q q > $ ; t k l x j y l r o X $ $ q %.f x l l l l x v H g y p e = $ w t y w w 0 w t y w t w w 8 8 8 8 w 0 0 1 w G E |.U.E.W.R.w.L.L.L.L.L.x.e.R.W.W.W.W.W.E.W.].E.E.P.L.E.E.U.].U.R.l.7.%XW.E.].].R.!.*X*XE.$Xe.G 1 w 8 0 8 8 8 - 1 1 - 1 1 1 1 1 9 8 1 1 9 3 h g d 2 0 1 X 7 y r = 8 x x > ",
"M H N C.^ ( ! C.p % : , O o . q v M ! A ! ! ~ ! ! ~ ! b M A U M N v y u B N x ` ~ / &.@._ ] @.@.@./ { @.G ( ! ! ! @.&.@._ _ ` ` H ^ @.! &.` ! _ z.^ _ r.=.@.-.=.1.=.a.=.! U M x x y x x p x x x c N N N M M M b M N b C.A g 5 5 a 5 # * M C.C.^ / ! ! y o     - q ~ _ b ~ / / G H G f a a 5 4 # 2 ~ ~ ~ _ @.@.-.6.V.-.=.*.O.-.@.@.&.#.=.k.k.p.a.7XdXdXgX4X6X6XtX6X5X:X;X8X4XtX4XzXcXkX4XrXhX>X2X>XcX&XhXxXiXhX6X(.P.k.[.7X'.'.cX4X].4XlXlXgXtX'.) Y U U Y C.U U A m M U C.! / / / ) ! ~ H A g C D D C < = M ' _ ] ] | ] ( ;   o 8 y 2 =./.~ A v v b v p C D C q # . q x x n M R M M M v v m v x x c x x x y y y p y p N M ) ..&.! ! C.x n M p.*.` @.] A A / #.=._ ` N ` U N ;.>._ ! U U C.x N n x n ^ / C.;.o.U N B t r 0 u u t 8 1 0 8 0 0 8 0 r 0 0 u y y x e > , , < O o = u y B j j t y V o . @ @ e #.x j j k y t y d 3 3 3 3 : o $ 0 0 t t w 0 t t u q y 0 9 0 0 0 w w t y t t y y 0 l l n z k l l l l z l l l l l s x n z E R G z z z s n m m n z l z k x z z z x n n z l y 8 8 9 8 8 8 8 8 8 8 8 1 1 1 1 1 1 8 8 8 8 1 8 1 % 1 # # & . X 8 w z o.1.x s w ",
"/ _ M C.A C.b A v 2 X . o . = v A A H ! C.~ M M M M A C.U M U b N N x y y B M N x M ! b M N N M M b M n x b G G H ! M _ / ! C.N v v x v v b v n G G M M M v M M M H R M b x x x l x x l x n v v x l c N n M C.M M M C.N M x : O O O % x m A C.` ~ C.b y     o - q ~ OX' G ~ H ! ! H M 3 : # # # b ' / ^ _ @.-.=.=.6.6.-.-.-.6.-.&.>.r.V.9.6.>X[.A A b M H ~ A A J A x c N b C.C.( ` ! M C.^ b ^ ) M G M R R U b j m m M n m b / / / ^ G ! ! C.*.X.n x N N N U U U U U U ~ ` _ / / ! ! G A ~ A a 4 , @ - v / _ ] ] ] ' #.! ;   o 0 q u &._ _ b v v b v x 3 4 , O . = p f v n m m M m v n v v v v x n x l y y t B B B B y y q u p f x y 0 r j &.b r x v A b ~ ' [ ' N N N x v ~ ~ / x 0 r r r 9 r r y A ~ U x y B t r r r u u 0 0 0 1 1 8 0 r 0 r 0 0 0 r t y y y 3 # O O o $ r r r j j j t y V X . @ % p =.B l x y y t y t 4 # @ @ o . % 8 0 w w t t y y y y j y w 0 w y t t y y w 0 0 t t t 8 0 0 r 0 0 0 0 0 0 0 0 0 0 0 0 0 0 w t t w 2 q q 0 t y r u 0 2 0 r 0 0 r 0 0 0 1 = 1 1 8 8 8 1 8 8 w 8 8 1 - - & - 1 8 1 1 8 8 - 1 1 1 O O O o   - 8 w d v v d w s ",
"f M M ! U C.b n c c q * * q x b M ! ! ! ! M M M b M A U M N b M N x x x y B N b v x N b N M M M ! R U b x x v G ! ` ! ! m v m x x x x v v m v x v G G R G v v v M M M M v B y x x x v f y x x j B l n N b C.C.C.C.A b N x x B 0 > y n N m C.C.! ! ~ M V       & q / A v ` ` ^ ^ ! ! ! H f q i A / ' / ~ / @.*.*.-.-.6.6.*.-.V.5.=.i.i.j.s.&.-.b g g i a h g h g g g h i f a C c g g C b Z S S Z b Z g b g c g c Z Z C C Z Z A S K K K K S Z K | @.Y l x y v Y U M U m C.U ( ^ ~ ! ~ M b b ~ J H f e e b ^ ] ] ] ] @._ ] ^ ;   X 0 q q ) M ) M N A M N x x e > : 0 y s l v b M M v v v v v x v v n x x j u r y B B y j B j y y p B y y u r r 7 u u y v b b B y ] ! B j B j x M A B r r r 9 9 u 0 r y c J x 9 0 9 u r r r u u y 9 0 = 1 0 8 0 V 0 0 r 0 u r w q y u > % - > 0 u u u u u r r l r o . $ % b >.x n x y t y t w q 2 % O $ - = 8 0 0 y t t s l y y y t 0 t y y s l t t t 8 1 0 8 8 8 8 0 0 0 8 8 w 0 8 8 0 9 0 9 1 8 1 8 8 8 8 7 8 8 0 0 0 0 0 7 = 0 0 V 0 u 0 8 8 = = 1 1 1 1 1 1 1 8 9 0 8 1 1 & & 1 1 1 8 1 1 1 - 8 1 1 1 + . X - 8 8 0 w w 1 t t t ",
"f M A ! M M C.M b b b v b v M A ! ~ ! M A M A M b N M M c x x N N x n x B N N M n M N M M A U M M R M b v x v R ! R ! M v j N x s x x x v v x l v G R G ! G M n b G m b x B l x l n b v x x B y j B B x b U C.M N M M N N U M M M M N M M A ! ! ! C.! 0       & q H / M { ` ^ / / / ^ ~ ! ~ ~ ~ ~ / H ~ ! C./ ..&.*.6.6.*.-.i.i.p.a.k.i.M.-.g S 3 5 h a h C h g g C a a C C S C C K C a a C J S S C S S C C S C C C S K K L P L K P K K K Z S L :.@.U l x y n U U n x n M ! _ ` M ! M v A ~ H ~ ! J / ~ _ } } / #.,.,.,.' ;     0 q 0 @.M M M n M N x x x B B B f s s x v b M M M m n x f n v n x l p u q r y y B y y y B B j y y y y r r u u t y y B x y r r N N B r r t j ! -.y 0 r r q 0 r u u u y c B y u 0 9 r y y y y y u u 1 0 1 0 0 0 8 0 r u 0 u 0 u r u 0 u r 0 V 9 u j j B j r j t   X X @ f %.v m j u r w t t w q q 2 = = 0 0 0 0 t y y d l x y u w t t y y d y s y y 8 1 1 1 1 8 8 w 0 t 8 8 1 1 9 9 0 0 w 0 0 1 1 1 8 9 0 8 7 8 8 7 0 7 7 7 7 7 0 0 0 7 V 1 = = 1 - 1 - 1 1 1 1 8 w 8 8 1 & 1 1 - - 1 1 8 8 8 1 1 1 1 1 1 1 1 8 0 9 w 8 w w t y e ",
"v ~ G M N N M C.M U C.M A U C.C.! H ! ~ M b M b M M M M N x x N N b N N N M M M M N M M C.M M M M M M M G M G M ! G G G n B x x x y s x v m x x v M M m M G ! M M U v m N x x x v m v x l p y y y y B B B N M N N C.M M M U ! U N M b N M C.! C.! H G 2 o     - y v @._ =.` _ _ { / _ / ^ / ~ / { ^ / ! v N U ! ..*.6.=.&.&.r.i.i.a.6.$.a.b 5 4 < # 4 4 4 4 3 4 3 3 4 4 4 4 4 3 5 i 4 [ J : 4 i a i i i i h h h a h C g g h h h 6 h g g h i g K I ,.#.M B B x M m j l l M ` _ ` M C.M b ! ^ H ~ ~ ! / { _ } } _ ] ] ' >.~ $   o 1 q w { M m M M v l x x B c B B l c s x v M M M M M v v x n n v v B y u u w y x j y y y y y B y y x B p t t 0 0 r r y t u 0 r r y y r 9 u u C.C.s u 0 0 q r r r j x v c c f f y u r j u j r j j r 0 7 0 0 0 0 0 r r u r u r 8 9 r r r r 9 r r u u j j y r l j   . ; + p %.c v j r r r u y y y t u 8 7 0 r t y y y t y y y y u t t t y y y t y y w 0 = = 9 0 w w 0 r r 8 = = 9 0 r r 0 0 0 8 1 1 7 r r t 0 8 8 = 7 r 9 r 0 8 9 8 0 8 8 8 = = = = - - - - 8 8 1 1 8 w 9 1 1 - 1 1 1 1 1 1 8 1 1 1 1 w 1 1 w 1 w 8 0 8 1 0 0 y s w ",
"x } ~ 0 B M M M M C.! ! ` ! ! ! ! H M M C.M M A A M M M N x x x N M M M M M U M U N M C.C.M N M M M M b M M G M G G G m b v x x v x y s v v M M n x x v M R M R ! b p v M n x M M m v l y t y t y y j B x x M M M M M M b C.C.b N m M m N C.! C.M H ! 0       - e M @.@._ v ` _ _ / _ / ! ) _ _ / H H b p N b ! / &.-.&.&.*.5.6.i.0.@._ g 5 3 : % % * * : * * $ : = : 2 * * : > : > > > * = > 2 2 3 q 2 3 3 2 3 2 > 4 3 2 , 4 > 1 1 * 1 4 2 i S P [ ,.] l n m n B j B m R / ! U ! M M M ~ ! H ! _ { } } ] ] @.| #.b.' ,.~ ;     2 w u @.m M M N x x y y B x v x v n v v v M m M M M m v v v x x v j t 0 u u y l y y y y y y j p x x x x e t 0 9 u r t r 0 w t r r r r V 9 V n y s l 0 u r u j t r y x c b f x c B u u j B u u j y 0 0 0 7 0 r r r y y r 0 0 r 0 r r r r u r r j j j B B B N y . . ; @ y } v x y r 0 0 y p y q q t 0 0 0 r y j l y y y y y t 0 u 0 t t t w w w w w w 8 = 0 0 0 w t 0 8 = = = 1 r t 0 0 0 8 8 1 - = V t r r 8 8 8 8 8 V 0 t 0 0 8 7 = 9 9 = 1 8 = 1 * 1 & 1 8 - 1 8 8 8 1 1 1 1 - - 1 - 1 1 1 1 8 1 v t w 0 w 8 w w 0 1 1 8 w y t ",
"~ c f q x A M A C.! ! ! ! ! C.C.! U M M U M M M U M M M M N x N b U M U U A A M A M C.C.M M N v n M M M v v m M M G m v M n n x v x s x m M M m v x v M M G M U M b x m v x b M b m x l x y 0 w y y y y x x M M x n x M A U C.b N N N M M C.C.! ! M M -       - q b @.C.b N ! _ ^ _ _ _ / ) ;..._ G M v B b C.C...@.@.o.o.-.6.9.0.j.M.H 5 5 4 # % 1 0 3 0 q y q e d f e f y y f x f g e p p f g f c p f f f p p e e y y y f p y 3 d d d w 0 4 f S D  .:.=.l.n l l B n U ( ! ! C.R U M R R ! ! ^ _ @.@.| #.#.#.&.=.B.,.3.~ ;     1 0 q G y Y M n x l l s l x x x M G v v v m v m v m v n l x x x p j y u 0 w y y p y y y y y y x n v v y y q t w 0 w 0 t 0 t y t u u u 0 V c u t t t u j u r t r 0 0 u f f i e f x u y u u r j j k t 0 V 0 0 r r y y j r r r r 0 r r r r u r r u t j B b c y u   . @ X e @.x x y y p u r r y r r t r 0 r t y y y y y y y t 0 0 0 0 t 0 w w 0 w w w 0 1 = 1 8 w w t t 8 8 = = 8 t r 8 9 0 8 1 = = 7 0 r t r 8 8 8 0 r 0 0 t 0 8 1 7 7 7 - 1 1 8 = - - 1 - 1 1 1 1 8 8 8 0 8 8 1 1 1 1 1 1 1 1 8 1 1 1 8 9 1 8 8 1 w s s G 1 t t t ",
"v H x M M M C.C.^ ` ! ! M ! M C.C.A ! M A U M C.N M N M M M M M M C.C.A M U C.M M C.U A U M N x x M M M M n v M M M G M m b M M n v l x M M M v M M m v m M M b N U v x j j x n x x v x l y w u y y y B B B n x N M b U U M C.M A m M M M C.! ! ! v H v       = 0 b @.C.C.b ! ! ` { @.{ _ / _ _ / ! G m n U ! ` _ o.&.@...@.6.7.@.-.| 5 5 4 % % 1 w y s f x x x x m x p b b b M b b x c b x x x c f f c b v b c c f v p c v x x f f l s d y w 3 Z S D [ ,.U.w.n m N ! ! ! R C.C.U C.! ~ ! ! ` _ { #.%.#.%.=.V.,.#.V.t.-.` ;   o 1 0 0 @.x m m x l x s l x x n b b m m M v v v c v v x x v s x s y y t u t y y y j y j B y u y B s x x s t w d t w u t t t t t r 9 u 9 0 e A q u w 0 y y r u y u 0 7 8 0 f v v y B y j 9 r j y r y y r r 0 r r t t k t t t t r r r u u r r r r u u B j q V r r o . X @ e @.p n x v A v 0 r 0 r r r r 0 r r y k y l y k y t 8 0 r w r r 8 0 w t t w 1 8 8 1 8 8 w y 0 8 8 7 = 8 8 0 8 0 0 8 1 1 1 V r r t t r 8 0 0 r r 9 0 8 1 8 0 7 7 = 1 8 8 1 1 - - - - 1 1 1 8 1 1 0 9 8 8 1 - - 1 1 8 1 1 1 1 1 8 8 w 1 9 1 0 l H x w y e t ",
"G J M R ! ~ ! ! / ! ! ! M U C.C.A C.U M M M C.C.C.M N N M M M U M C.C.M M M M C.C.C.M U N M b N j x n M b b M U M U M ! M n b M b m n x v M M b m m v v x m M m N x y x v v x m M b M m x x y y y y B B l x v n M ! b M M M M M C.U M b M C.C.M #.,.^ v .     * 2 ~ =.M #.` C.! ! _ { { { ! / _ _ ^ ! G v R _ { ;...;.o.) ...._ ! A 5 4 4 % % 2 y f v v b b b x c M b H M b v b A ~ Z A A c A ~ A y ! C.M C.M x p b M v v N C.N x x x x x x p y e C S P L ,.(.` U U N U C.C.U U U ! ( ! ! ` ) / { @.| =.2.=.2.u.u.t.-.#.~ ;   o 2 0 = N.` x M x f x j n n n n x v m m m m v n n v v v x x x l x j y u u t y y y y y y j y y y j p x j u y r t e t w t y j y y w r 0 w w t w t t w 0 8 0 w w t 0 1 = 8 8 0 y s y y t y t u j j j j B j k u u u u j j y u r j u 9 t j t u 9 9 r u u B B y r u u o o X X f ] b v y y q y 0 r 0 r r r r r r y y y y l y j t r 7 r y 0 0 0 0 0 t t w 1 1 1 8 d 1 1 9 0 8 8 8 1 1 1 1 8 0 0 r 8 = 1 8 r 9 0 V r r r 0 0 0 8 0 8 1 1 8 8 8 7 8 8 0 1 = 1 = - - - 1 1 1 1 0 9 w t 0 8 = - = = 8 8 8 1 - 1 1 8 8 0 8 1 0 1 $.G 2 d s l y ",
"! v G R ~ R ! R M M ~ C.! C.A U C.C.M C.M b M M M N x c M M M C.C.C.C.C.M N x M M b N b M N M x B B v b M U b m b M M M M b b M b M N x n U M M v n M M b M b n x y y j x v m M ! H b m v v l l y j j j x x N b C.U M M M U M U A U M M M M A A J ,.;.V .     - 0 A @.H ] ( M ! _ { _ { { _ ( { _ G R { ! ! _ { ;.@.6.o.X...C.Z C 3 , 5 : * 2 y x b M M M M b b x H H b Z M M H Z A H b b A A b x p n b U b A v c A b x x x x x B x N v x x c p y e S S S [ ,.&.X.U U U N U Y M U U ! ! U ! _ ;.} %.=.=.2.2.2.s.s.t.#.,.] ;   o > 0 > ] U N m n x x n j n x x x x v v v m b v v v v n l j x f l x y y y y B y y y B y p B y y y B j y u u y t t y t u t y r y y y y w y y d s w w 0 w 8 8 w 0 8 1 7 8 8 8 0 w t r t u y r u j u B j j u j k r u u r t u j r y u u B t u u u V r u y B j u 9 0 o o X X f 2.c J } ~ y y 0 r r 0 r r V r r y y k s l l y y y 0 r y y y y r t t w w 8 1 w y t d 9 w 0 8 8 1 8 8 1 1 8 0 t 0 8 8 8 9 r r 0 V 0 t r r 0 7 = 8 8 1 1 8 8 8 8 0 8 8 1 1 8 - - = 1 - 1 - 1 w t r 0 0 9 = = = = = 8 - = 1 1 1 8 8 8 8 0 8 w 1 1 t v ! t y ",
"H G v G R ! G M C.U ! ! ! ! ! ~ C.C.A C.U M M N N c x N M C.C.C.M C.C.N M c n N N x x c M C.N N x B B n v n n v n N M b U M U U M M N N N b M b x x v m N N m c y q r y y l b ! M m b x y x x v v v x x x x v N b M R M M C.M b M M M U U C.C._ A A v V o     & 2 v / ! ) ^ b C.o._ _ { _ R ^ R R v M ^ ! M R ` ) ..a.&.` ! ! C 5 5 , * % 3 p f M M H M M M b N v c b c b H M H b v b b N ~ N y y x y x M N b M A A c x B x x B B x c x c x v B y p q C S D L ,.B.7.Y Y N n x n m ! R M U ( / &.%.=.1.=.2.=.=.r.s.t.-.,.' ;   o = 0 V @.U x n l j x x x x x x x n v v m v M v v n v n x x x x y y l y j y y t y r y y j B j y y y x y r u y t y s y r y t r t y y y y y s s s y t w w w 8 0 t 9 1 8 8 1 8 8 w t u u u t j j j j u r r j u j u u t t 9 0 u t j u j u u r r r 0 r u t u r V 9 9 o o X X f 3.H ~ v = y r t r r r r r r r y k y y l l k 0 7 0 7 t j j j y u y y 0 t y 9 w w w t w w 8 0 8 8 8 0 8 8 0 w t t t 0 0 0 0 r 0 V 0 r t t 0 8 8 8 1 1 1 1 8 8 8 7 1 1 7 8 8 - = - - 1 1 - 8 w t r t 0 0 = = - = = 1 = - - 1 1 8 w 0 8 8 0 0 0 0 8 8 s e d ",
"^ m M H ! ! M M ! ! ! ! ! C.C.! ! C.C.N M M M m N N x N M b C.C.C.C.C.U M N N N B B B x N M m N x B B v N x x v N x x v M M H M M M b M N n x n x x v x j x x l y t u u x n M U v l x l j x v v b n v x y y x n b M M m n M M M b m b M U C.M p b ~ y 0 o     & 0 M ) ! v y N ~ / _ _ { ^ _ _ _ ^ m M m m m G E ....-.&.R C.Z a 5 4 : % 2 y f v M G H ! A M M b v x M ' b M A M b N v v B c B p x y M ~ M U b m v A b B j x x v x x x x p x b x p B p q S ' D L  .N.l.( n x n z n ! ! U ( ` ) ] $.r.1.r.s.>.2.2.t.=.#.>.~ X     = 0 V @.m B l B z x x n x n x x x x v m m v n v v n n x x x l x x j B x B y u u u y j y B p y y y y y y t y y y j y y y r r y x f y t t s s s t y t w 8 0 8 8 0 8 7 1 8 8 0 0 0 u r u j u j j j u r u u B z k k u t u 0 r j u j u j r 9 9 V r r y t u u > 9 9 o . X o v @.A 0 p y 9 t t r 0 r r t t y j x y t t j y 0 = = 0 r y B j r j y y y t y d t t y y w t 8 8 0 8 0 0 8 1 1 9 r w r r w 8 r r 0 7 0 r t 0 0 0 8 8 8 8 8 1 = 8 0 1 8 1 8 8 8 1 = 1 1 1 - 1 8 w 0 t 0 8 1 1 = = = 8 1 8 1 = 1 1 8 8 y G e t 1 0 0 8 0 x M y ",
"b ! M M G M M C.! ! ! ! ! ! ! ! ! C.C.N N M N c N n N M M M C.C.M A U A N N M x x y y x M N b M x x B x N x x x n x B v b b M M M M M M m M b m m v x l x l l p y y t t x m b b v y y j B x v v N c x x x l x v M b m M m m M b M N v b C.C.M A / v v r       & e M @.C.~ b M / #./ _ { _ _ ` R / ! M n x x n ! _ *._ ( ! Z a 5 5 * & 0 y y x M M ! ! C.! A M M v x } / M A M M M N n x v B x x B x b M M M b n N v v H c B x N x x B B p v b c p x p p e Z S D [ [ v.z.M j n n n Y ! C.! ( ) .._ &.r.r.1.=.>.2.=.#.@.3.] X     = 0 0 ] l B B l l n x n j x x x s v v v n x x v M v m n x B j x f j x x l p u t u u y y y j y y y B y y y y y y y j y t 0 0 y y y y y y t s y s t w w 0 8 0 8 8 9 8 1 1 8 w t 0 0 0 r y j B j y u u r u j B j j u r r u t k B u j r u r 9 0 9 y t t y u 7 r u o . O X e %.b v J y 8 r 0 y y y y j x N x l l y y y t w 1 = = 0 z j j j j k y t y w t s s s y y t 8 8 0 8 0 0 8 8 w 8 t t w 9 9 9 8 0 1 = 8 0 0 r t 0 8 8 = = 1 1 = = 1 1 1 8 8 r 0 1 1 1 1 1 1 8 8 0 t t 9 0 1 1 = = = 8 8 8 8 = 1 1 9 9 0 s l o.x 0 1 2 2 y H y ",
"u.! #.v.v v v M M U ! ! ! ! C.C.C.C.C.b M M N x x c N N N b M M U M N M N M N N x x x N N N N N n x x N N v x c v p B x c v m M M U M C.U b N n n m v n l s n x j y y y x x x x x y y B x x f x x n x B x v x x b m M M M M M b N n n n M U U C.v x ) =       - q A _ b ] }  .K ] _ ( / ^ ( _ ( ( ` Y M x f x G ;.X.N x g a 3 , # % 3 e y f v v A M M ! A M M U M v M v M b H M b v c N N v x N v x v b A M N N x v b A B x x x N n B p B v b v p x p p p 3 Z [ D I [ d.+.n z x x n U ! ( ! ) _ @.#.>.2.=.=.=.=.#.@.#.h.,.X   o = > 2 / B j j x x n x n n l m x l v v v m x v v v x x x x x x y B x x y B B y u u y t y y y y u 0 j y u y u y y y y y u u 0 u y y y y y s s t y t w 0 9 0 8 8 8 0 0 0 0 9 8 0 0 0 0 r y B B r j j r u z B z n j j r u u u u k j k r r r q 0 u t j B t r 7 j t   . @ X f ,.H J x l t 9 8 u r y N m N N x x l s y t t w 0 u w t y y y j t y y y w t s t w t y t w w w 8 w 8 w 0 9 w 8 w t w 9 3 3 0 8 1 7 8 0 0 9 r r 8 = = = * = - = = 1 1 1 0 8 w 0 8 1 1 1 8 = 8 0 0 0 1 1 8 1 7 = 8 8 0 0 9 = 1 1 w 0 0 8 1 s s x H g M G b s ",
"C.-.@.! M M M M b M M C.C.C.C.M U A M M M M N N N x x N c N N N N A M M M M N N x x N x N N M N b N M M M M M x p x y p B B n N M M m b M M N x f x v b v x j x y y y x x x x s y u B x x B p y y B x x n n b n x v M M G R ! m b m b b M Y M U v ;._ &       - y A / A ^ ] ,.3.! ! ^ G ! _ _ _ / / ( m m M n G ! U v h a 5 4 # % 0 q y x b M M C.! A U M b b b v b b M M A A H v N n N c l x x v N x M ! b N v x n b n N N B x N x c c c x c c f p B B p B 3 C L L L [ u.o.( n z m ( U ! ) / @.@.-.>.=.%.%.%.%.@.#.;.>._ X   o = 2 2 ' j j j x x n n n x n v x n v v v v x x x v s y y x x n x j x j p B x y y y y y u y t u y x y y u u 0 0 y y y q r u u y y y y y y t s t t y t w 0 0 0 w 8 0 0 0 0 u 0 0 0 r r y j B B u u u r j z z j n j j r u u k r u u y y r 0 0 u j j j B x 0 * l y   + $ X 0 g.V.C.x y 9 9 9 8 r y j N N B B y y y y t w 0 8 t y s y y t y j y y t t t d s t w w w w w w 0 8 0 8 0 0 w w w w w 1 1 9 8 0 8 8 8 8 8 0 r r 7 = - - - - - - = 1 1 8 8 r 8 w w 8 1 1 1 1 8 8 0 0 8 1 0 8 7 8 7 8 8 0 8 8 8 r 9 0 8 0 0 0 t y e c H b x b ",
"y ! ! U ! ! ( / ! ! M M M M M N b M M M C.M M N M N N N N n c N N U M A N N M N N N M N M m b M M M b b C.U M n p y y y y y p x N M N N M N N b v x v v v p p x v j x v x v x l y u y B j x x y y p y x b b n M M M M G G R R M M m m M M M U M ` r.p *       - q ^ b.^ ] #.@.{ ( ( _ ! ! _ @.o.@.) ) M U ` ( M C.b g 5 5 4 # $ 2 q y x x M M M M M b b M b b M b b b M b v v v b b c x c x x x N N v C.A x v v N n M M b x x B N c v M v x c v v x b x x x B V g ' L P L #...n z U ( U Y ` ) &.#.=.#.@.@.@.@._ ] @.;.~ A ;   o = 0 0 J j x j x x n m m n x x x x v m m v x l x x s y s y y y y x p j x x B B j y y y y j p u j v u u r r 0 u y y y y r u r u y y y t y d e t e t t w w 8 8 w t t t t r t 0 0 u y j j j k B B u r r B B n j n l B k B k u u u u y t t u u t B l l x p v.~ q c   O * X f [ ~ x j t 0 0 8 8 9 r r y v n x y y y k t 0 0 0 u t y r t j y t t 0 8 8 t t w w w t w w y t w 8 0 w 8 0 0 9 w w w 8 w 1 8 8 0 8 0 8 w w r 8 = = - - - - - = 1 1 8 8 8 8 8 8 0 8 1 1 1 1 1 8 8 8 8 8 8 1 0 8 r r 0 7 7 1 8 8 0 0 8 0 8 0 w G G H v H G t ",
"2 ~ M _ _ / _ } ) G M N x B x M M C.~ C.U M M M M M b M N x N N M M C.b N N M N N N M N U M N M b M C.C.C.M M m x y y y q y y x b N N N N x x n n b M N N x x x N v x N b N v x t y y s y l x x B B B B N b M U M U ! ! G G M M U M m M U N U ! ( N a O       > c f / _ @.0.6.` ( ` ..;...@._ / ) _ ....C.` &.;.A g a 5 , < % q y f x x N U M M N v v v b N v N b m N x c x x v M N c n x N n N M b M n x M N x N N N N B x c l x b N A A B x x x A ~ Z x b x x q h L S Z  .-.! ( X.U Y U U ..-.#.=.#._ _ ] ;.` _ o.@.] x .   o * 2 0  .p n n U T A N U N B x N x n n x x v n x B j y B y y y y y j y x x x j y j y y x B y y u q u 0 q u u u y y u u u y u y u y y r u w t t 0 0 t 0 0 0 0 w w t y t t u 0 0 0 0 t s j l y y y w y t r j x z x j j j j t r r u u j B u j j n B z B y ] p c i   + & @ c ' a y l B r 8 9 8 8 r r k B l x y r t y r r u 1 8 y y t t s s t t u 0 0 w w w 0 w t t w t t e w 8 w 0 8 1 0 w 0 1 9 e w 1 1 9 8 8 8 8 w w 1 1 1 - 1 - - & - - = = - 9 w d v s 8 8 0 1 1 1 1 8 8 1 8 9 9 r 9 0 9 0 7 = 7 V 0 7 V 8 8 8 0 0 v ~ H v f y . ",
"# 2.! G _ _ .._ ! b N v B y B x U ! C.C.C.A M C.C.M N x N b M N M M m M M M A N N M M M N N N A M b M C.C.C.A M N x B p u y p v m N x N x n b N v N N N N M N N x N N N M n B y y t l x x y x v x x B x x N M ! ! U ! ! M b m U ! ! m n N N m M q 5 # o       = b f f / @.$.&.( U ..;.X.` ! ! ! ! ` ..&.&.X.` ] A C 5 5 : * 0 y p x v v v b C.A M b N x v x c x b N N c x v B x x c x c c n c N M N M b b m M N c n x x B x x n x U A b v p x x x p Z ~ b B c B f q g ' C D :.@.5.O.( Y Y R ` &.&.@._ _ ! ! ~ / ` ) A A - o   X = q 2 K C j m U N U N U x U N Z N x B N x N x v x y B B y y y j B y x y x y B y x p j y j y y u y r 0 q u u y y B y u u u y t u y r u u 0 0 w w 0 0 t 0 r 0 8 w y y y s y u r w t y l s y f y y w t t r 0 y y x z n j j u u 9 u k j j l n j x z B x z & y i o   X + @ v g D S e r t r 9 r 9 r r t y y y y t w t r r u 0 w w t t y s k y t y t y t w w 0 0 t t w t t 1 0 w 1 0 8 8 8 8 0 0 8 1 w w 1 9 3 w w w w 9 1 - 1 1 - ; - 8 8 w f l w G R s l t 0 0 8 0 8 1 = = = 8 8 t t r V r 0 V 7 = 7 V 0 0 8 8 8 r w v M f x b x     ",
"3 O * p C.! ^ ( ! R ! M l p x N M C.! C.U ! C.M A U M n x l n N N M M M M M M N n N m M c N N N M M M C.! ! ! C.M M x B y y p x c N N B N N M c v n M N M N N M M M M M M m x u y s x x y s x m n x B B x M M M M b M ! M z v M U C.m l R ..C.p 5 <   @ X     > q f 2 e ! _ o.) C.( ..` _ ! M ~ ! ( @.+.7.;.N Z a a 5 : : q u y y v v c x v M M A M M N v v x c N N N x x l x y _ ] p x x x x x n N m b N M M M N n x x B x x x N A A b x p p x B ~ ] ~ v b v x x x q i K S K | >.0.+.Y U U ` ..@.` ( ! C.N U C.C.B C ,       o * 1 2 q L Z z m Y U C.N T N T T N x x x x n N x B y y B y y p j y y s y y l f y y x x y u y y y q 0 0 0 0 u y y B r u u u u y r u r u 0 0 w t w u y y y u u 0 y y y t d y u r y t y y y x y y l t r r t 0 8 r k z n n j j r r y B B j B B x B n n M n 3 , .   o X d 1 G > i L C y r r 9 8 r 8 t y r w 0 0 0 t y y t r y t w t w w y y y k t 0 w w w w 0 w t w 0 w w 8 1 1 8 8 8 1 1 w 8 1 8 8 8 w 1 8 9 8 8 1 1 1 1 8 9 1 8 1 8 ` s t t 0 1 = - = 8 0 0 8 8 8 1 = 1 = 1 8 0 w t r 9 r r 7 7 = 7 8 1 7 7 8 0 H M m f G f 0 $   . ",
"q * . & y v ~ ! ! ! ! M N N C.M b U A ! C.A ! ! C.C.M M v x M M N N M M N N x N N c N b N B N M M M M C.C.! ! C.M M N x p y x N n N b x B x l c N b M N M M M U M m M N x N v y x n x x x l x m n x x x m M M b N m b N n x n b M M U U C.! a a ,   . % X     0 q f * @ q H ..) C.` .._ ..( U C.R U ( 9.i.C.C a 5 5 > V t x B B x p x c c b b C.N N b x c c B x x N x x x B B B / x y N n x n x N N N N N M N N N N N x x B x N b M v c c B x y y ~ A p v A b f x x p y c S C P :.r.i.X.U ! X.....( R M U N m m p C 5   o o   X = 2 q d 3 L Z B j B n Y A N Z B n B n n n n x B B B j y p y B j y y s l j y y x l x y y y y y y u u 0 0 0 y y l B y y u 0 u u u 0 0 0 0 8 0 w t y r y y 0 t y t y t w t r 0 0 0 y t y u t y y t y r 0 0 8 0 r t j x j j j j k j x n n B z z B B U x q ,   . O . @ 3 @ J c % 5 P C a V r r r t j y r 8 0 w t t t y t t t t w w w 0 w y y y w 0 8 8 w t w t w 8 8 8 8 8 8 8 w 1 0 1 w 8 8 8 1 8 w 3 9 8 1 y w x G w w s t 1 1 1 8 - 1 - 1 - = = 8 8 9 9 w 0 8 8 1 = 8 = 8 0 = 8 0 r V r 7 V 7 = = 7 8 8 0 0 y M x A M x 2 .   o ; ",
"q q * . * i v ! ! ! ! C.C.C.! M N M C.M C.C.C.C.! C.U M M M M M x N N N N B x N N N N N x B x N N M C.C.C.C.C.C.M M N B B B c N c n N N c x B x x n N b M N M M b N M M x x l B v n v v N N v n x x x N M M b n y N M n n n n m M m N C.B , F : . o @ 2 X     0 e y q @ @ 3 M ` ` X.;.` ( ! ` ( ` n B ;.A a i 5 5 < = y B x N x x x x v v v A b N v b N x x B B l c x l j B B x y p x x x n x x c x n N M M M m m M N x x x x N b M N v b f x p p B b N c C.v c x x v x p h Z C L L 2.k.8.) ) X.` E M m z l s 5 C 4 .   % +   . * > q ~ y i L D Z j x N x U N x x B l B l x t y y B y y x y l x y x s s l y l x x j y l s l p l y q 0 0 q q y s y y y u 0 u u 0 0 0 0 0 0 8 0 u r r y 0 u y y t y u 0 0 0 0 r 0 u u u r t y t y w 0 8 8 8 0 r t j j y y t j B x T x T x x B u x y 4 :     + $ o & 1 @ J G e - 4 P D p 0 9 r k k k t 0 u q y w y t j t u r u w 0 u u y y 0 0 0 0 8 0 t w w w 8 w w 8 8 w 8 w 8 8 1 8 8 w 8 8 1 8 9 1 1 1 9 1 y 9 1 1 - - - 8 8 1 1 1 1 = = = = = 8 0 0 9 9 1 1 8 = 8 8 8 8 1 = 7 0 r 0 r 8 = = = 7 8 t ! u y x u b b = X   o X - ",
"g p e : . * p B ! ! C.C.M C.C.M b C.C.C.M M C.C.M M C.M ! C.M N x x N N B x N N x x x x c B x N N M A M A M C.U M M M M N c x x v c x v v x x B x N N N N b M M b m x b b y x x x v m M M M M b x x x x n n N b N M M N v x x n N N U B a C <   X 1 3 q X   . 2 f f f 2 @ @ e M ! ) X.( ( ` ) *.*.U x x a i 5 3 > V y B B x N N x x l c v ! b v N N A M M n N B B x c x x B x x x p j v N N c x x x x N M M M M M x N x N N b m b M N M v x x x c b b v v x v x c x v c v y p S C K [ r.6.( E ( ! G m E *.t c K 4 O . % 0 +   X = > 0 ;.x p i I S c B U U n B N B j j j B B y y y x x j j j x y y l x l x x x x x j s x s x x y y y q y y y r y y y u u 0 0 0 0 0 0 V V 8 0 0 0 r b u 0 0 y y y t u 0 0 0 0 0 0 0 u 0 V q r 0 u u 8 0 8 8 8 0 0 r t y r t t B l B x A N x z x u > , .   + = %   # & + H H e y * 3 S C p 8 r t k t t w u t t w t t j y y 0 u 0 0 0 0 0 0 0 8 8 8 0 0 8 w w 0 8 w w 8 8 w w 8 1 1 1 1 8 8 8 w 1 w 1 1 1 1 1 1 1 1 1 1 1 1 1 1 1 1 1 1 1 1 = = = 8 0 8 8 8 8 8 1 8 9 8 1 8 8 = = = 8 0 7 0 8 8 y 2 8 0 9 8 1 1 v ~ ! q .     ; $ - ",
"c f f e : X % p B U M A M A M M M C.A C.M C.U A M N M A b M M N x x N x x N x B x x x N x x c N N M M M M M N A C.N b U N N B B x N c N x x B B c m N x x N N N N c x A 6.-.N v x v M G C.! M N j x N N v N n x x M m M N N n x n m p c D , X + q q q f X   . 0 e f x y 2 @ @ 5 A / ` ( ` ..) 6.*.! Z a 5 5 5 : > y B l x n M b b x c N v A v x N N M N N N N x x x x x x x x x x x B B x x B x x x x N C.U M M M N x x y x N M M m N M N c x B x N v x x b c x f f x v v n p p Z C S [ r.&.( E E E R R l c K 5 # o @ > 0 ;   . > > e ] y x B a P D p j N B B x B B B B y y B B y j p x B j p l s x x x l x x j x x x l y l B j y y y B y y y u u y u 0 0 V V V V V 0 V 0 8 8 0 b j 0 0 y y y y y u 0 0 0 V 0 r 0 u u 0 0 0 = 0 0 0 8 8 0 0 u 0 r r 0 u t r t y B B T c n x j V : o   O * q = o + 1 + G { s t t V , S D i = t j t t w u u w w y t j u u t t t w 8 0 0 0 0 0 7 0 8 8 8 8 8 8 8 w w 0 0 t 8 8 8 1 8 8 w 8 1 w 8 1 1 1 1 1 8 8 1 1 1 1 1 1 1 1 1 - - 1 = = 1 1 7 7 8 0 8 8 1 8 8 8 1 8 7 7 1 - - = 7 0 0 2 w 2 H A 0 0 r y 8 8 m M y .     X - = = ",
"M b b f q % O > v x M M n M M C.! C.U C.C.M M M N N n C.U M M b x x B N N N x N c n x c v N n N N M N M N M M U M N U b b N N x x x x x x x B x N N M x x x v x N n l B y C.N x M M v b M M M N x v x N x N x y B N x M M b n ! U y C D i ; = y e q i 0 X   X 0 e f b x f 2 @ $ h ~ ) ( ( ..6.6.o.m q a a a 3 V j B x x x n m U M x n N v p c x x x A m c N N N N x N n x v v x B j x x B B l x n x N N b M M b N b N M V.B p N m b M b N N x v N v b c x f B v v x x c b b n p p Z C J | N.6.X.E R G m f K 5 O o @ > q q ;   X = > u C.B B y B p I L a C.U B B B B B B y B B B y y y l y p y l l y s s x x x p y y y y y p B y y p y y y u u u y y u 9 0 0 0 0 V 0 0 0 7 0 = M b V u u p e y t y t 0 0 V V V 0 r u 0 0 0 0 0 = 1 1 9 0 0 0 t t 0 0 r r r 0 0 r u u B u u u q : o . X = 2 u - . & 1 O c / d r 8 u 0 > C C p 0 r y t y t w t t y t t 0 r u 0 u 0 0 8 0 7 0 r 0 0 8 8 0 8 8 8 w w 0 8 w 8 8 8 8 1 8 8 w 8 8 8 8 8 1 1 1 1 8 8 1 1 1 1 1 1 1 1 1 1 1 = = 8 8 8 8 8 0 8 8 1 8 8 8 8 8 8 8 8 1 = - = 7 0 u y b y b M q s r 8 8 8 0 3 +     X - - = 8 ",
"A A b n p q > @ q A v b M U ! C.C.~ U C.A U M M N x N M M m m c N N x N N x x x x x x x x M N x b M M m M N N N M M M N x x p v N N c x y y p v M v x f p p x v x B B B B u y u b -.) U v M M M x v b M x v B B x x x N M M x @.c P  .h $ 2 2 c c f H 4 o   X 0 d H H G f d w & % H ~ C.R N +.) B p a 5 a 3 q y x x x c v v v c x x c x x p x p B x A M N N x N x N N N N N c x x x x B B B x N N x x N N M M M m b N M ;.u B N m N M m b N x N v x v v x p x b M x N b M n x v y i S J L ,.t...o.R n b K 4 O . $ 0 u y r ;   . * q q H x x B x p C  .:.S Z x x m y y y j y y y y B y y p y B B f y l l x y y y y u y t u y y B j x y B y y u u y y y 0 0 0 V V r u q 0 0 * x _ 0 u u 0 u t y y y q 0 0 0 = = u y u 0 0 = 0 0 > = 7 0 0 0 0 0 0 0 0 y t 0 0 0 8 9 0 B 9 e i %   . O % V 0 u *   % = O Z ` l r r V r V q D S g u y y z k y u t t w w 0 0 w w 0 w w 0 0 0 8 t t 0 0 0 8 8 8 8 0 0 0 8 0 1 1 1 1 1 8 8 8 8 8 1 1 0 1 1 2 1 1 w 1 1 1 1 8 8 1 1 - 1 1 - 1 1 1 8 8 8 8 1 1 1 8 1 1 1 0 0 7 7 = = - = 7 r u b A ~ A * M b u 9 > e } =     . $ - 8 = 8 ",
"~ ! b b x y p q % e p v M C.C.M C.! C.C.C.M M M x x x x v x N N x x N N N N x x x N N n N x N N N N N M M N M N M b N x p y B N b x x x p p B v v v x y y y y p B x j p y p B B j x @.*.m b N N n N M M v x B B x x x N M M M x Z K 5 = = y x y A H / i .   X u f ! H G f y d e % , [ ' @.M M b g a i i 3 q y v v x v N v x c x B N v c x x x x B x N N N N N N N N M N N N n n n x x x x x x N N N x N N N N b N N m x q y B v A M x N N N c x c c x x x B p v N x B x B B x v v y x J ' L ,.>.&.&.l b 4 O . & 0 y y y r ;   X > 0 y M B v N v n y C S.S.L Z A x y y y y y y y y y y e y y B p y p f y x y y u u 0 u q y y y y x B B x y u u y y y y u 0 0 0 q u y q u = y *.0 u u u u 0 w t q r u 0 0 0 0 0 y y y u 0 0 0 0 0 0 0 u u u = = = 7 0 u t y t 0 0 0 u u c p * X X @ = 0 r u r -   @ = ; c ! x y t r V q e S D :.[ 0 x y y y 0 0 0 8 8 0 t t t 0 0 w 0 8 0 0 r t 0 8 w 8 1 8 0 8 w t 8 8 1 1 1 1 1 8 0 w 0 8 0 1 9 1 1 9 1 w 1 1 1 1 1 8 8 1 1 1 1 1 8 1 8 1 1 8 8 1 8 1 8 8 8 1 1 8 r 0 7 7 = 7 7 u r 8 0 M d 0 = t y r t 7 y 2   o X $ & - = 8 8 ",
"M M b b v x v x 0 q ~ b C.C.A U C.M C.M M N M x l c N N x x N x N N M x N x x n n N N c N n c x N n B N x N A M M n x p y y p x b N x p p x x x v x f y y y y y B B y y B y p y x v f y A ;.C.x N M M M v B B B l x x x v b v x B > V 7 - y x n f H g q .   . 0 d b ! b s y d e 0 % K 4.r.` Z c C i i 3 q y B x v p p N x x x x p B x x x p p p x c N N N x x N M N N N m c x x x N x B l x B c N N N x M N M N M N N N N x x N N x x B c N v c x c x p f p f v c N x l B x N v v b M b A ' L #.2.) f i * . $ 0 y f y y 0 X   . 1 q y M B n v v x N B :.A.A.,.p y y y u y y y y B u y y y p y y y y p y y y u u 0 0 0 0 0 q y y x x x x B y u y u y r u q 0 V y p q q u V #.y u u u u 0 0 w w u u 0 2 0 0 u u w y u t 0 0 0 0 0 0 u w t u 8 8 0 = 0 0 u t t 0 0 0 u u C.> @ ; ; = V u r t r -   $ * + b A B n y y r r B A | h.t.x l y y t r 0 0 1 1 1 8 w w r w w 8 0 0 t 0 0 8 8 0 1 1 8 w w w 0 8 8 1 8 8 8 w 0 1 2 0 8 0 8 w 8 9 2 w 8 1 1 1 8 8 1 1 8 8 1 1 1 1 1 1 1 1 8 8 1 1 - 9 8 1 1 8 V V 9 0 7 7 = 8 r r 7 7 8 - 7 9 y t y r y = & . ; - - - - = = 8 ",
"M H C.A b b M b y 0 ! M A U b M M M N N v B x x n N N N x x x B x N N M N x N x c N n N N c x x b x x x x N U A b N v x y q y x x v B x x x x x x s y y q y y y p B t y y j p y y p x v x N ( ;.A x M b x f B p B B B B y x v f y V V - * u x M b f H b o   o u 2 c H b x d y e y 2 S 4.t.@.Z S S C i q y y x x x x x x c f x x B B p x p y x x x x x N c x x N M N N N N n x c x N x x N x l x N N x N N M m N M M N N x x c N N N x l x x v b v x v x x v x c c n x x n c N n v M b Y N A J [ =.G q i i 1 * e g f x x t X   . = q i M x x y y B N N ' :.~ :.N s l u y t u y l y y y e y y y y e y y y y y u 0 r 0 0 0 0 0 u j j x B j B j y u y y y u 0 0 q q y 2 u - ;.B > y u u u r t 0 w u q 0 2 0 0 0 t y y r y w r 0 r 0 0 r y y u 8 0 1 V > = 0 y y r 0 0 u u B 7 % ; $ 0 y t y u r - o @ 1 $ x A y y y B y j N ~ ~ -.;.x r 8 t 0 0 9 1 = = 8 0 t 0 0 0 w 8 9 w w 0 w 8 w 9 w 8 8 8 w 8 0 8 8 1 1 8 w 8 8 1 1 t 8 8 8 0 9 w w 1 8 1 1 1 8 8 8 1 1 8 8 8 1 8 1 - 1 8 1 8 1 1 1 8 1 8 8 8 r 7 r 7 7 7 8 9 7 0 7 = - = 8 r j t j r y 8 = + $ - - - = 1 8 8 ",
"M ~ ! H M b M v y u ~ M M M U M b M N M N x n c b N x x x x x N N N M M M N N N n N M b N N N N N B p x N M b M M M N c y u p x x f x x x x x x x f p e y q y y y y y y y y y y y p x x x x x v ( &.x v x p v A B y y y x v v x u 7 7 - - 0 z M H M p A -   o 0 e f M M x f f f f q H [ ~ ! J L J C y p B x x f p x x v v v b x x f p p f x v c p x x x x x N N N N N N N x N x x x x n c x x x x n N N N m M M N N N x x x x n x x c x f x v v x x c x x x v v x N x x N v M M m M m ~ M b ! _ H v e f C > > y f f p y 0 +   o 2 q c ! f x f l B N b / / ! ] l y t u u u u w y y q y q y p y y y q y y y y 0 u q 0 V V 2 0 q x y B B y B y u u u u u u u q 0 0 0 y - b x = 0 r y u u u r u u u r 0 0 q V u y y t y u y y r 0 t u w y y u 0 V = 7 V 7 0 0 0 u 0 u B B u 7 % - ; t B j j 0 7 -   @ 1 @ f M y r 0 p x B b ! C.` ` r 7 8 0 0 0 0 7 = = 8 8 r u r u t 0 8 w w 9 0 0 t 0 9 9 w w 8 w 8 0 8 8 1 1 0 8 1 2 w w 0 8 w 0 w w w 1 9 1 1 1 8 8 1 1 1 8 1 8 1 1 1 1 1 1 1 1 1 = = 1 1 1 9 8 7 = 8 = = 8 0 r t 7 = - 7 = 7 0 t j j r ; ; = $ & = 1 = 8 1 0 0 ",
"b H ! G ~ M b v u u ! M C.! C.A M x x x x M N N n B B B x x N N N M M M M M N M N N N M N M M N N B p l N U M M M N N n B y B x f x x y y f p x c x f p y u q y y y y y B y y y y x y x c x c y B C.M M c v v v B ~ y y N A x x 0 = - $ - 8 x b M b x = .   o 0 q b G c b v v x f y b H ( ] ~ ~ b p p B x p B y y p x x x c v x y y x x p v v v x B x x x x U M M N x x x x x N x x x x N n x N N c n N N N N b N N N x x x B B x x x x x x x x x f x x x x v v x N B n N x x b N N / ] N M ! ! _ x s c f > V y x x v y r ;   o 3 e f H f v x x x x A ~ @._ / B w 0 0 0 u u y y y y y y q y y e y q y y y p y y u V 0 V 0 0 y f x y y B y y y u u u 0 u u u u u y 0 v x > 0 0 u 0 u r 0 u y y r y 0 > 0 0 u w y y t y u u y w t u w t 0 0 V V = = 0 > 0 0 0 0 u u B y V V - $ ; y l B y - 7 7 o $ 1 @ b ~ z y y u j B b C.A U C.0 = = 1 8 0 = = 8 8 = 7 V 0 0 0 w w t w w t 0 t 0 0 8 8 8 8 0 8 0 0 8 0 1 8 8 1 8 9 8 8 8 1 8 w 1 1 9 w w w w 1 1 1 1 8 8 1 8 1 8 1 - 1 1 1 8 8 1 1 8 1 1 1 1 8 7 = = - = = 8 0 t 0 = - = 7 8 0 y j k r 9 = - $ & 1 8 1 8 0 8 8 ",
"b H H M M A M v y q M M M C.M M p x c B x N N N c B y j x l x N M M M M M M N N M M M N N x N M n B y B N M M M M N N N x B x p p f v f x x x p x f p p p y y q y y y y y y p B y B s p x x x c v x b C.M C.N b B B B B x b x p u - - $ $ 0 x M M v ~ v o     0 0 x b n M v v c y y b M ! ..~ b x y B l B x p y y p x x f y p p y y p B B x c x x x x B x N M M N N x N x N N N N N N x n x x N x N N b b M N N N c N n B x x x x x x x c x p x x x p p y f x x c N x x v v v / A A ] ] N ! _ ! ! x y x f = V j B B x y t X   o 1 d e ! M v v v x N A ;.-.] _ B t w 0 0 u t j y y y y q e y y e y q e y y y y u q 2 > 0 0 0 y y y y B y y y y u 0 9 q u u u t y y p H > 0 0 V 0 u r q 0 0 u u u r u 0 0 0 0 r u w q y u u y t t u t t 0 0 V 7 = 7 0 0 V 0 u u t u u u p V - $ - u B B y 7 7 = . $ 2 @ c A x y j y y p N ! C.C.C.0 8 7 7 0 r 0 V = V 7 0 V V 0 0 8 w t w 0 w 0 t 9 1 1 1 1 0 0 8 0 9 8 8 1 w 0 0 8 0 t w 8 8 8 0 w 1 3 9 3 9 8 8 8 1 1 8 1 8 8 8 1 1 1 - - 1 1 1 = 8 8 = 1 8 1 = = = - = - - 8 0 t V 7 = = = y 0 r r j r 0 0 & $ & 8 8 1 = 0 s t ",
"M M M M b c v x y y b M M M A #.r.M u B M N N N n x B B x B x v N N M M b M M N N N M M M N m b N B p x N N M M M M b M x x x B f y p x y y p y p x p p y y q 0 0 q u y p p x x y x y y d f x x B b b v p v v x x B p p x v p p 0 7 - ; - r x A b b v t X   o 8 u p ! M M b v v x x ! M ! ;.A b b p p x x x x p p x x f p x y y y p B c p c x c x B x B x x x N b N N x x x N N n c N N N x x N N n N N x N N N x n c l B x x B x c x v v x x p y p B j f f A x x c B b b b M ~ p ~ A N M ~ ..` { v q f y = > y y j x v t X   o 2 e d ( v c x x N N A ] @.] ] p w 0 0 0 u y y y u y y y q y e y y q e y y e y u q 0 0 0 u q q y y y y y t y u u u u u y y u u y q y 0 0 0 0 0 r u u y 0 0 u y u u r V 0 0 0 q y y t w 0 u y w y r r y 0 0 V 7 0 0 0 0 0 0 t w r u B u c V = $ ; 0 p p B 7 7 7   @ 2 @ g U y t k t j y v ~ C.U M r 0 u 0 0 0 0 V 0 V = = 0 0 7 0 w w 8 w 0 0 w 0 8 1 1 1 1 8 w 8 9 0 w 0 8 8 8 8 9 t t w 0 8 0 0 9 w 9 1 9 w 8 1 1 1 1 1 8 8 1 8 1 1 - 1 1 - 1 - y 8 8 1 1 1 = 1 = 7 = - = - = 9 y r 7 = 9 f H d = 0 j r l t & ; - 8 0 1 = - l s ",
"M b M M b v x c y y b M M M b N #.UXg.M q v C.N n v x B x y p v N N M M M M M M M N N N N N b N n B l N N N M N N N M M N x p j y y x p f e y y x f f y q q u w y q q y v x x x x y y y y p f x x v v c x x x f x x q 0 y b p y 0 = $ ; $ r x N b C.x = .     0 w e G M M v b v x b ! R C.` ~ A b y y v f x x f x b x y d y q y p v x c f s x v c v x x v c x v x v v c x n N v x x c n v x c N v x N x x x x N v x x p x p x j x x x v x x x p p y y B x p y x x l p ] A c A ~ J ] ' v N ! ..U _ y u y y = 7 y y x x x r X   o 2 q y ! v n N n n b M } } _ -.b 0 t 0 0 0 w w t t 0 e d x y y q e y w e y y y w u 0 0 q q q y y y y y u r q 0 0 u u y u u u u u y q r u q V 0 q u u y u 0 u r q u 0 0 > 0 V r r 0 u 0 r t 0 u t t t y w w 8 8 w 8 0 t u u u u u 0 u 2 = $ = $ $ 0 y y f 8 7 7 o % = & x G s y y y t y b ! ! M N y y y y u 0 0 = 7 0 7 V V V > V 8 w 0 0 0 0 0 8 0 8 1 1 1 8 8 9 0 0 w w 8 1 8 8 0 0 0 0 0 8 0 8 1 9 0 1 9 w 1 1 1 1 1 0 1 1 0 1 7 = = = = = 8 = 0 8 8 = = = 1 = 1 1 1 1 = - = = 0 0 > 2 y x & & 7 V x t t 0 & $ & 8 8 8 8 8 = = ",
"M H M b v x f f y y M M M M M C.c c -.Z.N.! p ! b x x p y p y y N N N N M M N N N M N N N N N N N x c N N N M M N N M b x x x p p x x x f p y d f y x f y y y y y y y x x v v p y p y y y s x x c x x x x f x x v y q u q y B c q - - ; % 9 x U b M x > o   o 8 3 f v x x c v b v b ^ ! ) ! ~ A A y y x y f f x c x x x x y w q y x x x c x c v v v b c v v v v x x c x x x x c c n n c v N N n N x x x B x N x x x x x x B f B j p x x N x x B p p x x x B B B l x x B b #.' A ~ ~ b x b ` M j M x t j t = 0 y y x x x t X   o 2 w q M x M b b b b A } @.@.@.N y 0 9 0 0 0 w t y q e y y f f y y q e y e y y q q y y q u u y j y y y u 0 r 0 0 y u u u r u 0 u 0 0 u u 0 9 0 u y y t u u y 0 0 0 V V 0 V 0 0 0 0 0 0 0 u u w w 0 t w 0 w 0 0 8 0 0 0 0 0 u 0 0 u u 1 1 $ - $ $ 7 q 0 q y 8 7   % 1 # f G y l y y t y N ~ ^ ! U y j u y y u 0 0 0 0 0 = > 7 7 V 0 8 8 8 0 = 0 = 8 0 8 8 8 1 1 1 8 8 8 8 1 8 8 8 0 0 9 1 1 1 8 8 3 1 1 w 1 1 1 1 1 w 1 9 1 0 1 1 = V = = = = = = 8 = = = = = = = 1 1 8 8 8 = = 8 7 0 %.b H u 7 0 r r l M j 0 = @ $ 0 0 8 1 1 8 8 ",
"v b M b v x x p u y M N b M M m M A v x @.~.~.%.x v v f x p p j x N x c N N M N c l B N N n N x c N N x N M M M M M N x N x x B y f x y f f e y y f x x p y e y f y y p p x x y w u q y y f f f f x x f f y f v x y q y p v c ] B - ; ; - r x M c x B 0 o   o 0 f f v x f f n M m v G m ( ~ ~ A b f y y y f f x f f f x s q y q y f x x f c v v v x v x c x c v x f c x x x B x x n x x v N N N x n x B x N x x x x x x x y x x B B x x v x B v v x N x x x B p x x B b A N b ] ! x x x M _ / M ~ j y j y - 0 y s l x f t X   o 2 q y H x A / b M M M } ] ] _ B y w 0 1 0 8 0 w y u y y y y y y y y y y y y y q y q y y y y y x j y u u u 0 0 0 0 0 r 0 u u r 0 0 u y u u u r u y y y y u u u 0 0 V 0 0 0 V 0 0 0 r u u 0 0 0 w 0 0 0 0 8 w 0 w 0 0 0 8 0 r 0 0 0 u u f - - $ ; = 0 u u m k = o & 1 # c A j l k y r y N ^ / ! M x B u y r u u 0 0 0 0 = V V 7 V 0 0 8 1 7 0 7 = 1 8 0 8 = - 1 - 8 1 8 1 1 8 8 8 8 0 0 = = 7 0 8 1 0 1 1 8 9 8 1 9 9 1 1 9 1 1 1 r B 7 = - 7 = = 7 = = = = - - = 1 8 8 0 = = = = = 0 u 0 ~ y 0 7 t N ! ~ v q > $ & 0 0 8 1 1 8 8 ",
"/ b v b x x x f y y C.A b M M A N N M M x p _ M.b.^ q x v y y x x c x n B N b N N x x x c N N x x N N n N M M N N M N x N N B p s f x p y f f y y f f y y y e e x f e y j p y y q q q e y s f y y f f f f y f x f q q y x v b #.Z ; - ; $ u x N N N B 0 o   . y y x v x l l x M b s M x M _ | A b y q y y f x x x f x x y y e e y p f c x v c c b v v b x x f x x v p x x B c x x x c m M N x x x c x n N N N x f c v x B x x f y p x x x B x x v N N N v B j B B B B v x x / / x j M C.! -...! @.u y j j = = y d f x l t X   . 1 q q H ~ H M M b M A @.} &._ v l w 0 0 1 8 8 0 u y y f y y y q q y e f f d s y y s s y y y y B y y r u t q 0 0 0 0 0 q u u u 0 0 u u u u u u y y y y t y u t 0 0 0 = = V 0 0 0 0 u u u 0 8 0 8 0 8 8 0 w w t w w 0 0 8 0 u 0 0 0 0 w s = - $ $ = 0 y r b M - o & 1 * b M y x y y y y M / ] ( ( x x y u y u u u 0 0 V 8 V 0 0 V 8 0 0 8 V V = = 1 0 0 1 = = 1 1 0 0 8 1 1 8 1 0 0 = 7 7 = = = 0 0 w 1 9 8 8 8 8 1 3 1 1 1 1 1 1 0 V V V = = 7 8 = = = - * - - = 1 8 9 8 1 7 7 = 8 = 2 0 = - = B U b B y H u 2 * & = = = 1 8 8 8 ",
"M @.! N v c c x y y b ! M v b C.M b v b v M p 2 ! M.g./ u } ! y p x x x c x N v x x x x x n x x N x x N N M M M M N x x v x p p f f y f p y s x y p y y y y e y p y q y x y f y y y q q f x x f f f y f y y f x v p y f B N c A B - ; ; $ r x N v n x u o   o y f f x x l s l x x y b m ! ;.[ ' H p w e q y x x f s f x f y y y f y p v v x v v x x x x p f f x x x x x f x x x x N M N N M x x x l x x N N x b H XX} y x x c x p p y x x x x x x N N x x y f s f b M x x c c j x y ! V.^ >.t.,.@.j j j j - V y f x x l y X   o 1 2 d ~ ' / b m m N A @._ } } ! x t 0 0 0 8 w y y y f y y y y y y y q y f j f y f s B j y y y y j y y y y u r u 0 0 r q y y u 0 u q r u u u y y y t u y y u r q 0 V V 0 V u 0 0 u r q 0 u V V 0 V 7 = 0 9 w 0 0 0 9 0 0 0 8 0 = = 0 0 0 = & & ; = 8 0 0 9 0 - o * 0 % b H p f y y y j A ] ] ;.C.y x y y y u 0 u 0 0 0 0 0 u u 7 7 0 0 0 0 = 7 = 8 w 1 1 = 7 = 1 8 8 1 0 8 1 1 8 8 1 = = = = = 8 0 w 1 1 1 1 1 1 8 8 8 8 w 1 1 1 V 0 0 0 = = 7 > = - - = * = 8 = 1 1 = = > = 7 = 0 V V = = = = r N A Z u ^ 2 - = & 8 = 1 1 1 8 8 ",
"M H M N v v x v y y v x x v b M M b b v x x x x y 3 / ~.r.~ r.~ B y p x x N c N c c l x x x x v x N x n N M M m m c x x B x B x p s p f x f y y y y f y q y y d y y y y s f x p y y y e x v f y f y s y y f f x B y y x c b x A x % ; ; ; r B x N M M y ;   . 7 y x v x x x s l y r b n U / K Z b p w y f y f y y y s f f x y y f p y l x f f c x f f p y p f x x v x p p f p y x N b N x N x B p p B c c x N N f f 0 v x x x p y y y y p p B x N x x B x x f f x b A p x x x x p x x b / ] @.A c t j B j = V y d x x y t X   X 1 2 e / ~ b M M m n A @.@.%.@.A y y u u u e f q y f s y e e e f s y y f x p y f x x B x y p j y y y y y r y y r r 0 0 r y y u u u r 0 0 r u y y y y t u u q 0 0 0 0 V 0 0 0 u 0 0 u 0 0 0 0 0 7 0 7 V 8 1 8 0 8 0 0 8 8 w 0 0 7 0 = 0 q $ - & ; = 8 t y r 0 7   & 4 2 b #./ v y t t B b _ @.^ n x p y e y p q q u y 0 8 0 t 0 8 7 0 0 8 0 V V V 8 w 8 8 = = = 8 8 1 1 8 8 8 1 1 1 1 = = 7 = = 8 w 1 1 1 1 1 1 1 8 8 1 l x 1 1 1 u u u 0 = V V = = = * - = = = = 1 = = = 7 = = 0 V = 7 = = = - u c b b V y 0 = > & = 8 = = 1 8 0 ",
"M b M b b b c v p x M x x v x N M b b b x x x f x x y y } M.2.b @.>.b y B v x x B c x x x x x B N x c N c m b M N v v c p x x p x y y y p x y q y y f y y y y y y y y y y f f y y y y y f x y f f f y y y f x x f y y y x v c b.A % ; ; $ 9 x N b M x y X   o 0 d x v n v x x d y y b n ( ` Z b b e q y v x f y p y f x f f y s y y f p f x f c c x y y d e f v x x v x x f f l B B N x B c B p B B B x N c x B B 0 p B x x x f f y y p y p p x x l x y y y f v f f c x x c x B v v x M ! ` H ~ A u j B B = V u d s y l t X   o 2 e d / M M x n n b M @.@.#.@.b w w y t 0 f f q f y d y e e d f f y p f f y y p B x p B j y y y y y t y y y y y u u r u y y y u u 0 r q u y y y y y y u 0 0 u 0 0 0 > u u u u u 0 0 0 0 0 V V V = > = 7 0 1 0 0 8 8 w w w 0 8 8 V > y y * - - ; - 0 t k t r 8   & 2 g b e y u 0 y t B b / ' ^ ~ v f y e f f q y w q 0 w u u t 0 0 u u 0 0 0 0 = 0 0 8 8 8 = 8 8 0 1 8 8 8 8 0 1 = 7 = = 8 = = 0 9 9 1 1 1 1 1 1 8 w 3 s w 1 9 d y 0 = = V V = = = = = = = = 1 0 8 = 8 7 V 7 = y v = = = = = & b #.A c p 0 0 & = - = 1 = = 1 s t ",
"b b b b M b b v p B N x c B p x v b v v v b c x x x x v f d >./ b _ u.r.M q x N x x x x x l B x x x x N n N N N x v v x x x v x s y y y y s q q y q q y x p y y y y f d y f s f f f f y y q y x s p e y y y p y y f p y p c A ] B % $ ; - u x N M N x y X   . = q x v x x b x s y y M v ! / Z A b y f x s f f x f y f x x y f f p f p x f f c f v f x f s f x x x v x x x x f x B N x x B B B p p x x x x x B B B p y p x x x x f x f y y y p y B x B B y y M x f b b x x x v B A H f v v ~ ~ A ! y j l j - = 0 e y s l r X   X 1 0 s / b m x x n N A -.} @.&.b y y y u t q 0 e y p s y e y f x f f x x x y y y y x x j y y u y u t t y j y y y y y y y y y u y u r 0 r u u y t u t u q 0 0 0 y 0 0 V u u r y u r 0 0 0 0 0 0 V 7 > 7 2 1 0 8 8 8 0 w t w 0 0 0 0 0 u q - - $ ; = 8 0 u 8 8 7   % 0 $ b Z / -.v u j j b ^ _ ` A x p p p e y 0 0 y y w t 0 0 0 t r r r r 0 0 7 = 8 0 9 8 8 = 8 8 8 8 8 0 0 8 8 1 8 7 = = 1 0 8 0 1 1 1 1 1 1 1 1 8 1 1 t 2 1 1 1 V y t = 0 V 0 = = - % = = = = = 7 = 1 = = = = M u = = = = = B b A x A A u u $ & = V = = = y s w ",
"M b b M M M N v p 0 B x p y v x x v N N N N x v x x x B x x f f / ] y _ a.u.H y x f b x f f x B B x N N b N N N N N x v b n x x x B p B B y q y q y y y f y y y y p x x x y p x x f f y y s f f y y y y y y y d d s y e f x v c 0 - $ $ & u x N b b x q .   o 0 d c m x v v f x p y R M _ ,.L A Z b y f f f x c s x x x x v c f f f f x f c x x x x x x f f x v x x v x p p x f x x x y y f s y p x x f f y x x y y y x v c x p x x f y y y f f f y s f y x f f x b M b N x x x c x x N x v c @.#.y t l j - = 0 y p B B r X   X 1 q v _ c v n v x v b @.@._ ] b q B y q y p y p y f x y q y f f f v x p B y y y x x B y y u u u 0 w y y y y y y y y t y y u u r q u 0 0 0 u u t u u u w 0 0 0 j V 0 0 0 u y y u 0 V 2 2 0 0 > = = V 7 = 8 8 8 = = V u u u 0 0 7 V 0 y y * $ $ ; = 7 7 r 7 7 7   % 2 & s H f ~ j y j y v ~ _ / b q p y u y 2 0 q f y 0 0 0 t 0 w u r 0 0 0 V 7 = = V V V 1 = = = 1 8 8 8 9 2 1 1 1 1 1 1 = 8 1 7 w q u = 1 1 8 8 1 w 1 w 8 = = = > 0 r V V * M y = - = = = 7 7 = = - - = = = = = = = = * = - N x v #.H 2 j r $ $ = = = 0 H ! q 0 ",
"b b M ! M M v c y y x y x v v c v x N N x c v N c n x p x x x v v x v x f } M.2.M H f b x v x x N c N N v x N N b n x v b b v x x x B x x B B y y y y f y x y q y p f x x f x x f x p y y f y y p y q q q y y x y y y y y v ~ | u $ $ - - u x N v v x q +   o 0 J H v n v x x s l y b b @.| L K ' Z y f x v c x f s f c f c x f v v f f x x c x x f f x x x x x x v v x x p p y f f f p f x f f x B p x f y f x x B x x x x x x f f f f f y y y y H b q f f s y f v v m c x B c x c b ~ M b v c ~ p t l j - - r y p B j 0 X   X 1 e d ! v v v l v v A @.@.] _ x 0 y r r y y y y f c x y p x g f b b p p B y y y x y j y y u 0 0 0 t y r y y y j y y y t u u r u u r u u u u u u u u 0 0 2 2 0 > 0 V V 0 u u r V > = = 1 = 0 0 0 V V u 0 0 8 0 8 V = 0 0 u u 0 0 u r q x = $ + ; = 7 7 V 7 - - o & 2 * c A p y y j j y x / ' ~ ] v 2 0 0 q p y q 0 w u 0 0 0 0 0 0 0 r 0 V 7 = = - = V V 1 1 = = 1 1 8 8 8 1 1 1 1 1 1 1 8 1 0 0 w s y = = 1 8 8 w w 1 1 8 1 = 7 V 7 V = V j q 0 = = 7 = 1 = = = = y y = = - = = = = - = 7 = & > p p b y n 0 $ $ = q 0 w f f q 1 ",
"v b ! M b b x x y q ~ p p H A v v v N N x x x N N x x B y f y x v v f x v y v } _ } f x y x x v n c n c x x N N N N v v N v b N c x x x x c x B f q s x x B y y y f x p f f x x y f x y f f s y y y w 0 y q q y y y y e y M A K e $ % - & u j v x f f q X   . f 3 b m v n v f f y p n v o.| L c b c y x x v x f d f d f b b f x x x x x x f x f f f f y p x x f x f x f y p x x x x f y l f f f f y y p y y y l x B x v x v x x x f y x f y 0 x x M v y s y y y p c v v x x c N N M c N b b N v ` j y l j - = 0 y y y y 0 X   X 1 d d / v n v f x x A } #.@./ v u u 0 r y y y x p p B B B p x f c p c p y y y p y y y y r u 0 0 u y y y y y y y y y r u u u u 0 y u q u u u q 0 0 0 0 0 2 0 2 2 > V V q u u 0 > > = = : = 0 0 = 8 0 0 u 8 1 = = V V 0 0 0 u u u r t q x = $ ; ; = 7 7 7 - - = o & 2 = b ~ v j j x j j x / ] H ] f = 0 > 0 0 u > 1 u u 0 0 8 8 0 8 r 0 8 7 * = = - - = 7 8 1 = = 1 1 8 1 8 w 1 8 1 1 1 8 8 0 0 u 2 = 1 & = 1 0 8 0 8 1 1 = = = = = = 7 = M y V V = = 1 8 1 = = = 2 x 0 = = 2 = = = = = = = = 7 0 ! x x - x u $ X e b e s 1 1 1 8 ",
"v v b v v x p x y q ^ p p ] _ v b b v v c v N N v v x B p y p x b v f f y f x f x f f @.-.b f x x n x B x x N N c b c v b n b N v v c v v x x N f y y x B j y q y y x x f x x p y y y f f x f s q q w u w e y y q y y y e y K :.i $ - & - 0 x v B p p 0 X   . v c M G v v l l s x y b v @.^ b M M x y c g c x p d s c v b c f f x x x x x f f f f f y f x x x p p y y y x f s x f x x y f x f y f y y y w y q d B x x x c x B B f y y y y q _ @.y y f y y q w y p x x v x l x N v v B B n b N p ! x t l t - = r p B c c 0 ;   X 2 2 d ! c x n v x x M } @.#.H c y 0 V 0 u y y y y j j p B v b x p y p p p y p y y y y y y q u t y y y y u y y j y y q u u 0 u y u r r u u u u r 0 0 2 2 0 = = 0 0 > 0 u 0 r q V 7 = > = = > 0 7 > 2 = 2 2 0 = 2 > = = = 0 0 0 r y y u v 1 - ; ; - - = = - 7 =   & 3 1 b ~ x j j j y y x ~ ] >.A - 0 0 V = 0 y > 2 8 0 0 0 0 8 0 9 0 8 8 = = - - - * = = = 8 8 8 1 1 8 1 1 1 w 8 1 1 8 8 8 = 0 0 0 y w d - 8 0 8 1 1 1 1 = = = u 7 = = = V = > 7 = 8 8 9 = = = 7 2 = = = 2 y 0 1 > = 7 = 7 * 7 u y q - 0 q u $ X b v 3 1 0 0 8 8 ",
"p p v v b b N p y x M e v J v v c c v c n x N N x B y y e y p x c x p p j f x f x f f f ! ~ ! f x x x B B c M N n N N v c v b N b N M N N b N N B j x B B y y y B y y B y x x y y y f f x x y q q w 0 w q y y y q y y q u u a H.A % 3 % & 0 y v x d e 0 X   o t f c M m x l l s y y n b &.~ J ~ v p y c v v f f f f c c v v f x c x c x x f y y y y y x f f y y y y f f f f f x x x x f x x f f y q y q q w q y x v x x x x B p y y y y f b x q y y B p y q y q y x c v x B x x B x x x x x N x A N t j y - - u p x c / f .   X = q y ! c v v v v x b _ ' @.} H q 0 V V u t y y y f y f v x x p p y e y e e y y y y y y y y y y y y u u q r y y u u u u 0 0 p 0 0 q 0 u u u u u 0 0 2 2 0 = V > > V 0 > 0 0 u V = = > V V > 0 V 0 2 1 0 2 0 0 = = = = > V 0 0 u y q 0 y = = $ + = 7 = = = 7 - o & 1 = M H p j j y t 0 B ^ ^ #.@.= 0 = 0 8 y f 2 1 2 0 0 0 u 0 7 0 1 7 7 = - * - = - = 7 V V 8 8 1 1 1 8 8 8 8 1 1 1 8 w 1 t w 1 0 e q e = 8 0 8 V = 7 > = = = V - = = 7 - = = = 0 r 8 7 = = = = = w y y q 2 0 1 q 0 = 0 = = 0 = u b y x x = & $ = 2 y x 0 V 0 = ",
"x x x N N c n p q x A v ~ H ' ] p y c v x N N x B B y u y q y x x c v f p y x y y x b x y y x y y x x l x N x c N x x c x v N b b N M M M N x B y y x x x x B B y B y p y p x f f f f y d s y 0 y y q q w q q y y y e q y x p [ c i i - & 0 y v y e d 0 X   . y d c G x l s y y y y v x _ ~ %.~ f e y x v v c f s c c f f f f b x f c x x f y y q q y y x x f y y f x x x x f y x v x c x x x f s e d e w y q y c v n x B B B y y y d b f f s s y y j y q u q q y x v v x x B B B B B x B B N ^ d.y t B t - * 0 y x x p 0 X   . 2 w d H m m x x v x M } _ _ } x u 0 0 0 0 y y y q y f x c B p p e y y e q y y y y y y y y f j y u q u q q y y u u u u 0 V l u 0 0 q 0 u r 0 0 0 2 1 0 0 0 > 0 7 V > V 0 0 q r 0 0 0 0 V 0 0 0 > 2 2 = = = = > 0 V = = = > 0 0 0 u u 0 q = = $ ; = 0 0 = 7 7 - o * = * M ~ x B j t r u B ^ ' ~ _ - = 8 0 0 2 - 0 0 = 7 0 0 0 = 7 0 1 0 V > = = - = * * 7 V 0 0 = 1 1 8 1 8 1 8 8 1 1 8 8 0 s 0 8 1 1 = = 8 8 0 0 V 7 = = - = = - = * = 7 = = = 8 0 0 8 7 7 = 8 1 0 q e u 0 2 = 2 f = = = = 0 v r x H x u y = $ ; @ = 2 u 0 8 0 8 ",
"x x x N v c v p H @.v / / H ' 3 f x x c N N N x x B u q q y p B x x f f y x y f q y x x x s y q y B c x N x x c x c N x x x c N m b M M N N N x p l x l x B B B B y y y y p x x x f y s y e w q y y q y q u q y y e y y y f y ~ x > , $ - 8 q f y f y 0 X   o y b G G x y y y t r y v x } %.' b v y p x c x x f f f b f f f x f x f x x x f f e y y p x x B x p x y p x B v c c v v c f p p f p y e q q q y y y x c n x l B p y c H f f f s f s y j y p y 0 u y f v x v x x x x B j B B x B B q >.B r j r - - r y y x f 0 .   X 1 w y ~ M v x s f x M } } / @.A u y 0 0 w u 0 p / ! 0 f x f y f y y u q 0 q q u y y p y j j y y q q q r q y 0 r u r r V x y 0 u r 0 r u u q u 0 3 0 0 0 2 = = > V > 0 0 0 0 0 0 0 0 V V 0 V V = 2 1 = = = 2 7 > > = > = > = V V 8 0 q y = & ; ; = > 0 V = = = o * 2 * A H f l y j t u B ~ ~ ~ C.- 2 w 8 = = 0 0 2 = > V = V = = = V 0 = = = = = = - = V 0 7 u 0 1 8 8 w 1 1 8 8 1 8 8 8 w 0 1 8 8 1 1 = 8 0 0 0 V V 7 7 V - - = - = = 7 = - 8 8 8 1 8 = = 1 8 = 0 y f u 0 1 1 = = = = - = > = u p v M p p 7 & @ - 0 0 > 0 0 = 7 ",
"p B x n v x N y b ,.A ] _ ] A b A p x x x x x N p y y u y y y x f x f x p y f y q y f f x y f y e p B N N N x x x N N x x c x N b M M b N N x x x x x x B B x x B y y j x x x f f y y y y q 0 q 0 w y y w y q w y q u q f y u ~ y $ - $ & 8 q f H b y t X   o w c c M n s y y t y y v x ^ ,.H f x p p x c x p f y f c c x e q y f x x c x f y y e y s y p x x f p y x p x x v v v v v f y y y e q y y e y y f f B x c x x B B B f x f e c f f s p y y y u 0 0 q p x v x c N x l x B y B B x x y y B r j r - - u p p y y 0 .   X 2 2 q ! M v l s y f H %._ _ @.A y y r 0 1 e ~ %.%.M u y y p y y u q 0 0 0 0 q q e y y y B y y y y u u u q t x 0 u u 0 x B r u u u r u t q 0 0 0 2 0 0 0 > 0 0 > = 0 = = V V 0 V 0 r 0 0 V 0 0 0 2 * = 2 = > > = 0 > 0 0 2 = 0 V 0 0 y y * - $ ; = 2 = = 0 0 = o & 2 % A ~ x z y y j y B ^ ] ~ ! = - = = 7 > 2 0 0 2 0 7 = 0 0 7 = V = 0 7 V = = = = V 7 7 0 8 8 8 8 1 8 8 1 8 0 1 8 8 8 v 1 8 8 8 8 1 = = = 7 V 7 7 V > - - > = = = 8 = = = = = = = = 8 0 = 1 1 8 2 8 = 0 1 = = = = = = - - = = u v ~ M R 8 $ @ $ 2 0 0 = = = > ",
"q y x x v v v f 0 p ] H } ] x c p B c v n c B x x y x y y u B x y x x f p y B p y p y B B x B y y p B x c x x x N v v x f x b M M N b b v x x x c n x n x B x x B B y x x y B B B p j y y q u q u y y y y y q y y y u u u p p A y - = $ $ V u p A x y u X   o y s v ! m s s f f y y v x ! ~ ~ c b p f v x x f f p f b b g u.v.} M f p f f f f y y f f d x f f s p x p p x x c v v v B x f y y e y e y p p y p x x x v x x x x j y p y e y x p p p y y j y u q y y x x N v B x x B j y u y j v A N j y j r - - u p x p p u X   O 0 0 e H x v x j B x v >.>.] } M q j y u @.=./ c 0 q y y e p y e q 0 0 q q 0 u y p y y y u y y r y u y u y ~ y u u 1 b n 0 r u u u u 0 0 0 0 0 0 0 q 0 0 > 0 = = > 8 = > 0 > 0 0 0 V V 0 V V u V > * = > V 0 = > V 0 0 2 = > 0 V V 0 q f - & ; ; = 1 0 0 2 0 - o & 2 * H A j j j y t y f ~ / ! ! = - = 8 = = 1 y 0 > > V V V = 0 = 0 8 8 0 1 0 = 7 = 7 = = 1 8 8 0 8 8 8 1 1 8 0 8 1 8 0 1 0 9 0 8 1 8 1 - 1 1 - 1 1 = y y - = = 8 - q f 1 0 1 1 = 8 1 1 9 1 1 1 1 1 1 = 1 8 - = = = - = = = = = y y b M m > $ ; - V V u V y V > ",
"y y p x v p c p #.#.>.H b B c x B n x x x x n x x p f B y p x B y y f x B y y B x y p B x B p p y p x x B x c x v v v p f x v x M N N b v v x B x c n x x x B B B x B x x x B B j y x B y y 0 0 q y y p p y f y y B y u y y y A e $ = $ $ = y p x p q q X   o u d v H v x x b x y y v f A A A b A v p c x f p p f f b c v ^ / @.#.2.a.} x f f f f x f g s f s d y x x y y x x v b b v b x y e y e y e p p p p x N x x v x y y f B p y y y y y y x j B p y y y y B B x x x x B y y y u y y y b ! b y t k r & - u f f y A _ .   + 0 0 f / x v p y y x A #.%.@.#.b u y u u v f e y e q q y y y q 0 0 0 0 0 q q q y e y y q q u q u u u 0 u p y t y 0 M M 0 y u u u u u 0 0 q 0 2 0 q q 2 0 0 2 2 V 0 > = 0 = 0 0 0 9 V 0 0 0 V V V V > = V 8 0 0 0 0 0 0 2 0 0 0 0 0 7 0 q - & $ ; = 8 0 0 = 2 - o % 2 * ~ ] x y r t y y x H _ / G 7 - = 8 u u u q 0 = = 7 = V = 0 7 = 1 0 8 0 8 1 = 7 = = = 1 0 0 8 8 8 = 1 1 8 8 0 8 8 8 0 1 1 8 1 1 1 = 1 1 - 1 = = 1 x y = - 2 d * 1 t * 8 t 1 0 1 1 = - 1 1 1 1 1 1 1 = = - 1 = = = u r = = = = b N x B 7 $ X $ V > V V u u = ",
"y p B x p / d.x A ,.#.A A M N x x v x x B B x x x B B x x x B j q y y B N p y B x p p j B p B B y y B c x x N N x c x f f x x c c v N b N n N x x N n c c x B B x x x l x B x x B y B B B y q 0 q y y y y B s x B y u u u y u b u = - $ $ V u y x x y y X     w f d G H v x x f y y b d A ~ A b A x f c p x p y p x v v v x p y e f A H b f f f v x f f f s d l p p p p p p v v N N N N v f y y q q y y B p f v x x x y x y p y j y y y y y q y B x j p p y y y B B p y B B v x B y u y u p b v N j t y 8 - = u y y y y > .   X w q y H x x B y p x C.>.#.#.=.^ x y y 0 0 p e e y q w y q q 0 q q 0 q q q u q y y y y y u u 0 q 0 u w x y 0 y 0 R &.0 y w y u u t y q 0 0 0 0 q 0 0 0 0 2 0 2 1 0 0 > = V 0 0 0 0 V 0 0 V 0 V u V > > V 0 8 0 0 > V 0 0 V 0 V 0 8 0 2 0 * $ ; ; = 2 3 8 = = - o $ 1 & b ' x M ~ b y l x J H _ ~ = - = = 0 0 0 = = > = = = 7 u 7 = 0 1 8 8 1 1 1 = 7 = = = 1 1 1 8 1 = 1 1 = 8 0 0 8 8 0 0 1 1 = 1 1 1 = 1 - 1 - = - 1 1 = - = q t * - - 1 1 8 - l 8 - 1 1 1 1 1 1 1 1 = - 1 1 - - = 0 0 2 = = > q C.M x j * * X ; 7 V V V V 0 0 ",
"y B j p x C.} _ _ ~ b 0 N M b b v v x x B B x v x x x j p p y p p x y y x y y B y j x B j x x B B x p x x n x N N n v v y f x x x x N M N N B x n x x x x x x x N x N x x x B B B p B B y q 0 q q y f y x y y y p e u q y B q N y V - $ - > V p c x p p ;   o y d c ~ f f v v x y y f p C.~ A ~ b x f x f p B p y c v c c f p p p y f f b b b f p f f f f f f v v x v x f x v v x x B p f f e p u 0 u y p x x x x x p f y p x y p y y y y y y y y B x y y p x B y p y B y B y x y u u q y B f e A x r y 9 ; - 0 y y y y = .   + q q e b x B x y l x H %.,.%.=.H v y l r 2 0 y e q q q 0 0 0 2 e q 0 0 0 q y u q y p y y u u 0 0 0 3 M b 2 w 0 v } 0 q q u q 0 u q y w 0 0 q q 0 3 0 0 0 0 0 0 0 0 V u 0 q r 0 r 0 0 0 0 0 V u V 0 V V 0 0 8 0 u 0 u 0 0 0 0 0 V 0 0 0 0 % & $ ; = 0 0 1 0 0 - o * 2 % A J y =.@.u y f f ! G ! H 7 7 7 = 8 0 u 0 = = > = = = = 7 > = 8 8 = 8 8 8 8 = = = = 1 0 9 8 8 = 8 8 1 8 8 0 8 8 w 8 1 7 8 8 8 1 = 1 - = 1 - 1 - 0 % q ~ p 0 1 - 1 = - 1 1 = = = 1 - 1 1 1 - 1 1 1 0 1 = 1 = = 0 u 0 - V y p N U x t - * X ; > V V V V V V ",
"y y B B x x x | ' A c y M N B x p x B B y p x x x v B B y u y x x y y u 0 y y y x x y f B j B x x x B x c n x x N N v x x y y x B N N N v p y y N x v f l B c N x N N c B x x x B y B y y q u y u y B B x x y y y y u u y C.C.;.p - - - $ = u y x x s y X     y f G H H M s x x f y  .H A _ J A H f f x x p y y f b x f f y y y y p b Z ~ _ #.#.%.} f 2 2 2 w e p x x v x f x x x x p y p q q y y q q f f f v x x B p p f f f f B p p y y y y y j y y p y x x x p y y y e y x p y e e q q u y e :.b u y 8 $ - 0 y y y f * X   + q w y ! v x B x v v ! -.-.2.%.M y t 0 = 1 0 u q p f q y 0 0 0 q 3 2 u q y q q y y f e e 0 0 0 0 u 0 e y w 2 v @.0 q q q q q q q q q w 0 0 0 0 0 u q w 0 0 0 0 0 0 0 u u u u 0 r 0 0 u 0 0 0 0 0 0 r 0 w 8 9 0 0 0 0 0 0 0 V 9 0 8 0 0 y - - $ ; = 0 0 2 2 > - o = 2 % b ' B 0 = 8 0 t v ~ / / ! 7 7 7 8 0 u 0 7 V V 7 V = 7 = > 7 7 0 = 1 1 0 8 1 1 = = = 8 8 8 8 8 1 1 = 8 = 0 = 1 t 0 0 8 8 8 8 8 = = = = = - = = 2 0 y c c b 1 - 1 - - 8 1 = 1 = - = = 8 1 - 1 1 1 3 f 1 1 1 = 7 0 u v = - y ~ x b v 0 x u . $ = 1 7 V 7 = = ",
"y y y j p v x f x v ~ x m N B y y p B B B x x B p B x B x x x B y y y u y y B B B B y x B B x x B x x x l B x N N N N v x p y p B x x v p y B n n x c x x x B x x N N N n N x y y y y y u y u y t y p B x B x y y u u y y ] ;.Z y * $ - $ V y B v v s e X     w H f G G x f f f s q H | b ' ' J H f x y p x ~ J b f f f p p y p f x c x e 0 2 * p v } a.F.G.^.g.A Z v v p f x x x p y y y y y e e p p f f f c c x B p y y f f s B f p p x f y y p y y B y x B B y y y y y e p y y e p v y q 0 x ' 2 r y 7 $ = y Z | H q q +   X q e e } M y y v x b H ,.&.] } b y r 7 0 0 0 0 i c y q q 0 0 0 0 2 2 0 w u u w w y y e e q u 0 u w u 0 w u f $.y 0 q 0 0 u 0 0 u w w u 0 0 0 2 2 0 w q w 0 3 2 2 0 u u r r 0 u u u u r 0 0 0 0 u 0 u w 0 0 0 0 0 0 0 0 0 0 0 0 0 0 8 8 1 $ - $ ; = 0 0 q x x * . = 2 * b / j j y r r r y ! _ { / y y 0 w u 0 8 8 V 0 0 0 0 8 8 = = V 0 8 1 8 8 8 8 = = = 8 0 0 r 0 8 1 - = 7 0 = 0 u 0 0 0 8 0 8 8 8 1 = = = 1 - - = - 2 ~ = 2 2 1 - 1 1 1 - 1 = 1 = 8 = = - 1 1 - * 1 e e * 1 - = = 0 u 0 = 2 w y Z / x y y - X X = = 8 7 0 = 7 ",
"B y y y B x x x c ~ v v C.c y y y p B y B x f y B x x B x x x y B y y u y y B j x y y p B B B B B B B x x p B N c x x x f p y y B x v N x p x x x x c x x x x x c N N x x x B B B y B y y y B B B B B B x B B y y y u y A ~ ` B 0 * = % - V r l c c l q . o   e b i c G f c x f y f ' ~ ~ ~ ] ] ~ c p %.M.2./ b c f x f x p p f e q 0 e H #.b./._. XG.g.,.} ,.F.2._ @.b f x x x B y y y q y y e e y y f y p f x x p B B y y s f p c x p p f y y y p j p y f x f f y p y y y y y p p p ~ y q q q g f r y = $ = f Z ' b 3 p +   X 0 e d J v A ~ c x b ! >.%.] / H y 8 0 q 0 0 0 e y 0 q q 0 0 0 2 0 u w w w w u 0 q q q w q u q s 0 0 q q 0 ^ s 2 q u q 0 0 q 0 0 0 q 0 0 0 3 2 0 0 w w w u 2 0 2 0 u u u u u u u u u q u r 0 0 r u r u 0 0 0 0 0 u V 0 r 0 0 u 0 0 0 2 q - - $ $ = 0 0 2 f c @   * 2 * A A y y y 0 0 q B ~ / / / y M y w 0 7 8 0 8 0 0 0 8 8 = = = 8 0 8 8 8 8 1 - = 1 = 7 8 0 r 0 8 1 - = = 7 0 y = - 0 0 0 V 0 8 8 1 1 1 = = = = - y f = u 8 = 1 1 1 - 1 1 1 = = 1 = = 1 1 - - 1 - * 1 1 1 - 1 = = > u 0 = 1 q y y p u B y ; X $ = 8 8 8 = = 8 ",
"p p y q p x x y p 0 p C.M N B B B B x x B p x x B x x x B B B x x y y y y y p p y p y j B p u q x x v x p x x B l x x p y y p f c x c x B y B p B B x p x c x x x N N x n c x x x x x B x B B B x B B l x x B y u y y N C.Z A ;.y e V % $ V y B N B y y X     0 b f H c v x s f y y b f ~ b J J H f y x b v A v v f y q 0 q y b %.a.G.(._.M.2.Z q 2 y ~ ] } ~ b p y x x p x B x p y p y y y q y f f y y x p c x j y x y y q y y p p x p y y q y y y j x x y q f f f f f f y y y p p c A e y b c Z x 0 y 0 & = q c J c 0 V X   X q t y G e %.} g v m A ,.2.@._ f 0 8 0 y e 0 0 0 0 q u 0 q 0 q q w q q y q q q 0 w w w q 0 u s q 0 0 0 q q 0 0 q 0 0 0 0 0 0 0 q w 2 q 0 0 0 0 0 0 q w q 0 0 0 0 0 u u 0 u y u y y r 0 r 0 0 0 r 0 t w u w u 0 0 0 u 0 0 0 r u 0 0 t q g = & ; $ 7 u q p f e = . - 3 % b A t y r 0 u u y ~ ~ M M y v t t 0 8 0 r 0 0 0 8 8 8 8 = 0 8 0 8 1 = = m y = = = = 7 8 0 r 8 1 1 = 7 2 q V = = = 8 8 0 V 8 8 8 1 = 8 8 = > p x = 0 = = - 1 - 8 8 1 - = 1 1 = 1 1 1 - 1 - 1 - 2 f 2 1 - 1 = 0 r 0 0 = = 0 p n x r j y ; O X = = 1 8 = = 1 ",
"B y y y y f x p 0 0 ~ ! N N x B j B B x B B x B B x x B B B x x p y p j y y B x B x B B B y V 0 B v n B B x f p x x l B y y y x v v f x B y p x x x f x f x x c v v v x B B B v N N n x c x B x x x x x x B j y y y ~ ' ' ~ #.,.y = % ; - V u l c B f e O     y ~ b } H c f s x y q u x C.A J J J f x ~ / / U x p b _ %.g.(._.F.Z.t._ A C._ t.Z.}.OXg.^ b y B x N x x x B B p y p y y y y y p x x f y f d x y f y q y y y w y p p x f p y q y y e f f B j y q y B x x B B f y y f x f x f f p x K p u y 0 - = 8 q p * i p X   ; 0 p e ] A e y y p x U #.>.#.] M t w 8 r u 0 0 0 w q q 0 q y u q q w q y q q w 0 q 0 q 0 0 x q 0 0 0 u q 0 0 0 0 0 2 0 0 0 0 q 2 1 f v 0 0 0 0 2 2 0 0 0 0 u 0 0 0 r u u w y u u u 0 0 0 0 0 0 0 u u r t r 0 0 0 9 u u u u r 0 0 0 8 w i = - $ ; = 0 q e q f - o = 2 % b Z q w t w 0 8 f / H v U s x y 0 = 7 0 0 0 0 9 0 = 1 2 0 0 8 = 1 = q J y.p & % = = = 8 8 8 9 8 = 1 0 f = = - > V V V V V 8 8 = 1 = = 0 0 v v * - 0 = = = = 7 9 1 - 1 1 8 7 = = 7 = 7 7 = - - 1 2 = = = = = 7 7 = = = > u y N B j y 0 ; X $ = 8 1 8 = = - ",
"y y y y y f x y 0 u ! x b N x B B B j B v x N v x x y B x x B p p y p x x x j x x N N B y 0 : y B c c x B x p x B B x B B p y x x f x x B x x x f f x x f x x x x v v c v B j v N n c c x B B x x x n x x B y y u B d.>.C.C.S ,.c * * - ; > y p p f H f . o   u A b H e f x f s B y p x ` A #.[ ~ x y s f x x f y H _ #.%.~ b p u q x a.).^.M.r.} v y y x x x v x N x l c B y p y y e y y p x p c f f f s f y y y q e q q y y y y y p p y y y y y f x y p y y y y x x x x y p x v c g x f c v x [ v u y 0 $ = t u 0 c f e $   X q e y #.~ x p p p n M #.>.,.,.! y r 0 0 0 2 > 0 0 q q f Z e y q w y y q 0 0 0 0 0 0 3 0 s q 0 0 0 0 u 0 0 0 3 0 0 0 0 0 0 2 2 M { m 0 3 0 0 2 0 0 0 3 0 0 u w u q u u u w u u u 0 u 0 0 0 0 0 0 0 u u 0 0 0 r 0 u u u 0 u 0 0 r 0 8 0 i - $ ; $ = 0 0 2 2 0 = . * q 1 b H q 0 w 0 0 0 f / _ Z v w y q = = 8 0 u 0 0 0 1 1 = 1 = = 8 x 2 = 0 H v = A r - = = = 7 8 0 0 = = x M = 7 = - V V V V V 1 1 8 = - - = b = % - 8 8 1 = = - 7 = 1 8 1 1 8 8 8 = = 7 7 7 7 1 - - & - - = = = = - = - = = y 0 B N x y 7 $ . ; = = 1 = = = = ",
"! ;.v u p x f p r q A N n b m x B y B x x N x x x y f l B B y y y y B x B x x B B x x B y V 0 e x x x x x B B p B c N x x B p y f p p f x x B y p x x x f f x f v x x x x x x N N x N N x j j B x x B c x B y u y 0 x c A ,.] A.~ > = % $ V p p A / g c X   o 0 ~ b ' M c v f x y p A c b A ,.[ ~ c y y y f x x f y q y q y y f x y p y q > 0 u e x x l x B x x x x x B B B y p p y y w q y p x x x f p p y y y y y y q y d y y q y p f f e p y y y f y j y y y B f x x y p y x x f f y p x v x x y u y 9 $ = 0 y y H ~ f @ o ; q q y } ~ x j y y B b #.,.#.-.M y r 0 0 0 0 0 2 0 0 q x f q q q y q q t 0 2 0 0 w 0 0 s q 0 q 0 e q 0 q 2 2 2 0 0 0 w 2 * f =.&.y 0 q 0 0 0 0 0 0 0 0 0 0 u t y u u u u u u r u 0 u 0 0 0 u 0 u 0 w u 0 0 0 0 r 0 0 u u u 0 u 0 V 0 8 i = - $ ; = 8 0 V 0 - $ . = 0 % b H x 0 0 0 1 0 f / / 3.J e y 2 = = 8 0 0 0 8 0 7 = 8 0 y M y f b H v e e v &.y - - - = 8 1 8 8 = y / c = = = V = V B V B u 1 = 0 s = = * = = = = = 9 8 = = = = 1 1 1 1 1 8 8 = = = 0 8 = - = = = = = = = V = = = = = - y B N m x r 7 $ X X - = = 8 = 1 = ",
"b ! y u y x x y q 0 N n n m m c y p x p B c n B x j y y u y y y x y y y B x x x x B x B t y B B B x x x x B x x v N N N x p x p x y y y x p x x x p p B f x x x p p x x B y B x x x B x B B B x x x B l x B p y u q p y ` ] ] ,.Z V = $ ; u c e ] %.~ v X     2 H c M ~ f f x f y p / M / |  .~ ~ x y q q y y p y f f f f p y y p y p p x x v x f s y y B x l x x n x x B p y y y f y q y q e p f f y y y p e e y q y y e e y d f p p x f p p y y q y f p f x f x f f y f y y f x B x f y x p b v p t y 8 $ = t p c p x e @   X y y p b p p p y y x M ,.>.#.#.M y t y w = 0 0 0 0 q y q u q y e q y q w 0 2 0 q w 2 0 w 0 0 w 0 e q 0 - 0 y y u 0 3 & y -.=.c = u y q w 0 3 0 0 2 1 2 2 q 0 q y q 0 0 0 u u u q u r r 0 0 u 0 0 u 0 r 0 r 0 0 r 0 0 0 0 0 r u 0 0 0 - 0 - & ; $ - = 0 0 - q c . 2 3 % b A d q 0 1 1 1 v / J 3.] w w 1 = 8 0 8 8 0 8 8 = 7 = 0 } / y q } / f x ~ ~ M = = - - = = 8 = 8 0 f 2 = f > * - - V r > 0 y = * f =.q & = = = - - - = 8 = = = = 8 1 1 1 = = - 0 0 = 7 = q 0 1 = - = = V 0 = - = = = = = q p U U k r V & X $ - - 1 7 7 7 7 ",
"y 0 w y x x f f e q b N N m N v x f p x x n x x x y y u u y x B y y y p x v x x x x x B B x x x B B x N x x x x b M n x x y y f y f p y x B x B B x p x x x x f f x p x y y y x x B p B B B B x B N c B l B j y y y y v ^ ~ J 4.H = = - $ e Z A b Z A c +     0 H g ~ f x p x B u y ! B C.| [ ' H f y w e y B x y f x y f y y y y e y f y p x B y p p y B x x x x x x x y f f y y y f p y y p y y f f f i f e e y q y y y e y f p q p p p f y y q y q y s d d d s x f p y y y y B y x x y q e y f x w t 8 $ = t B B y 0 * ; o ; q y y M B j p y B B b #.>.#.] N t y y 0 8 = > u q y f p y y e y y w w q 0 0 0 w 0 2 q 0 0 q u 0 q - = v =.f e q - y =.u.G = 2 t y q u q q 0 0 0 2 2 > 0 0 0 q q r 0 0 0 u 0 u r u u u u 0 u u u u t 0 0 0 0 0 V 0 0 0 0 0 0 r 0 V 7 0 q - $ $ ; = 8 0 = & x ~   = p % b H e q 0 1 1 2 f ~ ~ ! / y = = 8 0 0 0 7 = = 7 = = V = C.q c v d e d H { H x & & - - = = 2 v H Z b ~ f f % u b * - - * > = - - & $ = = = 1 - - = = 1 1 1 7 = = = 8 = 7 7 - = 1 0 = = - e 0 0 f 3 - 1 0 = - = = = - = = q y x N U n = X . + & - = 7 = 8 8 ",
"l y t y f x c c e y A n m A M N x c p x x x N B y y u w u r y y p j x B B B B B B x x B B x x B x B x x v N N M b N n x f f y y q x x x x x B y B p f v v v x p y y y B p y j x B B y B x x x x B C.x B B B p p y y p v ~ ~ [ 3.A > * $ $ y A ~ A J ] b +     w } f M x x x x l y p c >.] A | ! b f y q y d p p f x p f p y y i e p f y y f x x j B x B B B B B x v x B s p f p y p f y y x x y y y e y y b x e y q q d f p e q y y y y y p y q q w w y y y s d f f d y y q e y y f x y y u q 0 y s y y 1 $ = t B p u q = $   @ w y q H x B B j B l b =.>.] #.c y y y u 8 0 u q y y s f p y y e y q 0 u 0 0 q 0 x y 0 0 2 0 u 2 - v =.} y q = e =.v./ 1 1 w 0 0 0 w 0 0 u 0 0 > 2 0 2 0 0 u q y u 0 V 0 0 u u u y u u r u u t u 0 0 t 0 r 0 0 0 0 0 0 0 0 u 0 0 0 V V u $ ; ; ; - = = = & 0 q . - u % c H y 0 0 0 8 0 f / ! ~ ~ t 0 8 0 0 8 0 0 7 = = = = 7 > V v $.b d b ~ H ~ ~ 0 @ b = $ & = } M q H b = 2 > ' @.A = % = = y 0 = - - - = = - y 9 1 - - 1 1 = = = = = = = = - = 2 v = & = y y > > e p - 1 = = - = - > > = * f B y n N l 0 $ X + - = = = = n y ",
"s y u y x b c b p e c x B M m x x v N x M C.y B y y y t t t t u y B y x B x B x B l B x x N c l l x x x x N N N N N x x x f y y y y x p j f p y B x x x N b c p p y q y y q y p p x B B x x x x B B B j B B v x y p v A ^ _ [ d.A V $ ; @ p A p ~ ] ~ p X     1 e c A x x x x B j p A A ~ ' ' ` b c d y y p p B x x y f y y p e q p e y y p x x x B x x y y y B x f x p p y p y e y x f p x f f p y e e q c b e e q e f i y p p y y y y f y y q q w q q y q y f d s f e q q p s y y y y u 0 0 0 e y y y 8 $ = w p B y u V ;   @ y q y M x x B j B x M #.#.;.-.v w y t u 0 0 y y y p f x p p y y q u 0 q q q 0 q f w 0 2 0 3 & w %.%.f 2 = q >.F.] = 2 q 0 0 0 0 0 0 0 0 u 0 0 2 2 > 0 0 w q w q 0 V > > 0 0 0 u u 0 u r 0 w u r u 0 0 w 0 V 0 V V r 0 0 0 0 0 7 0 V V V ; ; ; ; - = = = - 7 = . = 0 $ b H y 0 = 8 0 0 f ~ / ^ b = 0 8 r w 0 8 0 8 7 = = = 8 V = M H 1 H c f G c x * $ y y y f 3 f e A / x 2 f v b 0 - 7 = % = = 0 = = * - - = 2 q 0 = = = 1 = 1 = y 8 = = 8 = = = * = & - - t 8 u u 0 0 1 8 = - - - = * y > 2 c y x N j Y u $ X + - = 1 d _ = & ",
"y w y p v A Z A p y ! N B x x c b v c b b x u B l s y y t q y q u x B B y B B j B B B B N x N x B B x x N v N x v N x x x x f f f f y x p y y y p x b v v v x x y p y v ^ y x y p y B x x x x B x B B B y p A p p f b ^ / #.] #.v 7 * = % e q [ g.p b ~ 0     * p y A p x v x x y j C.M ` ;.| J Z f y w y p p x x f x f p y e e e e p p x x p B B x f f y y y p p y y y q y y y e y f f p x g p p y y y c e f e y y e e y e r q q y y x y y y y 0 u y y q q q e y f f y y y y f f p y q 0 0 2 e c y y y 8 $ - u y B y 0 > @ o ; w y q ! B B B p B B M ,.#.#.,.b u r u 0 0 0 q q y y f f x p p y y w q 0 q w w y q 3 0 0 = = ^ y.H = 2 0 =.~.=.0 - 0 0 0 0 0 3 0 3 0 0 0 u 0 0 > 0 0 0 0 w q w 0 0 0 0 = = 0 0 0 0 0 0 0 0 u 0 0 0 t w 0 r 0 0 0 0 0 r 0 V 0 0 0 0 0 V 7 $ ; ; ; - = = = & 0 0 . % q % Z H e 0 0 2 1 e c { / ^ H 8 = = 8 0 0 0 8 8 = = = = 8 7 * 1 0 q G v * 3 1 % + + 2 v } b H ~ } } v @ H ~ H A A e % - 7 7 = = = = - = = $ w 2 1 = = 1 1 1 - = x 0 7 8 = = = = - & - & - = = 1 0 = - = = = - = * c b 0 p f v A u Y N m = $ X X - & y m e 0 1.",
"y t y f b N v A c i b x B x x n N c N c x B A Z N N y u y y y y y B x B y y B B y B B B x x x x x B x x x x x x x x x x x y f f f p x x B j y y x x c c x c v x p y y y f p y f c ~ Z x x p x y p p y p y x / H x Z ! ~ ;.] x -.b 7 7 7 * * f #.' y p >.>     0 / e v M ! f x l s s M v ' ~ J J H x q 0 q p f x x x f x p e e e y e p p p f x y x s s y y e y f f y s y q y f q e e f x x f c f p y y e f p y e p y q x y e q y y f y B y y y e q 0 q q q q q q y p f y y p p y y y q t u 2 2 2 S f y y 2 $ - w y y s y 0 @   ; 0 y y ! x f y f x B b %.>.#.2.J u u 0 u 0 0 u u y p f f x p p y y y y q w w e q q w 0 * n =.} 1 % 2 @.~.u.q = r q 0 2 0 2 2 2 0 0 0 0 0 q 0 0 0 q 0 0 q w q 0 0 0 V V V > V 0 0 0 V 0 0 u 0 e 9 u r u 0 0 0 u y u y t r u 0 0 0 0 8 2 2 $ - ; X - = = V q y - . $ 0 = b J u 0 0 q 0 q x ] / A b V V = V 0 0 0 0 8 = = 8 7 t 0 y c f G b M = * 2 - @ 0 A 0 p b A q q d @ @ 2 % & q s 1 & - = = = = 7 7 = = = / b V = = = - = = d f 8 = 8 0 y q = = - - & - - - = 0 V - = = = = * * * f c e M G q e V q x m 7 ; X X & V 0 $ - = = ",
"y s x x N c v f p q v x p B x N M b M p C.A ~ ' B x x B p y y y y B x B B B x B y p B x x x x x x x x y x B x x n B B x x q y c y y p j x y y y B B c v N x x c p p p y y y y f f v H  .A c e y y x v b ~ ! | / B c ! ;.| -.;.A.Z = * 7 - e b Z / c i A $     = f d / @.M s x s y s G x ;.;.~ S b f q 0 q y x x x f x f y f f p y f y y y p x x x f f y d y y y p y d e q q e e e y e d f e p p e y f e e y p y y y y y y y y y y y B y y y y y y q 0 q q 0 q y p y f e e e y p y y u u 0 0 0 2 i e y y 0 $ & u y y y w V + o O 0 p f ~ v B x x x x M =.#.#.=.J y u 0 0 0 u w q e y p f p x p q e p e e q w q q w = q $.2.s # 1 _ D.g.s $ 2 q u 0 0 0 2 0 0 0 0 0 0 > V > V 0 q q 0 0 0 w q q 0 0 q q V 0 V V 0 0 u V u u u 0 0 u 0 0 0 0 0 u u u r u 0 0 0 0 0 0 0 > 2 X ; ; X & = = q y y = o $ 2 % b A y u u y q e c ] ~ b v 7 7 7 = V V 0 0 8 8 8 0 y y M #.b e H b v = $ $ $ $ v b p H c A H $ + v M x ~ 0 & * * - = = V = = V = = = _ t.f = V 7 = = = q / ~ 2 0 2 q y 2 = - - * - = - = = = = = = - = - & & & % 2 f d f g > e 0 9 j 8 - . ; $ - - = 7 7 = ",
"s M H b N A c c p B A M A j p B C.C.A C.b c g V u B x B B y p y y B y B x x x B p B B x x x B B B x p y p x x x x B B y y w q q y f x x x p p B y y x x v v x x B p p y y p y y l y y x A | A y u b b c H A v e B b ! ` -.;.~ A.A = 7 - - 0 A / v ] } _ $     = x f H y e l x l y s M G _ ' ' ~ H b 0 0 u q f f f f f f f f f y p y f p p p y y d s f f f f y y f y e e e i y e e e y y f A p y p y y e e y y y p y e q e e y y y y f y p y y y q u 0 q q y e y y p p p y p p y q q q q q q 0 q h x w w 8 $ - w y y y q 2 @   X 0 y f H x j y x x B b ] #.} } H p y u 0 0 0 y y p y y p y y p y p e y e y y y w = ! t.H $ % / M.v.x $ 2 0 0 0 q 0 2 0 0 2 2 2 0 0 2 > 0 0 0 0 0 q 0 0 q q 0 0 0 0 0 0 V 0 0 0 0 u u 0 0 0 u 0 0 0 0 7 0 0 r r q 0 0 V 0 0 V 0 0 0 > = 2 ; ; X X & = > = 0 y 1 o $ > * b H y u q 0 0 q f ] } } _ r 0 = = V V u u 1 9 0 0 0 0 p A / / q w v q % % $ $ = 0 H J x p y + . e x b / 2 q 0 * - = = = = = V = = 2 f 2 = V V = = 7 = = s q - = 2 ] _ u > y * - - * - = = - > V 7 = = = % & - t d d y b f p p p B U y $ . X ; - - = = = 7 ",
"c ~ ~ ~ A A A Z p q ~ N ! A q y Z ~ C.] #.A b t y B l p p j B y B j y B B x x x l x x x x x x B B B y p y B x B B B y y w q y e e f p x x y y y y y u y p x c p y p B x y p y y l s l y y p p A A ] #.A J x 1 * p C.C.` ~ ` ` Z.A = V - @ = J ~ A ] ~ A $     % d b v q s s v s y y H H @.C.' S K b u u u y p y p p f f f y y e e p y p y y p e e y f f x f f f f y d y y f e y e y e f f Z p y y y q e p e y f y e y q y y y p d e e y B p y p y u u q y i f f f f f f y y p y q y y q 0 q 0 2 g b = 0 1 $ = 0 y y f y 0 ;   ; 2 q y ! x B B B B x A #.#.=.@.A x y w 0 2 u 0 u y y y y y y y y y p f f f p 2 f 2.1.1 @ _ D.b.b * 1 0 2 0 2 0 0 0 0 0 2 0 0 0 2 0 0 V V V > 0 0 0 2 0 0 0 w q u V q V 0 0 0 0 u 0 u u 0 0 0 0 0 0 8 0 V 0 0 0 r 0 V 0 V 0 0 0 > 0 0 - 2 ; ; ; X & = 2 = p q $ o + = * b b q u 0 0 2 y c ~ ' ] / 0 0 = = 7 = = = 2 r 0 = p f v f ~ x . = y w = 0 > 0 x N $ 0 y 0 q f = = e e e * 0 2 * = V V = = 7 = = 0 = 2 * 0 V V 0 = = = 8 8 & - 1 t v y & p b > = = = = = = = 7 V = 7 = = - $ & c ! J f G c ~ ~ ! x l 0 $ o X $ $ - - = = 7 ",
"H b A ~ ~ b A A p e ! y = 0 r N Z A c p A Z N B y y B j y B y B B y y y B B x x x x x l B B B l p y y y y y p x B p y 0 0 0 0 q q q y x l B B y y u y y p x x f s f f g i H f y y d y y y y q ~ A ' ] ~ H f y A A c l A | ` ] 4.C - * = $ > v / @.>.| A ;     & f b c s l y s l y y H ~ _ ~ J A H f q q y y p y y y p p f f y d d e e e y y i y e f f f c x v y l s d d f f f e y y p y f f f y y q w q y s f y e e e t y y e e y i y p p y y y q w q y q y f f f f f p y y y e q y u q q 0 0 p K f 2 0 1 ; & u y y p x y $   ; 0 p y C.x B x x x B b @.;.#.@.N x y t u 0 q u q e y q y y u u y y y i y f 2 H u.J O G ~.~.H * 1 u 2 0 2 2 0 0 0 0 0 0 0 0 2 0 2 V , 0 0 V > > 0 0 2 2 0 q q q u q 0 0 0 0 0 0 q q 0 0 0 0 q r 0 0 0 0 V V 0 0 0 0 V V 0 0 = = 0 0 0 & w $ ; . X $ = 7 = x p =   ; > % b A 0 0 0 0 u q g ~ | %._ > = = = 7 = * = 1 0 > c J v f y q d 0 1 y e M b b } p x y f x y 0 q x v ~ x q & & - * - V 0 u = = = e A f 0 * u y y y > = = = = = - = = $ & & u e > = = y V - = = 7 = V = 7 - - $ e x q H b f c b / H 0 y - * X X & - * = = 8 8 ",
"v H v b Z p C.Z e e ^ b y u p A C.! A A y p p p B y p B l B B y B y t y B B B B B B B B B B x B B B y y y y y p B p y q 0 > 2 0 q y y y B x p y y u q y p p p x y y x f c v d y t w t t y t y y b ~ ~ A ~ b M H C.B y C.| ` ~ h.A % * % + 0 g A A c ~ _ $     $ p p f s x s y f s q f b _ ~ J Z A x y y f y p f x p y x y i f f y e e q e p p 0 q e g f f f x p s d s f f f f i p e p p y f f d d q q y s f f y e t e e f y i f e p p e y y p p q y q u q e f f f f f y e y y y q y e y q u p p i e = 0 = $ = u y y q p p @   X q p y A x x x B B B b @.@.;.` N y y y w 0 p y u y y q y q 0 r r q y y q d %.%.% d n. X{ * 1 q w 2 0 2 0 2 0 0 2 0 > 2 0 q 0 0 0 0 0 V V q 0 V 0 2 0 0 0 q 0 q 0 0 0 0 2 0 V 0 V 0 V 0 V > 0 0 0 V V V 0 0 0 0 0 0 V V > > 0 > 0 2 0 = 3 ; X o X & = = 0 $ > -   $ 0 * A b V > V 0 0 w f J [ ] } V = = = = - = = = = 2 b p % f b } ! d 0 G f f x / ~ q v 0 q p = & = 0 f y = $ * % - = = = x A - - f J x = & 1 y f 2 = 0 9 = 7 = = 0 = = = - - & - = 8 = = = = = V 7 > = 7 = = 2 w w e d f d f b C.~ y u l - $ . X & - - = 7 8 1 ",
"y b x x B x A A p p ~ y x y x A A A Z C.x p g u y x y B y x y j B B y y y B B x B x B B x B x B B y y p y y y e p p y q 0 0 2 0 u u y B B B j p y u r y x j f x f f y y b f y y t y t t y y y f c ` ~ x ~ / ] ^ ~ B b ~ ` ] C.A.c * : $ $ 2 x b c A ~ b $     & v ~ b p x y y l t y / ~ _ A ~ Z v b y y p f x p y B p x f e f f e e e f f y e e e f c f f f f p s f f i f f f f y y p p e f f f f e e i p x f y e t q y d y f d p p y p y y y y y y q u y y y y f x y y y u y y y u q u u q e e f q 8 8 = $ - y y u 0 0 2 $   X 0 e y A l x B B y x A ] ] ] ` N x y e i K e y q y y y q u 0 V 0 w q q 0 ! f 0 d. X} 1 * y q 0 0 0 2 2 2 0 0 2 2 0 2 0 q 0 0 0 2 0 V V V q 0 > V 2 0 2 2 0 0 q u q 0 0 2 > 0 V 0 V 0 0 , 0 0 0 V 0 V V V V 0 0 V V 0 V 7 = 0 0 > 2 0 0 1 X ; ; o $ > 0 0 0 V = o + > * b b 0 > > = = 0 c ~ Z J } V > = = = - 7 = 8 8 x c = $ + e f x 3 @ b b f / q 0 A v = * v p y ~ ~ H ! M = $ % * $ $ > e q 0 y b p q & - = 0 = = * y n = = = = = 0 v 0 - - - = 7 u V - > 1 8 7 = > V d w 1 v q & d v M f f H A H x 0 y - X   X - 1 1 - = 1 8 ",
"p x y 0 r u v ~ p Z } _ M y y v Z ~ A Z c g B B y p v p j p j p B y y y y y B x x x B B B B x B B j p p e y y y u y y u q q 0 q u w y p j B B y y y u y B x y x | b f f b f y q d t t s y y y y B c b Z ~ c ^ M N p ~ ~ Z ` ` V.c % % $ $ 2 b 2 e ] ! A X     $ 0 c x x x y j y y q / %.=.M ~ A b f y d p y p f x p f y e f f f e e e p y p i p f f f x g f x y y p f f f f f f p f y y p f f f f y f f f f f f y e e y y f s f p p y p p p p y y q y y y l y p f d f y q u u r u q u q u q y e f q 1 0 8 $ = y y y 0 0 e *   X 0 e y A B x v B B B A ;.@.=.-.U l y y p f p x y y q u 0 0 V 0 0 w q 0 = q r./.=.q 2 y e q q q u 0 0 0 0 0 2 0 2 0 q 0 q 0 q 0 q 0 0 0 0 q V 0 0 0 0 0 0 0 0 0 q 0 0 q 2 0 q V V > 0 0 V V V 0 0 V u 9 V 0 0 V V V 0 V 0 > = = V 0 0 1 1 ; ; o ; * 2 q y x p - . ; * $ b A V V 7 7 > q c ' ~ ~ @.0 > > V = = = = = = v 0 * q y = @ @ & x H b H f x M b v } x ! _ f y _ b p v x & - $ V x c x y 2 y e w = - - = = = - 1 0 - = = - = 7 2 2 = = - = - 0 0 = = 7 = = = > c q d c c d 0 $ = s w * 3 v ] / H y r & X . . $ - - 1 1 8 8 ",
"v y y p y p x J > c ;.=.^ x y y n R ..C.Z B p g B B B p y j j p B y B y y y y B B B B l p B x p y B j p B y y y y y y y e q q 0 0 y y y B B B y y t y B B B B y w d M H ~ b c g b q y s j y j x N x b ,.C.u N M C.` [ [ ;.-.-.3.U ; - - > i ;.;.' #.,.C.;     = y b ;.x x y s s p e A Z 6./ J A Z y y d f d s f f f f f f c f p p y y y y p e e p f p f f p x p s f f f f i p p p y y p y f p p f f f f f p d e e y y y f f x f f f f d f f p p y q e y p y f f f s y q w u 0 t y u u w y y u 0 g q = 0 = & = y y u 0 V p %   X 2 q q M p B n B B x b @.-.6.V.C.x l y t r x g p e e q 0 0 0 = 0 0 * y %.M.@.0 = y q q w q q q q 0 w 0 0 0 0 0 0 q q 0 0 0 q 0 0 0 0 0 u 0 0 0 0 0 0 q 0 0 0 0 q 0 0 2 0 0 > > x e 2 2 = 2 0 0 0 0 V u V V 0 V V V V 0 V 0 V 7 0 2 0 1 = O $ X X - 0 e V q 0 * X @ - % b c 0 0 > = = q H ' J J H > > 0 > = = = 7 7 = = $ = y A v & $ $ 2 b x c f v b x A p 0 x 0 x f c c d w y 1 @ 0 H b b s q f e b w & - - - = - 2 0 = = = = = u y = = = = - - 0 0 = = - * = - * = c b H f H b & & * & * 2 ! %.} %.{ c z - ; . X - - - 1 1 8 1 ",
"x c v b A M ~ H y ~ b q C.~ C.m Y X.O.` C.Z g p p p p x p y y y y B B p y j p B B B B B x x x l y B y y p y B y y p f f y e q u 0 q y y y B p y y B B B B B B y y c A Z H b f f p y t y B p p v B c B c y y v ] [ ;.s.d.-.s.-.| C.9 T k B B J | ] ~ ' A %   o > y p b x x x f x A x ~ _ o.~ J A f y t d f f s d f f x f f f f y q q e e e y q y e p y f p B y y y y f g p f p y f p e e p e e f e f f f f y d f y d f f f f f y f p p e p f p p y y p y j p j j j s y y u u u t y q y y y y e e C c 0 r 0 & = r y y e g A $   X > q y v y B B v v g t.Z.-.6.-.A M l n B p B g y y e 0 u 0 0 0 > x @.2._ q = q q y q q 0 0 q w q q q q 0 0 3 0 u q q 0 0 q 0 0 q 0 0 u V u q 0 e q q 0 q 2 0 > 0 2 0 0 0 V 0 > p f > 2 0 > V V 0 0 0 0 u 0 0 r V r 0 0 r 0 > > > = 3 2 0 $ - - $ V u e 0 V V = . $ = * A J x y 0 2 u f / r.} H A > > 0 > = 7 = = = 7 V = * y 2 x u ~ - 0 c p q H b b y b v b v % 1 / b b ^ ! d = + b v f G * * x J x * & & - = - 2 M b x 7 - - = p f y 0 = = 1 8 0 8 = = = = - = - = 2 f Z c H v & $ - 2 0 M ~.}.G.@.} x w & 1 - + $ $ & 1 1 8 8 ",
"v ~ ~ } ^ / | ] ~ ] v v U A x m ( +.+.&.` C.N p p p B y y y p j u B y y y y B j j B B p B B x B y B y y y y y y y x B y p y u q q y y B j y B y y y B B B B y u y v ~ A y e f b H x f v y B B p b c c u t q x #.s.A.A.B.'.s.` [ Z ` 7.Y.8.8.;.' ~ ~ ' p X   o 7 q B x x x x x A ] #.2.-.| Z S b g f e d e f f y s f f f x f f y y u y q y q y y y y p f x p p p y e y f f p i y f e q q y e e e e e d y p e e f f f i f f f f p y e e y p f y p p y y y y y y x p y y i q y d y y y y y y e e g C Z ^ u u = 8 y y y p A p *   X > q y v p B v b g d.IXxX<X'.B Z ' A T N l j p y y e u q 0 0 0 1 / { 2 0 y q 0 q q t 0 0 0 0 q w q q 0 0 0 0 q q 0 q 0 0 0 q u 0 u 0 0 0 0 u u 0 u u 0 V 0 > 0 0 V 0 > 2 2 0 p i y = = 0 V 0 0 0 V 0 u V V 0 0 0 0 0 V 0 0 0 2 = 2 2 0 2 V k 9 V 0 q e V V q = X & x = p } ~ p e f v ~ M.cX}.F.H V > V * > B x 0 0 = * * * 0 0 2 2 = y 3 f A f v N v b v N b b A G H ! s f v x @ * 0 q b G e X M } 0 & u = - - = > y y 2 = = = = 0 s y q x = 0 y = = = = = - - - = - 0 y M ' ~ q $ & 0 q M }.xXVXlX8Xr.1 = 8 1 l 9 - - - 1 1 1 8 ",
"b f ^ ! b 3.t.] ` N j @.B u u Y ( X.+.X..._ C.c p p p p y p B B B y y y y y y p y y B B B B x B p B j y j u y j j p B y x f y q y y y y y p B B y v j B B p y v A f H M q y f f c x b x j x y y x b ~ A c | t.>.N./.7.U.'.C.Z S C ` W.Y.Y.Y.Y.;.| ~ A v $   o 0 q p c c v n ~ @.=.v.P.~  .C Z g y q e d f e e p d f g c f g d y y y u y y p p f f p f x p f f y q 0 q y f f e q e y w y y p e p i f g f y e p e y f y p f p p p p i y y y y p y e y y y y f p y y y y y y f f e q y i f y y e p g C S ] y 0 r y q y u > 0 $   X = 2 y A x v A c v.VXJXLXiXC.C Z S J m n Y n l B p e y y 0 0 0 w 2 1 y y w 0 w w q 0 q 0 0 1 0 0 q q 0 3 0 0 0 0 0 0 q 0 0 0 0 u 0 0 9 0 0 u u u u 0 0 0 0 0 > 0 0 2 0 0 0 V p y > 2 2 = 1 = = 0 u u u u r 0 0 0 0 V 0 0 0 0 > > 1 0 3 q u z T j y 0 e 0 V V = O $ e > b ~ x x B c _ ~.mXmXCXb.e q * - - > y q u = * - * % > y s H x M 0 > v x * B x x q u M u M M b v c ! H f q M / { c H ! 1 d b * * - & & & - > y = - = = V V y f q f w 0 q q 7 7 = 8 0 - - & * - 0 A q b A 1 & 2 e H OXNXVXVXZXbXs.u r k z m z k 1 1 1 1 9 1 ",
"A H J M #.>./ @._ w y q > V q j m ( X.X.X.+.) C.b f p p y e x x j y B y y y y B p y B B B B l x B y y y u u u y y y B j y p j y y y y y y j j B x N y q y y B v ~ ~ M H f s f y p v v b v x B y y g ] ~ A ~ >.h.UXW.%XR.;.~ J [ S S [ s.Y.U.U.w.#.A A c X   o 0 y y f f M ! %.r.I.k.` J C a g c e q q y e e y e f f f f f f f p y y y y q p f x x f v x f f x p f y e y f p e e i y q q y s f e y e f f f e e e e f d y p e f f f y p y y y f f p e p s j p y p y p y p y f f f i p p p e e e e i C g g ] B j j u u 0 r u =   . = > y H b ~ A ^.ZXPXLX7XA N Z Z Z A ~ c n U Y x y e e q 0 0 q q y u q y q 0 q y w 0 0 0 0 0 0 0 q q q w u 0 0 0 0 q q 0 0 2 q q 0 0 0 0 0 r u u u 0 0 0 0 0 V 0 > 0 0 2 0 > u q = 2 2 1 2 f v w 0 u u t 0 0 0 8 0 V V V > > = = = 3 3 e i r T T k j u 0 V V V @ e = = b c A N c H '.cXCXDXB.= q 7 % - - = c = > y u - % & x A q = p y x y 0 M 0 M v q x M $ 0 A v ! H b c q f b ] b b H f y } q 2 & $ $ - $ $ - 0 0 * * - 7 7 = u x b y 0 x A p u = = 0 7 - - = - * G f f f 2 * = e ~ OXAXVXVXZXSXy.s t - 1 t z z k k 8 1 1 1 1 ",
"~ ~ H } %.&...*.j u q 0 = V q B B n U 8.8.( X.` ! A c f p g c B y B y y y p y y y y j B B B B B B p p y y q y u y y y y y y p j y y y y y y y p y y y y y y y y f M b Z y p c f b A f f p y q y u B Z g ~ / #.M.I.%X$X| ;.J S | :.[ S | I.L.!.U.w.;.S u ;   . 0 p f x x ! -.N.M.i.#.S a p i y e q 0 u y f i d q q f b f f x p y y y p y p x x f c x x f f x p p e f e q f f p e y y q 0 e y y q e f f e y y i f f f y i y e i f p y y p y f p y p y y f x y y y y y f y f f i y d f e p y e e e e e a C C ,.( j j r r 0 y 2   X = 4 q H H ~ ).JXDXLX7X` Z A N Z A S L ~ x k T n y q q q 0 q q q q q q y y w e e q u q w 0 0 2 q w q q 0 2 0 2 2 0 0 0 0 q 0 0 u 0 0 u 0 0 0 u r r u q 0 q 0 0 V 0 V 0 0 2 2 2 u 1 2 = > 0 H } 2 q B u 0 0 0 0 0 0 9 0 V V > = > = = 2 2 q p u z T k u u 0 u y q ] = % Z p A A b ~.NXFXmXa.0 u > * % $ * % e 2 > M p $ % * / q = y f & q e f b f x v ^ ^ x * x A M x f q w f b b A e b H y y / d & & - $ $ - $ $ & - - & - = = 7 2 0 x = q p 0 f 0 = = = x p x 3 1 1 1 * * 2 d e y ~ OXCXCXCXGXLXf.1 - & + $ + 8 z k k 9 1 1 * * ",
"e ! / %._ =.0.y u y 0 > = > V e 0 y U U ( X.X.&.o./ A b x x p y B B y A t l B y y y B B y B B B B B y y y y u y y y p j y y y y y y u q u y y y y y y y y t x x b v f f x x f b H b b y e y q y y N B C.t.I.i.L.*X&X' ;.' J J [ | [ :.4.,.B.Y.U.U.8.` N $   . u e v U M @.z.I.I.| A h i f i q q e e q d e e e e e y f x f p y y p B p f x c c b c x c x c c x g f f f p y p y y f y q w q y y q e f f e e i f f f i f e e p y e y p p y p f y p f e i f x p p y y y y p f e f e y y y e y q y e q 0 q C S S t.! j t r 0 r =   . * > y / H (.JXZXJX7X! c A A A Z S J S J ~ x T Y l t y e q q q e q 0 p p e e y e q w q e q w q 0 2 q q 2 1 2 0 2 0 q 0 q 0 q 0 u q r 0 0 0 u r q 0 u u u 0 0 0 0 0 0 0 V 7 0 = 0 2 = = 2 * 2 2 g A p V 0 0 0 V 0 0 q q 0 0 V > = = - 1 2 3 q g y Y T B y u > > ] % X * b A A n M.mXFXzX=.0 u > = $ - - * & 0 b q e 0 y v = = q p ! * u b v y s f M y 0 b u 3 M H q 2 f d G b x M f f i x q M G d y 8 & & - - $ x y $ * - - - 7 V 7 = u 2 y x = = 1 8 1 0 f b 0 = 2 0 v 3 & 0 s d ` :XZXCXZXGXLXM.- * $ @ + + + 1 y l k k k 8 1 1 ",
"H %.@.{ a.*.y q q q 0 = = > 0 > q B j T Y U O.&.8.o.] A Z c B y y y u u y p B B y y y B y B B B B y u y e y y B y y B y y y y u u q u y u y y y u y p y y q ! ~ b H H ~ A f ~ ~ H b f c c y y y B Z Z ;.V.&.i.W.].| [ [ J ~ L [ [ [ ,.S.4.,.V.Y.!.Y.8.N -   . 0 y A ` ) &.n.~./ J g a a f q w 3 q f g b e q e f i f f f p p p y y p x c v c c b x c x c v v f f f f f y e e y p f e q q q y e f d i e e f e e y s d p y f f y f f y p p f p i p e e y y p x B y y q y i f e e q q q q q y i e q q q i i C C S 3.U j j r y >   X > > p } r.hXLXLX:X` A Z c Z Z Z J J A S S ' c U z j y y e y e e q e p i e e y q w w d f e e w 0 q 0 0 0 2 2 0 u q q q q 0 0 0 0 q 0 r r q 0 0 0 u 0 u u u 0 0 0 V 0 0 V 0 > 2 = 2 2 2 = / p b A p V V 0 V V V V V q q V V V 0 = = = = > > > e i B N k u u 0 c p = y $ p ~ ~ r.lXCXvX@.q q > = - * $ - & & q p e b _ A c b p H ^ q y b x y b _ ~ b f b s w x v e 2 ! ~ v b b q s H f * q M c G ! / b = $ ; ; 1 H 2 % - - $ * * 7 2 = = = 2 V = V 1 = 0 x x 0 2 0 1 e b 2 1 d c o.6XJXCXGXGXKX/.0 * $ + + ; + + @ f y G z 9 9 - 1 ",
"} %.$.s.9.u 1 3 e e q 1 1 = 2 2 0 d y l M E X.5.0.6.;.] A c B p f q y y y q y y y y y y y y y y y y u u y y y y y y B j y q q y u u u y u u u u u y y y q y y B ~ ` A C.N Z C.Z B S Z C.C.u B B B ! V.V.j.C.'.W.` | [ [ S C.J [ J [ ,.4.4.<.| -.w.!.Y.T C.X ; 9 s _ @...(.}.] a p a g p e e q 3 q p g p u p e e p p p g B B p p p p p v b c v c c c c f f x x f p f f y q y f f p y e q q e y p f y y y e e i y p e e e p p p x p p p p y y i e e i y p p p y p p p u p p u u q q q q 2 q e 3 e e e i u 3 a D S ,.( j y y 7   X q V B B.zXAXDX}.;.C.Z Z Z Z C.S S J ` S S L [ N T T B B a u u u q e f e e q w w y p y i y y y u 0 q 0 2 8 0 u q q y 0 0 0 3 0 u 0 u 0 0 0 u 0 0 0 u r 0 u q V V V V V V V 2 V V V = V q c q f c 2 > V 0 V 0 V V 0 2 0 2 2 0 > = = = > = > = > i p 0 ! ) 0 0 f 1 0 q > c J ` tXLXgXo.q p q V > - % * - - % $ = H c p p q y q q v > y q M A x b f 0 q s q q v f e M p = v x v x b G 1 2 b J M x c / b H q y f A b N % % - - - - = = V = = - > - V V = p x y - = = & 1 * 2 e d @.iXGXSXGXLXKX[.y * $ + X $ % - > q 2 c B n n t t 0 ",
"%.@.a.$.0 0 0 1 2 2 0 1 2 2 2 0 0 q f b f x ( *.p.9...X.' A c B s y y y y y y y y r u y q y y y y y q u u y y y x y p y y y y u u u u u u 0 u u y t y y q e y B N N Z c N C.N B ` C.C.c C.B B N ' 2.B.s.P.B.6Xr.[ [ C.C.N Z C.S J J :.:.,.,.4.[ ` 7.%X7.9 ; X V q / _ k.[.M.] a a p p e u e e e e e q i u e p p p p x g x x x B x x g c b b c c x v x f f f p x f x f p f p c x f p y y y y p p f f f d y e e e e e e p e p p p f x x p f f y e e y i p y p p y u p i u i q q q q q 2 q e q u u e e u e q q a S S | C.j l =   $ V u B 9XJXDX[.` S S Z Z Z Z S J ` S L [ [ J J [ C.W T B B a u u q e e e q q u y y y p p e q q u w 0 0 0 3 0 0 q y q 0 0 0 q 0 0 u u w u 0 0 0 0 0 u u q 0 0 u u 0 u u 0 0 0 0 V * M #.y e c / q y u 7 V V 7 V V > > > > = = > - > = V = = = = 2 3 0 x ` z w i @ x > 3 A ] :XGXhX#.e > % > q q = = - - $ 2 f x H f c H v x A p b A y v H M c M c f x x M y ] H v f x d A p x v b 1 1 d f e G f c ~ G ~ H f b e 2 > - - % - * - = = = = V = - V V = 7 0 > 0 = = = & $ 1 2 t %.jXLXGXGXGXKX Xq * $ + + . $ V e p e c v 0 V r k k 8 ",
"=.@.! u y q u 8 2 = 0 2 2 0 0 0 0 y p p f p M $.X.........` C.c d e y q t y q q 0 0 q y y y y y j y u q y y y y B j y y y u u u y y u u u 0 0 e u y u q u y y p c c B u Z N B C.` N u a c a N ` B.B.k.I.[.n.;.| [ J c N Z c N N C.S [ | :.,.,.,.` ` n.n.;   . u p H B.~.v B g i p a p a a e e y p p 3 p e e e p i e p f g B p p f c c c b c c p c f x x f p p x x x f f x p x f f f p p f p p p f f f i i e e q q u p u e y p p f c f f i y p p f y f e i e p e u u u i u q u u u e u q q 2 0 u e e i i 0 q 0 a S C #.y l =   @ q 3 u zXJX|.` J J C.S Z C.S S J L J L L J ` S S [ N T 8.B B B u e e e q 0 u 0 u q y i y p e q q q q 0 0 0 0 q q y e q 0 0 0 0 u u q y r u 0 0 0 0 0 V r 0 0 q 0 0 0 V 0 u 0 0 V = y 0 = 2 > 0 > 2 > V 0 7 = 7 > V > = 0 2 = > 0 V > 7 > = = = = > q f = y x q @ + % p Z G.KXdX%.g e q 0 V > > 0 V = * > f H q g b f e f b y 0 y y x M ! v H x 2 v H x b H y b b y x M b v u b b 2 b J v H f e f f x 0 f f f A H x $ - - * - * = = = = = V = > - = - 0 p y = = = * & q y 9.xXLXSXGXLXKX Xd & $ + X + X + % > > i e q % - - 7 r 9 ",
"r.G y y y y w y w 0 2 1 2 2 0 0 q y q x c b ~ H x M E ( ..o._ A f e q 0 0 0 0 q 0 0 u u u u y y p y u u u y y p p j y y q u u y y u y u u u 0 e y y y y u q u p B n B u y N Z B N A N N B B ` s.P.P.R.[.n.;.| :.[ S Z C.Z C.S C.N S ` [ :.,.,.| [ [ ` B X   . V q M r.K ~ g p p p p x e e e e i p p p e q e e e p c b v p p g B f p g c b c c p f f p f x p y f f f x f x x x f g f f f f f p y e f y f d e e q q 3 u B p g p p f f f f p p e f f i e p e e p p i u i q u i p q i u u q 0 2 > 3 e e e u e q e q a D C ] y O   X V V u L./.-.` J J ' J C.S J J J L ` ` ` S S J ` L [ W 7.` N N B f e e e 0 u u u q y q e e y y q w 0 0 q u w y q q y q u 0 0 0 0 u u u u u 0 7 0 0 u B 0 0 u V 0 0 V V V V 0 V V > * = 0 0 0 = = 0 = > V = > > = 0 = > = = 0 = 8 0 V > > > = = = = u p * 2 b y . = > = ' >.`.t.c q > > 0 0 0 V > V u * 0 b y 0 f f c y f f q p A q v f A v f * 2 x b x v x v ! M H v f x b b v $ x ! H f { e c d o O q H b f c H u $ - - - * = = = 7 V V 7 = V - = - = 0 2 q > - 1 c f r.xXJXCXGXGXKX/.2 $ + X X ; X + X = > q e p * = & X X 7 t ",
"y | H y w y f y p d u 0 1 2 2 q q f d c y f %.e x U ..X.8.6.&.` M p y 2 > q 0 0 q 0 0 q u u t y y y y q u y y p y y q q u u q u u u y y u u q u e p p p y y e y B B B y B N c B u N C.N ` ` -.UXI.R.tX[.` ,.3.| [ ` C.B N C.N N N S [ ' [ [ | [ J ' H x ;     > q x ~ H f e e y p p e u p e i y i p f e 3 q e y p c c p f f f p x J c b b c c c g f f f y y x x p f x f p x f f p f c p p x p p p p p p d y q e u 3 u g B B a B f f f f f p q y p p p u p u i i p q q q q q i u y y u u q 2 2 2 V u u u e e i u i C C C y X   & 3 V u | A.S B a g ' J J J L ` [ [ L ` S C.C.J S J L [ N C.W C.B x q q y w q y q p e e y p e e q q 0 0 q q q 0 w y q 0 0 0 0 > 0 0 q q 0 0 0 0 0 V t x 0 0 0 0 2 V 0 0 V V 0 V V > V > V 0 V = > = = = = 0 V = = = = = > = = 0 > = > 0 = > = % q p f 2 f @.A y o 0 y % ] :.i Z ~ B % = = 7 = = = V 0 = > p p c v p b x y p A ~ v c ~ 0 = f y y ~ b c v p f v x ~ b v ~ b v c * H } f ~ x b ! / = + e ! G H H c H V @ % - % - = - = = = 7 V V = = = - = % = y 2 > q H =.bXJXZXGXJXKX X2 & + . O 1 * 0 q & @ * q x q & $ + 0 e = - ",
"2 b ~ x u w y y f b q 0 2 0 0 0 0 y f f y d y e y n E ..&.6.5.O.) b p 0 0 q q q q 0 0 u 0 0 q q y y y e y y j y y y y u u q u u u y y y e u u y p p e p p y y e c C.c y B c u N S u B J ` -.UX'.%X$XdX3.4.4.,.:.[ [ J S g g c a c C.[ ` ' [ [ J g q A p ;     = u b M c p p q q e u u e e p y p f f e q q q e e p p p g f p p f f c p c f c g c x x f y p y p p x x f f x x p p c x x v x x c p p e e u x s i f c q u u B Z B p f f f f f p i f B p u i e 3 q u q u u q i u u p i e i u q q 2 2 q i i i i u e e e q 3 q e +   $ V q u A.,.a u g J [ ' J J ' ' J J ` [ ` J S S J J J J [ N T W N b f q q e q y y x p e i p e e p e 0 0 u u w u w 0 0 0 u 0 0 0 q 0 u u u 0 0 0 0 0 0 V 0 0 0 0 0 0 V 0 V V V V V 7 V 0 0 V V V > = = = = > > = = = 2 = V > = 2 = 0 2 0 = = * y ] H f p b q p 2   % V % S :.e x ~ > q 0 = = = - = p v p c A ~ f 2 e b H A v x x q p ^ c q b x y q e v A v A b ~ c v y ~ 0 0 f b b d b H b b ~ q $ s G f b > x H f V q 0 * % = = % % = = = = V = - - = - = 2 2 0 y d -.zXGXZXFXGXKX^.0 % + X . . 1 q * 2 2 e M 3 e = ; . & = x M $ ",
"d v x b y q e f b M d q 0 0 w 0 q e g e q d y i A y n ( U ..7.7.*.) N y q q e p q 3 0 0 2 u q y y y y y y B B y y y q u q y u u u u y y y y y B u p g c p p e x A C.u u B N c A J p B [ V.UX'.%X3XhXt.4.A.,.:.:.[ ` C.S c B Z c S C.[ [ [ J J S Z c p q X     % q H ~ c c c y y u e e 0 e e p p p y e q q y e p y p x f f p p f p p f f x c c c c c f y p p y f f x p p g p B p g x B c x x c p e p q g g p p p u u u p p p B B f p p p p i y f p a p u q q q q p i y i p u q q u q i q u u q 0 q i u c a e q i e y 0 > e $   $ V V u H.:.B c S J S J ' [ J J L [ J J ' ` S S J J ` S L [ B T ;.m m f e i p p i i y e p p y e u e q w q 0 0 q 3 0 q q u q 0 q q q u u 0 e c 0 7 0 0 u 0 V 0 0 0 0 0 0 V V V V V V > 0 0 V V V V = * * = = * = = = 0 > 0 1 2 0 0 q 0 = = = * f b > 2 b c x A V   $ = - Z :.i p Z = y 0 = = = = V c c 2 ~ ~ p b b f } e p q q y _ A 0 = b x f p y c b 2 b ! H M x b p 2 ! A A b 2 b H G e c 3 @ v G f g H p p / p - y N * - * * * % % = = = - = - - = = * = 2 f f @.vXGXCXZXSXLX(.0 * + X . . 2 1 q e p % 2 = 0 e - q y @ . & q & ",
"y f y y y y f x b x v y q q q 0 y f y q e e q b | g j t Y -.5.i.7.*.( b p y i e f e 2 0 0 q y y y e y u y p y y y w u 0 u q q y y u y y y y e C.g c Z p p x B e p c u y B N [ N B B ;.B.UXUX'.2XdX,.[ A.[ :.| | [ [ S C.N S N N N S J J -.g a S ' ,.b u X     * q c ] b p p p y e y y e e y u y e p e y y p p p p f x f f f p p c x g p p f g c f f x f f p x f f p f f f p f p p x B x c f p f p p p x x B p g C p u u B p a B f f f i p f p p p p i p q q u i i p u u u i u q q q u i i u q 3 q u i B p e u y e e 0 > q $   @ 3 V u G.:.g N J S J ` ' ` L ` [ ` ' [ ` ` S ` J ` J J S ` [ C.7.8.E M v y e e y e e e e p e 0 , q q 0 w 0 0 0 0 0 0 q u q y q u 0 u 0 q q e 0 0 0 0 0 u x 0 0 0 q 0 0 V V > V V > > 0 0 q > = = = = = * * = = = = 2 = = > = 2 q 0 0 2 = = * q e * 2 H ~ x q % . % q * Z | e e N A 0 > u 0 = = > V V x c p q y y e p = = 0 0 > 0 q 0 p x x x y p ~ x y A ~ A x p b 0 f M x b 2 c b f H G b G / M f c b M 0 0 N * * * $ = * - = - V - - - = > - = = - - * = 0 q ] zXGXNXCXZXLX Xe 0 $ + X . + 1 1 = * > $ * 3 y 2 & b v & ; & & $ ",
"x H y s u y y y b f f b y e q e f f q 0 0 y q i h g f ! x m ) +.6.5.&.( n y y p 3 2 0 0 0 q y q q y y y y y p y q 0 u u u u y u u y p B j B y p x g C.N B p B y g N p u y u y x c ` B.n.UXW.>X9Xt.[ 3.,.,.:.,.[ [ [ ` S S C.J N Z S Z C Z S ' [ | ' Z q X     & y c v f y f y y f y y q q y y q y y e y y y p p p x f p p p p B c c B c p g B N c f f v s f l f p p f f f f f f c x c c p p f p p p u g Z B B C B B u u u B B B C B B u B p p B p u u i u u B i u u a i u i i u e e p e e e e e q u u a e e e i y q > > e $   @ V V u 3.J Z Z A J C.J J J J ' ` [ ` ` [ J J ' J ` J J J S [ :.` w.8.Y Y B u p p u i u u e u 0 0 0 q q 0 0 u q 0 0 q u u y q q q 0 q 0 0 q > > q f 0 0 q e 2 0 q 0 0 0 > > = V 7 0 0 > 0 0 > > = > = = = = = = = = > 2 = 0 q 0 2 q y 0 = - = * > B ] ~ e e e V . = ~ 2 Z J i 0 y f = > 0 V > V V = 0 y 0 2 u q q y q = 2 * - = u > v A c v b y y ~ % f f b e 2 M x C.A y v f & G / 2 G b ~ / 2 x H e f f w * & 1 V % = = - = $ * - % 7 - V y - % - & - * > y ] fXGXNXCXCXJX Xd d q & o + % 1 + + 0 & 0 * f y 0 X & & ; @ V u $ $ ",
"e x p y y y y x c b f f f f f e f f e y w u q f c c y v q 0 v O.8.7.*.&.( N p p 0 0 0 u 0 0 u q 0 q y y y y j y u q q y y u u y p u B p y y x f p p C x B B e e B B p p y p y c ` B.UXUX'.%X-Xs.,.3.,.:.| ,.| :.[ ` [ ` J C.' S A ~ A Z ~ ' @.' ' ' A q X     $ e p b b b x x p f f y y y y q q e y y p y q y y y f f y e p g c c c C p g x c c x c f b f f y d p p y f p f f f f x x p i y p p g c c c B Z B B Z p p p a B i B B B q p p B i i p p B i i i i B p i B B i u u u e e e e e e e e q 3 u u 0 3 e q e e q 0 0 ;   O V 3 u | J C.A A S ` ` J C.J J [ ' [ ' ' J ` ' J J ` [ [ ` [ [ [ U 8.8.Y Y x p B p p u p e u e 0 0 0 0 q 0 y u 0 0 0 q y q y c 0 q 0 0 0 2 0 0 q y 0 u 0 0 0 0 2 0 0 0 V 0 = > V 2 0 0 0 V V > 7 = = 0 > > = = > = 0 2 0 0 u 0 0 0 q q > = > q b g A B p x , $ . V ^ 2 c J i q 0 = > > - = 7 V 7 0 > = V = 0 y q q A f * q x y f x M y x b y x p 0 c H x H x > ! / b H ! b q f f G b G i H 2 . p ! c e b ! e $ * = % - % * % y 2 - V % - % % % % & & $ = q ] fXZXNXCXCXSX~.e s e f d 1 s f c d q x f 3 0 y w $ & % = = v b 0 - = ",
"! y y y t y c ~ b g f f x f f f b b w q d y e f e q 0 0 q u l o.5.7.O.&.*.` m y q y y u q u 0 u u q q u y y y u u q u u u y y y A A q p p p p y x p y y p A x y p x x p y p c A B.UXUX%X2XgXV.,.S.3.:.,.| :.| ,.[ ` ' J J S J ' ' ' ~ ~ [ ~ ' [ A ~ Z V .     - q y b b M y y B x f f f y y q u y q q y e u q e y p p y y p B g c c c x c B c c x f f x c s d y e y p i d f g f c x x p f y f f B c c c A B B B B B B a B u u B p p B B C u p u i u a p u B B p B p B a B i q i p i i e e e e e e 0 q u q q q e p p p e 0 $   X q q u -.J C.J A C.J C.J J C.J ` ` [ ` ` ` J ` ' ` [ ` [ L L [ [ ' ( w.8.Y Y B u e p p u e e e 0 2 q 0 0 q e u 0 q 0 e u q y e q q 0 2 0 0 2 0 0 0 q 0 0 d s 1 0 0 0 V e 0 > > V > 0 V V V V > V = > 0 0 > 0 > V 0 = = > = = 0 = 0 q y > = * p b b c x A B 2 %   $ p > c J e u 2 V > V 7 V > = 0 V 0 0 = = > 2 0 q p q e f f e 2 y A b A b c p > X b c b x b y ~ f y q 0 * e G f g H G H H - - d % & e 1 $ $ % + 0 2 & % * = p > - - % - - % % ; & $ = 0 _ dXCXNXNXCXVXN.f e 2 0 q v f f c q e t f q 0 * % + X & = % V b r * * = ",
"f y y f u y p x c b f H b A v g b e 3 w y f y w 0 q 0 q 0 2 G ! ) 6.&.5.6...C.v p y q t y q y y y q y y y y y y y y y y y j y p e B p p y x x x B p x p B c c x B B p p f c A t.UX'.%X4X$X,.[ 3.V.,.,.,.:.-.,.| | | [ ' J J J J ' ' ' S [ ' ~ [ ~ ~ c > .     - 0 x b p x y y B x y y f y y y y f s y q y q y y p p p y y g c x c c c c c g c B f f f f f x y d p p p f f f c c v c f p f p f f c B c Z B B C C a p B Z g B a B p p a B B B p u u i B p B a B p a p u u p u u u p u p p e p p e e 3 e e e q e p p p p p r X   X V q u ,.J ' J A S C.J J J J J ` J ` J ' ' [ ` ' [ ` [ [ L ` [ S J ' W 8.7.E N Z p p e e q e 0 q 0 0 0 u q q q q 0 2 q q p ,.e q 0 0 0 0 0 0 0 2 3 u w y b e 0 q 0 > e q = = V V 0 0 = = - > 7 - = > > > 0 V 0 > > 7 > 0 2 2 > 0 q x q * > = 0 p ~ g c q q y = . 2 b = a J e 0 0 V = V V 7 V = = V 0 0 > = & y u = = y b v f M 3 q y y u B v p = x v q x A y c q q y y 0 e g H H e G H f 2 X v s b H c 2 v 0 $ $ = * 0 0 = = = * % % % % % $ $ % $ - 3 _ dXZXNXVXZXGXN.w q 0 y $ 2 y y d M w d d q @ = & $ @ $ & = = y 0 y b x = ",
"0 p j y y y y p f f f b G c A b e 3 0 0 w q y q q 0 0 3 u 1 ~ M n ` &.*.&.+...C.x x f y p y B p y y p p y p B B y y y B B B x x B p x c x x v c Z c B x N A N A N c x B v ~ >.M.'.%XtX7X-.[ :.[ ,.,.,.| -.| | ,.| :.[ ` J ` J ' ' ' ' Z J ' | ,.' A b V X     * > y Z p y y B B f s y y p p p x v x p y y q y y f y y e e f c c c c c c c c B B p B x x f f e f d f d f c c c v N c B p c B p p c c B p Z B u p B B g c B B B a p B B p B p B C u a p a a g p u p p p p u p p p e u u p p p p e q 0 e u e p p p p p c g e X   o V V 7 A.:.' C.S C.S C.S J J J ` ` J ` J J [ [ ` [ [ ` ` J L J J L L [ ! q.Y.W N p p y u e e e 0 q q y q q u q p f q q y e q e y q u 0 q 0 0 2 0 8 0 s b e f 3 0 > e x > > V 7 V 7 V = = = = = > = = = > > = > > 7 = > = = > > = y b 0 = - = > q A A g > p q = X y y = f J q q 2 0 = = > V V V V = c f p = - = 0 = 2 3 e p c b v p y x b A b f > f f q u f x 0 e / f M H ^ ~ v b / / ! b G g v e x v $ 4 ! q = e = c b Z 0 > y % - $ $ $ $ $ $ $ * 2 ! dXZXVXCXZXJXD.u 2 & + X . q b y q c v q O q 1 % $ X $ X X X $ x 0 y q 0 0 ",
"0 r q y l y y u d f c f f g f A q e e t u q y q 0 0 0 0 2 0 v q p B Y ) X.&.o.../ ! H A A b b b b b b v b b b b N v N N b b b A A A A A A H H H C.C.A ~ ~ ! ~ J ~ A A Z ~ 2.UX[.2XdX:Xs.:.3.,.-.-.[ ` [ [ | | | -.,.[ [ ` J C.S J ' [ ' ] [ | ,.| ~ Z > X     & = y A c f x y y y x p x B p x N x x f p y y y p x f y q q g c g c N Z c Z c c B x B B x x b f f f f f c x c c c c c c B p p p p a u Z p p B C B B Z B a B a B a p C B p C p B u i u u u u u q p u i i u i B a u i i p p p p p e e e e u y e p p i p | c > O   X V V 9 A.,.~ J A C.S S C.C.C.J S J ' J ' J ` ` [ ` [ [ [ [ J J ' ~ S L L C.l.Y.` c x p e e e u 0 0 q f e e y p p f f q e q q 0 q 0 e y e 0 0 0 u 0 t d q H b 2 8 > 0 V V > V 0 V V = 7 > 7 V 7 = V V V V = = V 7 0 > V V 0 2 7 0 0 > = 2 2 > 2 q b b y c f 0 * . * c 3 f [ e 2 0 0 = 7 > V = = > 0 > 0 q * * - > 2 x M M x e = q v x > q v y x x v p M b p f y b b q y ~ ~ p b H c b H b d d ~ d e d f G 2 = e f y A b A * > > > * $ $ $ - ; $ % 0 / dXGXVXNXZXZXb.t 3 $ & $ * X $ H ~ d f c v * 1 2 q X X $ $ $ X > v x y 0 + $ ",
"w f v p x p y y y f f b f f p p f t e t 0 w q w 0 0 0 0 0 1 y 0 p v B l C.&.O.5.-.>.t.u.d.d.d.d.d.d.d.d.g.b.A.b.b.A.g.d.s.d.d.g.t.t.t.>.t.t.d.d.d.d.s.s.d.d.s.t.d.v.h.v.d.v.].2XyX9Xd.4.4.-.[ [ | [ ` -.[ | ,.,.:.-.[ ` J J N c A ~ [ ~ ] [ ' [ A ~ p > .     $ * y A f x f y y y x x x B b A A b c c f y y y p x p q q q p f c B C g c B Z Z B p x f x x c x f f f f f f c c c x c x g p g p c B B g p C p p B i B a B p a u p B a a Z B B p p u u u u u u q i u i u p p i p i e p p p p p u B e e e e e p y p y p Z , > X   o V V V A.3.' J J S N N J S N N S S J S ` ' ' [ L [ [ [ [ [ J [ J ' ~ J L L ~ L.Y.R N c x p x p p e c K c e g b Z Z A e y y q y q q f Z e q 0 0 0 p c s f x q q 1 0 > V > 0 V 0 7 0 7 = = = V = = = V V V > 7 = V V = V > = > 0 0 y 2 = 2 2 * - 2 p c b A c > - X % e % i ~ Z x p = 0 = = = 0 0 0 u u 2 = = - = 0 2 x f f u 7 > 2 0 0 % q b x q f Z v v c v b ~ M f 3 l v v b f y t e f ~ q & H b / f H ~ c H H b v A ~ C.0 e V 0 V V = * 7 7 0 u H <XGXbXNXCXAXv.d 2 % & $ X u - $ y f q ! c G 2 @ 3 1 + $ & $ 2 = * % = q H & = ",
"y b v c x x y y s x c b K c Z c b d q e u y y 0 0 w 0 0 0 3 f e > b e j N ` 6.i.|.vXjXIXxXnXnXVXVXVXnXVXVXAXAXAXVXVXVXVXcXnXxXxXzXxXIXcXcXmXbXxXxXmXjXzXzXVXVXxXxXxXmX9X}.$XrXkX4XA.A.A.4.,.-.;.;.` [ [ -.-.,.| | ,.[ J J J N g g Z Z ' [ | ,.>.A Z v 7 .     $ = p J g c p y y y p y x v b A A Z v c c f p f x f p y 0 2 q p x B B B Z N c N x x x x x c v v v f f c f f f v v c A g x p p g c g B B c N p u i p u u B u p p B p u B B C B u i u u u 3 3 3 q u q u q q p p p u i p p p B p B u p e p p p p e e e y p p q X   . V V 7 A.4.[ J J C.S C.C.S S S c S J J J J ' ` J J [ ;.[ [ [ [ [ [ S J J ' [ ~ L.Y.C.~ A Z C.~ J J ' J b b A ~ H H ~ H b f f f f p ~ A f b q p K H b A A b d t 0 e 0 q q p q r r 0 V = = = V V V > 7 7 7 > > 7 V = 0 V 7 7 0 > > 0 q u 0 0 2 = u f a f 4 q 0 - o @ : 0 f Z b b 2 = = = = p b p 0 0 q 0 = - - = > 0 0 2 0 > > u 0 > V b A v f x M c b v c A p x p q y M x 0 q > q t d G x 0 0 1 d b f b b / } H b A / M C.b N C.U C.C.Y C.C.C.` ;.[.ZXNXxXAXNXa.e 0 * $ $ $ $ X @ @ = 2 2 d q b e & + $ * & * * $ u p y = 2 0 $ - ",
"p x f x v H f b H H H L J K b g e e e y u w q 0 0 0 q 0 0 d f e > 0 f e p ! $.&XPXPXPXZXSXGXSXDXGXPXGXJXJXDXDXPXGXGXGXGXPXDXJXZXPXGXVXPXJXDXJXPXGXGXJXDXGXcXlXxXJXDXDXNXkX3XkXdXA.d.A.4.s.4.,.[ | ;.` | | -.-.| [ ;.' J C.S Z N Z A J ' ' ' S [ J A C.2 o     @ = y Z p c x p y x v Z H A J A A Z b c c x p f f f f p e 2 q y p B C x N c b c b x x B c c b b b c x x g p x c N v b N Z f p g p p x B c x h f y p e e p f e p e u B B B x i y e q q q 0 > q q q q q u i u p a B u B C u y B c C c x c B f p e q e y y a r X   o > V V A.d.' S S A J J A S J S Z Z S J C.J J J J J J [ [ | [ | [ [ [ ' J S [ :.;.l.l.` ` ! ` / ] _ ` / / ~ ^ ~ ! ^ ~ _ ] ` C.A M M M ~ _ / x b ' i a b ^ _ G c s y B y B c u r t r = 8 > V V V = 7 > 0 V V > = > V V 0 0 1 8 = = q p x p y e u u 0 J ' c * y 2 o % ] p p J 3 y 2 1 1 2 y H x y y q 2 2 = = = = 7 0 0 0 > 0 = u y q = y q q v b e b b A #.^ e p 0 y f ! x x p M C.z m n x x n Y ( ^ R { G _ _ m U o.6...6.*.6.6.p.z.l.i.i.i.j.0.L.-XVXxXZXzX2.q = V % $ $ $ ; ; ; X u M b = d 0 $ ; # 0 t x y y = q _ q . X X - * ",
"y y y v f f b }  .| 2.} A b K b e i f y q q w u q y q 0 e f f d e 0 y y f b ^ }.KXJXKXLXKXLXLXKXLXKXLXLXKXKXKXKXKXKXKXLXKXKXKXKXKXKXAXJXKXKXLXKXKXKXKXKXKXmXkXVXKXKXKXLXLXjX$Xh.h.A.A.3.4.3.,.,.| | [ | [ | :.,.,.' J J C.J ` ;.-.;.] J ' J ~ [ Z A J > X     $ > e Z A A c f p c A ' / ] -.) ] A c g p f p f x f e q q e y f y c p B B x N b b p x x B x v c A A b x B p x c c b Z b N c x x f p p g B p f p p p p y p f f f p B C B C p p e e 0 q q 0 0 e q q q q q p p p u p a B B B u C Z ` -.i.` A b f p y i y p c y X o   % 7 V ,.,.' ' ' S ~ ' J J | ;.~ A S S C.J J J J J J ' [ [ [ [ | | [ [ [ ' [ L :.] o.&.5.6.&.@.o.&.o.o.` ( R ( C.( M N N b C.U M ` ^ _ @.M ! M Z ~ ] ~ ^ s m m m n n j j y y j t r 0 0 V V V = V > = > V = 7 > 7 = u q q 0 = 0 q A ;.r._ c p y u 0 p y 0 0 0 : o @ q * x ] 1 = 2 2 0 q c b ' %.t.g.~ f 0 = = > 0 V > 2 u y y 0 q q e p p ~ v M x / ~ = 4 q B U M x m B y n n x l n ) ) ) Y ` ..( E ) E E X.) *.X.O.&.X.O.7.7.0.l.7.l.l.w.0.].].L.I.tXDXzX@.> 2 * = - O $ ; ; O $ $ $ * q s d @ O & 1 G 9.7.U U u % q $ O + $ $ y ",
"e f f x v b H H J D.(.{.a.! f A x x f d 0 y q 0 y G e f f c y q q r y f b ~ / } ^.v.F.^.~.~.~.~.UX/.v.M.M.~.[.[.}.}.{.).|.|.{.[.[.{.}.|.}.}..X}..X.X.X}..X.X[.}.;XOX(.OX6XZ.h.S.4.A.A.,.4.4.4.3.,.| | [ | | [ [ [ ' J J J ` UX7X%X].5.Z C.J ~ | C.A C.V .     $ = q b A c u p x b ~ ] ~.7Xl.w.O.M c p p f g c f f q q q y p x e c Z B a c c c x p p c x B c c c A b v B b b b x c b B v c x f p f f c g g c p e p p p p b g c x B Z N B p p p p q q 0 0 q e q q u u i p p p p p p p c B c A 3.4X XI.n.) x f p p p y p c y . o o % - u d.,.| ' J ~ ' [ ' UXhX XP.V.C.C.S Z S C.J J J ' ' [ | | | :.:.| :.[ ' [ [ [ >...! o...(.I.[.7Xi.&.k.(.a.~.9.I.v.=.6.( U ( _ ^ _ ! H ^ M H ~ A A A l x l z M n j j x k j t r r 0 7 V V = = = q q = 7 > 7 = 0 e e 0 1 2 u H A.7X].L.9.x u r 0 0 0 0 q H 2   @ 2 & p } 3 = 2 0 y d x b G.dXM.N.N.M e 2 2 = 2 0 0 0 q 0 2 > = 0 H A H b f b v c b q u u y t j Y R n m M y y B m W X.U n E ` ( m n z n ) E R m m E n m n Y _ i.! ) 6.6.8.6.L.&.&.B.|.` y > * * p > ; $ $ ; ; $ $ & & - = 1 @ @ * H N.'.L.x.X.k > $ $ $ X X @ = ",
"y p e y c A b f 1.d.4X5XO.O._ y c d f b v d y w y f e b b f f w t l s v _ ] b p n v w y 0 u q q q q p f x x x g x x c v v c b c c c x c c c f x Z c Z Z A p p g b Z ~ / ] ' t.h.A.A.A.3.s.4.3.,.,.,.-.| | [ ' J [ J J Z C.A.4XcXj.P.n.N Z A Z ~ ~ Z c > .     $ * p c y c p f v A ~ ,.}.(.E l.7.r g p p c p f x f q q e e y f i u u B c c c c p b Z a g c a p c Z c c c c c c Z p p e p c x p p p p B p c c p p q i p p Z b g c A N B C c B g p q 0 q q q q q e i u i u i p p p p p p c A A ^.,X_ ` @.! y p p y p y y g p .   X % % u A.4.| ' J J J L | -XM.r.k.-.N A S A Z S J J ' [ ' [ [ [ [ | :.:.:.[ [ [ :.[ ' ' J ~ ~ A A A A A A ' ] ~ } A ^ H ~ ~ ~ b A M M ! M v b b f v v x p x m x x z n n n j B B C.v j 7 0 0 7 0 7 = 2 0 = 7 > = 0 2 q e 2 2 q b ,..X$XX.X.k.M > 0 0 u q 2 0 y *   @ 2 % g } u 0 q y d f f ~ _.zX~.&.s.M q 0 0 u 2 y 0 2 0 0 = = 0 > y b v f ~ Z y A H x v B 0 j r 8 0 7 k r 0 y p t w t 8 0 t u y x { f u x f q 1 x f = * $ * > u q y y } V % V > 0 u V u u % % = > @ ; ; ; $ $ ; $ & * = $ = $ % g #.wXD.( x.7.y l y M 2 + ; @ X ",
"y ~ f H H H f H J { { _ k R ..> f f g d ! f c d q y p f c y e y y x f i ' b i y f p p c p 2 p p p p x c x b A c b b A Z b H Z H Z A b A p e i Z ,.J S ] Z A L :.:.| :.:.3.|  .3.3.A.A.3.S.V.d.4.S.;.,.,.| [ ' J ' ~ J S ` A.-.C.c N M y p A A C Z c e * o     $ * p c p A b b b b ' :.,._ x r u V p p g g p B g f e q e e e f e q q p x x c g i a K g a C a a C h a h a g g h | [ C i a g g i Z h i h i g K f g g i f a h Z h b Z Z g g x g c c 0 0 q u 0 q 3 q i y u p i p e p i p B c N S -.~ C.C.Z B > q p i p y c i i .   o % - V Z.4.' C.S S ' [ ' A.` A N B u c C.Z S J J ' [ [ [ | | [ :.:.:.:.:.:.| | ,.:.L L [ L L P S S C C P P C L C S C C S S C K S g C c h h h K Z p c c g C b C g i h i f e q i N v ! 0 8 V V 7 = = = = V > V > = 1 1 1 0 0 q b 3.3.v n x y e > 0 0 0 0 0 0 0 $   @ 1 % f | v y e s y v p ] #.b C.n s y 2 q u q x f q 2 2 > 0 x c y f b A b x d J c q y 3 e 4 q , = < : : < < > , * # < # : : : > 2 e 2 : # e g 5 i Z a i % * # @ # * > e O $ # @ ; * V u u % $ * O X ; ; $ $ $ $ $ $ $ $ $ & * 1 L G.3.G R R n 8 > y p y > . X X ",
"q f b ~ b f H J K g v f 0 y 0 $ f f f f e p f c x f p y d y e s x f v q 3 a 4 3 i 3 > q q 4 q i p a a i i i q g C g C c i Z g g e h a c q 3 i i L g K ,.a ' [ L  .L  .:.:.,.' h.A.t.A.A.3.A.4.3.s.S.,.-.,.| | ;.' ;.C.Z J [ C.a p y 0 % f ~ ~ C.~ c b * o     $ % p x u p c Z b b Z Z J A p V > O 0 p c f p x c x f e e y y p e q u u g c p i , O < # # O # # # # # # % # 4 < # : # # # # % < # # % # # < , # : , * < # : : : : < # < : : , i p u y y u q 0 0 q 3 e p i u e i e q p c c c c J S S S C p * 0 y e e i p Z Z .   o % = 0 A.4.~ J S C.~ ' C | [ Z C u % c S Z C.J ` ` [ [ [ | | | | ,.| | | | :.:.:.[ [ <.:.I :.:.I [ I I :.[ I L L L [ L L L J L L K K K K C S c g a h h a C a a h a a a a F 5 F S g c b y V V V 7 = = = = > V = u q d = 2 q y b K ' A p f g % - 0 0 V V V > q $   @ * $ f | i y y f f f e c Z b x s e 2 * = * e p M G = 0 0 ~ ~ f x v b b b b M H 0 q c = @ , , 5 5 5 4 5 5 5 5 , 5 4 4 5 , 5 3 < 3 < * 4 4 5 c O O 4 i 4 5 a , 3 , 5 5 5 4 4 , , , 3 a , B * X ; ; O X O ; $ ; $ ; $ ; ; $ $ & q 2 I ' d x x t @ = u q v y 2 0 = ",
"e c f p f b b b i f i d y 4 O % f c b b b g f f c x l y y y y s f f c g , .   . + .     . . o o . . . . . O o O @ X + @ . X O O . O O O O X . O . @ @ # # O O O @ @ @ # # 4 C L A.A.A.A.A.3.3.,.,.S.,.,.[ :.[ | | ' Z A A J S Z a q q O c ~ A ~ #.A p *       & > x b q y p c c v g i C i 3 3 : O 3 p p p p f c f f i y y y p y u u u p g p , .                                                                                 o           # q s v x y u q q e p u i q 3 u y y p p Z c B u C J S S h > @ V e e e q q p y X o o % * u d.| J S S S ~ ~ g A S C p V % c J J J ' [ [ [ [ [ | :.| :.,.:.:.| :.,.h.S < # O O @ @ # @ : * : % : % * : > , : * * : % % % % * % * * * % % # % % O @ O . X . . . O O # 4 L J b b y q V = = 7 > = 0 0 > = c b = q q e g i g g i i q O @ 0 V 0 V 7 V q $   @ * @ f ] e 0 p f v b p u Z C 3 2 q * O & y f H H q 0 s q q q y ~ / x b H f H H q H =                       o   o o o o o . o   . o o   c c   . % > O # % # # # # # # # # # @ # # 4 F q , e > O X ; ; O + @ @ $ $ @ $ $ @ $ * q 1 5 G d e 4 * . + > y 3 c ! q x ",
"f H f f b b b b q 2 5 2 > X   2 f f b f b x c v x f s t r y j y f g g i #                                                                                                 . % 5 S Z.XXA.A.A.S.-.,.,.:.:.| | ,.| [ | J J S g S S a 3 @ > ] ' ' ' A g H %       & > p A y y q f c c c q 3 i 5 : . X p p p i f f g f f p e f f p p y u p p i < o                                                       o                           o             # g c b p u q e p e u u 0 q 0 q p B p B c g y V a C a , O % e e y e e y x l ;   o - * 0 A.| | ' J ' S J C p C g 0 % V J ' [ [ [ [ [ | ,.:.:.,.:.:.,.,.| :.:.A.C . o                                               o   o o o o o o                               o 5 L C c M p V V V V V 0 0 0 u > 2 q 1 & 0 y d q , 5 i , # o - V V V V > = 0 %   O > * i } v f H c p f e q , p q * 2 O X w y f c f = = % @ 0 x A v c p / v H f M M f                                         o         = 2 .     .                               o . < F a : * + ; X ; ; + $ $ 0 0 $ % ; @ $ 1 q 2 # 4 3 2 % . o X y M H 2 q v x ",
"3 v = 2 v b H b f * # O o   X e f v c b f f c G v p y r r y j f i F a O                               o             o   .   o   . . o o o o . .   . o o     o o   o         . * 3 C d.H.A.A.A.3.,.,.,.:.,.:.| :.| | | ` [ g 3 , : # % A ' g ' #., C.' *       = 2 f K y y e f i p c p 4 < # . @ V p p p B p x g f y q q y d f y y q e i < o           o . . . . . . . . . . O . . . . . . . . . O . X X . . O X O . O . O O . . . O X O O O .   # h f x x q y q q e e e e e e p B N p B B p u , : : O % q y q q q e b M g .   X % % q h.' [ ' [ ' S ' A g q 2 V u C.[ ' [ ' | [ [ :.:.,.,.:.:.,.:.,.| ,.A.a O o         o o   o o . o o o . . . . o o o o o o o o o o . o . . . X @ 3 . o o o o o o o o o   o o X , P Z q V 0 7 1 8 1 0 e e q q 2 = = = 2 q e e > % O . . @ * > 0 q > q 0 e $   + = % y #.b e Z p q x q 3 - % % X . o $ q b b b 2 % 0 x w f ~ b / M M ! b J w = X                       o   o     .   o o o o o   o . ;   . X . o o o o o .     o   o                 # 5 6 : # ; O ; ; X $ V > * = $ $ $ % q y 3 $ . X .       . y b g B y ~ x ",
"f A > x b M Z c f e * O . % q f c c c b b c c b x y t t t k f g 6 a O           o + & & & $ $ $ $ % & * * 1 $ O O O O + @ $ & * 2 2 1 $ # % * * * = 2 * # * * * & % % & @ + . . , ,.L 4.H.A.d.S.3.,.,.,.,.[ [ | [ | [ J ' J S B q u Z ~ A A ] #.x b Z %       V 0 5 c y f y e p p c x p p q q y y g g B c x c p f q 3 0 q y y y e 5 3 < o       . + % % % * = * * 1 1 1 % 1 1 1 1 & * * 1 * 1 1 > > > > > 2 2 2 2 2 1 1 1 * 1 * 1 2 1 3 2 2 * @ . < g b v p y q q p p e e p p p B B C B p p p p q 2 u u u i q q e y c g x X   o % % 2 3.S Z [ ' ' S S J J A C.S J [ [ [ [ [ [ [ :.:.,.:.:.:.,.<.,.<.4.4., O o     . X + + + $ & & & & & & $ $ $ $ & % $ $ % & & % $ & & & - * 4 3 e i * $ * * $ @ $ $ $ $ $ + . . . , C i p y 0 w 2 2 2 0 e t q 3 0 2 0 0 0 q 0 0 > @ @ % * - = > V e p 3 e @   X * % 2 2.} y x b v v = 0 q > $ X X @ 2 p x A v 0 1 y c M H H G ~ x f H c q 0 o           . ; O O O ; ; O ; @ + ; ; ; + @ ; ; $ $ $ $ & $ & & & $ @ $ X ; X @ $ + X + + X O X . . o     O 5 6 4 % ; ; X V V @ > - $ * & = = f 2 - 0 2   . $ o & = b f x H v f v ",
"x p 0 v x y f x f y e 0 q q f f v b v d v b d f b q y t y p g a 4 O           $ = 2 w t 0 2 0 e 3 0 e d e 0 d c f 1 * 2 e d e b J d f q 2 0 q f f e f f 2 q t e 0 3 0 3 2 1 & . X i J S ,.Z.A.A.4.,.,.| :.:.[ [ | ,.[ [ J S C.S S ~ ' ] ~ ~ g ] A ~ g %     o % 1 2 b c f f f p e f p x p p d d p c c p c x x f d e 0 q y y i i i 4 # .       O = 2 2 2 2 2 2 3 2 e q 2 3 3 w 1 2 2 2 3 2 2 3 0 q q q q e e e e e e q q 2 1 2 q e e e e e e 0 2 & o # 5 c y y q q e p y p g B g p p B C B p a B u B p i p e u p i c c 3 2 .   o > - 3 d.,.>.a Z J ~ S J S A ' [ [ ;.| [ [ [ [ [ :.| | [ :.:.,.,.,.S.,.V .       X - 2 = = = > 2 V V > = = 2 = = - = > 2 0 3 0 2 2 = 2 2 0 0 2 p 5 e > > f g 3 = 2 2 = 2 = = = $ . X . # C a y x G 1 2 e q d b e 0 u u 0 0 u u 0 V = = * - - * V > 0 q 0 % 2 @   . & # 2 2.%.G b x 2 $ = q p q 0 > = = q v f b f = v G y f t J H d f x H b 1 o       . X = s q q > ; = * - - - % * * $ & = 7 = > > = = - = > * * & = % * 2 = 2 = & & $ % & % $ @ O X o o   . 5 5 3 % ; O % $ X $ & & $ $ $ > y 0 * = * $ $ 0 $ q v ! M v x f v % ",
"H A p f f y x f x y p y y p f v c f v v g f ~ J f 0 u l p i F , .           $ > q w d d 0 2 d s y e d w f f f c ~ 2 q y d f f d x d b w d d f b c f H f y y d d q e e e 3 0 2 1 X o O u A :.A.4.,.,.[ ;.-.-.| | | ,.-.-.' C.` J ' ] ~ ~ [ Z : ~ ~ ' q .       % 2 * c c x f f p p f i x x f f f B x B p f p x g f w 3 q y y f 5 4 #         + 2 q 0 q 0 t 0 w w d e t q e e 3 8 3 d e e t d q e y y q y e y e p d e e q 3 0 3 e d d y d f t q q 0 % . # a i p y u u p i p p x x B g B p p p u p g p p c a u u a g S f 2 $     . - % O I ,.d.u 2 a ' J ~ J S ' ' ' [ | [ ;.[ ` [ :.` p J :.,.,.<.S.,., O       O = 3 0 0 0 > 0 u 0 0 0 2 0 0 2 2 0 0 2 0 u 2 0 0 0 0 0 0 0 0 0 q q e 2 f H * 0 u 0 0 0 2 = 0 2 = & + O . # F S a 2 q e t t t f x y q w y w 0 u 0 = $ = V = = V V V 0 q 0 * >     O & + % ' ~ H x 0 * 0 w 0 f i e 0 2 u q 0 y y q c v f f d c G c f J q q t o       . @ 2 e f c p q @ > = % % - - * - * = = 0 V V y x = > q 7 = 2 = = = = = > y > % * = = - = % = = @ O . o   O 4 F 3 $ - V $ $ @ & $ + $ = q % u 0 2 $ 1 w w y f x b b c H v =   ",
"d d } ] b b c x x p y x v x v v v x v f b c K H e b b p * a ,           . * 0 e y y q e d 2 3 d f c f e b H f e 2 3 q y e f b H f c f f f d y b b b q i f d v f y p e e e e q 0 > @ o . > Z | d.A.Z B C.[ ,.,.,.,.,.` | ' | | ;.' ` ' ' | b 2 } ~ i :         = 2 @ 3 e c f x y q q q x b x c v x v x d y p c y y e p e q e i 4 #         + 1 2 q e e t e e e t y f e q d q q w e d d d d d y y y f y d f f f p e q e e f g f f s y q y f y q q q 2 % X . 4 L p B p c B B Z Z c p p p p B p p B C B p B c c p S  .S h * o     @ > * . i | S >.c Z [ J ' ' ' ' | ' [ ;.-.' ' ' [ | Z u N ' :.:.4.:.%         ; > 0 0 0 0 0 u q q q 2 0 0 2 0 e y q y y 3 y q q u q q 0 w w q d G f d t 2 y y e q t q 0 1 * 2 0 2 1 % @ . o # 6 S i t t e d s y d q y f x y 0 0 u > * 7 V * = > V V q q * 2 .     @ * @ o 4 c g M v 1 y q 1 i c f q q q 2 2 = @ 0 / b f c M / v b _ H x y o       . 0 q f p x A c p 0 % = = - % % - = = 7 y 2 2 0 u y > q 0 q y y v y 2 > 2 0 u = = * * - * = * 2 q = @ @ . o   . , a > % V % p 0 ; X X X 0 y - * v = 2 3 d 0 y c f f H / b p f . ",
"@ 3 g g g J b x f 2 = ! v x b v v v M b f f e e 3 K ' i 5 :           . = 2 t d e y w e G G b H g b b | J e g b H 2 d d c b b ~ c f c c y d e y b x d f c f f f f i f e p p f i u : @ o o > C #.S.,.S u [ 4.A.3.,.-.J ` C.| -.J C.] ~ ' ~ f b J g : .       . 0 1 @ # 5 [ b M q 2 q q y f x c c f d y e p u q Z e p i u q 5 4 O o       . 1 2 2 q e e t q q q e d f f p c * y q t e q y d d y y e e y f i y f p e 0 3 t h 2 c g 0 q q q q w y 0 q > > * O o , C a C g q Z Z B B i u i p B u C B B B C B B p u C C P K @       % > % +   S ~ S | | | [ | ' | | [ [ [ [ :.[ ' ~ J ,.4., u  .<.A.4.#         X = V 3 0 0 0 0 0 u q q 0 0 q w q f y e f f 0 q y q u t 0 q 0 2 e G f e q s q e 0 s y q 0 0 * = * > 2 1 2 2 O X . . C C i q 2 q q 0 0 2 0 w u 0 0 = u 7 r 7 = - = r 0 u > p >         @ * % . . = e b b q 0 = q G H b p x q = d e s v b e e x G v f 2 b x % .       % q - q A f v e b A % + $ - V - 7 8 0 = 2 0 = - 2 V 0 y u u p y 0 q q > 0 0 0 > * = = * = - = = - * * % % % O o     , , @ X @ p @ o X X X 2 2 0 & = $ w s 0 d 0 f v f H 0 * H u X ",
"+ & 2 4 H J e y 0 = 0 y u q y y q t e y e f v * : i : , :           . 1 2 1 2 2 t w d y f c b f f f f f 5 e d f G b 0 d f f b c g M f 2 d q q 3 e b f f f f e g f f p f e p x e 0 > > ; O O V a ` A.A.| ,.,.,.[ ' | Z c N S A Z ` ' ` ' ' ' K h < O         @ > 3 = @ O 3 f x 0 & = > = q 1 y q y q q q 0 2 * J h a h , 3 a #         o + 1 1 1 0 q 0 q 0 2 2 q q b f f 0 0 s d e e [ f 2 2 q q q q w e q y y 0 q e f d 1 2 3 H e 3 0 0 0 2 2 2 > = * q > X   5 S 5 5 u 3 i 3 3 V i q i p C B C B C c c p p Z C S C *       . % : % @ .   A S :.,.| [ [ ' :.,.:.,.S.,.4.,.4.,.4.:.S.4.A.4.A.4.O         X = V = 1 2 2 2 0 e q 0 e y 2 0 e 3 e 3 3 y q q q q 0 2 2 3 0 q e H H c v d y 3 d f q w w 0 q 1 - = = u 1 2 e q O . . . 5 C i 1 e 1 0 2 - 0 > 2 = > = = = > % = = > 0 q > = > O       . # * * @   o * 3 3 c * q b e f b c c d x H y M M b v v q c H H f 0 %         4 H b 3 b x g p * e y q V = % : V V 3 0 3 2 f 2 u 0 y q q q y p 0 y = 0 = = 2 = - 2 = = 2 = > = * & & & & $ @ @ . o   o % % ; X X   o o o X 2 = $ $ @ 1 s q d v e f b f b % 0 & o $ ",
".   . . 1 q * * $ $ + $ $ & $ @ $ O @ @ O % = $ & : @ O .         . . + # 1 1 1 q t d 3 q f . 1 d 2 0 * 0 e 0 q % 2 2 2 i c f q 1 2 % 2 q 2 1 1 % 2 2 2 e e q 0 e e q q 2 2 % > * V * * ; X O , u u Z C.a a u u u V : V % V > > : > = , 2 4 @ . o           * = 2 * * . o .   o   o . . . . O @ @ @ @ @ @ @ @ X O + X . . .           . . O @ $ & % % & # % % * * 2 % * + 3 d e 3 2 3 * 1 & & % % % % * * * * % & 3 e 1 @ * d 2 * 1 1 1 % $ @ @ @ @ + + $ O . . % X O O X . X X O X X O - % % % ; ; O $ @ ; = % % o         @ = = * % O   o V 3 3 3 3 3 3 3 i i B C g C a S C S S C D [ 4.<.,         o $ % % $ % = > > 0 q 0 3 e 3 * = * 1 1 * 1 1 = = = = * % * * 1 1 d f t w d 2 = @ * q 1 1 * = * * % % > e 3 1 % % @ @ . o o @ % $ & O O X X X X X X X + X X X . X X X X X X .         . % # 1 * @ .     X % @ . 1 d e 2 1 1 1 * = f b 2 * f 0 q = 2 e f 2 ;           @ * * e f f f q 2 f > e * : V p q e q 0 - 2 y q q u y 0 - 0 y 0 2 2 - & $ $ $ $ $ = = = * $ % $ $ $ + @ ; $ @ @ @ . o o   O . X   o o o o o . X o o $ 0 = q 2 f d c c f y 2 $   X = "
};
