/* XPM */
static char *small_Stone[] = {
/* columns rows colors chars-per-pixel */
"64 64 201 2 ",
"   c #0A0906",
".  c #110E07",
"X  c #1A1207",
"o  c #15130D",
"O  c #1F180F",
"+  c #181309",
"@  c #191711",
"#  c #1E1A13",
"$  c #161613",
"%  c #211A0C",
"&  c #231E14",
"*  c #262014",
"=  c #292316",
"-  c #24211A",
";  c #2B251B",
":  c #2D281E",
">  c #322A1D",
",  c #352818",
"<  c #2D2A23",
"1  c #2F2F28",
"2  c #332E23",
"3  c #2F302C",
"4  c #363026",
"5  c #3B3325",
"6  c #34322A",
"7  c #3C362B",
"8  c #3D382E",
"9  c #373631",
"0  c #383730",
"q  c #3E3A32",
"w  c #3F3D38",
"e  c #443625",
"r  c #453B26",
"t  c #423729",
"y  c #443B2D",
"u  c #4A3D2C",
"i  c #523E29",
"p  c #443D32",
"a  c #493F31",
"s  c #4B432F",
"d  c #55422D",
"f  c #464135",
"g  c #4B4234",
"h  c #444139",
"j  c #4D463A",
"k  c #4F483D",
"l  c #534534",
"z  c #554A36",
"x  c #5B4B37",
"c  c #514739",
"v  c #544A3C",
"b  c #5A4D3C",
"n  c #594632",
"m  c #5C513C",
"M  c #5D5136",
"N  c #614D36",
"B  c #624E3A",
"V  c #63513C",
"C  c #6A553E",
"Z  c #695E3F",
"A  c #4F4B42",
"S  c #544D42",
"D  c #594F41",
"F  c #575144",
"G  c #5C5244",
"H  c #5F5847",
"J  c #5D564A",
"K  c #5E584D",
"L  c #635544",
"P  c #6B5642",
"I  c #655945",
"U  c #6C5945",
"Y  c #615749",
"T  c #645B4D",
"R  c #6B5D4C",
"E  c #745C45",
"W  c #735F4A",
"Q  c #795F46",
"!  c #655D52",
"~  c #6A5F51",
"^  c #6D614E",
"/  c #756047",
"(  c #7E6247",
")  c #74614C",
"_  c #7B644C",
"`  c #7E6C4D",
"'  c #676053",
"]  c #6C6254",
"[  c #6D655A",
"{  c #6F685D",
"}  c #65605A",
"|  c #736554",
" . c #7A6652",
".. c #756856",
"X. c #7B6A55",
"o. c #716759",
"O. c #746A5C",
"+. c #7A6D5B",
"@. c #7E705E",
"#. c #756D62",
"$. c #796F61",
"%. c #746F68",
"&. c #777065",
"*. c #7C7264",
"=. c #767269",
"-. c #7D756A",
";. c #7F786C",
":. c #7F7970",
">. c #7B7772",
",. c #81664B",
"<. c #866A4D",
"1. c #836C53",
"2. c #8A6E53",
"3. c #816E5A",
"4. c #847054",
"5. c #8B7056",
"6. c #83725D",
"7. c #8A735B",
"8. c #927456",
"9. c #9A7857",
"0. c #93795D",
"q. c #9C7D5D",
"w. c #937659",
"e. c #827564",
"r. c #8B7762",
"t. c #857966",
"y. c #8C7A65",
"u. c #817769",
"i. c #847A6C",
"p. c #8A7D6C",
"a. c #947C64",
"s. c #9A7E63",
"d. c #917E6A",
"f. c #857D71",
"g. c #887F71",
"h. c #8F8167",
"j. c #8D806D",
"k. c #9D8265",
"l. c #93826D",
"z. c #9B846B",
"x. c #9F896C",
"c. c #878074",
"v. c #8C8274",
"b. c #8C857A",
"n. c #8F887D",
"m. c #928574",
"M. c #998671",
"N. c #948876",
"B. c #9B8A74",
"V. c #918778",
"C. c #938A7C",
"Z. c #9B8E7C",
"A. c #9E907D",
"S. c #A2866B",
"D. c #A48A6D",
"F. c #A08263",
"G. c #A18C73",
"H. c #A88F74",
"J. c #A18F7A",
"K. c #AD9274",
"L. c #A2927D",
"P. c #AA957C",
"I. c #AE987D",
"U. c #B69B7E",
"Y. c #948D82",
"T. c #988F81",
"R. c #979085",
"E. c #9B9284",
"W. c #9D958A",
"Q. c #9F988B",
"!. c #A39683",
"~. c #A89680",
"^. c #A69987",
"/. c #AA9A84",
"(. c #A09789",
"). c #A49A8B",
"_. c #AC9D8B",
"`. c #B39D83",
"'. c #B19F89",
"]. c #A49C91",
"[. c #A99F91",
"{. c #B2A28C",
"}. c #B7A288",
"|. c #ACA293",
" X c #AEA79A",
".X c #B0A494",
"XX c #B6A894",
"oX c #BAAA95",
"OX c #B2A798",
"+X c #B4AA9B",
"@X c #BCAF9B",
"#X c #BDB09E",
"$X c #B8AFA1",
"%X c #B6AEA1",
"&X c #BBB4A7",
"*X c #C0AF98",
"=X c #C2B19C",
"-X c #C2B5A3",
";X c #C1B9AA",
":X c #CFC7B8",
">X c #C9C0B1",
/* pixels */
"Z.i...f.c.b.b.c.Y.Y.Y.Y.:.Q.! h ^ A.n.V.E.W.Q.|.&X.X[ c.R.R.c.] 6 R.b.N.a.r.B.m.r.p._.'.d.e.d.3.f.Y.p.e.v.' l ' j.f.f.%.=.%.%.O.",
"g.t.u.i.Y.n.c.Y.Y.Y.Y.W.Y.E.A 1 H ;.c.C.V.V.).).|.).F O.C.c.p.i.o.v.y.p.y.d.m.p.g.d.d.u.r.~ Y ~ u.Y.Y.u.=.T H O.{ [ { ! K { b.n.",
"C.t.f.g.g.c.b.b.Y.Y.W.Y.R.R.' h 7 < { C.C.b.Q.(.).O.> ^ V.N.-.' m.l.M.h.6.3.+.p.g.g.o.o.r.d.r.4 ! W.b.%.! G ! =.>.{ K K ! &.-.' ",
").i.f.f.#.;.f.b.Y.R.].Y.Y.C.E.G ' ' 7 F O.] @.' G 7 - F ] T @.H 6.I.B.h.B.e.6.g.u.u. .+. .3.3.R #.W.b.~ [ ! o.f.-.>.{ K K =.{ ! ",
"v.y.v.O.-.;.f.g.R.R.W.E.Y.v.n.w - > ; * o 2 ;.f.;.n.b.c.v.^ | 5 <.}./.d.p.u.t.E.i.e.o. .p.d.s.s.g.n.>.%.>.{ D #.c.:.%.} { &.[ [ ",
"A.[.i.=.*.c.).C.W.R.c.W.Y.v.b.3 - k @.{ F O.+X%X&XQ.;.n.|.i.@.L 7.`.d.| +.p.m.d. .o.e.d.d.d.J.J.g.f.%.%.>.! v #.:.%.! } &.[ } [ ",
"T h 7 ' C.n.R.E.E.v.c.C.v.C.b.3 F j.V.v.C._.C.b.R.c.{ c.R.R.)...L 7.X.X.+.V.B.V.e.3.$.r.d.d.'..Xu.f.%.>.%.! ! %.=.%.} K ! %.{ O.",
"g 8 4 7 #.v.i.Y.C.C.E.C.R.).=.0 @.c.c.c.Z. XY.b.b.c.c.b.b.b.=.f B G d.u.o.+.e.f.i.u.6.p.^./.+XC.p K =.f.>.! Y ~ K K } } { ! H O.",
"v +.] H 5 j #.i.u.i.*.*.v.o.y # | p.p.C.c.C.f.c.Y.i.W.Y.>.g.J 7 Q 7.d.p.+.6.p.e.t.N.T./.%X.Xg.Y & 6 ! $.#.p 2 5 = > 5 7 k v y * ",
"r a v y 4 j ! J v 5 & v H v j : +.^.m.g.g.b.g.b.Y.b.Y.Y.u.f.F z _ G.6.~ $.d.G.T.p.g.^.OX$X#.c c < 3.S.d.r.a.d.X.) R y { b.=.o.T ",
"r.6.r.l.h.B.h.@.l.m 8 f.#.$.i...e.Y.C.V.b.f.b.b.Y.b.Y.=.{ #.k z 3.p.~ +.X.p.T.V.#.d.^.$XW.6 < : e 1.a.7.s.a.3.X.+...I t.-.g.b.6.",
"7.p.M.p.r.4.1.y.J.6.g t.-.%.;.$.g.t.p.e.#.b.Y.g.Y.W.T.] O.&.O.R ~ r.X.p.3.p.$. .p.$X_.^.u.a G p B s.3.s.a.7.3.7.7.X.) O.u.*.c.-.",
"x.l.M.J.j.6.M.z.l.X.; -.i.=.+.+.T.g.t.| #.f.g.u.=.#.o.o.#.#.i.+.I +.m.a.a.d.6.T._.=X-X-X[ | e.U B S.r.a.S.a.5.a.7.4.U G #.O.u.-.",
"B.p.6.t.e.y.M.y.a.g ; ;.>.$.$...T.T.g.u.*.f.#.[ Y ! O.{ >.g.t.[ b b i.P.S.S.s.P.;X;X:X).D D a | U 3.L 1.2.2.5.a.5.<.V g T e.$.O.",
"L V W U X.h.h.k.| 7 5 O.V.d.+.a G !.J.N.t.~ ~ G Y ] ! S A ! O.S c ^ ) 6.y.d.d.p.T.W ~ a y 7 D c i e i i B 2.a.a.7._ m M L ! Y S ",
"& , ; > j v s 7 > 7 x Y [ O.R ; . 2 I d.g.O.T j v Y ! -.#.J 8 * - a = % & : t 2 : % & < D |  .t ; L ~ a g L v t 2 g v L Y S v > ",
"  # 3 w { *.' 1 c 6.e.e.$.t.d.| < a e.b.$.i.i.&.+.B.T.W. XV.] O.....8 1 6 j G ] O.8 < { V.E.).c.i.E.V.C.E.v.-.[ g @.*.$.$.O.6.+.",
"k [ [ O.&.i.V.F ..g.e.u.u.u.g.] G $.f.f.%.$.{ [ t.Y.W.f.i.&.-.T +.j.u.[ [ *.*.&.e.^ ;.Z.j.(.W.j.g.).V.-.=.;.i.u.m u.O.| #.[ 6.y.",
"$.*.@.&.-.*.O.w o.+.$.i.g.p.d.| ~ O.[ =.-.=.g.c.g.$.o.%.&.&.C.#.O.j.O.;.c.u.-.*.c.) O.Z.n.n.C.c.e.C.g.$.&.c.*.T H @.o.O.#.u.i.6.",
"R ! ] ' ' F f : D R ~ O.u.$.R e v u.f.g.i.f.W.R.f.-.$.u.i.#.v.O.m O.] *.=.&.;.=.i.-...j.b.b.C.E.] G G ~ T F j 8 s G T H ] $.~ a ",
"v ' ] v H -.@.o.t.V.g.Y.].g.a & a g.R.#.=.b.R.b.g.g.f.g.Y.Y.].J z O.{ &.&.*.*.;.i.*.O.R.Y.R.v.C.6 2 o.T H | j.-.e.t.$.+.N.W.D & ",
"v.v.m.A.[.@XZ.-.$.u.d.g.d.B.J.~ D f.f.u.f.b.Y.f.f.W.W.R.W.Y.W.K ^ O.] ;.c.-.;.O.-.[ K R.Q.).R.N.] g.!.!.^.@X=XZ.i.e.g.Z.M.J.M.d.",
"v.Q. XA.Z.Q.@.O.$.$.e.+.1.W r.Y | (.g.V.g.=.=.f.f.g.f.Y.Y.R.|.#...[ #.&.i.;.c.;.*.k m C.E.Z.b.v.N.).XX+XE.E.C.=.o.O.+.$.3.X.X.d.",
"|.j.O.O.O.O.[ j.u.u.u.p.e.X.3.O.R S Y Y.g.f.f.f.f.#.%.u.g.T.g.~ c.c.*.=.;.;.*.c.;.h v ;.W.Q.j.j.t.OXi.O.| O.O.O.u.-.-.%.t.+.|  .",
"j.@.[ o.*.c.i.;.;.u.-.j.3.e.i.[ D A a c ! b.C.b.Y.b.g.Y.R.[ 2 : { C.c.b.;.=.{ &.K F j O.V.f.B.l.~ v.*.[ +.=.i.*.=.u.-.#.6.| $.r.",
"*.O.;.@.i.c.*.;.u.;.f.p.p.g.u.Y a e.Y g y G #.-.V.u.#.g.u.4 & & < @.j.=.[ F j h S v g ~ ! T v 5 T i.-.i.*.f.f.#.%.-.%.u.u.e.u.#.",
"Z.;.j.j.v.C.c.i.b.v.i.] *.v.g.=.< 6 y c 5 = < 6 7 ; o 2 j k R ] ' [ O.-.-.+.z s z ! @.! 6 7 2 o O.E.;.i.f.c.c.#.=.g.f.#.! u.f.$.",
"A.j.y.l.m.E.C.i.-.f.g.f.*.*.b.} ! $.=.f.$.| G 9 9 p 2 | #.[ [ ! ..j.@.*.*.*.Z.{.Z...$.u...*.-.p | Z.t.y.b.f.C.c.-.$.i.-.-.$.u.u.",
"j ^ A.I.e.u.E.v.-.v.b.v.*.i.i.p O.-.u.-.#.O.#.~ K F P y.~ #.e.~ [ O.O.O.*.O.i.W.).t.@.| ] ^ ~ ..l G ] Z.m.#.-.Y.=.-.f.b.f.#.g.o.",
"; = O.N.j.m.u.] +.v.t.e.+.u.g.! O.O.-.f.=.#.u.f.#.] | O.~ -.&.%.*.o.;.&.O.[ i.i.u.u.*.o.O.e.*.$.5 & 4 -.p.*.e.&.~ $.f.u.+.+.i.u.",
"g 8 4 T A.i.o.*.m.t.Y p X.l.+.f T -.u.=.$.i.u.V.p.3.U L $.$.T T  .+.*.u.;.p.e.*.T | ....*.m.$.T 7 7 : t +.v.&.o.*.g.+.S v e.d.o.",
"f T F 7 J ' j l L H p v X.I g - 0 R Y a l p v  .| Y p n S p p 5 l v F F g ^ m j H ^ ] o.+.] G 7 = H G 7 5 ! T j v L A y U  .Y p ",
"v.j.;.@.] 6 - m o.i.i.E.v.c 3 - $ 0 8 f p v h.A.L.)._..X).~ G p . * +.*.[ [ < ; v ^ h.j.b.).A.u.v ^ y.t.k q S f y j ] !.).o.q 0 ",
"i.@.{ &.-.f j ..$.;.{ %.-.m.u.S f -.O.^ @.L.A.b.A.W.E.j.[.g.| 1.x @.b.=.[ ;.F G h.6.| t.h.A.P.A.| @.*.C...[ [ ! ..j.m.C.v.i.e.O.",
"-.t.@.{ [ v ] O.[ [ K F O.c.[.Y 7 ^ ..` I.V.@.;.*.&.*.p.$.J.!.r.v.v.-.O.-.-.[ m *.-.6.t.A.h.N.C.' { { O.O.[ u.-.f.u.] ] *.[ c.t.",
"-.;.[ ' H F O.{ %.T J Y #.#.O.D s Z ` K.^.c.-.c.O.O.$.-.+.M.*XU O.c.u.j.;.c.! F @.6.A.y.m.l.6.^ l o.;.c.#.O.f.C.t.*.+...*.O.O.p.",
"j.c.{ [ O.^ { &.u.i.[ Y #.O.+.L ^ h.D.I.c.j.;.c.O.@.*.O.e.g.T.p m j.;.O.-.;.f m *.*.Z.v.y. .y...g | n.#.[ =.f.g.t.t.6.@.j.c.R.v.",
"@.&.{ &.=.F v #.i.%.] %.$.[ O.T {.oXm.j.+.;.O.h.u.v.n.;.u.d.o.> @ : ; - 8 m.h.l.O.J o.t.v.O.+.7 k @.v.{ &.&.$.-.-.C.C.m.A.V.Z.c.",
"#.O.{ =.#.Y H [ #.[ ! T ~ [ ..R I.j.^ ^ h.*.@.-.@.j.m.V.n.g.| 2 - 1 < k o.+X[.j.C._.-.&.C.Z.B.e./ A.v.p.h.O.! O.*.v.;.j.b.C.Z.C.",
"O.#.=.;.O.Y ] ] [ } ' O.$.O.$.L h.j...O.-.;.j.c.-.;.v.C.V.T.+.y j ..-.v.Z.|.;.[ #.O.[ ] =.-.i.f.^ T s *.t.&.*.u.p.O.o.O.;.Z.V.;.",
"f ' *.;.&.j b j j m J ! J z a 2 7.N.t.O.o.@.*.-.u.d.f.R.T.~.W B +.A.m.i.=.O.] ' %.[ #.i.i.{ #.S A J a t S u.g.f.c.C.i.v.N.i.f = ",
"7 s ^ O.^ f s 5 > = & H ] L 5 2 @.A.h.-.*.m.j.O.u.C.V.R.V.3.W u @.j.o...[ [ [ [ =.O.;.g.-.[ [ q 2 u.W a 2 a ! { *.p.T o.-.v ; 4 ",
"6.` O.@.a.H.l.h.l.R P N.&.u.y...^ h.j.-.j.n.c.v.d.R.T.T t e t a @.[ ] @.#.] { O.-.;.c.;.#.[ [ 2 t p 9 D u : ; < 6 4 @ # c v ^ ..",
"^ / ) ` / / / 1.z./ x t.O.#.e...Z Z ;.c.-.-...j.u.G a 2 < a D D *.^ X.| | O.&.O.-.f.C.&.S O.G < Y { { 3.o.] ! h 0 0 6 l y.] ! ^ ",
"_ 1.5.3.| / 5.7.6.^ 5 t.&.{ | | h.6.t.;.O.j.c.B.S > y T U #.~ a t.O.o.^ ] @.#.} O.*.i.] ' O.K F ] ~ { { ~ ~ ! o.Y D L 1.+.R O.~ ",
"7...) 7.X._ 7._ / r 7 @.[ ^ ..I v.N.v j j.A.V.! 2 c ~ 3.] J ~ S *.j.X.| [ ..] ! J F T R ' J T y.X.~ ! { #.~ { -.o.! W W !  .O.~ ",
"b z C x Q X.1.4.U y s +.t.3._ s 7 ] +.` X.;.O.q c |  .R Y R W U I ..z.@...R Y Y v Y o.F ! { $.~ a ] %.~ #.o.~ e.u.| U n W +.Y G ",
"t x y r C R x z y y M L +.X.k O o = k | F y 5 k +.3.a p k U D t * > j ..e.! R G F Y T S G S g q < $.e.Y G a a L R ~ c a n a a 5 ",
"r.t.i.N.j.*.| f ^ 4. ...O.3.3.c ~ Y S 3.%.#.%.u.g.n.g.!.|.;Xg.a & Y T ~ -.#.$.f.+.e.v...+.S v H y./.d.s.s.2.s.G.G.G.B.^.d.6.3.a ",
"Z.i.+.#.&.*.v.H | 6.| | ~ 3.r.R d.u.R o.#.$.$.#.%.#.u.i.#.Y.&.S D $.K F ~ ~ ~ #.} [ =.u.u.e.i.-.e.6.,.2.s.`.S.D.`.a.7.z.S.W R  .",
"i.i.o.' #.;.O.y ..X.] ! | $.X.L 3.O.3.O.i.e.o.{ %.$.u.f.[ u.K 3 R $.J ! { #.#.o.] { =.o.] t.@.H 3.7.w.s.F.D.9.F.S.0._  .7.2.X.t ",
"] m Y T T F p ; V ^ I R |  .L 5 o.o.$.%.u.$.{ { #.$.u.%.%.i.Y p +.~ ! Y ! [ ~ [ ] ! Y J ] #.t.+.X.`.`.`.F.w.q.H.r.) W R  .,.,.B ",
"> G ^ s z | ' G 3.3.~ e.T.o.< & u.d.#.%.o.{ { [ [ %.u.%.[ $.g.W t.} ] $.! J ! $.#.! ] $.{ [ *.] N ~.oX/.k.q.U.`.3.Y W W P Q <.q.",
"-.N.N.l.I.*X/.h.p.Z.~.!.`.`.r.G 3.3.3.} [ } ! [ { e.u.#.$.e.n.F o.+.! #.o.O.o.$.! Y #.$.[ F 6 & B K.'.G.8.s.H.2.,.) ) Q Q 2.8.q.",
"N._.XXXXXX|.o.^ ~ ~ +.W Q 1.d.D | !.d.[ [ o.#.[ $.{ #.u.%.[ i.q & > 4 t a b R c 7 7 S D k H 8 * N s.S.P.B.M.1.( _ _  .2.,.2.8.q.",
"{.v.t...O.O.' | | X.o.3._ U ) W +.u.~ [ #.u.u.3.$.o.] e.o.$.g.p W a.r.0.w.E y t 5 & T v.V.^.N.y.i P s.M._  .5.W U P P E ,.,.q.D.",
"N.T L R | O.| O.#.#.~ 1.W W 3.~ a 9 < p u.u.} e.3.O.O.{ } 3.u.p W 2.1. .1.a.X.3.a.,.t.+.] -.N.m.> O 5 _ 7.2.5.E ,.,.C i ,.w.G.~.",
"| ~ ~ ~ #.#.~ | #.] | 6.X.#.| S a 6.R D p D o.u.} e.p.u.u.p.~ 2 B P L W W  .~ X.+.6.+.o.| ] c.j.s , % , L ,.r.7.5.,.N Q q.9.p.U ",
"p.O.$.+.*.*.| O.p.$.X.L X.e.3.T - a b a ; 2 b ! J D c c ~ S 4 2 W W  .W L ,.,.| +.R o.O.-...p.m.r r % X X , P ..i u e C Q 1.B & ",
"d.+.3.d.t.g.$.O.$.$.] ! ~ ] u.~ Y Y +.3.| o.+.o.Y p # ~ 3.~ ~ 3.,.W ~ L L R  .|  .Y o.o.p.*.u.y.r V z : # O # o $ < A ~ R T O.T ",
"+.+.0.a.+.e.m.$.] o.e.e.] #.#.t T O.O.+.[ 3.3.! D b a 3.J Y ~ 3.W L D W  . .D L R y S $.-.+.+.Y z @...R I q 1 7 S T +.e.+.R +.o.",
"& y Z.d.| X.p.! | e.$.| W $.$.k R ~ } ~ Y G ~ ] J L U 6.Y ! ~ | P P U U  . .| | | p v o.p.e.F 2 )  .^ )  .@.J J T T T o.T ] ] ! ",
"2 & g O.e.+.Y Y X.X.R L R X.| k Y ~ ~ ~ ! Y { 3.~ R P Y R  .~ G n U Q L L U U Y T p j @.] k 8 p X.t.6.| +.*.] Y ] T ] ..o.R T v ",
"D c ; a e.~ R X.g.W 2 : W 7.Y & c } ~ Y R ~ ~ 3.~ ~ i P W U G 4 O t E P E W P G L > m T H F l s 8 *.*.o.G v ] T | ..| ] o.] ] j "
};
