/* XPM */
static char *small_chillCarrot[] = {
/* columns rows colors chars-per-pixel */
"64 64 255 2 ",
"   c #0A0603",
".  c #0D0905",
"X  c #0E0C0A",
"o  c #050302",
"O  c #130C06",
"+  c #130E0A",
"@  c #180F08",
"#  c #15110D",
"$  c #1B120A",
"%  c #1B1609",
"&  c #1A1715",
"*  c #23160B",
"=  c #281A0D",
"-  c #361A0A",
";  c #241B13",
":  c #2B1D13",
">  c #231D19",
",  c #2C190D",
"<  c #2D221A",
"1  c #2B2116",
"2  c #342214",
"3  c #3A2415",
"4  c #33251B",
"5  c #3B291D",
"6  c #3A281A",
"7  c #3B3318",
"8  c #32220F",
"9  c #2A2523",
"0  c #3D2C22",
"q  c #332D2A",
"w  c #352C25",
"e  c #3C332B",
"r  c #3C3532",
"t  c #461C06",
"y  c #551A06",
"u  c #771703",
"i  c #641002",
"p  c #54240A",
"a  c #492E1C",
"s  c #442B19",
"d  c #4C321D",
"f  c #443A19",
"g  c #53351E",
"h  c #5A361D",
"j  c #542A11",
"k  c #632C12",
"l  c #6A3518",
"z  c #753C1C",
"x  c #742809",
"c  c #412E23",
"v  c #443225",
"b  c #4C3424",
"n  c #44352B",
"m  c #4A362A",
"M  c #4D392B",
"N  c #49392A",
"B  c #523622",
"V  c #553923",
"C  c #5C3C24",
"Z  c #543B2C",
"A  c #5B3E2C",
"S  c #463C36",
"D  c #573F30",
"F  c #613E25",
"G  c #623F2B",
"H  c #6A3C22",
"J  c #7B3F20",
"K  c #4A451B",
"L  c #564F1E",
"P  c #5C412D",
"I  c #564822",
"U  c #4D4239",
"Y  c #5D4232",
"T  c #564539",
"R  c #574B2A",
"E  c #644127",
"W  c #64422B",
"Q  c #6A452B",
"!  c #6D492E",
"~  c #6B4426",
"^  c #724B2E",
"/  c #794729",
"(  c #675A26",
")  c #644432",
"_  c #6B4532",
"`  c #6D4A33",
"'  c #644B39",
"]  c #744C33",
"[  c #7B4C34",
"{  c #744934",
"}  c #68583B",
"|  c #7C5335",
" . c #7D5539",
".. c #755337",
"X. c #72692D",
"o. c #5A4C42",
"O. c #5F5149",
"+. c #635246",
"@. c #645449",
"#. c #6B5749",
"$. c #755A47",
"%. c #6C5C51",
"&. c #715F52",
"*. c #684F41",
"=. c #756255",
"-. c #7C6553",
";. c #7B685A",
":. c #796349",
">. c #871C03",
",. c #8D2F0E",
"<. c #AA3608",
"1. c #95471D",
"2. c #B75215",
"3. c #874B29",
"4. c #854E32",
"5. c #825536",
"6. c #8B5234",
"7. c #825639",
"8. c #855A3A",
"9. c #8A5D3C",
"0. c #8A5937",
"q. c #965937",
"w. c #93512B",
"e. c #A55D37",
"r. c #A95A28",
"t. c #8E603F",
"y. c #886834",
"u. c #92613E",
"i. c #99663B",
"p. c #91753C",
"a. c #A7643A",
"s. c #B4673C",
"d. c #B56C31",
"f. c #C64F0F",
"g. c #D76618",
"h. c #D0753A",
"j. c #E47D3C",
"k. c #E97215",
"l. c #8B5F40",
"z. c #8E6242",
"x. c #866449",
"c. c #936542",
"v. c #9B6A46",
"b. c #9C6C49",
"n. c #966846",
"m. c #9A714D",
"M. c #836D5D",
"N. c #876B54",
"B. c #8C7358",
"V. c #977559",
"C. c #8F7051",
"Z. c #A36C44",
"A. c #A86B44",
"S. c #B76D43",
"D. c #A4724B",
"F. c #AB754C",
"G. c #AA7847",
"H. c #B87649",
"J. c #A77B58",
"K. c #B67C53",
"L. c #8B7362",
"P. c #9B7B62",
"I. c #977B66",
"U. c #856F60",
"Y. c #A27E63",
"T. c #C26E42",
"R. c #C77747",
"E. c #D67842",
"W. c #C57E51",
"Q. c #938F38",
"!. c #FB972B",
"~. c #EB873A",
"^. c #F28934",
"/. c #F59838",
"(. c #F38C31",
"). c #FDA62D",
"_. c #FBA737",
"`. c #FEB639",
"'. c #DD8B3F",
"]. c #B9834A",
"[. c #AC815D",
"{. c #B98459",
"}. c #B8905C",
"|. c #9E8069",
" X c #AA866B",
".X c #A7846A",
"XX c #B48B6B",
"oX c #B88A64",
"OX c #BE916B",
"+X c #BE9066",
"@X c #B28D71",
"#X c #BA9273",
"$X c #AD8A70",
"%X c #98804A",
"&X c #C9854A",
"*X c #D98749",
"=X c #DB9347",
"-X c #C78655",
";X c #D48B54",
":X c #D99558",
">X c #CD945B",
",X c #E48A43",
"<X c #E89749",
"1X c #E39B55",
"2X c #F39E45",
"3X c #F7A646",
"4X c #FCB747",
"5X c #EAA459",
"6X c #F3AA56",
"7X c #FCB858",
"8X c #EBA852",
"9X c #C59164",
"0X c #C3946C",
"qX c #CC9769",
"wX c #D39D6C",
"eX c #D89A65",
"rX c #CA9B72",
"tX c #C59A76",
"yX c #C8956A",
"uX c #DCA36D",
"iX c #D7A467",
"pX c #CEA27C",
"aX c #D8A678",
"sX c #E7A768",
"dX c #F1AD63",
"fX c #F7B665",
"gX c #E3AA72",
"hX c #E7AE76",
"jX c #EAB277",
"kX c #F3BB7A",
"lX c #EFB16D",
"zX c #E29862",
"xX c #FDC24B",
"cX c #FEC95B",
"vX c #FDC668",
"bX c #FBC778",
"nX c #FED579",
"mX c #FED26C",
"MX c #D7AA82",
"NX c #DEB186",
"BX c #CAA684",
"VX c #E7B888",
"CX c #ECBE91",
"ZX c #F0BF89",
"AX c #F9C683",
"SX c #F9C986",
"DX c #FED788",
"FX c #EEC193",
"GX c #F2C697",
"HX c #FEDA97",
"JX c #FEE4A7",
"KX c #FDEABB",
"LX c #FEE19B",
"PX c #FDEFCC",
"IX c #FCFAF2",
/* pixels */
"%.%.%.&.;.&.;.&.M.;.U.L.L.I.Y.$X@X#X#XtXtXtXpXpXpXMXMXMXNXMXMXMXBXMXBXMXMXBXBXpXtXpXtXtXtXtX@X@X@X@X$X$X.X|.I.I.U.;.;.;.=.&.%.%.",
"%.%.&.&.&.&.;.M.M.U.U.L.L.I.I.$X X$X#X#XtXpXpXaXMXMXNXMXNXNXNXCXNXVXVXNXNXNXNXNXNXMXMXMXtXBXBX#X@X$X|.I.L.L.U.;.;.;.;.;.&.%.%.%.",
"%.=.=.=.;.;.;.M.U.U.L.L.I.I.Y.$X@X#X#X0XtXaXMXNXVXVXCXCXFXFXFXFXGXFXFXCXCXVXVXNXMXpXtX#X#X@X$X.X|.|.I.I.L.L.U.U.U.;.;.;.=.=.%.%.",
"&.=.-.N.N.B.B.I.I.P.Y.Y.Y. X@X#X0XyXpXpXaXaXVXVXCXFXFXGXGXGXGXGXGXFXCXCXVXVXMXaXtXtX#X@X$X$X X X$X|.|.I.I.I.L.L.L.U.;.;.;.;.=.=.",
"x.N.N.V.V.Y.J.oXXXoXOX0XrXrXwXaXaXhXVXVXVXCXFXFXGXGXGXGXGXFXFXZXVXNXhXaXaXrXpXwXrX0X#X@XXX@XXX@X$X$X.X.XI.|.P.P.V.I.I.B.L.B.V.V.",
"-.x.x.C.C.V.J.oX9XyXqXwXuXuXgXgXjXjXjXZXZXZXAXZXVXVXjXgXgXaXuXuXwXwXwXwXwXrXwXrXrXrXrXrXrXrXrXrXtX#X0X#XOXOXOX9X0X0X9X9XOXoXoXoX",
"C.D.J.J.K.oX9XyXqXeXeXuXeXgXgXuXgXgXgXgXgXgXgXgXsXuXhXhXjXjXjXjXjXjXjXjXhXhXgXgXgXgXgXgXuXgXuXuXuXaXgXuXuXuXuXwXqX9XXXoXY.J.V.N.",
"C.m.V.J.J.J.K.J.J.oXoX9X9XqXwXwXuXsXhXjXjXjXjXkXkXAXAXAXAXAXAXAXAXAXAXAXAXAXAXZXbXkXkXkXkXjXjXhXgXuXeXwXrX0X+XoXoXY.J.P.V.V.C.N.",
"b.m.D.m.D.J.J.J.{.oX-X9X>XeXeXqXeXeXsXsXsXlXlXkXkXbXSXHXHXHXHXHXHXHXHXSXAXAXkXkXjXhXsXgXsXuXwXqXqXqX9X+XoXoX[.oXJ.J.J.V.V.V.C.C.",
"b.D.J.K.{.{.-X-X-X>X>X:X>X:X:X5X5X5XdXdXdXfXfXbXbXnXHXHXJXJXHXHXSXbXkXfXfXdXdXsX5XsXsXsXeXeXeXeX>X9XyX9X-XoX}.[.[.J.J.J.J.m.V.m.",
"c.n.Z.F.F.K.K.].-X&X;X:X:X1X5X5X1X5XdX6X6X6XfXfXkXbXDXDXHXHXLXDXnXbXfXfX7XfXfX6XdXsX5X5XsX5XsX1X:X:X>X>X-Xm.t.K.{.K.{.K.K.F.F.F.",
"u.Z.A.G.H.R.W.W.-X;X;X:X1X1X=X:X:X<X:X1X5X1X8X6X3X7XfXfXnXDXHXDXnXbXmXvXvXfXfXfX7X7X7X6X6X6X6X1X5X5X:X].y.R K X.G.-X{.K.K.F.D.D.",
"i.Z.Z.A.S.S.H.W.W.;X;X;X=X=X1X<X<X2X3X3X4X4X4X7X7X7XxXvXDXLXLXLXHXDXmXmXcXxX7X4X6X3X5X5X<X1X1X1X:X;X;XX.K L 7 ^ b.K.F.F.b.v.n.n.",
"6.6.q.a.A.S.H.R.R.R.*X*X*X*X*X,X<X<X2X3X3X3X4XxXcXmXnXLXJXPXPXJXDXmXcXxX4X4X4X3X3X3X2X2X<X<X<X1X;X&X&Xy.K f K G.K.H.F.A.D.v.v.u.",
"4.4.0.q.q.c.e.A.a.S.S.R.R.*X*X,X,X2X2X/._._.`.`.xXcXnXLXPXPXPXJXnXcXxX`.4X_.3X3X2X2X<X<X<X<XH.p.H.y.y.i.L ! v.a.Z.G.S.Z.Z.v.q.9.",
"3.6.q.q.e.c.e.a.A.S.S.R.R.E.E.*X,X,X,X/././.).).`.`.xXnXPXIXIXKXmXxX`.).)._././.<X,X,X,X,X,Xa.( y.X.( ( L 0.X.f P a.A.A.q.9.q.q.",
"3.4.w.q.q.e.e.s.S.T.T.T.R.T.E.E.E.j.j.j.,X^./.!.!.).`.nXPXIXIXKXcX`.).!./.^.2Xj.,X,Xj.j.E.*XR.i.y.y.i.y.I I K f | a.e.c.q.l.l.J ",
"/ [ 4.3.q.q.q.e.e.A.s.T.T.T.T.e.T.j.j.j.j.j.^.(.(.!.).`.HXPXKXcX`.!.!.(.^.j.j.E.E.E.R.R.R.R.T.q.^ i.y.y.( L I q.c.q.l.7.4.J { _ ",
"Q / { 4.4.4.6.q.e.e.e.s.e.3.q.s.E.E.E.E.j.j.j.^.(.!.!.).`.xX4X).).!.!.^.^.j.j.E.E.E.R.R.R.T.S.S.w.( ( X.R I y.z.8.l.[ *.{ _ ) Y ",
"H _ _ { J l.4.6.6.l.e.6.H @ , 6.s.T.E.E.j.j.j.j.^.(.!.!.).).).!.!.!.(.^.j.j.E.E.E.T.T.T.H.S.A.A.~ % K ( (  .z. .7.[ { { _ ) G D ",
"T ) *.*.#.*.x.D ; D A 2 . # # 3 s _ K.W.W.W.W.W.&X;X*X*X*X_.3X,X*X*X*XW.W.W.W.W.K.K.K.Y.J.m.a b 7 = L K 7 } K < *.*.#.*.O.o.D D ",
"@.#.&.=.M.M.U.T X # X o   & < : : M  XXX@X0X0XyXqXwXqXeX1XvXfX1XeXeXqX0X0X0XY.Y.Y.Y.Y.Y..XC.4 ; 7 K L 7 X & . & =.M.M.=.&.%.@.O.",
"U o.o.@.@.O.o.n X o X X X ; 9 w 9 e S *.N.P.P.V.J.[.{.[.{.iXiX9XyXyX0XrX0XY.Y.Y.L.U.M.#.@.#.N q K ( ( > X .   > @.@.@.%.@.o.o.o.",
"o.o.*.#.%.@.U n & 9 r q 9 q S +.N.&.N.P.XX#XY.Y.V.V.[.[.}.>X>X+X9X+XOXtXpXrXrXpXY.@X@XY..X|.I.B.X.p.X.7 r r 9 q S o.&.&.%.@.O.o.",
"> > < q w r n n q S S S S S U o.+.@.#.#.#.#.#.#.$.#.$. .p.v.p.z.x.$.:.$.#.#.#.#.+.+.+.+.#.@.%.@.Q.Q.L U U U S S S S S n r n q q ",
"D D o._ *.*.#.#.*.$.x.N.x.$.x.N.b.m.m.F.J.G.G.G.G.].].].].+X>X].].G.G.G.D.b.n.n.x.t.x.x.x.x.:.:.Q.X.} $.$.#.o.' O.o.o.D S S S n ",
"&.&.N.N.L.V.Y.P.P.Y.Y.@X9XXX0XrXuXwXuXgXsXsXsXdX7X7X7XxXcXKXJXcX7X7XfXfXdXlXlXsXsXuXiXqX}.%XX.X.X.( V.XXY.0XY.Y.Y.Y.Y.V.V.N.N.&.",
"n n n S U T T O.+.#.&.&.&.&.M.M.L.P.P.J.J.[.[.{.}.-X>X=X8XdX4X'.:X>X9X9X}.oXoXoX.X.XJ...I K 7 0 7 7 P N.L.U.M.M.=.&.%.#.O.O.o.T ",
"M n ) *.D Y D m *.m M { T M ' ..[ M W V 7.C | i.i.i.p.d.&X1X>X].d.i.u.9.7. .....} ' ' 3 O % % 6 0 ; % f S T S w M S m < n 9 > & ",
"a : G 4.4 G G 3 G a { q.a : b q.S.H e.w.*Xr.~.~.!.!.).`.cXIXKXxX`.).!./.~.~.~.*XE.R.R.a.z ~ I 7 % X   % D J 5 3 l.l.l.c G , 4 2 ",
"Z 3 l.4.5 4.4.h 6.{ a.A.C B { A.R.q.h.s.~.h././._.).`.`.nXIXPXcX`.`._._._.3X3X<X<X1X=Xh.f.j.r.,.x t * 3 l.A.H G v.c.l.H G , a A ",
"c 0 Z Z v Z Z Z $.G *.l.Z ) l.x.c.$.l.8.D.Z.G.].&X=X=X'.8XjXjX<X=X=X&X&X&X&X].{.K.].n.w.r.g.,.,.<.>.y h x.l.$.D l.$.$.D _ 4 5 c ",
"; ; : : < 4 4 0 0 c v v n m M M M D D D Y _ G { G 4.6.6.e.e.e.q.w.5.4.{ { _ _ ' ) D 4 - r.1.l 1.<.x k B m m n c 0 0 5 4 < : > > ",
"> : < < 4 4 0 0 0 0 n m m m M M D D G G Y G _ { [ G l.4.3.6.6.4./ | [ { G _ G G G ! 3.2.g.k - ,.<.u q.! v v v c 0 0 0 4 < < : : ",
": < < 5 0 0 c v v v v m m M D D D D D D G ) { G G G G 4.4.[ 4.[ ] _ G G G G G G 3.r.f.f.<.u p u >.u w.H m m v c 0 c 0 4 4 < < : ",
"< 4 4 5 0 c c v m m c c m D D Y D G G D G D G G { [ *.J [ [ [ _ V Q _ _ G *.G G G G 1.k.<.2.<.u u ,.q.a M M m m c v c 0 5 0 4 4 ",
"< 4 0 0 c c c n v 0 w < < N Y Y _ _ ) _ G ' G { { { { [ { { { _ D _ _ G *.G G c.W.S.d.k.f.f.<.>.i 3.A.) Z M v v v m v v c c 0 4 ",
"2 : > ; > & ; > > & & > 9 q n n n S S D D G *.{ G { { [ { [ ..{ { { { _ { l.D.zXsXzXj.k.f.<.<.u i H K.F.G D M Z Z m v c c c 0 0 ",
"> < 0 n > X o X X # & > 9 9 r S S r q > & w *.l.6.*.*.[ { ....{ { l.b.b.K.aXzXT.zXhX<Xg.f.<.>.u p D l.qXD.G G D Z M b m m v c 5 ",
"4 > > q & & # X X o X X . . X X # & & & > n S n m G 4.*...{ { l.F.K.R.e.S.a.3.,.;XVXsXj.h.s.r.e.S.A.l.W.>Xc.' G G G G Z Z b b c ",
"; X + + # & & 9 q r q q q q q 9 9 & > q > & & # & 4 8.l.x.c.K.;XS.z x z 3.l z / R.:X;XsXjX:X:X;XS.;XzX-X-XA.G A *.G G G M 0 : > ",
"> o   o   X X > r S U r r U U 9 & X X > + . X X O 3 8.z.c.-X&Xw.q.6./ / 7.x.x.v.R.H.R.eXeX-Xe.J k a.S.H.S.i.6.' { *.M 0 : : > $ ",
"3 O o o o o o X # # # # # # # X X . . $ +   . X O 3 W 8.n.A.3./ l a.F.x.n.m.n.H.;X;X;Xe.w.,.p - - 6.H.H.q.3.6.m v : X $ 0 ; O O ",
"s @   o o o o o o o       . . . X o o .       . * s ] c.F.a.x j p k / P y.m.[.>XR.;XS.e.l t - t Q z./ ~ H p - : 2 : * : , O @ 2 ",
"C d 6 : & # + o o         . . . . . @ , 3 b C _ 7.c.v.F.W.H.J j p k E 7 ' B.BXaXzXS.e.q.l p p l v.c.Z B 2 2 6 V W W E C b a b b ",
"E W W Q G B C G V 7 7 7 P Q E C ! ] ~ H 4.c.c.v.v.D.D.H.R.R./ [ j l V v } B.|.tXqXa.a.l t y H t.9.8...) A W ~ E E E C C V C B g ",
"v s c s m W 7.7.Q V V b ! 8.7.7.u.c.9.| c.n.v.D.b.v.D.R.s.1.z c.s 3 = w } B.%X=. X9Xq.p j ~ 7. .] P A C d a b b b V A A A C G C ",
"a b C C W ~ C H  .8. .8.9.9.c.c.c.c.v.n.v.v.b.v.v.D.F.s.3.z c.D.8.3 = K } } T R $.x.z p F F B d 6 2 , , , 2 6 d V A G W Q Q Q W ",
"! ! ..^ ! !  .8.8.9.9.9.8.9.t.t.i.c.c.z.n.b.D.c.b.D.H.w./ Z.b.F.{.H.n.N.:.} } R K M a , * $ % % - d A P V s 6 6 d V C E ! ^ ! ! ",
"! ` W W P P ) ..8.9.8.9.t.9. .9.c.c.c.n.D.D.v.D.Z.K.S.z n.D.K.-XH.H.&Xm.R P R I v - , O O $ s C ] 8.c.t.t...! Z d B P ) ) W ^ M ",
"E v 0 e n n 0 b W 8.8.8.8.t.t.i.v.c.a.v.v.b.v.F.-XH.e.S.-X&XS.3.k w.e./ f 4 , = * O @ 3 F ^ t.n.n.n.n.v.z.t.8.t. .` Y P 0 Z R & ",
"< < 0 U U S 5 < 4 E 8.t.t.t.c.t.t.c.6.w.A.S.-X;XW.W.H.S.a.3.k p t - - - * @ O O * 3 A 8.b.Z.n.c.v.n.u.t.8.8. . ...P 4 < 5 M v ; ",
"; ; w U n 4 : * ; 1 ] t.t.t.9.Q [ c.3.l z z 3.3.3.z l j p t - - - 3 a V 3 6 V ! 7.c.b.b.n.n.u.t.c.t.0.8.| | W b 6 4 N P v 6 1 8 ",
"% % ; ; ; % % # $ % s ..8.t.u.t.c.c.0.j - - - j g t t s h F W 5.t.c.n.c.n.u.n.n.b.c.n.n.t.9.t.9. .| 8.8.8.] 3 2 : 7 P Y ' ) P N ",
"# # O @ # O O O O O ; b ..t.t.t.u.u.9.~ ~ ^ ^ 7.9.9.8.u.c.n.n.c.v.c.c.c.n.n.t.t.c.n.u.t.9.| 8.8.t.8.0. .8.| 3 , O * 8 2 6 a b Z ",
"O . O . . . . O X $ 4 v ! t.9.t.c.9.9.9.9.9.z.c.9.c.n.c.c.u.c.c.n.t.u.c.c.c.u.9.t.t.t.7.8.8.t.8. .t.8. .y...3 , @ $ * * * * * : ",
". . . . .   . . $ 4 5 * 5 ^ 5.8.8.t.t.0.8.t.c.5.t.t.n.v.c.c.m.i.u.9.u.8.5.8.0.8.5.| | | | 8. ... .8.8.7.8.] 8 : O @ @ $ @ % % $ ",
"            O ; w 4 @ O 3 ~ | | ^ 8.0.5.8.8.8.9.t.t.t.t.z.t.u.t.9.9.u.9.9.9.8.8. .8.5.8...P 1 g 8. . .5...] h 8 % = = * % @ @ @ ",
"* O     . @ = < * $ * 5 ~ | C ^ | 5.5.5.0.t.5.y.9.t.t.9.u.t.5.8.t.9.8.t.t.t.0.t.t.t.0.P 4 1 # : ! | | 5.| ^ ^ W F F C d 8 * % @ ",
"g d 3 2 8 : : 2 a C W ! ! ^ ! ^ 5.| | 8.| 5.| 8.8.8.8.8.8.7.8.8.8.9.8.t.t.8.9.t.t.9.8.| ! W Q P W ^ I P ! ! ! ~ E E F F C d 3 , ",
"g g g h F F C F E F ~ ~ E ~ ~ H ~ ^ | | | | 8.8.| 8.8.| ^ | 5. .| 8.9.8.8.t.t.9.8.| | | | ^ ~ ! Q ! g B Q Q Q E E E C E C F F C ",
"s s s d h I C F E h g d g I W F F ^ ! W ^ | ^ ^ | | | | | | 5. .| | 8.8.| ^ 5.| | | | ....] E E E I F F P ~ ~ E E C C C F C C h ",
"g g g g h V h C h h s 3 d E ! ^ ^ ! ^ ^ | ^ ..| ^ ~ ~ ! ^ | ..| | | | | E d Q ^ ^ ] ] ^ ^ ! ! Q W ~ ! W E E P E E E F E E P C h ",
"g h g h V h V h h P C B C W ~ ! ..! ^ ..^ ^ ` ~ ~ ! ^ ^ ^ ^ | | ^ | ^ ^ ..^ ^ ^ ^ ^ E V E ! ] ! ! ! ~ W Q W ~ E E E I h h h d s "
};
