/* XPM */
static char *small_Wood[] = {
/* columns rows colors chars-per-pixel */
"64 64 217 2 ",
"   c #3D1102",
".  c #441502",
"X  c #4D1A02",
"o  c #531E03",
"O  c #562105",
"+  c #5B2304",
"@  c #5A2409",
"#  c #5B270A",
"$  c #5D2B13",
"%  c #602704",
"&  c #642A05",
"*  c #692E06",
"=  c #642B0B",
"-  c #692E0A",
";  c #6D310B",
":  c #6F3107",
">  c #72350D",
",  c #77380F",
"<  c #78380F",
"1  c #652E11",
"2  c #692F10",
"3  c #673116",
"4  c #6C3313",
"5  c #65321A",
"6  c #6C361A",
"7  c #6E381C",
"8  c #723612",
"9  c #753915",
"0  c #7B3C14",
"q  c #703619",
"w  c #743B1B",
"e  c #7A3E1B",
"r  c #6E3B23",
"t  c #733C22",
"y  c #793E22",
"u  c #743F28",
"i  c #7D411D",
"p  c #78401B",
"a  c #754125",
"s  c #7C4324",
"d  c #7B452C",
"f  c #7D492C",
"g  c #794428",
"h  c #794630",
"j  c #7F4A34",
"k  c #7A4A37",
"l  c #813F14",
"z  c #834215",
"x  c #83441C",
"c  c #89471C",
"v  c #86481D",
"b  c #8B491E",
"n  c #914E1F",
"m  c #834622",
"M  c #844A25",
"N  c #8C4C23",
"B  c #834C2B",
"V  c #8B4E2A",
"C  c #854725",
"Z  c #914E22",
"A  c #914F2B",
"S  c #86512E",
"D  c #8C522D",
"F  c #8E5024",
"G  c #945225",
"H  c #995526",
"J  c #94542C",
"K  c #99562A",
"L  c #9C5A2C",
"P  c #995829",
"I  c #824C33",
"U  c #874F34",
"Y  c #8D5432",
"T  c #8F5835",
"R  c #85513B",
"E  c #8B5439",
"W  c #925631",
"Q  c #955A34",
"!  c #9B5C33",
"~  c #945B3A",
"^  c #9B5E3A",
"/  c #945737",
"(  c #A25D2D",
")  c #A25E33",
"_  c #A15F38",
"`  c #9E6035",
"'  c #9C613B",
"]  c #A5602F",
"[  c #AA622E",
"{  c #A46234",
"}  c #AB6434",
"|  c #AC6835",
" . c #A4643A",
".. c #AA663B",
"X. c #A7693D",
"o. c #AC6A3C",
"O. c #B26B36",
"+. c #B36D3C",
"@. c #B4713E",
"#. c #BA733E",
"$. c #895741",
"%. c #985E41",
"&. c #9C6141",
"*. c #986346",
"=. c #A56642",
"-. c #A66B44",
";. c #AC6C43",
":. c #AB6E4A",
">. c #A76A46",
",. c #B26E42",
"<. c #AD7144",
"1. c #AE724C",
"2. c #B47343",
"3. c #BA7643",
"4. c #BD7944",
"5. c #B3744B",
"6. c #BB7749",
"7. c #B57A4A",
"8. c #BC7C4B",
"9. c #B77947",
"0. c #A56F53",
"q. c #A67255",
"w. c #A6755A",
"e. c #AA7556",
"r. c #B37653",
"t. c #B47A54",
"y. c #BB7D53",
"u. c #B57D59",
"i. c #BA7E59",
"p. c #C17C46",
"a. c #C17E4C",
"s. c #C17F51",
"d. c #BD804C",
"f. c #BE8353",
"g. c #BC835B",
"h. c #B7815D",
"j. c #BD8562",
"k. c #BB896C",
"l. c #BE8E72",
"z. c #BF957C",
"x. c #C3824C",
"c. c #C9884E",
"v. c #C38453",
"b. c #C58954",
"n. c #CB8B54",
"m. c #C3855A",
"M. c #C58B5C",
"N. c #CA8D5A",
"B. c #C98654",
"V. c #D18E53",
"C. c #D08E5C",
"Z. c #CE9057",
"A. c #CD925B",
"S. c #C7905F",
"D. c #D39156",
"F. c #D2955D",
"G. c #D5995E",
"H. c #D99B5E",
"J. c #C18762",
"K. c #C38A64",
"L. c #C38D6A",
"P. c #CA8D64",
"I. c #CC9464",
"U. c #CD9966",
"Y. c #C6906C",
"T. c #CC956C",
"R. c #CC9668",
"E. c #D29563",
"W. c #D59A63",
"Q. c #DA9D63",
"!. c #D39B6B",
"~. c #D79C6A",
"^. c #C28F70",
"/. c #C49374",
"(. c #C99673",
"). c #CD9A75",
"_. c #C3967A",
"`. c #CC9B7A",
"'. c #C4997F",
"]. c #D29D72",
"[. c #D09E79",
"{. c #DBA267",
"}. c #DCA36B",
"|. c #D7A069",
" X c #D5A074",
".X c #DBA472",
"XX c #DEA874",
"oX c #D3A27A",
"OX c #DAA67A",
"+X c #DCA97E",
"@X c #E1A66E",
"#X c #E4A96F",
"$X c #E2AB74",
"%X c #E4AF78",
"&X c #E5B17B",
"*X c #E8B57E",
"=X c #C69C82",
"-X c #CA9D82",
";X c #CEA285",
":X c #D2A484",
">X c #DCAC82",
",X c #D5AB8C",
"<X c #D9AC8C",
"1X c #D2A788",
"2X c #DDB28C",
"3X c #DFB187",
"4X c #DCB391",
"5X c #E5B483",
"6X c #E9B985",
"7X c #E2B58B",
"8X c #EABC8C",
"9X c #E8B885",
"0X c #E9BE91",
"qX c #E0AE83",
"wX c #ECC393",
"eX c #EEC898",
"rX c #EDC18F",
/* pixels */
",X,X1X;X=Xz.,X2X+XoX[.(.l.l.l.q.i.s.s.s.s.a.,.,.,.......} ) ) ) s.C.Z.x.d.d.b.c.c.c.9.@.| P <.<.f f i n F p p f ] p p p p p p p ",
"4X,X;X;X=Xz.4X2X>XoXoX)./.l.l.w.i.E.s.s.a.a.a.,.,.,.......) ) ) C.H.F.B.d.b.n.n.d.d.d.@.X.` 7.7.f f F f P f f F ] p p f p f p p ",
",X4X1X;X-X=X4X4X>XoXoX)._./.Y.w.i.s.s.s.s.a.a.a.#.p.+.#.,.+...} m.F.W.B.b.b.Z.Z.b.Z.d.9.<.` d.7.` f P f f f f f ] p p f p f p p ",
"<X,X;X;X=X=X7X7X>XoXoX`.).l./.w.i.s.i.i.a.s.a.,.,.,.,.+.+...} ..P.W.W.n.b.N.A.A.Z.Z.d.9.9.` d.d.` f P F P P f ` ] p f P P P p f ",
"<X<X-X-X-X'.4X7X>XoXoX`._._./.w.0.r.r.r.:.:.:.=.=.=._ _ / / / / S.|.|.N.b.A.A.G.G.Z.Z.7.7.X.f.f.X.f f f P ` f ` ] S p S f S p S ",
"<X,X-X-X'.'.7X3X>XoX X).)._._.w.w.i.r.r.r.:.:.:.=.=.%._ _ / A / S.|.|.A.f.A.G.G.U.G.A.7.d.@.A.f.X.Q ` Q f Q f ` X.p S F P P p S ",
"<X-X-X:X_.'.<X3X>XoX).k./././.w.0.i.r.s.s.:.,.,.=.=.=._ _ _ A U S.{.{.N.f.A.U.G.{.A.f.d.<.<.S.f.<.f X.T ` f f ` ` S F S T P S P ",
":X`.`.:X/.'.7X3X+X[.).(././.(.e.0.r.r.r.r.:.:.=...=._ / / A U A U..X{.d.d.N.|.G.{.G.G.d.d.X.A.S.<.f X.` ` ` T X.X.F S T ` ` f T ",
"/./.[.;Xl._.7X>X+X).T.`.)././.e.e.i.r.r.r.r.5.,.,.=.=._ _ W A W U.XXA.' d.G.{.G.{.A.A.f.7.X.A.A.<.T ' ` ' *.S ` X.P S ` ` ` f P ",
"_.`.[.`.l.l.2X5XOX).T.).Y.Y.Y.w.e.s.s.i.6.r.5.:.;...=._ _ _ ! ! U.XXG.<.f.W.|.{.{.G.A.f.d.<.A.S.7.' ' ' T X.S ' <.` T ` ` ` S S ",
"`.)./.(.^.^.>X>XOX).T.).Y.L.L.q.i.J.s.s.s.s.6.6.6.,.;._ =._ _ _ U.XX{.b.A.{.{.}.{.{.A.f.d.d.A.f.<.T X.X.' ' T ' X.` S ` ` ` S T ",
")./.l.^.^.^.>XOX XT.T.T.P.K.L.q.s.C.C.C.s.s.s.s.a.6.3.3.,.+.| ..U.XX}.A.U.{.}.}.}.{.G.f.d.d.G.U.<.` <.' T ' T ' <.` ` T T ` S T ",
"^.k.L.L.L.L.qX.X].P.I.T.L.K.j.e.i.P.C.J.s.s.s.s.6.6.3.,.+.+.+...U.}..XG.U.}.{.}.{.G.G.d.d.d.G.A.<.' ' f ' ' T ' 7.` T ' T ` S S ",
"k.k.Y.L.k.Y.>X].T.K.Y.Y.j.j.j.0.s.s.s.s.s.s.a.6.6.,.,.,.,.+.+...U..X}.G.G.}.}.{.{.G.G.d.d.d.A.U.<.T ' f T ' T ' <.T ` ' T ` S S ",
"L.L.L.J.j.L.OX!.E.K.K.K.j.K.g.q.s.C.C.s.s.s.s.a.p.p.,.#.+.+.| o.|.$X$XG.G.{.}.}.{.H.G.Z.9.d.A.{.7.T f f T ' T ` X.T T ' S T T S ",
"j.i.j.i.u.j.T.P.M.i.y.u.u.u.t.*.r.r.6.5.,.p.,.,..._ +.} ..} { ` j.W.G.A.f.A.G.A.A.b.d.d.o.X.d.f.*.f r a f S S S T S S S f S S a ",
":XoX[.oXoX[.]. X].E.!.E.T.P.P.g.u.t.q.t.g.g.f.t.1.7.g.b.f.5.-.&.U U A I A A C C C C x x y x x x f f j f f f f f Q f f f f f f p ",
">X>X>X>X+X$X+XXXOX.X]..X~.~.!.M.m.L.h.K.!.|.U.g.g.P.!.W.W.b.y.>.I t C C C C C m x q 2 2 2 2 2 2 T *.' ' Q Q ` ` X.Q Q P ` P f T ",
">X>X>X+XXX[.XX].].].~.E.!.E.E.M.K.K.h.g.!.~.U.M.M.N.W.~.W.v.f.<.C C m t m t m q q q q q 4 4 4 2 j ' ' j Q Q T Q X.Q T T ` f Q F ",
"wX0X0X0X0X8X0X9X5X5X5X5X&X5X&X!.m.K.h.f.!.W.U.M.P.N.W.~.W.m.y.5.U C A C A C C C C C x x l l l 4 ' ' X.T Q T T Q ` P T S T F f T ",
"eXeXwXwXwXwX0X8X6X6X6X5X&X&X&XW.m.m.r.g.A.W.I.v.M.N.E.W.Q.m.f.1.I t m m t m t m l q q l , 4 2 1 ' ' T j ` ` T ` X.` D Q F F f Q ",
"rX0X8X8X9X5X5X*X%X#X#X#X@XQ.@XN.m.g.e.v.F.!.A.m.N.M.W.W.Q.v.y.1.I C C t m m q q 6 q q q q q q 8 j ' ` f ` f f ` X.Q D D S S f S ",
"&X&X&X&X$X$X@X@X@X@X}.Q.W.F.Q.B.f.f.r.r.E.W.M.m.N.B.W.W.~.v.y.<.U C C u t t x t x l l q 9 9 q 8 ' ' f f f T f ` ` T S S P P f F ",
"$X&X%X5X$X@X@XQ.Q.Q.E.F.F.C.F.a.y.m.0.>.N.I.v.B.B.v.W.Q.~.v.y.<.A U C C m t 6 q q t q l q l , 8 ' ' ` f f ` f ` ` F F S T P f f ",
"$X$X$X$X$X@X@X~.}.Q.E.F.C.N.C.v.y.y.:.1.N.v.v.v.B.B.F.G.W.v.8.<.I m t m 5 5 r q q q q q 8 8 9 8 T  .Y B D S M Q { T f F Q J B M ",
"6X6X6X*X&X$X%X@X}.}.Q.Q.Q.F.H.x.t.y.>.8.B.s.s.8.x.v.C.W.G.8.5.:.C t m t C t m C e e e e l 9 9 8 T  .Y B D B B W ` J f F F F F f ",
"6X6X6X6X5XqX5X&X%X$X#X#X#X#X#XB.5.r.>.y.B.s.8.a.c.x.D.G.F.8.5.<.I C C C C C C C m m m l l l e q Y ! S B D B s J L D F F i M F s ",
"$X$X$X$X$X#X#X$X@X@X@X#X$X#X$XN.5.<.>.f.n.8.8.a.B.a.n.G.N.9.;.;.C r C m m C 5 l e q y w q 9 q 8 W ! V V V B f J ` M M S p p N M ",
"T.T.E.!.E.E.T.E.E.E.E.C.C.C.C.y.<.;.-.a.n.3.9.a.n.a.n.F.n.<.<.;.h C C l 5 m 5 l q q 3 4 2 2 - 1 Y ! M B V s s K K M M m 9 9 M v ",
"P.K.J.J.J.s.s.J.P.s.P.i.s.s.r.;.;.-.;.a.c.,.2.a.c.p.c.D.n.;.o.;.A A C A C C C C m l e 9 9 8 8 1 S J C M M s s J J m M x 4 & 9 v ",
"P.T.P.P.P.J.m.s.s.s.i.s.s.B.C.6.;.=.;.x.a.;.3.a.4.p.c.H.n.o...o.A A C C C C C C N N C c l c 0 0 D D M m m w e K N m m e @ O = i ",
"i.i.i.i.i.r.y.r.i.i.s.r.r.5.5.>.X. ...a.6.+.3.3.2.3.p.V.x. ...o.C C C x C C l C e e 0 0 9 q 9 9 V V m i s w e N m x x 9 # = ; p ",
"%.$.$.$.$.$.%.:.=.:.%.%.I $.$.U =.:.,.,.,.,.,....._ _ _ _ K _ A / _ ...._ } +.,.o.X.` ` ` S J P D F b b N N N N N Z N b N b b b ",
"%.R $./ R $.%.6.>.,.&.%.$.U %.U =.:.,.=.=...=._ _ _ _ ) / ) A A ..,.,.#...+.a.p.#.d.@.@.o.` ' X.! P P P H K H H P G G G G N F G ",
"/ k E $.R R %.6.>.,.&._ I I E U =.r.:.,.,........._ ) ) ) K K K ,...,.#.} #.a.p.@.@.@.o.X.` ' X.! H P P G Z A J N N Z b b b b b ",
"/ R I h k R %.6.;.:./ %.$.I E V ,.,.,.,.,.,.....) _ _ _ _ K ) A ....+.,.} #.p.p.@.@.o.| { P ` { G b b b c c c l 8 0 0 x i z i x ",
"U R I I I I / ,...,._ / I I I V ,.,.,.,.,.,.......) ) ) ) ) ) ) | +.+.+...#.p.#.@.O.| | ` W ! { K N b b c c l l i x x x x i z x ",
"k u u k I I ^ ,...=./ / I I U A ,.6.6........._ ......} } } [ ) .._ o.,.} p.p.#.@.@.X.{ { K L { L N b b b b N Z b b b z z x x c ",
"I k k I I C / ,._ ../ / I u U I _ ,..._ ..+.+.#.+.+.} ) } } K A ) } +.} } O.#.#.@.@.} { ` J L { ] n n n Z Z Z G G n c 0 c v c c ",
"u u C I u I ! +._ _ / A I u A C _ ..=._ ..+.#.#.#...} [ } } A N ) } O.O.[ #.#.#.@.O.{ { L F G ` [ ( P ( H H Z H H H G F c x v v ",
"u u I C u C / _ ) ) A U y C A C ,.6.#.+.,.+.,.+.O.O.} } ) ) ) K ( ) O.) ) #.+.#.} | ] L L V G ] ( ( H H P P H H H G G G G G G G ",
"y u y y u y W ! ) ) A V r u U C +.6.6.p.6.#.#.#.#.+.+...} } ) ( ( O.} ( [ +.+.O.} [ ( L P V G L H G G H H G G G G H G G G G G G ",
"u r y t t y W K A ) C C r t C y #.a.p.p.p.6.#.#.#.#.#.#.+.O.} ) ( } [ ( [ O.O.O.{ ] P P P M G P H H G G G G G n G Z G G G F n b ",
"t 7 t 6 q y K A A A C m 5 u C C +.p.6.#.#.#.#.#.#.+.+.+.+.+.O.[ ( [ ( ( [ #.O.O.] L G G P m G P Z C b x z x z i i l z x i x x x ",
"5 6 6 5 6 w A N K H x m 5 t C t _ +.+.} +.....} ) ) ) _ } ( ) ( ) O.( H [ O.O.[ P ( G G H x N G m l x x z i z p 0 p p p p p 0 0 ",
"1 3 3 3 6 0 Z C H Z l t $ q x 6 A / _ _ _ _ _ ) ! ) ( J K J A Z [ [ ( H [ } O.[ P ] G b G x N G N x m C i i z v x z z z z c v b ",
"= 1 1 1 2 9 b x G Z q 5 $ t q q / _ _ _ _ K A A J A A V V N N C [ [ H H O.O.O.H ( [ n b G l N G P H H H P G H P P H G H G G P H ",
"q 6 3 6 6 i N m A N x t 5 m m t A _ _ _ ) _ A _ Q K A A A V N M ( ( Z Z ( ( ( G H H n c b 0 x b K G K P P G H G G F F F F F F b ",
"N.f.f.f.b.b.b.b.b.f.c.v.v.b.b.<.f s B D J ! K W A ! A t r t m V s s s C V V J C i 3 4 3 7 8 p 7 $ # # = @ @ @ @ # + o @ @ o @ o ",
"{.H.H.H.H.G.H.{.{.H.H.D.D.H.H.d.i i x D K P Z K Z L A 6 6 7 M J e e i m V M K N p 3 1 1 8 p 7 6 # # # @ + O O + o o o o o X o o ",
"{.H.{.H.Q.H.H.H.H.H.H.@XH.{.H.c.x i m A P K K H G L D 6 4 6 m J p s x M M N H N i 3 = 1 q p 8 p 8 , > ; ; ; ; & * * & % & % = & ",
"D.Z.A.Z.n.Z.D.D.Z.Z.n.n.V.D.D.@.s e x Z H ( K K Z P N 6 3 6 M J e w e N M M H C p - = 1 q 8 4 p 9 0 0 0 < 0 < < , , > : > > > > ",
"n.c.V.c.V.Z.D.D.D.V.n.c.c.D.D.#.l y m N G ( H H N J N 6 4 6 M G e e i e x M J x 0 1 = 1 9 4 4 q 8 8 < 0 < < 9 < < < < > > > , > ",
"d.c.x.c.c.c.n.D.D.D.D.V.V.D.D.#.e 9 x N H G ( G N G M 3 4 4 m G w e m i m M P x 8 * & = 9 4 9 q 1 - 1 1 = & * & = ; : : > ; > ; ",
"| O.@.2.#.3.4.p.p.p.x.3.4.4.x.[ 0 8 l N Z c H n c G m 4 3 4 M F e i M x x M J l 8 & & = ; ; 8 9 @ @ @ @ # O + O O O + + + % % % ",
"} ] | | | | | X. .{ { X. .{ { K 9 9 0 c Z Z n n x Z x 4 = 4 m F e e x x x x m l > & # = > 1 8 8 O X o O + O X . . X X O X . X O ",
"| } | | | | | Q V J J J J ! K M 0 8 0 c b H n n x Z x - = 4 v N 0 9 e x x x x 0 , % + % 2 - 8 8 O O O X X o o .   . X o o X .   ",
"( { ` ` ` ` { ] ! _ ! V J K V w 9 8 0 x c n H n x N l = = 4 x b 9 9 0 x x e x 0 , % + + - - > 8 X O O o X X X . . X o o X .     ",
"{ ' X.` ` ` ` ` ! ! { Q J ! L N 8 > < x c b n n l b 0 = & = x v 8 8 9 0 l 0 0 0 > % + + - = 8 4 O O o o O O o X O o X X o o o o ",
"o.@.@.@.@.d.9.9.2.@.2.o.o.{ { J 8 > < x c c n b z b 0 & # - x v 8 > > 0 0 0 0 , : % o + % = > - O O o O O O + O O O + + o + o + ",
"` ` ' { { | X.| o.o.o.o.o.o.o.P > * > z c z z n z c > % + * x b 8 , 8 0 0 < 0 < : + + o & & > ; O + # + + # & + + + + + % % % % ",
"P P P ` ` ` ` ` { { ' { { X.o.K > * > z z z z c 0 c > % # * 0 c > > > 8 8 8 l < : + o o + + ; - - > > : : : : * * & * & * * * * ",
"P P { ] { { ` ( ` ] ! P L ` ( F : : : z z z < z z z ; + + = 0 c - - , 8 , , l > : o O o + + * - = * & & & & * & & & & % % & & & ",
"{ ` ` ] L P ( ` ` ] L L ! ( L M : * : z l z l z < z > + o & < x > : : > > , l , : o O O O + : * & * * * & & & & & % % % + % % % "
};
