/* XPM */
static char *small_Futuristic[] = {
/* columns rows colors chars-per-pixel */
"64 64 244 2 ",
"   c #000101",
".  c #030B0D",
"X  c #040809",
"o  c #050F11",
"O  c #090F10",
"+  c #031213",
"@  c #0A1315",
"#  c #051619",
"$  c #0D1719",
"%  c #0B1A1C",
"&  c #03191C",
"*  c #121414",
"=  c #131A1C",
"-  c #191C1E",
";  c #151718",
":  c #0B1E21",
">  c #141E21",
",  c #1A1E21",
"<  c #062428",
"1  c #152124",
"2  c #1D2325",
"3  c #1C262A",
"4  c #1D292D",
"5  c #14272C",
"6  c #0A2C32",
"7  c #1B2C32",
"8  c #152D35",
"9  c #07383B",
"0  c #1C343B",
"q  c #15353C",
"w  c #212729",
"e  c #232A2D",
"r  c #242728",
"t  c #242E32",
"y  c #282E31",
"u  c #2A3234",
"i  c #25353B",
"p  c #2B363A",
"a  c #2C393E",
"s  c #253236",
"d  c #323A3D",
"f  c #373737",
"g  c #312E30",
"h  c #1D211F",
"j  c #433D3C",
"k  c #083C41",
"l  c #193C44",
"z  c #243B44",
"x  c #2C3C43",
"c  c #253C46",
"v  c #333D43",
"b  c #383F43",
"n  c #064449",
"m  c #18444B",
"M  c #084C52",
"N  c #184B54",
"B  c #0A555A",
"V  c #19535A",
"C  c #23434C",
"Z  c #2B434C",
"A  c #2A4247",
"S  c #344046",
"D  c #3B4244",
"F  c #35444B",
"G  c #39464E",
"H  c #38494E",
"J  c #2B4A53",
"K  c #274A54",
"L  c #354B53",
"P  c #3B4A52",
"I  c #364953",
"U  c #265359",
"Y  c #39535B",
"T  c #085C63",
"R  c #185C63",
"E  c #275B64",
"W  c #395B65",
"Q  c #096369",
"!  c #096C72",
"~  c #166A72",
"^  c #07757A",
"/  c #16757C",
"(  c #14656B",
")  c #27646A",
"_  c #36656A",
"`  c #256D74",
"'  c #3B6974",
"]  c #28757C",
"[  c #38757A",
"{  c #46484A",
"}  c #434D54",
"|  c #494E52",
" . c #4C5254",
".. c #44535B",
"X. c #495459",
"o. c #545B5D",
"O. c #575657",
"+. c #534E4D",
"@. c #645A56",
"#. c #6F615E",
"$. c #475B64",
"%. c #525C62",
"&. c #595F64",
"*. c #4A646C",
"=. c #53646C",
"-. c #5B6467",
";. c #486976",
":. c #586B75",
">. c #47737B",
",. c #58727A",
"<. c #6C6A6A",
"1. c #656767",
"2. c #736E6C",
"3. c #636C75",
"4. c #64737C",
"5. c #6B7479",
"6. c #777879",
"7. c #71706E",
"8. c #807B79",
"9. c #077D82",
"0. c #167B83",
"q. c #377A84",
"w. c #2C7C84",
"e. c #477B88",
"r. c #577683",
"t. c #43798C",
"y. c #6A7A85",
"u. c #757D84",
"i. c #07858A",
"p. c #188489",
"a. c #098C92",
"s. c #049298",
"d. c #189197",
"f. c #278389",
"g. c #38939B",
"h. c #2E8F97",
"j. c #0C9CA3",
"k. c #369BA3",
"l. c #2C9BA7",
"z. c #11ACB1",
"x. c #27A5AA",
"c. c #26ADB2",
"v. c #2AB5BA",
"b. c #37B3B8",
"n. c #3AAAB5",
"m. c #478796",
"M. c #558795",
"N. c #4F888F",
"B. c #69828D",
"V. c #79848A",
"C. c #688895",
"Z. c #788A95",
"A. c #7A919D",
"S. c #4797A4",
"D. c #5296A8",
"F. c #7898A7",
"G. c #6894A5",
"H. c #50ACB3",
"J. c #68A7B6",
"K. c #70A8B3",
"L. c #2FBDC3",
"P. c #1EBDC5",
"I. c #45BCC4",
"U. c #55BBC8",
"Y. c #55B7D1",
"T. c #6FB6C6",
"R. c #0CC4CA",
"E. c #39C6CB",
"W. c #39CDD3",
"Q. c #2EC5C9",
"!. c #2FDCE1",
"~. c #47C5CA",
"^. c #59CCD7",
"/. c #49D4D9",
"(. c #59D7DD",
"). c #51C7CE",
"_. c #66C9D5",
"`. c #6FCAD3",
"'. c #58D9E3",
"]. c #4BDCE1",
"[. c #67DBE4",
"{. c #71D9EA",
"}. c #59E5EA",
"|. c #56E7EB",
" X c #66E7EC",
".X c #75E6EA",
"XX c #78EDF3",
"oX c #6BF0F5",
"OX c #888C8D",
"+X c #878D92",
"@X c #88939A",
"#X c #969899",
"$X c #8899A6",
"%X c #939CA5",
"&X c #809EB2",
"*X c #89A2AD",
"=X c #98A4AB",
"-X c #87A5B4",
";X c #97A9B5",
":X c #9DB2BD",
">X c #85BBBD",
",X c #A2ACB5",
"<X c #AAB5BC",
"1X c #B4B6BA",
"2X c #A5A5A6",
"3X c #85BAC6",
"4X c #99B6C4",
"5X c #81BED2",
"6X c #A7B9C5",
"7X c #B4BDC5",
"8X c #A1BFD0",
"9X c #C2BEC0",
"0X c #92C7D0",
"qX c #AEC3CE",
"wX c #B8C4CB",
"eX c #B5C8D4",
"rX c #BBD4DC",
"tX c #A0D1D8",
"yX c #93DDE3",
"uX c #B3D6E7",
"iX c #86F4FB",
"pX c #92E8EE",
"aX c #ADE8F1",
"sX c #C5C7C9",
"dX c #C5CDD4",
"fX c #C9D3D9",
"gX c #D5D7DA",
"hX c #D4CAC6",
"jX c #E4DCDF",
"kX c #CCDAE4",
"lX c #D4DEE5",
"zX c #DDE2E5",
"xX c #DCE6EC",
"cX c #DEE9EE",
"vX c #D4E3EB",
"bX c #DBEBF3",
"nX c #D0EBF4",
"mX c #E2EBEE",
"MX c #E4E6E8",
"NX c #E1ECF1",
"BX c #E8EFF1",
"VX c #E9F2F6",
"CX c #F6F9FC",
"ZX c #E0DFDE",
/* pixels */
"P Y P P P P P P G P G G G G F b D v v b v v d d d p p g g p u u u y e u y e e y e r r r r r w h h h h 1 - - - - - - - = = = - = ",
"P P P P P P G G G G G G G b G G D S F v v v v d p d d p p u u u u y y y y y y y e r e r r r w h w h 2 h 2 - - , , - - - , - - = ",
"P P } P P G I G G G G G G G v G S S S v v v v v d d d p u u u u u u y u y y r y e e r r r w w w r h 2 2 2 h , , , - - - , , , = ",
"P P P P P P G G I G G I G G I v F F S F b v v v a d d p d u u u u u u e y y e r e e e 4 r w w w w 2 r 2 2 2 , - - , , - - , , - ",
"P P P P G G I G P G I F I G F G F H F F F F v v x a a p p p s u u u y y y e y e e e r 3 4 4 4 4 3 w 3 r 2 2 2 2 , , , , - , , = ",
"P P P P G P I F x J Y Y I J Z c A A A x x x z z x d d a p p s p s s t s y e t e h h e e h = ; h $ $ $ * $ $ @ O $ > , , , , , , ",
"P G P P P F y.eXeX7Xy.>.:.*X;XqXqX:X<X4X:X;X;X%XV.S.>.Y C.A.6.5.6.6.6.7.1.o.{ O.A.>.A o.-.OXOX8.8.8.OXV.u.8.8.Z.:.3 = , , , , = ",
"G G G P P x $XCXnXJ.R g.0XF.r.$XbXCXnXnXkXkX8XT.j.9.h._.q.E ,.3.1.o.o.o.| { y.`.k.,.K.` m -.1XMXBXMXMXMXBXBXaXC.=.b . , , , , , ",
"F G G I P x @XtXq.q._.iXaXBX,XK i $XbXbXkX8XL.s.p.U.XX{.XXU.R E :.-.O.O.-.S.l._ #XhX0X XH.B k 4.sXMXjXzXyXG.P &.<Xo.  ; - - - - ",
"F G G G H I Y f.J.XXaXnXVXbXBXZXZ.6 F <X^.z.i.H.XXpX&Xu.G.{.{.S.T ) =.' Q M  .2X2X8.#X>XyX Xk.M ) =XuXJ.W  .#XfXBX1.  * ; ; - - ",
"F I G F H Z [ .XiXnXVXVXNXNXnXxXCXfX=.U s.k.[.iX0X;X$XZ.y.r.y.{._.] ) k A 8.#X5.<.OX2X9X9XtXXX(.f.Q ) d 7.wXzXMXBX1.  O * - - ; ",
"F F G G I x N.aXVXVXNXNXNXmXNXNXvXNXsX' U.XXyXeX6X;X$XZ.u.y.r.r.).XX;.Z.;X5.o.-.8.OX2X1XsXhXgXyXXXg.B.<XgXBXMXzXVX1.  * * ; - ; ",
"F F F F H z B.nXnXVXNXmXmXmXbXcXbXkX9XJ.'.yXfXeX8X;X$X@Xu.y.r.&.| <X#XrX=Xb -.1.6.OX2X1XsXfXgXZXpXQ.0XmXMXMXzXzXBX&.  O * ; ; ; ",
"F F F F H z C.VXvXVXNXmXNXNXcXbXbXvXkXD.W.aXkXeX6X4X*XA.u.y.r.1.X.7X+XqX=XH -.3.8.OX#X1XsXhXgXZXpXv.>XzXzXMXMXzXCX1.  * * ; h ; ",
"S F F F H z C.bXvXBXNXNXNXNXmXbXNXvXkXD.^.aXfXeX7X4X*X@Xu.y.y.1.X.wX+XqX=X{ -.<.V.OX=X1XsXfXgXZXpXv.0XzXMXzXzXMXBX1.  * ; ; ; ; ",
"v v F F J A Z.nXvXBXNXmXNXmXmXcXNXvXdXD./.aXkXeX7X4X&X$Xu.u.r.r.X.<XZ.eX=XH o.1.6.OX2X<XwXsXgXZXpXL.T.zXzXMXzXZXBX&.  * * ; - - ",
"x F F F F z B.bXkXVXNXNXNXNXbXcXbXvXeXD./.aXfXeX7X6X&X$Xu.y.1.&...7XZ.wX=X{ -.3.5.OX#X,X9XdXgXjXpXL.0XZXzXzXzXkXxX-.  @ ; ; ; ; ",
"x v S Z Z z C.bXkXVXcXcXcXxXcXcXcXvX8XS./.aXfXeX8X6X;X$Xu.y.y.r...6XZ.qX=XP -.1.5.OX%X,X1XsXsXgXyXQ.>XlXgXlXgXfXlXo.  * ; ; ; = ",
"x x F F v z B.vXlXNXxXNXxXxXcXxXNXbX4XS.'.aXkXeX8X6X-X$XF.y.y.r. .<XZ.eX=XP =.:.5.V.@X=X<XwXsXgXyXQ.0XvXvXfXrXwXrXo.  * ; = = = ",
"x v v x Z c ' 0XlXVXxXxXxXxXxXVXlX+X:.0.L.*X7XkX7X:X;X$Xu.y.y.r.' ~.>.y.5.%.o.1.4.V.+X=X,XwXwX`. Xv.N.OX,XfXwX6XqX=.  $ = ; - = ",
"p x x x c c ~ '.`.qXmXBXvXBXmX:X*.U Q N.;.| 8.=X6X6X;X$Xy.y.r.0.! B g.f.) ,.,.-.3.V.Z.%X2X>X[.].v.N.A 4 D 5.:X6X6X%.  @ * ; = = ",
"p x a x x l r.T.~.(.T.fXMXwXr.E ( k. XaXjXV.F <.+X$X$X$Xy.t.9.M N J._.XX/.p.^ z.m.5.V.G.).}.Q.H.qX1X+Xa : < A B.8X&.  $ = = , = ",
"p p a x x 0 C.CX4XL.W.^.T.d.Q h.(.iXaXdXfXfX5.7 { 8.$Xr.d.T l y.`.C.} ' _.oXb.s.R.E.H.}./.n.tXjXsXwXfX<X7.4 < < [ W   @ = % = = ",
"i p a a x 7 r.rXNXcXJ.~.Q.a.U.XXpXdXgXfXdXeX<X5.x 7 &.q.M y.uX&X%.H ....L N..X Xx.z.}.v.`.gX7X%X,X:X:X:XqX@XY 1 6 <   @ $ = = = ",
"s p p p x 3 r.8X6XeXCXF.p..XpXrXgXfXfXsXdX7XeX7X@X&.} } fXuXy.} | X.......X.W H.XXY.d.uXsXV.C.$X%X*X*X*X&X4X4Xy.=.z X $ $ = = = ",
"s s i a x 7 =.6X6X6X6XE x..XwXdXsXdXsXdX9X7X6X,X;X$XF.$.;X..P ..X...} ........| t. Xn.eX=.4.u.C.A.A.&X&XT.3XT.5X'.R X % $ = = = ",
"s s s p x 3 =.4X%X4X6XK d. X7X7XsXwXwXwX7X7X<X%X%XA.M.Y u.r.....} } } } ..} $...t.|.h.u.,.:.y.y.y.F.F.T.T.T.5X_.E.6 & & = = > = ",
"t s p s z 7 $.&X$X&X;XE l.{.,X6X1X7X7X1X<X,X=X%X$X@XD.) T...} } Y } P } } Y $...q.|.0.r.:.:.r.r.y.G.J.T.T.T.`.[.~.6 & < : : > = ",
"t s i i i 7 $.A.u.F.$XE l.'.%X;X,X,X,X,X=X%X$X$X@Xu.D.E T.} P P P P P P P } W ..q.}.0.t.;.*.;.r.m.D.T.Y._._.[.'.~.9 & < : 1 : = ",
"t s t i i 7 ..y.y.y.u.0.l.^.Z.$X@X$X=X#X#X+X+X+X@Xy.H.c y.} G I P G G I P Y Y Y q.}.0.W *.$.;.r.t.G.J.Y._._._.'.~.9 < & = = 1 = ",
"t t t t y 7 I r.r.r.y.0.x.'.y.u.V.V.OXZ.Z.V.u.u.y.r.Y.l r.P v I G G F I I I Y P w.}.0.E $.W ;.t.r.D.H.U.^.(.(.(.~.9 < < : 1 % = ",
"4 t t t s 7 I =.=.=.r.j.x.^.:.y.y.y.5.y.5.y.5.5.y.r.L.l r.v I v Z F F J L J Y Y w.oX9.c W $.*.e.t.D.H.U.).^. X(.|.T & : : % 1 % ",
"4 e t t z 7 v %.$. .4.b.l. Xt.=.3.:.3.3.:.3.,.@.O.l.c.7 =.Y d A Z Z Z J J L J V x.oX9.*.%.W _ q.t.D.H.Y.^.'.^.l.W.! o : : : % % ",
"3 e 7 t w 7 c { } q.V.| w.E. XS._ %.=.=.-.-.O.[ R.z.( [ ( d.k.A c J Z U J N / /.}.x.E U *.$.W ' t.m.H.U.^.L.L.L.a.8 o : : : > % ",
"4 4 7 e 7 7 x q.f.V z C.BX>Xc.].(.g.Y X.X.*.k.R.i.N.yXoX).i.Q.].f.N m K ( v.oXQ.c.tX;XM.k Q z.h.' m.S.n.L.Y.!.0.;.} X # : % % % ",
"7 e w w 7 3 c ~ l :.;XB.3.sXZXH.b. XU.>._ ^ s.f.`.iXH._ )..Xn.z.|.)./ d.|./.c.`.kXZ.W -XtXe.! z.P.h.l.~.].c.w.r.3X'   : % % > % ",
"3 3 e 4 4 5 c =.F.F...v v F Z.9XF.h./.}.i.~ U.iX_._ H F A f.(. Xc.Q. X}.c._.nX<XY l z c r.tX8Xw.s.!.!.L.0.$.y.Y. XE   $ $ % = % ",
"3 3 4 w 7 > Y &X%.x x b I G c } 6.u.N.p.k.iX[.e.S S H F F d A S. X(.d.n.aXxX,.9 z c c Z l K G.aXT.9.h.t.:.D.Y.Y.^.E   + $ % % % ",
"2 3 4 w 7 5 c c x v v v v b G F v X.S.i.}.H.L F H F S S A S A i U U.( N.=Xl q A c c c K c K C *.yXL.E r.S.D.H.n.Y.E   # # % : % ",
"3 3 3 7 5 7 M g.c x x v v v v v G v ! ^ ].` F H S S S v b A d A a N 6 0 l 0 l i z c c c c c U C P.L.k c t.t.m.S.D.V   $ # $ : % ",
"> 3 3 5 7 5 B L.V a d a d v b b v v R ^ }.] S D S b b b d d d d a K 6 l A 0 0 i 0 z z z A C C C L.W.M v q.t.t.q.t.R   # # $ : # ",
"3 > 3 3 5 6 T Y.R u a a a a d d v b V ^ }.] D D D D b d A d d a d m : 7 i 0 7 0 0 0 l l l z C m c.!.k c I W W ' t.N X # @ : # : ",
"> 3 3 5 5 6 T I.V a a a d d d d v b C ^ }.[ D H D D D D D j b f v N : 8 a 8 0 0 q 0 0 l l C m m n.W.M c K I Y Y W l . + $ # % # ",
"> > > 3 5 6 R L.N u u u d d d D b { C 9.(.] { H { { D D D D D D b l : 7 x 8 8 q q 0 l l l C m m c.W.B c K K K I W l . + @ $ : # ",
"> 1 1 1 5 6 N g.A u u f f j { { {  .A 9.|.[ {  .{  .{ { { { { { { c : 7 x 8 q q l l m l m m N n x.W.T v K c c K K q   # # % # # ",
"> 1 1 1 5 : k W u u f b D {  .+.+.+.W 9. Xf.{ +. . . .| +. . .+.P w.k D I 6 q l l k m n n M M n L.L.0.$.l m N c K 8   + # $ # : ",
"> > 1 1 > > 8 J y g D j { +.+.+.,.b.f.M L. XH.o. . . . . . .{ [ ^.|.T X.#X=.9 9 n m n N V M ! E. X9.E r.R m c m N 8   # # # # # ",
"> > > 1 > : i R / H j {  .@.1.S.x.M :.wX] x.}.[.N. . .o. ._ ~.}.v.H.qXi 7 6.Z.U n M B B Q z.|.E.c.3Xt.6 ! i.R l N 8   + $ # # : ",
"> , > > , o y.-XB ! ' o.O.>.c.( C 4XvXOXD N ^ Q. X_.>.Y k. XW.c.yXNXV. .H < H Z.N.Q B a.].].x.`.VXA.g.n.T k j.9.R 6 X + # # # # ",
"= > 1 = > = t u.C.K M 0.k.~ q ;.uX=Xo.O.1. .x B a./. X(.].c.`.VX<X .A A X.*.U m [ ~.W.].v.I.nXfXq.T B ` L.0.k 9.R.k X + # # : # ",
"% = = = = % 2 r | 4.$.l m c r.F.1.O.#.1.1.<.@.{ A Q k.b.U.nXfX4.A H H A m J *.G.H.x.I.b.aXMXH.! ! ! ~ T B w.n.V Q k . + # # # + ",
"= = > = = = w g r f %.' B m.1.O.#.<.<.<.1.1.1.1.O. ._ U fXOXH H  .H H H U U m _ >XK.n rX0X/ 9.i.9.0.9.9.9.Q 0.h.K > . # # # # # ",
"$ = = = = % y g f f D *.p.b.@.<.2.<.<.<.<.1.<.1.1.=.m & d  .X.X. .Y H Y U U ) R R M 5 X.! 9.i.i.a.a.i.i.9.9.9.T _ Y   # + # : + ",
"$ = = = = $ e f f f  .3.p.H.#.2.7.2.2.2.<.<.<.1.<.-.N % { o.o.X.Y Y Y Y Y ) ) ) ` M 5 $./ ^ 9.9.a.s.s.s.s.s.9.U M.9   + + # # # ",
"$ = = = = % e f f { -.,.i.H.#.7.2.2.7.2.<.<.<.<.<.:.Q - o.o.o.o.X.$._ _ ) ) ` ` / B 5 =.( Q ! ^ 9.i.s.j.j.9.V M.a.k   o + # # # ",
"$ * = $ = $ e j +.#.7.>.p.H.#.7.2.2.2.2.<.<.1.1.1.,.9.r 1.o.o.%.o.$.$._ _ ` ` ] / ) 4 -.V V V ( ! 9.9.s.9.M M.a.a.k   o o + # # ",
"@ = = = = $ g <.6.8.8.>./ I.2.6.8.2.8.2.6.2.2.7.2.N.j.f 8.-.:.=.>.=.>.[ [ w.w.f.p.e.u u.R R R ( ~ / 9.^ m N.s.a.j.n   o + # # # ",
"@ @ $ $ = @ w f f f f f < m f f f f f f f f f f f a 9 h j u f f f p z q l q 9 9 q 9 - A 9 9 9 k 9 9 k < 4 m n n n :   . + + + # ",
"@ @ = = = $ @   X                                       X       X X X       X                                     X X . o + # o ",
"O = = @ = $ $ @ X X   X   O O X X X X X X X X X X X X X o . X X . . X X . . . . . . . o O . . . . . . . . . . . o . X o + o # # ",
"@ $ = $ * $ $ @ . X X X O . . . . . . . . . . . . . . . O o o o . . . o o + . + o . + + + o + + + . o o o + o . o o o o + + + # ",
"@ @ = @ @ $ $ $ @ o O . O O O @ O o O o O o O O O O o @ + @ + O + + + + + + + + + + + + + + + + + + o + o + + + o o o o + + + + ",
"@ @ @ @ @ $ @ @ @ O o o o O @ O @ o o O O @ + O + @ + O o + o o + + + + + + + + + # + # + + + + + + + + + + + + + o o o o # + # ",
"O @ @ O o @ @ @ @ o o o o o o O o o O o o o @ . O . + o . + + + + + + + + + + + + + + + + + + + + o o + + o + o + o o o o o o o "
};
