/* XPM */
static char *small_Metal[] = {
/* columns rows colors chars-per-pixel */
"64 64 166 2 ",
"   c #14120C",
".  c #161512",
"X  c #181715",
"o  c #191816",
"O  c #1D1D1C",
"+  c #201F1B",
"@  c #1F201F",
"#  c #22211E",
"$  c #29251F",
"%  c #1F2120",
"&  c #242423",
"*  c #282723",
"=  c #272827",
"-  c #2A2926",
";  c #242728",
":  c #27292A",
">  c #2C2C2B",
",  c #302C27",
"<  c #302F2B",
"1  c #2F302F",
"2  c #32312E",
"3  c #2C2F30",
"4  c #2E3132",
"5  c #343534",
"6  c #383733",
"7  c #373837",
"8  c #3A3936",
"9  c #353739",
"0  c #36393A",
"q  c #3B3C3B",
"w  c #423D37",
"e  c #403F3C",
"r  c #3F403F",
"t  c #41413E",
"y  c #4B443E",
"u  c #3B3F40",
"i  c #3E4142",
"p  c #3F4549",
"a  c #434444",
"s  c #4A4743",
"d  c #474847",
"f  c #494946",
"g  c #434749",
"h  c #46494B",
"j  c #4B4C4B",
"k  c #534C45",
"l  c #504F4C",
"z  c #5A4F45",
"x  c #4E504F",
"c  c #52514E",
"v  c #5C534A",
"b  c #474C51",
"n  c #4A4E51",
"m  c #4D5153",
"M  c #4E5559",
"N  c #535453",
"B  c #595653",
"V  c #575856",
"C  c #595956",
"Z  c #525759",
"A  c #55595B",
"S  c #5C5C5B",
"D  c #615D58",
"F  c #5F605F",
"G  c #61615E",
"H  c #73675F",
"J  c #575D61",
"K  c #595E61",
"L  c #5D6164",
"P  c #5E656A",
"I  c #636463",
"U  c #696764",
"Y  c #666867",
"T  c #696966",
"R  c #62676A",
"E  c #656A6C",
"W  c #6B6C6B",
"Q  c #706F6D",
"!  c #6F706F",
"~  c #71716F",
"^  c #656D72",
"/  c #6A6F72",
"(  c #6D7071",
")  c #667078",
"_  c #6D757D",
"`  c #737473",
"'  c #777876",
"]  c #797976",
"[  c #737779",
"{  c #757979",
"}  c #7C7C7B",
"|  c #787775",
" . c #807F7C",
".. c #7F807E",
"X. c #80807E",
"o. c #6D7881",
"O. c #737B81",
"+. c #797E81",
"@. c #767F89",
"#. c #7B8285",
"$. c #7F888E",
"%. c #7F8B94",
"&. c #848583",
"*. c #868886",
"=. c #898987",
"-. c #818689",
";. c #858A8B",
":. c #8B8C8B",
">. c #888785",
",. c #908F8C",
"<. c #8F908F",
"1. c #90908E",
"2. c #848E96",
"3. c #888E92",
"4. c #869097",
"5. c #8C9194",
"6. c #8B949B",
"7. c #859199",
"8. c #949493",
"9. c #989795",
"0. c #969896",
"q. c #999896",
"w. c #979A9B",
"e. c #9C9C9A",
"r. c #9FA09F",
"t. c #A2A19F",
"y. c #8A98A2",
"u. c #949DA1",
"i. c #9EA1A2",
"p. c #97A2AA",
"a. c #9BA4AA",
"s. c #99A7B1",
"d. c #A4A4A3",
"f. c #A6A8A7",
"g. c #A9A9A6",
"h. c #A7AAA9",
"j. c #ACADAB",
"k. c #B1B1AF",
"l. c #A1ADB7",
"z. c #AFB1B1",
"x. c #A4B2BA",
"c. c #B3B4B2",
"v. c #B8B7B5",
"b. c #B6B8B7",
"n. c #B9B9B6",
"m. c #B7BABA",
"M. c #BCBCBA",
"N. c #C1C1BF",
"B. c #A2B2C0",
"V. c #B8BEC0",
"C. c #BEC2C2",
"Z. c #C4C4C2",
"A. c #C7C8C5",
"S. c #CACCCA",
"D. c #C5C9CA",
"F. c #CFD0CF",
"G. c #C4CFD5",
"H. c #C9D0D5",
"J. c #D2D3D3",
"K. c #DEDEDC",
"L. c #DFE1DF",
"P. c #E1E1DE",
"I. c #DDE0E0",
"U. c #E1E3E1",
"Y. c #E6EBEC",
"T. c #E9EDEC",
/* pixels */
"k.k.A.S.X.X.r.,.8.X...*.X.=.X.N =.<.&.&.G V S G C N C F C A S j Q &.z.S.-.n j h g a a N ) m x d j a i r g u g h h b h J %.7.$.@.",
"d.q.A.U.b.,.,.r.r.8.8.......! V :.X.} 1.&.{ ` ` W R I A N S C h { X.k.P.F.I l N N x N o.o.Z N h a d r i g a g h n n Z o.y.6.` 2.",
"N.N.L.c.H Q | X...` ..| ..<...c &.1.:.<.>.=.&.} Q W I F C Z S d X.1.c.F.{ a a r i i r L o.J n n d r i r u u a b b b j V 7.s.p.x.",
"k.P.f.B ~ X.X.t.j.r...| ....*.r W q.8.8.=.&.&.+.( Y Y I S K U u ` u.i.W a n d g a a a a C P J m a a i g g g g b b A J A S p.G.u.",
"T t.W X.9.e.t.k.g.j.r.,...r.F 3 l 1.r.0.=.-.X. .( W Y I S Q Q 3 l e.W a N j d a a a i i a N ( u w S h g g g h h M J J P J T h.Z ",
"&.<.j.n.j.k.c.k.j.g.r.j.j.z.L r U r.d.q.<.=.&.} Q Q W I K +.-.8 j f.^ N n j j j g g i p a n +.g r ' m g h h b M J P P o._ / u.P ",
":.e.n.M.t.t.v.t.k.k.k.n.b.c.P r Q h.d.8.1.=.&.} ( W W R S &.-.9 N h.Q m N n n j h g a a a j +.h a  .N h b b b Z J P ^ #._ E i.E ",
"X.X.e.k.g.g.c.n.k.c.N.N.N.c.P r [ j.z.e.8.<.&.+.O.Q Q R G :.2.q N g.E N m x n h p p a p a g #.f t X.N h n b n A J P _ _ L E i.^ ",
"..X.t.c.b.M.N.M.n.N.A.N.N.g.R f | k.m.d.q.1.&.+.{ ( W U F =.5.q N g.E N x n j h d h a a i g @.h i &.Z g m m M L J P ) ^ K Y d.P ",
"..r.k.k.N.N.A.N.M.N.N.N.N.n.E f | j.j.r.u.8.<.&.} ( W E I 1.6.q C f.L N N n n j d d h p g g +.h a *.Z g b m M J M J P o.P E i.L ",
"~ X.r.r.r.j.N.M.M.n.v.n.N.M.^ d ` k.:.8.r.q.=.&.X.[ W E Y ;.3.i D d.L N N x j h h h h h p g o.j s } Z g b m M J J P P P L I #.J ",
"Q G U ..=.g.M.N.N.k.v.v.c.r.W a 3.I.b.+.:.9.=...{ Q Y F F F I A Q ` x A Z N m j d h j h a i x Z N V g h h n M J J P P J P Z a A ",
"D B T 8.r.f.M.N.N.t.c.t.r.9.1.F c.K.P.m.+.&.&.W U I I F N A S A E N A S A N x h h g p a p a p N V h a h h h Z L J L ^ P L L M n ",
"U ....8.r.c.k.g.g.,.X.X.9.r.X.F k.A.I.T.C.=.&.' ` Q W A x I F A ( E S G S m x d a a a b p j m j V M n g h h h M m M L _ o.^ L R ",
"X.......F y y y y y t F X.X.Q c g.c.J.J.] c N B B N N V S F V x Y I V I f 2 w 5 2 2 w s d h d d N j g h i > > > : > > h / P m ^ ",
"y y t < = r r r r t 8 6 t 8 r < l C C f , 8 q w q 5 6 6 6 5 2 - w 2 2 2 & - : > > > & * , * * - 2 > = = @ ; > 4 > : : & - 4 5 5 ",
"q.r.,.8.T ....~ ] ] ` ~ ~ } Q j >.d.c.j.( T ! ! W F D ~ S N B d F F Z C N a g i d r r x h r d d x j h d x h h m m M Z L r.a.i.6.",
",...q.c.j.r.d.d.f.d.q.:. .~ ~ V q.d.S.T.F.8.<.<.>.&.} K j F C a I I B F F N m x j h j h p p j p N V x j M L L L ^ ..#.V.Y.G.$.p.",
",.,.0.g.g.v.n.N.M.c.g.t.8.` >.V 8.N.P.L...x N B C C c j x V N a I S N Z N x x n h p p d d p r p N x x N a 1 7 9 7 r 7 R C.C.s.6.",
"..,...X.r.j.c.b.c.j.t.1.:.:.:.a q.Y.L.| l ! ! ! ( I F V x V A q V F F F M N x f d d h p j d p r x Z M i 4 i i g b n m r ^ l.B.6.",
"f ..:.X.X.r.g.j.j.j.e.8.r.e.S - G C.| V ] } ' ! Q I I F S A a - a ~ I S m x f g h p y p p p d > 8 G m 5 r a g h b m m h p M %.M ",
"F ..:.=.,.8.r.r.t.q.e.8.e.<.f r C =.N ` ..~ ! ! W I I F F S a 5 N r.T N m n j f d d r p y p L r t :.Y r a a g h b h b m b b n r ",
"G | =.=.,.X.X.,.8.8.:.:.9.=.j t U ..B T T W W ! W I F D K S g 7 N f./ M x x f h a g h p p p J r r =.U r a a a a p p h m b m h i ",
"F | =.:.X...X.X.&.=.&.=.9.=.j t I &.B C C F Y W I I F C A C a 7 c f.! x x x j f g f a r r p J r r X.F r i i p g h a h p p p p r ",
"c ! ....] ] ....' ..} ..X.X.j r F X.B c C B I I I I S S S C u 7 c d.[ d x x j d p d r r r j J r r *.J i i p i p p h p p p p i i ",
"c G T Q ....] ` ` ..} ' } ] a r S ..B F I F I I I S V N S C u 5 c r.[ d j h d a d r r p r N P r r $.A p 0 0 i i i r p p 9 i i r ",
"c W ! G ` ` ~ ` ` ~ ` ` ! W h r F ` V Y W T I I D V N V S A a 5 B r.;.j h f d a p d r p r R ..r r X.p p 0 p p 4 r r 9 4 i 0 4 i ",
"F j ..| G G T W T I Y ! Y Y Y r ~ S x W T G G G S N N V j j Z a ..9.<.-.f d d a r r r r F 3...L F ..4 0 0 4 4 i r r r i 0 9 4 p ",
"c j x ..! F F G I Y T W V S F r c B G T I I T I S S N l j a j a ~ T B >.;.j d a r p r Y $...E F j r : r 4 r 4 4 r i i r 9 4 4 p ",
"G G j x <.8.,.r.8.8.=.C N G U q B Y G I T I G F A V N j a j N 8 G T c F r.#.I I F F R 0.^ P E F r r r 4 r r i r 4 4 3 r 0 0 p 0 ",
"G F F k r y a f f f s x C F C q V C S U j 2 2 2 < < < a s j j 8 B G B T ~ c c l j y y F ^ F x h r h r r r O % % % % % 3 i i i 4 ",
"r r 8 , $ 2 5 5 6 6 1 , 6 8 6 * 5 2 8 8 # 1 2 2 5 2 2 , < > > # 6 r 8 y - = - - - - * # r r r - * ; @ @ o O ; ; ; % % o % ; % % ",
"W W W [ I G C C S S D &.<.=.X.j I W G S m N B S B N c I x s f u B F c x N t t t r r q N n r r u a q 7 q p u u u 0 0 u u u u u i ",
"U U W &.i.d.d.d.d.i.z.J.V.1.:.N S Q S E U ( ` Q E I Q I d N V q B G j x L P F F A N F ( g a h u q f u 5 u M p b b M M p 4 9 p 4 ",
"I D | +.C l l l N N B t.V.t.d.B j C I Q G S S C x n x a d a a w j d t d a i i a u q q a u r u 9 9 9 5 5 3 4 4 u 9 9 4 4 4 4 3 4 ",
"U [ ` r q N N l l N n s 8.J.M.a N I U S K B l l s l s a d a h 9 t j d t r 0 r r 9 5 7 5 u a r 7 7 u 9 9 4 4 4 4 3 3 3 ; 3 4 4 u ",
"S -.y q l N N N c B A l h i.8.& w N C C N l x h n y g a a S G & r f f r r r r r 0 7 0 7 5 i i ; > 7 9 9 9 5 9 4 3 3 3 3 3 4 M 4 ",
"y A r h n N N x c B C A B G a > w g N N x l d s s d g y a I m > 8 V i a r r r 0 0 7 7 7 9 9 5 & 5 a 0 4 3 9 3 3 ; : 3 : : u b : ",
"j N f l n l N N N N N Z C D i < a l c N d d d d a h a a u S n < r G j i r 7 9 9 9 0 9 9 5 q 9 : 5 l 7 : 3 3 3 3 3 : % 3 % 0 b 3 ",
"l V f h l N l x l c l N Z m q < a d f d g y d h y y t u a B h 3 t F i 7 4 9 r 7 9 4 5 5 5 9 4 : 5 j 7 3 3 3 3 3 3 : 3 : : 9 h : ",
"l c a f f l l d s j x l l h 9 < e s a s a t a e t t e q w N d < t F 7 5 5 7 q 0 5 4 1 1 1 1 > : 5 a 5 : : 3 : 3 : : : : ; 9 g : ",
"l l t s f a d h s h h d y r u 3 e d a a t a r e r u q q q N g < r B r 7 5 9 5 4 4 7 7 1 5 4 : > 5 a 5 3 > 3 : : : : 3 3 3 i j : ",
"f B g a a d a s d d y t i r q < t f a r r r r r r u u w 9 I h < r I 7 7 5 7 1 1 5 r r 1 > 4 : : 5 l 5 3 : 3 : 3 : : 9 4 5 c m 1 ",
"C N ^ h s h h y a i a t u q n q V f w r r e r e e 9 9 e  .>.N g I ! 7 7 5 9 4 1 7 7 4 > > : 4 5 l I > > > 3 : ; 3 : 3 3 j &.d i ",
"y 9 j I h d l d a u u u u q w 9 a w e t q 5 5 w w 9 q { >.e w 9 d r 7 7 6 4 1 1 4 1 > > 1 ; ; 2 r 5 ; : > 3 : ; ; ; : d :.a ; 5 ",
"i s t h A a r u e r e q q u a - q d e q N ` ` Q Q W X.:.q 9 a < 5 t 8 5 7 5 1 1 : 1 > ; : 1 7 2 5 5 5 2 7 u i b h b Z *.a & 1 4 ",
"h s d t 5 & # * - - , q q y t - q f y a C B c l B l B s q t y , 5 y 7 7 1 # $ $ # # $ * > 5 8 ; 2 r 5 5 5 > > > > 5 7 5 > > 5 1 ",
"2 > < * X - - , > < - - , > < # < < 2 2 # & * - , , , < 2 , < * - - - - o @ * & & $ & # $ & $ o - * * - o . O O @ o o . O O O O ",
"N x f x h l x l h l N W l j j w c B C U N f d a d a d ` G a g t j r q r g 9 8 8 8 9 9 N a 3 5 9 t 9 5 5 i 3 4 4 4 4 3 a i 3 9 9 ",
"y x r d D &.&.X.X.>.X.B q h d > r V l K +.:.9.8.1.:.q.:.h f l 5 5 j q 5 n A j N x j N F > 5 r : < r 5 : i M g h h M n J 3 ; q 3 ",
"q w u w 9 N N l j N h < 9 9 q * q y a Z c l B B B B C a u y f w 2 8 5 5 1 u 9 9 0 5 9 3 & : : & - > - : : 3 3 4 4 4 4 & @ @ & : ",
"u r 9 u u w 9 5 9 5 5 5 5 q e & e h a e < 5 5 5 5 2 2 w a g C q : 9 9 5 > : - : : ; & > 3 : : & - : 3 : : ; & & & % % % % @ & < ",
"5 q e 9 w 9 9 9 9 9 9 4 9 q 5 O 2 g e < 5 9 9 5 9 w 5 5 w f t # , w 4 1 1 < : : - - & : ; : 3 + * > : : ; & & % % @ @ & % & ; @ ",
"5 w q 5 9 9 9 w 2 < > u 5 2 , # < q 2 2 2 9 5 5 9 5 5 5 9 t 2 @ > e > > > : > : - : ; : & ; & O ; 6 : & & & % & & @ @ @ @ ; & o ",
"9 9 q q w 9 9 5 2 > < < 4 < * & 3 w 5 2 2 5 5 5 5 5 2 5 w e < % 2 t > > < > > * * ; & & & & @ @ - 8 > & % % % % % % @ + @ & : @ ",
"5 w 5 5 5 5 5 5 5 < < > > < * & > w w 5 2 2 5 2 < 2 2 3 2 9 3 % 2 r 1 1 , > : : ; & & @ @ & @ o > 8 - & % @ % % % @ @ @ @ @ : & ",
"5 6 5 2 > 4 2 5 5 5 5 > > > ; & < q w 5 u e 9 < < 2 < > 4 < > # < a < : * : - - * & & & & & @ O - 7 ; O & @ # # @ & O @ O & ; O ",
"2 5 5 > 4 4 5 5 2 5 2 5 5 w < - 5 w 5 5 9 w < > < > > > < < - # < t - - : - 1 > & * ; * & & O O = 2 ; & > ; - & @ @ @ @ @ @ & O ",
"6 6 6 4 > 2 2 > > 2 2 2 w a 2 > > w 5 < , < < < > > > , > - & # > a < : 2 8 , & & & & & & & o O * 6 & ; > 2 > # & @ @ @ @ < : o ",
"y 9 r 9 > 2 > > - 4 9 2 d B l 5 q e > < < 2 < > > < < > > > < & h U w : > - & & & & & & & @ & & 7 B $ * 1 5 2 2 @ @ & @ 2 ` u % ",
"9 * 5 a 5 & - - ; > 5 x U k k 5 w > - 2 w 2 < > , < < , - * , & l k y e < - & & * & & & # @ $ - t 2 = 2 2 6 5 6 > O O - &.D O & ",
"4 2 > 2 a N V V C S G ` D y y * - 5 < < 2 2 2 w 2 2 < , , - , # w y y y a 5 2 2 > - & O O # = = - & * - 2 6 6 5 5 : - ` K * & O ",
"w w > , 5 N D D D U H H v k y & , w 2 > , # * $ # $ * * - w w # w y y z z w w 6 2 , * & # - 2 # * 8 > - 2 = # & - > 5 w . O > & ",
"> > < * . O # # # # # w v y w O * - , $ . O + + # # # # , , * + 2 y k z , o + + # # o # & & O X $ - - 2 & O o o O o .   . X & > "
};
