/* XPM */
static char *Stone_128[] = {
/* columns rows colors chars-per-pixel */
"128 128 252 2 ",
"   c #030201",
".  c #090601",
"X  c #0D0A03",
"o  c #0D0D0A",
"O  c #040806",
"+  c #120D03",
"@  c #140E05",
"#  c #14120B",
"$  c #1B150B",
"%  c #1D180E",
"&  c #191205",
"*  c #151511",
"=  c #1C1A13",
"-  c #1D1D19",
";  c #171813",
":  c #0E110F",
">  c #231B0D",
",  c #251909",
"<  c #231D13",
"1  c #231F17",
"2  c #1F201C",
"3  c #262014",
"4  c #2B2315",
"5  c #24221B",
"6  c #2B251B",
"7  c #2E281D",
"8  c #332B1C",
"9  c #392D1C",
"0  c #342815",
"q  c #3B311C",
"w  c #2B200E",
"e  c #242521",
"r  c #2C2A24",
"t  c #2C2D2A",
"y  c #282723",
"u  c #332D23",
"i  c #342F26",
"p  c #363124",
"a  c #3B3224",
"s  c #35322B",
"d  c #3B352B",
"f  c #3E382C",
"g  c #3D3A33",
"h  c #383833",
"j  c #2E3231",
"k  c #1F2321",
"l  c #42331E",
"z  c #413624",
"x  c #433B2C",
"c  c #4A3D2B",
"v  c #453926",
"b  c #443D32",
"n  c #463F34",
"m  c #513E2B",
"M  c #4C422C",
"N  c #54452C",
"B  c #464034",
"V  c #4C4334",
"C  c #45423B",
"Z  c #4C453B",
"A  c #4E483D",
"S  c #524534",
"D  c #554A35",
"F  c #524739",
"G  c #544B3C",
"H  c #5B4D3C",
"J  c #5A4A34",
"K  c #5C513E",
"L  c #5A5036",
"P  c #624F3B",
"I  c #644D35",
"U  c #64523D",
"Y  c #6B543C",
"T  c #66593A",
"R  c #74593D",
"E  c #604528",
"W  c #6C603E",
"Q  c #4E4A42",
"!  c #484743",
"~  c #544D42",
"^  c #5A4F41",
"/  c #524F48",
"(  c #565044",
")  c #5C5244",
"_  c #56514A",
"`  c #5C554A",
"'  c #5E584D",
"]  c #5E5952",
"[  c #5C5955",
"{  c #635544",
"}  c #6A5642",
"|  c #655946",
" . c #6B5A45",
".. c #625749",
"X. c #645A4C",
"o. c #6B5D4C",
"O. c #6A5748",
"+. c #735C44",
"@. c #725E4A",
"#. c #795E44",
"$. c #645D52",
"%. c #695F51",
"&. c #635E59",
"*. c #6D614E",
"=. c #6D6244",
"-. c #73624C",
";. c #7B644C",
":. c #796447",
">. c #676055",
",. c #6C6254",
"<. c #666159",
"1. c #6D655A",
"2. c #6F685D",
"3. c #736554",
"4. c #7A6652",
"5. c #756956",
"6. c #7B6A55",
"7. c #716759",
"8. c #746A5C",
"9. c #7B6D5C",
"0. c #7E715D",
"q. c #7E7055",
"w. c #6D6962",
"e. c #756D62",
"r. c #796F61",
"t. c #736F69",
"y. c #777065",
"u. c #7C7264",
"i. c #7C756A",
"p. c #7F786D",
"a. c #76726A",
"s. c #7E7972",
"d. c #7D7770",
"f. c #3D403E",
"g. c #846A4D",
"h. c #86684B",
"j. c #836C53",
"k. c #8A6E53",
"l. c #826E5A",
"z. c #8B7155",
"x. c #83725D",
"c. c #8B745C",
"v. c #8A765B",
"b. c #91765B",
"n. c #937A5D",
"m. c #9B7B5C",
"M. c #957454",
"N. c #94714E",
"B. c #A27E5B",
"V. c #837564",
"C. c #8A7762",
"Z. c #867965",
"A. c #8B7A64",
"S. c #817769",
"D. c #847A6C",
"F. c #8B7D6C",
"G. c #897768",
"H. c #937C63",
"J. c #927E6A",
"K. c #9A7E61",
"L. c #847D72",
"P. c #897F71",
"I. c #827F79",
"U. c #A9835E",
"Y. c #8D806D",
"T. c #8E8166",
"R. c #9C8265",
"E. c #94826C",
"W. c #9C846B",
"Q. c #99856A",
"!. c #878075",
"~. c #8C8274",
"^. c #8C857A",
"/. c #8F887D",
"(. c #86817A",
"). c #938573",
"_. c #998672",
"`. c #968976",
"'. c #9B8A74",
"]. c #918779",
"[. c #938A7C",
"{. c #9A8D7B",
"}. c #9D917E",
"|. c #A38464",
" X c #A2866A",
".X c #A4896C",
"XX c #AA8A68",
"oX c #A38D73",
"OX c #A18F79",
"+X c #A98F74",
"@X c #A3927C",
"#X c #AB957B",
"$X c #AB9376",
"%X c #B5987A",
"&X c #B4916A",
"*X c #9B825C",
"=X c #C3A17B",
"-X c #8E8881",
";X c #948D82",
":X c #998F81",
">X c #938F8A",
",X c #979086",
"<X c #9C9284",
"1X c #9C958A",
"2X c #9C968C",
"3X c #9E9991",
"4X c #A39584",
"5X c #A59986",
"6X c #AB9A84",
"7X c #A19789",
"8X c #A49A8C",
"9X c #AA9D8C",
"0X c #A99681",
"qX c #B29D83",
"wX c #B49E86",
"eX c #A49D92",
"rX c #A99F91",
"tX c #ADA18E",
"yX c #B3A28C",
"uX c #BAA58B",
"iX c #BAA285",
"pX c #ACA294",
"aX c #ADA59A",
"sX c #A9A398",
"dX c #B2A594",
"fX c #BBAA95",
"gX c #B4AA9C",
"hX c #BBAE9B",
"jX c #B4A897",
"kX c #BEB19E",
"lX c #B5ADA2",
"zX c #BCB2A4",
"xX c #BBB4A9",
"cX c #B1ACA5",
"vX c #C2A789",
"bX c #C3AE95",
"nX c #C6B39A",
"mX c #D1B89F",
"MX c #C2B5A4",
"NX c #C4BAAC",
"BX c #CABBA8",
"VX c #C6BEB1",
"CX c #D2BDA4",
"ZX c #D4C3AB",
"AX c #CDC4B6",
"SX c #D5C9B8",
"DX c #D1C5B1",
"FX c #E1D0B9",
"GX c #D6CEC2",
"HX c #DCD4C7",
"JX c #E3DBCF",
"KX c #E9E2D5",
/* pixels */
"{.8X<X2.*.*.~.;XD.!.;X1X!.^./.p./.^.>X>Xe.aXsX[.L.!.jXNX2.f.,Xt S v.{.gX<X8.T.!.!.3X}.].<X,X1XgXAXSXjXgX@Xg 0.pX2X;XaX8Xi.P.].r   s aX9XD.{.9X[.W.H.x._.V.0X0Xj.3.V.l.L.MXbXMXpXS.P.bXrX8XJ.6.{ X.VX8XgX~.S.e.8.Z.`.p.L D f./ >.T.q.(./.p.-Xw.y.p.p.(.!.y.y.2.q.",
"{.].].0.-.7.,.^.!.p.D.L.1X!.i./.eX(.3X,Xe.,X2XD.Z.!.p.jXi.5 ' 2 M x.!.1X/.`.Y.^.8X<XaXpXjX9XgX8XlXaXdXtXD.p *.2XsX;XeX^.,.V.9XD   ~ jX~.V.rX~.D.G.z.@.c.'.:XG.OX:Xl.3.J.4X0XuX0XJ.O.n 7.G.J.l.V.V.P.e.i.~.Z.y.i.p.>X>.M M D ' q.2X/.,Xp./.p.<.w.I.a.1.' y.2.p.q.",
"D.S.[.A.A.L.D.p.1X;X].~.~.!.i.sX3XL.2X,X<XaXsX!.L.~.{.jXi.2 r - V dXaX[.^.}.aX1XsX,X^.i.1XeX^.lXGXxXaXpXw.7 ~.,XP.P.L.$.y.8XDXy.d %.8X<X3.o.r.G.wXH.;.9X9X`.G.`.:X3.l..XJ.8.:Xl.J.0Xj.$ z {.P.u.9.pX[.{.Y.).Y.p.,Xs.<.( L =.y.1.>.&._ <.I.2.<.<.&._ ( 1./.p.y.s.",
"^.P.S.-.`.i.i.i.^.1X<X1Xs./.,X[.!.^.!.!.i.3XxXeX1X<X}.pXC 5 h r M 1.1.8.>.p.[.u.8.T.1.`.sX8XsX<XD.{.pXfX>.d ) 8.^.,X4X~.7.u.zX] F.'.y.D.F.).H.oX).j.R.eXG.F.G.V.D.r.S.6XOXx.O.P.c.;.K.:Xd a ,.Q b ].8X8X<X1X^.2.e.=.2.( T ' e.y.e.>.' 2.w.a._ A B Q y.e.(.cXlX^.",
"<X^.Z.0.^.!.p.p.[.~.S./.p.^.~.^.1X,X3X~.].1X!.^.aXgX{.tX` B ) r a X O 5 D.<X^.}.[.Z.8XpX[.3XxX~.9.5XjXH p 4 ) X.:X8X8X).S.5.` 2 y.fX_.6._.9XQ.`.-.O.C.4.} V.).V.-X<X:XrXJ.9.( J.c.j.l.0XyX8.1 @ Z /.;XeX8X,XI.w.1.>.5.A D 8.!.e.!.>Xs.2.=.&.<.[ ' w./.a.y.3X/.5.",
"<X).Z.0.y.p.,X[.S.D.~.^.L.>X;Xd./.2X>X^.gXxX!.2./.;X,X1Xp.,.5.; A f.6 = b !.[.NXpX!.i.!.[.}.8X7XzXAXL.8 6 X 7.9.o.8XV.).F.5.y.( 5.DXE.g.@X).J.V.4.l.C.r.7.} G.Z.P.L.P.P.%.Q { l.J.P.G.C.K.0X^   Z }.(.3Xs.>.1.2.&.L ,.g D T./.w.w.w.s.2.A ! ' _ ' $.,.2.<.' t M ",
"5X8XgX9.8././.p.1.e.D.p.L.;X;Xi.(.2X,X;X3XaX2X^.(.p.a.!.}.p.Z.a K `.<.C A t g s.zXsX9.>.pXgX<X:X4X[.) u 6   H pX[.].F.D.D.8XzXd o.AX Xm.{.A.o.V.fXwXF.%.7.V.F.eX^.^ V.V.7.%.x.C.e.O.J.G.} @.{.; M T.aX3X;Xp.i.' ,.' 2.( M L.y.e.w.y.(.2.' =.' Q $.5.y.a.i.i.! W ",
"pXsX~.| 1X/.p.D.X.8.L.<.p.i.;X;X;XeX-XeX2X8X/.[.;XeXdX/.AXxX$.q D pX<Xu.M > q D V x K Y.) M 9 , + . $ 7 #   4 Z a r 4 a ` y.K w M W.bXnX.X%XT.v.0XG.L.V.3.].9.D.V.S.P.F.l.G.C.4.@.O.l.G.@.#. X;.K ^./.2XcXp.>.$.2.w.y.<.A 2X!.!.p.!.p.e.!.s.2.L D e.p.s.s.] ] T.",
"pX[.T 0.!.i.y.' y./.D.y.u.^.P./.[.3X2XeXsX2X/.1X2X,Xp.3.xX(.f.b o M f f < $ $ , X X O % B ( f f s d 1.!.,Xs.>.>.i.9.*.*.X.K 8 . N.B.z.BXbX4X{.0XJ.D.P.F.S.F.5XdXP.X.e.G.S.Q ^ 4.V.j.G.J.b. X%X&X5.aX2X^.2Xs.y.s.a.s.(.2.B 2.;XL.t.;X-X>X-XI.] ` ) ( >.' 2.2.' !.",
"Y.=.v.tX).Z.2.*.8./.D.i.L.L.p.8.1X,X2./.8X2X[.2X3X(.1.T.tXy.f.h O O X + & % < o .   = h tXHXDXHXSXAXSXNXNXpXT.dXHX1X1.T.@XE.|   +.=X|.VXwXJ.J.l.G.J.P.7.9.J.{.wX_.G.l.P.%.@.V.J.V.:X_.oX0Xl.qX#XT.aX!.>.p.p.2.a.p.2./._ M B Q 1.a.2Xp.t.t.' [ <.!.!.^.p.e.t.[ =.",
").E.tXlX].9.i.i.p.Y.s.!.[.eX^.D.eX<X}.<X^.,X[.2X[.s.eX!.,X/.y y O ; - u 0.!.!.G t s G 9.lXGXjXaXxXAXcX[.!.,X,XzXAX2X5.Z V |  .a +.B.CXHX9X4.6.9.6.V.F.%.C.{.E.0Xl.7.$.S.7.].G.l.V.G.).5X0Xx.Q.oX2.!.2.^.a.<.a.t.i.p.e._ b Z ` 2.~.;X$.X.` ^ $.p.(.-Xs.>._ >.>.' ",
"`.dXAXkX(.!.p.i.X.1.1.pXcXcX).rXsX2XxX,X>.e.eXcX2X/.~.0.tX1Xj 5 : ' =.5.[.!.~.).0.x.9.`.cXcXgXsXsXcXaX8.>.` >.~./.gX}.E.C.A.Q.v Y qX+Xj.W.G.-.^ { 9.).P.).{.{.5.^ %.6.-.l._.J.F.W.G.S.K.'.H.OXbX}.y.!./.s.<.w.t.y.a.t.y.p =.^.s.a.L.L.e.a.&.&.1.' ' _ Q 1.a.a.8.",
"5X/.w.Z 6 X.a.' D./.(.[.eXcX).).3X[./.i.~.Z.8X}.D.~.[.~.NX(.h - O =.`.q.p./.L.Y.`./.<X}.8.D.,X].[.2X/.p.' ` p.!.2X3X3X2XMXkXtXd Y l.|.|.3.S 4.r.O.V.{.4X:X).[.r.P.x.C.3.^ G.{.9XOXl.6.c.#XqXhXhXZ./.;Xy.a.<.a.I.p.>.y.s.q q.8.[ ' D.^.t.t.] ` F C _ w.s.p.1.' Y.",
"B 5 @ @ + % K !.sXsXsXy.8.2X<X).tX3X~.8.Z.[./.^.0.^.<X!./.t.j * B }.}.i.Y.}.}.Y./.[.gXSX<XD.p.!.!.>X2Xa.p.y.!.<X<X!.^.2X2XtX,X' R 4 ) dX9.@.l.Z.7.X.8XaXP.[.9X[.e.G.l.3.6.r.3.o.l.C.4XW.@XAXxX6XA y.-Xp.w.t.s.I.a.2.<.<.q !.!.1.>.i.] _ &.w./ ] 1.i.s.t.2.' ( '.",
"M - 5 5 5 6 $ a [.<Xp.;Xi.D.8XsX~.~.sXD.{.{.p./.2X!.!.<XsXt.j r }.^.2.eXeX/.0.u.Z.4XAXxXcX2Xp.<X/.8.p.,X,Xy.y.3X/.!.[.p./.i.f y I I > 8.{.J.C.P.r.%.H -.O.F.cX[.F.P.P.V.G.u.+.V.0XE.5X#XyXNXSX<X6 g a.!.L.i.(.s.-Xd.[ &.A !.u.` 2.>Xs.w.[ [ w.a.p.e.w.w.>.,.8.yX",
"3.' h G B t t < x Z.{.~.V.e.^.;X!.`.3X}.tXaX1X~./.,XtXAX[.b ! = Z.T.Z.u.e.u.D.2X].7XxX3X2.D.`.!.sX,Xi.!./.a.L.,X,X!.y.^.3XB r 7 k.k.m F {.C.J.V.X.V.G.6.7.V.%.r.D.l.F.V.J.3.9.pXgXhXdX5XNXdX^.F.6 5 6 ' -Xt.s.s.d.<.t.w.p =.!.' f Z ~ / [ w.w.<.w.u.&.C f K ,.*.",
"u OXJ.l.7.%.V.%.t a ( ,.[.]./.y.Z.1XT.y.{.}.[.3XpXgXpX~.K b s . U `.y.u.9.].,XzX,X*.u.2X!.i././.;X!.2.(.>X;XeX-Xp.[.^.;Xp.7 r d H g.b.} 9XoX6.Z.O.2.l.J.:XG.V.S.e.l.P.l.P.G.4XdXlXxXrXE.bXV.M { 1 # u 7 / t.r.J.;X;XS.1 X ^ ^ u % & 0 V ` Z b Z _ ' Z ( K x 8 > ",
"X S dXV.%.J.F.{ V 7 = 7 Z L.2Xt.u.D.p.{.u.b ) 1.i.}.| a 8 a 4   D yXl.Z.5X`.y.i./.!.2X!.0.[.!.y.1XeX` L.cX;XaX>X2.t.y.:X1.6 t G N W. Xj.{.c._.:Xl.8.^ G.J.j.G.L.P.P.J.:XjX4X<XhXgX9XjXAXjXF.l.g e . < u i ^ ,.Q ( n *   o #   . $ % , & $ , $ $ < > 3  .8 X X . ",
"0 4 S 4 F X.<   . # r b V F B Z A D M 8 w 4 9 c 6 4 3 % + +     D iX<X8X{.u.D.D.!.p.,X,XD.i.!.[.1X;Xi.~.eX:XeX/.7.e.7.].L.Z G  .U H.R.%XJ.C.3.,.4.l.4X0XJ.K.J.G.F.P.{.NX9X4X4X:XrXVXNXe.i ) A./ e > H.fXJ.4XbX[.).J.k.J.0X9XP.4.l.4.P m 1   7 L.3X1X<XS.0.o.D u ",
"N q $ 1 u a x a a x M V 8.7.) c D 3 # + X   s 1.i.V.0.5.V.V.X.# | 7XaXeXF.Y.~.Y.[.!.i.^.,Xi.!.,X2X;X,X>X/.p.;X3X;X<XL.7XC f { J N ;.0X6X,...H ) 7.S.J.J.0X4XlXbXP.S.S.D.J.4XNXNXVXNX$.6 3 f n b ; 7 ^ 0X&XB.b.b. XM.%X=XqXqXK.G.H.W.b.+XA.c V.NXVX^.y.t.y.i.{.'.",
"tXA.A.#XOX6XyXOX6X#XiXmXBX5X`.{.yXT.X.d ; # lX8XS.1.i.P.[.{.[.Z  .~.].lX{.5X1X~.2X^.!.,X0.u./.;X;X^.~.1X!.!.].p.( &.:X,.y Z S q O.J.-XwXC.( 9.9.^ F.l.l.J.:XlXlX] O.8.G.G.jXhXAXGX>Xf 1 y u 7 0 # c h.+XvXH.G.b. Xk.6X0X@.j.@.` 9.7.^ 4.e.n { sXI.X.8.).^.~.V.| ",
"l.4.E.5.@.E.E._.W.T.A.'.v.U { @.@XiX XU d ) pXo.%.` t.a.e.e.'.^ z.eX).~.D.1XY.~.!.(.s.L.,X1X/.i.^.2Xu.~.1X8X/.K V X.[.~ D G D L J.:X..4.^ { V.J.%.@.J.9XrX8XJ.<.! l.OX9X4XjXP.MXSX~ r r u u i e < #.} O.F.@.@.j.+Xm.b.j.O.j.c.4.6.-.7.O...m { 9X..$.Z.9X8X).V.,.",
"6.A.@Xv.J.9.Z.A.j.T.-.-.-.+.c.x.A.qX'.s u *.1X].G.a.i.1.&.L.).( Y.S.l.A.Z.D.J.S.>.2.(./.,X!.!.D.,XeX1XeX<X`.1.( y.V.;X7.7.7.A.G ,.J.F.V.m e.P.J.7.O.l.4XjXS.m O.J.4XBXMXMXpX[.jX9X^ s d F { ^ o a B.M.B.l.;.K.oXoXc.@.h.l.l.l.c.c.c.x...J.@.S AX^.X.8.P.;Xw.D.V.",
"R.x.{ yXfX'.{.E.6.x.A.A.;.H.Q.OXv.6X%X-.u 4 v.D.i.t.w.a.S.P.e...9XL.,.F.[.v.A.V.7.9.,X;X`.{./.p.~.eX,XeXgX1XV 1.,.i.S.L.<.8.G.F m J :XJ.l.V.G.J.l.l.l.P./ n l.c.@.J.jXVXpX0XJ.{.9X! n ^ F ,.V.o 9 M.vXG.O.J.K.b.K.K.C.l.%.j.l.H.K.G.6.4.C.l., ~.;X7.8.7.-X[.S.y.",
"z. XH.).@X%XA.E.OX9.O.9.c._.6XOX'.yXZXv.X $ Z.,XL.d.I.a.i.P.D.%.rX8Xe.t.Z.V.9.7.9.%.S.;Xs.P.^.D.D.L.<X;X/.X.<.u.,.r.| X.(.9XJ.X...0.4.@XOX_.J.J.J.J.J.l.~ J.0X0XP.rX4XdXyXfXMXBX<Xn 7.V.O.F.P.7 0 k.wXj.z.:Xj.k.#X.XK.J.c.l.+XB.G.j.O.k.B.L < `.L.&.r.e.L.].S.P.",
"iX%XQ.x.6.{.yX0X{._.F.x.#X6X_.;.v.*.v.S . 8 D.^.t.D.S.t.%.J 9.^ 8X1XS.;XS.j.o...y.r.8.I.p.L.a.p.i.t.B f x $.9.u.r.%.i.d.$.dX)...{ T -.) P.4XJ.H.K.K.0X:Xl.P.7XeXbXNXBXMXVXSXHXBX) b 9.).G.J.J.{ l I uXK.K.l.3.+X%Xc.c.XXK.l.J.+Xj.c.b.j.j.N M 9._ e.i...1.;Xe.w.",
"'.n.V.].V.| <XwX`.V.A.@XE.{.4.@.c.l.o.9   d !.s.t.i.e.S.9.C.W.%.dXxX~.].^.).V.a.i.F.<X^.P.w.$.u.X.b ) o.8.i.*.1.-XI.L.-Xl.@.n 1.K M | $./ fX Xk.K.B.m.J.b.K.J.0XNXbXVXHXNXSXKX{.~ C J.O.m 4.K.7.a h.K._.J.l.K.0Xc.#.@.z.h.l.K.K.b.k.b.K.k.z q M ~ 7.9.4.8.S.3.3.",
"4X@X{.OXF.9.4.X.o.J.-.-.).'.n.oX@XW.5.6 X 5 ^.p.P.L.O.9.7.P.3.S 9.NX4XH.:XS.L.P.1.V.{.2.e.$.$.o.X.X.,.S.!.y.p.2.i.(.-XP._.P.^.' M T f d 7.9XMX%X0XK.B.m.B.m.%XXXlXVXBXGXHXKXlX7.X.} S 1 $ % %.l.m M.J.x 7 8 O.j.l.h.h.b.h.l.K.J.j.g.O.o.@.a v L X.$.S.J.S.r.7.j.",
"3.G.| S U O.o.d H 6.Q.OX{.*XR.@X$X .f p % 7 v.y.^.P.W.).i.4.l.x { ~.NXfX+XF.r.P.r.3.` ( ..7.9.{ ( %.,.8.y._ d g g g [ ).Y.p.L./ a T.=.L | 3.bXbXwXmXwXiX%Xl.J.VXSXVXP.P.P.e.^ a a x 1 i m ^ l.~ m g.z l m m J } #.+.M.|..Xx.z.H.b.z.4.@.v.S L T.M *.7X!.$.^ r.7.",
"c 6 4 I z.K.-.l.A.E.8X9.v.Q.T.#X9.M M f < L p.s.:XtX9XJ.8.C.S > F u ,.SXyXXX4XyXJ._.3.7.$.7.) ` <.X.| ..1.~ A ' $.~ ' ` _ $.' d < >.0.Z.T.*.q L V.1.r.:XrXP.^ e.7X^ 4 4 x ) x x n t y F O.c.^ 6 l m 1 u E h.+.l m z.#.+XrXOX X%X+XM.k.C.=.t T =.3.` ) A Q %.~ 4 ",
"9 v v Y P 0 w U =.M T.u.1.) =.M 7 B f p q N i ^ 8.%.9.e.V.6 X + X > < %.9.v.dXtX:X).X.-.o.d 4 4 d H o.D.u.,.8.,.| Z d 6 f f % O X 8 ( V d & , , , , $ 6 m m n < & , 0 9 9 9 0 a X.^ m { @.n < X . > 9 l E ,       , 0 v m { m z c c d m t k v q 0 q # # 3 c > X ",
". + & + . . .   + % $ $ + + + @ $ ; - 7 U :.H G Q ] ..~ %.G x #     + + + < c u.i.y.$.5.V.Q Z x v V a x x s e.:X8.p.!.>.r O = O   % a & & & @ @ @ @ # @ # $ $ $ < < & @ @ X . X i O.G.G.J.l.,.t   n 1.P.7XG.O.^ { ^ O.~ r < * @   . < y A q.q.0.!.y.^.D.*.K b   ",
"      - t - - t <.sXL.A C Z t O ; X.Z.W.J._.4X:XG.P.P.].:XwX.X3.  : 1 1 x.[.}.gX[.1.!.,X[.1XaXpX}.E.Q.5X1XpXAXSXHXAXpXD.T.y.tXp.M T.T.C ; k r t t r e d G d ~ 5.!.' j ; O o - /.NXs.;XeXVXkX#X^.Z OXE.~.8X1XkXMXDXSXjX`.).D.i.Q o B ).'.:Xr.V.P.D.%.e.r.G.G.J.@.",
"    - h f.h ! <.$./.8XtX}.^.*.- H l._.G.9.9.%.8.3.-.P.'.J.G.K.%.u G V -.4X}.T.p.>.' 8.,X^.=.>.' L 5.#XxX8XjX!.' 3XzX1Xy.' ` u.D.T.}.[.T.) d s t t f./ i.Y.,.E._.`.).*.s k L }.8X/.!.[.}.!.2X}.Y.).rXjX1Xy.y.L.e.a.[.^.a.~.Z.5X`.A =.5.).Z.%.7.1.e.e.` 7.V.C.8.OX",
"  t Z.` $.e.e.5.$.y.p.5.[.tX$.B 4.X.[.9.V.D.D.P.D.V.V.L.P.<XP.! a | ~.F.,.xXgX8.p.^.y.>.$.*.' ) 0.q.).^.2XD.i.i.^.y.Y.!.>.$.0.b L T.D.`.0.q.0.) ` Z.r.8.e.1.$.9.0.,.Z.=.=.tX5Xu.e.p.tXgXcXsX0.T.%.hXsXaX-X[.e.y.p.' !.!.7.7.<XY.M K 0.}.r.,.9.7.S.y.%.%.r.c.l.l.",
"V }.).5.,.!.8.p.y.2.!.i.Z./._ r o.[.6XV.9.F.9.S.D.u.S.r.G.P.V.^ 8 9.:X<.( ;X!.) ,.p.p.p.y.2.>.0.!.T.,Xp.<XxX<X/.!.2.G 9.T./.,.f =.!.!.E.`.`.u.Z.x.8.S.D.y.P.e.7.Z.0.0.=.,.@X[./.T.D.3XeX}.[.^.q.$.<X~.dX,XD.i.!.s.1.!.p./.~.`.t.p L ~./.e...@.3.7.w.&.,.r.L.J.H.",
"[.[.0.T.,.8.p.L.y.8.y.L.Y.}._ = | ).V.V.9.8.G.r.F.P.P.G.r.G.J.l.X.Y.$.A >.( ` D.i.*.( 2.(.p.p././.`.;Xp.-XT.L ,.p.s.D.~.gXVX2.) 8.^.`.@XL.e.$.D./.^./.9.3.L.^.X.e.{.x.G 2.@XgX8X<X8X<X,X/.~.kX'  .`.p.}.9X[.1.y.8.1.!./.!.i.!.2.p  .Y.>.*.1.7.r.@.e.L.D.V.a.G.G.",
"G ` 3.Z.p.*.>.>.e./.L.,.B e.g * 9.i.` X.7.r.^.D.P.D.].J.J.J.+Xn V D.8.D.y.y.i.L.L.!.p.^.!./.!.!./.p.>.( f f y.s.u.,.' p./.Y.D.p.V T.}.y.C e.y.,X1X2.8.S.V.i.e.t.(.:XD.V L D.L.!./.~.p.!.e./.lX$.*.{.<X2X0.S.9.9.8.9.2.2XD.G C ' 8 T.'.3.,.u.1.e.V.1.V.J.F.G.l.@.",
"Z.9.1.u.8.0.!.>.y./.!.A ,.` r = F.8.` V.L.u.L.[.:XL.P.J.G.OXG., x 8.!.1.e./.!.>X(.a.,X/.3XcXsXa.y.T.8.8.!.3.*././.!.8.K ` ,.#Xe.M L ' !.~ Z <.I.!.8.y.~.~.L.s.L.-Xs.l.;.K 8.0.p./.~.!.[.<X<X}.1XG `.^.K G A 8./.!.i.i.S.( Z 1.C 9 5.1.' i.~.u.8.D.a.r.J.J.V.l.%.",
"0.8.G ` K *.1.>.` ' f r G 2 # % a M { X.F d v ,.%.r.1.7.%.l w X c G y.L.2.^.;X(.^.>.8.D.i.sXcX!.8X/.0.).[.!.i.0.,.2.a.D.^.pX,Xt f L 0.i.8.y.e.i.i.e.,.y.t.2.e.2.` D.).}.L T.}.!.<X/.!./.~.eX8XxX1.G q f K =.X.>.G B d t 3 x d @ > 8 7 D =.H a d / %.%.e.^ ^ a > ",
"= = p ' 5.A 5 - p 7 M 5.f 5 5 T :.X.5.X.1.8.,.i.~.1X$.8 @       n G %.NXrX^.e.e.(.D.u.^.L.^.[.Z.,X!.^.Y.*.9.^.[.{.2X3X<XaXgXy.e M W T.w.y.y.2.y.y.y.S.y.p.p.L.^.;X8.~.sXp 6X/.!.[.^.eX~.q.2X[.aXC X + < f G M = # d B M 6.*.q r M -.9.{ a 8 a p ^ l.J.X.%       ",
"X.e.i.Y.0.0.| >.Z.0.}.MXDXjXNX}.dXVXSXzXzX8XNXGXBXGXHXhXV.G <   x | 9.sXeX-X<.' $.p.,X;XsXeX:Xi.0.!.~.^.!.i.!./.!.8X/.^.eXaXd.y v W i.$.>.2.L.y.1.0.!.9.i.i.>.L./.i.7.<.u pXaX/.^.,XgX/.!.!.,XT.6   ; _ pX}.T.u.T.`.T.T.uXSXAXZXnXdXfXdXhXhXfX9XMXBXJXHX4XX.i o ",
"}.~.L.1XZ.~.`.T.~.tXkXMXfX~.~.5.X.e.S.D.F.D.9XV.j.H.6X4X0XfXbXZ x %.,.1XI.&.S.y.p.L.-X^.3XeX(.^.{.(.i.[.aX2X!.[.pX2XD.^.eXaXt.y M q.u.( ( ' i.[.D.D.i.e.e.>.2.e.y./.^.' 7 <X[.;XD.4XdX3X[./.tXtXB A 9.Z.pX<XY.tX^.x.dXkXbXBX'.{.{.8.S.~.{.4X].jXlXJ.OXdXlX_.H.9.",
"/.T.D./.Y.V.}.tXMXtXMXMX0.5.5.0.8.%.%.o.0.{.V.{ C.V.b.C.J.:X7Xr G 6.3.8X[.8.a.;X/.(.^.s.d.^.~.8.a.!.sXsXsX2X,XsXpX1X,X[.2X1Xt.e L *XD.p.1.5.e.D.1X^.7.F.S./.i.1.i.2.D.i.% >.aX,XlXgXtX1XeX/.~.}.y.v.pXtX`.tX`.{.tXnXDXbXDXzXV.e.u.1.$.<.$.1.P.4X@.4.G.c.;._.#XuX",
"Z.T.~.].aXxXtXgX1XkXHXtXp.p.,.,.9.5.7.9.4.V.7.4.c.c.o.4.C.0XX.1 P 6.Y.eXD.P.~.4X).i.i.t.' ^.;X<.i.^.gXsX,X/.sX!.^.2X[.<XdX4X:X! 0.T.A L.!.p.D.y.D.p.5.i.2X(.>.p.X.` D.d % 0.eX!.}.2X[.[.5X`.~.8.[.tX5X8X6XyXAXAXkXxX6XAXAX/.D.e.7.7.9.,.5.%.D.V.X.x.W.V.z.H.H.J.",
"p.0.NXkXAXNX$XQ.5.2.,X!.5.p.u.5.9.9.S.F.x.G.9.C.;.} F -.@.+X7.~ F Q.aXzX{.u.D.5X{.y.y.r.w.i.^.L.!.p.s.1.' ^.2X!.!.3X{.!.8XMXp.Q 0.G Z >.2.' >.!.^.8.~.~.,.[.<X[.S.S.e.: 6 x.<XD.~.[././.^.i.0.tX!.T.0.gXFXzXAXdX^.T.1.u.p.1.y.y.,.y.7.V.D.5.3.9.9.x.;.F o.6.C.oX",
"gXkX}.y.8.8.*.K 8.<.K 0.>.A D.`.P.i.a.i.~.<XS.F.OXb.j.6.@.Y G.%.} 6X<X^ ..9XG.<.[.8X[.y.y.P.s.a.!.y.1.1.>.>.>.y.!.sXxX/.[.AXr.b ~.[.~.2.w.>.>.2.y.!.y.D.~.D.].!.p.2X' o p E.p.,XpXsX8X,X1X0.i.}.5.}.SXMXp.8.5.| G *.8.,.1.9.( >.~.D.8.D.p.r.P.L.9._.c.@.4.O.O.9.",
"xXDX' G *.2.u.>.Z.!.p.u.*.a.Y.,Xe.D.].a.$.t.i.:XF.6.l.r.r.C.{.Q | F < % + ^ zXNX;X%.p.^.!.i.~.:X^.i.8.w.p.p.i.8.8.y.i.pXdXu.%.&.T.gX3X1Xp.^.;X8.e./.!.y.y.1.y.-Xs.8.] 6 3 ).,.( /.zXgX1X0.`.E.E.V 8.SXaX` ' 1.i.u.>.i.p.T.,.2.S.[.L.y.D.p.&.e.e.L.@XV.V.8.9.O.@.",
"0.gXY.8.,.` 5.0.X.5./.D.[.!.1.D.8.s.,XD.t.y.V.j.O.X.G.9.V.8X:X` c B y u y 4 ( 2.d 8.;X;X2X^.^.:XeXeX^.1.D.^.;X<X8X:XP.u.u @ a a ` pX,XL.e.-X1X^.S.I.2X1.X.$.t.L.] b $.Q > ~ y.,.9.9X1Xe.`.6X@X'.) S 9XsXD.y.,.%.8.9.X.D.D.i.^.,.e.i.t.^.^.t.<.y.9.%.( 7.9.%.).#X",
"~.8.,.^.0.*.>.0.!.p.p./.!.9.p.p.y.D.Z.i.8.~.{.oXE.x.3.).G.1.3.| b `.X.| 6.F $ + ..L.P.~.P.{.].<.p.gX,XD.!.~.:X^.rXpXP.x > , @ # f ).2X/.^.^.-XL.S.a.e.%.2.P.r.1.Q ~ $.1.x F X.i.`.).' ' Y.iXtXQ.O.%.:X%.S.P.7...5.Z.!.p.p.!.p.8.y.8.t.L.D.r.<.A.V.z.-.o.V.F.7.V.",
"0.` ( 8.Y.9.9.' i.{.!./.2.9.^.9.D.y.8.y.7.).7X7X{.x.S.S.).t.` 3.4 A.).).A.4.D x V b D.[.p.L.,X8XL.{.NX8X^.8XpX<X:XP.A 4 4 < 1 2 1 B !.`.^.P.p.2.I.1.%.2.t.e.<.e.' $.p.$.4 o.,.].tX}.].<X).) { f a Y.u.' 7.L.P.u.9.X././.!.D.>.D.8.y.e.8.a.1.1.).{.OXC.7.r.D.D._ ",
"Q.!.2.q.u.<X).8.u.!.!.i.y.p.p.i.y.[.F.i.P.~.a.,.7.P.:X[.S.r.7./ o x 9X{.~ H 5.3.8 < a c 1.~.,.t.].aXF.b G r.V.[.4X%.u X @ - 1 X   3 V 1X).^.^.%.) ..Z d d 4 4 x ~ $.~ 3 < | e.B B x a Z Z w $   u @X{.S.y.i.D.<Xi.a.y.!.p.y.8.y.e.w.y.].8.1.].L.e.1.V.~.P.D.r.1.",
"0XjX[.y.p.!.u.0.D.`.;Xi.p.^.D.p.^.eX].P.[.P.,.^ y.[.~.8XF.D.@Xw.O   < + # @ 3 $ # $ & & & < 6 p S z , + + . + @ o = 1 d ^ @.%.O.Z A Z V v ) $.1.8.7.) 7 +         # 6 i o.| d - : X & X + & $   x 4XjXeXS.a.D.u.y.i.~.[.!.y.i.2.t.i.,X;XD.P.P.1.~ ..P.{.{.~.r.8.",
"E.D.:X7.u.^.#XE.[./.2X8X,X0.5.~.~.^.P.u.u.D.%.U 8.~.7.~.i.1.eXw.; b e ; t X.$.K V x 3 5 = 1 6 r % # - * o   O s w.&.] P.G.G.J.P.}.#X:X~.~.S.4X9X<X2XpXfXn.k.j.6.-.c.6XOX5X8XyXZ.b s g C C h ;   G hXD.).P.2.t.:X1X^.!.!.;X,X1.X.e.P.^.^.y.y.y.,.~ X.D.e.r.~.1.e.",
"tXA.E.V.v.A.Z.}.V.~.8X1XeX[.D.D.r.P.p.,X^.i.L.L.e.2.8.S.[.[.9X<.Z 7Xy.D.L.<X:X<X[.5.8.X.%.b r h j g / Q r o J qX-XO.%.&.&.%.] ^ ,.1.Y.{.~.u.e.x.l.i.i.S.bXiX%X%XCXC.S.1.o.V.0.[.4Xx.E.E.pXy.d O V 9X9XA.).9.S.T.~.!.u.^.,X/.<XD.e.7.D.i.P./.u.e.y.r.8.e.7.i.D.i.",
"xXpXV.~.E.z.j.@X@XZ.[.[.`.^.~.!.a.a.%.[.^.r.D.].:Xe.X.P.[.1Xy.g Q e.~.i.>.i.!.w.1.F.x.A.i.' h r h g j g ^ 1 g.uX..$.S.7./ 7.@.^ G ,.9.E.$.' 1.2.w...` ` >.fXjXpXaXl.X.) ,.G.>.y.>.Z i.!.a.`.Q.8 u 4XMX`.Z.~.Z.x.Z.<X!.p./.[./.!.!.t.e.$.a.;X9.S.L.F.F.&.u.[.[.).",
"G X.L.e.A.+XqX4XV.V.D.{.tXpX[.S.S.D.u.i.L.>XrX).L.7.e.).~.X.5 - $.D.~.~.i.a.i.u.$.,.7.~.w.e.,...X.Q n ~ X.v h.{.&.X.t.S.7.P.%._ X.9.V.6.` V.a.0.~.~.9.,.$.[.lX1X[.tX6.*.1.u.>.0.*.` 3.>.` >.*.R G | X.7.r.$.G.#X7XD.8.e.D.`.1X:Xp.y.y.1.i.p.D.1X1XL.t.,.F._.r.f ",
"> 0 ` ) [.VXfX@X4.,.~.H !.NX].y.7.].1X~.[.8Xu.9.S.Z.5.,X8XD.s r e.D.7.y.d.L.~.y.e.e.,.) X.D.V.,.t.7.X.$.3.Y %XP.) %.%.w.L.,.1.&.` u.$.i.a.u.8.y.,.y.i.1./.p.u.4X8XhXyX6.~.Y.*.*.8.>.*.L G ' A.x.n a 4 F $.~ 8XgXpXV.,.e.,.) sX1XD.1.y.,X!.p.7X2Xr.i.i.%.F.8X].n ",
"< % > 4 ,.AX9X'.,.6.Y.~.<XD.i.A 8.L.<X{.9.6.V.9.l.7.$.~.7Xy.2.` y.8.,.7.e.P.-XD.P.P.e.$.&.:XF.i.t.X...O.l.} dXp.%.,.r.P.-XV.7X>Xu.).,.,.~.e.X.,.8.e.V.>.!.[.`.}.).`.^.Z.Z.u.` 1.1.5.Z.p.5.u.].{.7 > > 4 4 a ;XlX~.Z. .y.3.i.S.!.>./ p.~.:XD.i.7.3.3.9.$.r.<X:X~ ",
"V 3 ; % a D.y.2.Q.yX<X8XD.>.M 3.u.| E.).e.~.).Y.9.,.V.7.9XD.y.,.o.i.y.,.7.a.L.i.e.r.u.a.S.1X^.S.r.5.%.7.V.H { ! %.3.G.t.&.V.&._ 5.E.i.~ ~.].i.y.1.2.>.>.X.<X!.A 1.<.*.i.A.0.e.!.u.1.T.Y.9.!.,.X.S < ; > > 4 ~ L.<.0._.F.]./.i.,.A 8.>.,.E.8.i.D.G.G.8.9.7.S.8X7.",
") b s e - a x.E.pX4X[.8...H 3.,.9.E.x.Z.:Xi.) B 3.J.Z.E.F.n _ d X.y.<.r.^.L.7.L.t.e.S.P.a.e.].[.^.~.G.3.l.J P n O.l.J.S.[ _ O.` 3.l.%...3.!.D.Y.i.i.Z.0.3.~.T.2.&.' 0.!.5.| 9.5.9.9.^.}.~.D.X.V.V Z i e 3 % v @.i.@X~.i.i.>.X.G X.,.Y.Z.0.T.s.e.F X.G.P.I.P.r.F ",
"d ) X.d 1 ; v O.7X:Xe.r.S.Z.`.}.8X9XoX*.( 4 + = -.9.H.%XQ.X.C 3 x D.2.i.L.e.1.S.S.F.V.].^.e.P.<X[.7.9.9.l.x Y _.V.P.L.%.^ O.7.@.Z j.H.u.D.1.p.D.D.^.6X'.q.q.^.y.( *.G 0.7.{ 6.*.3.Y.2X[.*.X.D.K = u ~ Z h 2 $ 9 H V.,XS.8.8.u.u.[.<X1X_.3.' Z % + V V.9.W.$XX.^ ",
"1 ,.3.o.G ~ ; < o.pX[.~.i.X.) q._.`.Z.e.a 6 3 B E..XK.D.A.&.B $ r [.E._.~.V.7.-.@.-.~ $...c.#XJ.C.V.%.C.3.1 +.+...t.` ! ^ O.b u +.H.G.%.i.u.D.1.B ) ~.!.2.).Y.B p.*.K =.9.9.5.).Z.u.T.>.$.9.O.q . 8 7.*.%.n e - 3 c [.<X!.Y.u.| ,.~.`.).[.K 4 < c l.K.Q.J.Q.V./ ",
"  a V  .{ H Z ; ; c K z 6 > w + X + % 9 7 s ..K -.3.d 4 $ > $   $ a D H S z 4 1 4 a 8 % + < 4 S 3.P z r % . 0 , @ $ $ 1 s 7 1 1 z a 6 6 7 x 4 0 f 4 q D D 0 w 4 Z 3.E.0.H B ( X.G B D B f 6 +     8 o.~ ,...n Z 5 % M T D a 4 > > w $ 4 v t t c -.H 3.| a 7 4 $ ",
"~.}.[.5XtX}.[.T.L p t - ; = - 0.9.| S.1X7X8XpXBX9XC f - ; y t *   O X : ; : ; * * = # 7 W v.T.Q.T.q.}.[.i.}.tXsXgX~.` ' L M s o         3 9.2.B f ` ( u * O + - e t i ) x.).`.2X2XgXAX5X'.<X<X,.% G =.D x.T.T.K r * ; - t h t r y r 5 * e Q !.MXSX5XA = 2 - - - ",
"}.xX`.y.2.<.=.T.yX@X' - = t D Y.0.`.eX,Xp.8.y.pXnX4X0.T g j j e O e Q f.C ( =.8.' ' T T.%XDXHXnXuXFXHXSXJXKXHXKXKXgXu.2.>.q.#Xp   o - M E.AXAX2X[.pX,XaX_ : - B ,.=.=.T.#X'.E.!.Y.8.gXDXhX9XBXbXG V.,.` 0.tXtXQ.E._ h [ u.i.X.,.) K 4.A.}.tXfXAX~.pXkX}.A f.( f.",
"`.2.p.Z.>.=.5.y.~.2.f 3 d s T.s.0.D.i.!.,.1.i.!.^.D.'.Z.4.0.{ u o >.tXe.2.y.' ~.i.=.$X%XDX2X2.^.MX`.Y.pXaX0.| q.xXGXtX( D 5.Q.:.$ S U x.tX(.i.y.' C 0.}.>.u M T.T.A.T.*.' u.A.Z.0.5.).<XOXT.'.W. .( 5.{.}.>.aXgX5.9.t.8.X.X.) ) ( :.k.`.Y.Z.D.^.T.^.^.Y.5.q.T.9.",
"I.=.1.q.y.2.a.s.!.p.B b =.| 0.>.w.8.p.i.$.2.y.w._ ' [.pXp.x.G.Q o p.,X5.i.Y.| | L '.jXgXu.1.i.Z.0.L.2X}./.].Z.=.T.aXgX!.L *.T.g.K z.W.~.2.i.Y._ / t.s.2.$.) 8 5.5XY.).,.| L 0.5XZ.Y.}.yXhXQ.@X}.{ =.E.D.' _ 3X}.) ,.,.8.1.2.X.X.0.0.)./.9.[.gX{./.,X1.5.0./.L.D ",
"p.L.~.e.p.1.y.s.8.<._ B *.5.>.K B ' 1.w.` Q Z C >.y.u.pXGXxXOXi O *.=.>.q.D.=.:..XfX~.~.p.p.!.^.0.0.s.,.q.D.#X}.0.K 8.MXC.6.n.x.=.@X<X^.Y.8.] 2.a.!.a.>.1.` M G [.5XE.v.x.v.{ `.}.T.'.q.Y.yXhXkX) 0.,.Q >.8.) *.u.,.H ( e.F.r.t.!./.{.[.a.!.i.) 8.1.<.5.~.AX,X) ",
">.T.D.T.!.' >.=.=.2.' f *.y.u.^.!.9.3.8.1.] ( ` !.S.>.^.AXgXr.s X D W *.W =.=.Q.=XyX7X8.y.=.!.!.p.2.y.u.w.q.Y.!.2.q.T.ZXDXdX@XE.}.dX8.p.[.D.>.i.!.i.a.a./.2.f =.) i.<.0.!.).3.Z.dX}.'.4.-.5XxXe.4 5.S.2.!.1.1.i.S.a.8.D.P.^.i.a.~.!.3.` ( f 9 9.T.Y.` ' 0.!.5.~.",
"2.T.!.p.2.1.y.( ' ' / v T.i.>.2.t.p.X.H ( ' ` ` 5.y.1.X.~ ..a.n $ W 5.=.=.=.g.%XnXtXp.~.p.2.p.p.8.p.8.>.' Z.8.i.~.q.q.T.bXZXS.x ` tXi.>.8.i.D.}.Y.<.p.dX<Xb B 0.1.G *.0.}.@XC.*.}.nXyXE.T.U B s B G 8.D.y.D.~.!.P.1.1.L.L.1XeXP.u.i.0.5.Z.Z.` *.i.a.p.*.( A *.}.",
"2.p.L.5.' 2.' T ( ' 2.M T.2.$.$.1.p.( ( X.A ~ 7.,.y.y.p.$.%.6.! r :.W M W XX&XMXsXY.!.D.y.`.!.}.8.L e.Z.,.`.~.5.>.1.u.%XBXZX8.X a pXp.Z.~.7.[.4X0.p.}.i.1.g q ,./.v.=.E.4X#Xv.Q.3.D.0.'.x.6.v.n.V V c ~.i.8.^.^.e.1.` ,.,.u.8XE.T.`.9.0.u.v.V.0.,.9.1.u.u.[.[.T.",
"q.[.[.L.2.1.L 2.' 5.>.M !.2.8.u.y.8.8.p.y.' K X.^.P.L.$.' ).b.u f :.M q.'.$X%XkX[.i.i.}.y.~.i.D.i.L i.^.8.8.p.q.V.V.9.@X9X@X,.1 V L.,XY.<XZ.,.1.p.s.^.9.>.r D 5.7X7X'.}.gXyX@Xu.Y.A.q.v.A.`.uX6.p | M 0.lX^.L.&.8.a.7.8.r.i.P.J.F.~.V.4XA.X.6.E.T.`.^.`.,XpXtX' ",
"`.p.}.}.2.>.2.p.a.a.y.Z 2.!.i.i.[.!.,X<Xi.' K G ) ,.X.e.r.x.m.7 A %XMXfX|.Q.T.fX5.Y.i.Y.p.~.`./.8.1.=.y.>.1.e.>.u.{.x.8X[._.x 4 V =.~.[.,XD.8.D.[.`.~.^./   D 0.K 1.i.Y.1XdX[.`.4XQ.l.X.l.4X6Xd r o...V.:X;Xe./ ` %.~.P.P.:X:XD.7.9.V.Z.u.A.3.0.Y.~.{.u.!.pX3X>.",
"}.>.p.!.2.2.i.e.9.,X>.d B ` >.8.,X!.^.!.,.&.e.p.I.D.r.7.P.Q 4.x jXZXFX=X*XfXfX`.K ,.}.D.,.5.i.7X~.Z.u.}././.p.5.%.G.S.D.4XF 8 4 $ , 0 f p $ 3 p 7 4 ) *XT L 4.5.M 7 X O + B *.=.1.| Z p ) ) 5   x 5.) Z.1X9.<.1.e.t.p.a.e.I.^.1.S.P.Z.V.).[.!.D.}.5X<Xi.p.tX/.>.",
"L.$.` 2.>.2.e.y.' !.( S S f K !.^.*.` ] ~ 2.L.!.D.D.` X.e.%.%.H uXnXnX@XT.5.0.u.5.!./.e.5.Z.q.Q.Z.8.!.sXeX}.Z.~.P.V.%.L.`.8 d u   o $ X o o   O O 7 <XDXnX#XfXnX5XD.Y.Y.@XdXY.Z.jXxXY.}.'.W.| o x x.} y.aXe.e.r.r.D.i.r.X.w.F.S.9.u.,XhX8X[.Y.4X}.{.{.!.}.,X`.s.",
"=.u.L.1.>.2.!.!.a.1.8.V v u.1.y.i.1.,.,.$.,.1.&.` ` ~ 7.e.e.r.F A.DXdX5.2.,.| ' =.L.!.) e.T.Z.q.q.i.0.!.u.p.}.1X;X:X7X[.D.^ s r . - k k k y e g ' 5.p.JXAX2X}.pXpXdXxXMX{.2.s.[.aXgX9.!.'.A.n.T V j.n.<XsX1.0.[.0XV.%.$._ ~ r.1.$.D.).pX1X~.`.,XD.,X2XT.[.dX<X^.",
"<.y.L.2.>.1.p.2.*.1.!.Z D i._ ( p.!.D.t.' X.V Z ' e.i.8.X.J.9.u XXDX{.L M 8.3.5.Y.L./.1.=.Y.!.8.' !.q.0.}.!.T./.P.1X[.V.;.7.x u o H h 2 6 s $.Y.Z.0.5XHX<Xu.5.>.2./.dX<Xi.' ' 5.>.^.jX#XA.<XfXx.L g.0XhX2XZ.~.D.W.J.7.7.%.$.e.r.u.V.D.u.X.` D.[.D.!.[.}.i.[.dX*.",
"!.1.>.2.1.2.(.p.y.>.y.d o.y.' X.,.( ` <.$.' $.1.L.8.r.,.F ).1.< XXzX}.*.5.u.*.| Y.,X}.i.p.!.i./.i.~.u.u.}.2XD.}.P.G.D.OXwXO.m d % Z.q.D u.D.u.T.9.pXSXxX~.i.>.>.>.8.y.8.>.$.' 2.2.2.y.[.[.^.8X;X-.+XyX~.a | <X5.V.Z.[.r.9.7.r.r.D.D.%.$.>.*.*.` 5.!.<XdXp.1XAXu.",
"2.!.y.2.s.!.i.p.!.>.>.K j.A.| 5.i.1.' $.,.2.i.D.e.2.S.9.7.OXl.8 *XZ.tXq.u.K !.8.*.Z.>.V.[.8X~.L.!.L./.u.w.}.}.2XP.7X:XdX[.i ^ a 6 *.4.E.T.Z.u.dXpX/.<XpX!.2.9.2.p.y.' _ 2.y.1.' p.p.2.8.e.7.^.p.A | 6 # $ % o.kXgX8...r.D.^.r.~.[.V.S.$.1.D.u.u.u.Z.!.`.jX`.K y.",
"f ' !.i.8.L.i.p.i.1.e.) T 6.5.~ 7.1.X.$.t.e.a.D.V.( Z G -.9.z < R.=.{.~.i.6.].>.X.p.D.u.9.y.2X0.7.r.S.P.X.L.eX:X[.4XaX@X4.i h.} *.,.Z.5X5X5X{.[.3X*.` y.8.Q *.>.y.p.2.1.$.i.a.e.8Xa.7.y.X.1.A.f 6 ) d y i 5 8 F ^ d S.:XP.-XL.L.P.4X8Xa.7.F.).y.D.:X).Y.*.< & 0 ",
"7 4 ' i.e.S.p.y.e.V.,.5 a -.Z 4 > 9 H X.G Z ` >.X.G { V 9 4 . # &XR.Y.'.E.~.8.) 5.,.,.0.5...y.y.r.].).~.F.i.[.8XS.D.dXoXl.m #.n T.'.zXNX`.9.>.>.X.,.8.y.>.X.>.>.>.!.$.>.2.i.^./.[.t.<.t.8.y.%.5 8 @X).| ,.o.8 + $ O.G.D.P.l.P.D.&.r.dX^.P.i.P.P.S.4X}.i.r 3 % 3 ",
"X $ $ p $.X.Z.S.D.$.X   X @ . @ % < > > & $ @ > # 9 U % .     # b.'.{.qXT.T.T.8.X.u.~.D.9.F.8.X.S.4X:X;X`.P.[.8XNX8X{.}.l.h.z 1 q.@XtXD...X.,.,.7.X.1.i.e.>.1.1.2.p.>.1.1.L.i.S.;Xw.u.<.$.0.Z r $ H 7X@X@Xl.D n d i ^ P.P.S.u.;X{.t.7XhX{.D.^.8X8XpXZ.Z 6 < - k ",
"D D f p ) | X.| D H Z V  .{ D q 1 u 4 @   . u.4X4X4Xx.-.o.H 7 7 9.,.9XkX5.0.<X!.y.D.4X}.4X!.8.,.O.V.<XP.u.5X4X).sXD.{ H 3.V.1 c N W.8.1.7.3.5.q.7.i.X.` 2.y.1.2.a.L.<.p.!.y.`./.S.&.$.' e.i.C u o & x.pX,.b G -.m $ < u z 1.e...7.{.9X3.7 S { %.V.C.F $ o 5 t 6 ",
"%X'.K.0X`.0X{.K.n.vXZXFXCXmXuX%X%XA.9.X.M R SXgX:X/.Z.K.9XwXJ.:.6.*.pXdXT.[.8.!.~.<X2X[.~.Y./.`.;X:X<X:X1XdX8X7.a 6 4 0 c { l x  .A.8.1.*.0.F.D.y.i...7.,.>.$.2.!.i.i.^.[.~.y.i.[.u.u.e.F.7.b t # > + X O @ 1 > @ % @ @ @ + > 1 9 x 1 X X .   . O o e n 3.x.T. X",
"Q.=.6. .S | -.z.H.z.n.H.;.{ | @X#X.Xn.+.U x.{.X.Z ` e.D.1.e.F.G T N D T.tX~.9.y.8.!.Y.!.i.~.5X^.J.P.J.dXlX].x l u 8 9 9 1 8 < x 6XD.9.o.~ 9.9.1.y.1.>.,.8.9.D.1.p.i.2.u.^.D.u.y.e.%.s L.i.O.u ; d _.` t g / E.G.4.^ g t y y y y y - t j y o O = $.:X$.X.Y.3.3.5.",
"D  .4.L } @.l.+.n.4.I :.-.Y @.@.Q.%Xn.p v v.{.9.7.7.i.8.$.F.'.^ N T N 0 T.8.!.8.8.u././.5.,.^.Y.8.V.r.V.O.m 4 7 4 < 8 f { ^ d { @X1._ ,.:.5.*.5.9.,.1.1.p.p.t.,.9.!.^.1.`.<X!.^.~ s G V.G.x 1 ; x [.S.e.a.e.J.V.J.8.7.X.O.%.j y j h h b F y # #.iXx.{ %.` ` 3.o.",
"-.| { v.V.} l.} } T  .;.g.g.z.j.c.H.l.U < H _.A.u.i.1.1.8.F._.H -.Z.5.L <XY.!.1X^.5.Y.5.{ 5.5.`.4Xr.n w < 1 u y 5 d ^ %.r.{ { } x.i.) ) J.V.*.-.7.X.5.p.y.9.2.8.2.`.!./.<XD.i.0.s 7.9.J.9.1 h k Z r.$.e.$.] e.&.$.8.V.9.V.w.` n h h t y n d < h.%XO...V.7.^ o.3.",
"} P +.OXK.x.V.l.4.{ | 4.:.j.c.b.l.+XiXU   4 T.F.S.8.t.e.D.E.u.F A.T.x.6.E.).].y.p.>.3.p.5.`.T.}.L.z 6 6 1 t O.F F O.7.l.w.^ O.n A.pX..,.1.D.6.-.*.-.u.~.r.w.7.,.>.u.a.~.1X4X<XZ Z 2.y.x.9.j h b ..r.1.7.1.<.2.e.%._ 7.,.1.&.1.7.%...n ~ @.m m M.P.Q ) ,.8.e.-.^ ",
"|.K.k. .-.b.;.v.c.9.{ +.n.z.H.l.6.-. Xc & D 4Xy.e.i.e.$.( H 9.) 1Xv.E.Q.V.[.8X-.| ,.[.1Xu.{.BXtXh 1 e u b { G.l.4.8.e.S.1.^ n 1 @.zX,.,.1.o.} ) ,.5.,.u.e.$.<.e.1.1.5.i.D.i.) ) 9.2.,.0.w.<.) l.3.r.X.` ,.<.7.e.1.7.e.^ ~ %.l.e.$.7.{ X.%.@.I vX~.{ %...4.L._ 1.",
"b.4.o.j.| x.#Xz.x.V.b.b.W.b.;.I P U U 8 + ) Y.8.7.$.' 7.o.@.x.c 9X[.E.%.d u 4 L @Xv.}.tX`.<XhX>.1 z m ^ ^ %.x.l.V.7.` &.%.4.O.b H 6X/.7.1.9.j.,.%.$.5.u.,.7.$.` >.2.A V b V H 5.i.` ' ( g $.qX.X@.F.X.$.X.$.<.S.7.t.r.&._ e.G.i.r.X.{ ^ 4.@.O.iXV.3.O.6.G.S.1.G.",
"k.c.r.r.4.} j.C.;.{ {  .4.l.g.j.6.;.) 3 X ) {.,.r.,.H @.9.E.k.a 8.MXdX4X$.f j d }.tX}.}.`.).p 5 5 d ^ h.@.[ l.7.] O.d r %.l.H Q { @X:XV.4.0.,.e.8.$.V.G.1.$.` ( >.B f | ,.y.9.,.[ ' ' C n } ).G.P G.<.7.,.e.<.7.1.&.O.7.$.e.S.L.w.&.%.O.9.O.m I s O.@.j.$.` %.^ ",
"6.9...F { R P u U k.#.-.V.@.j.j.=.6.) 4 0 N u.8.D.3.;.6.5.@.z.4 % 9.pX).9.x.| D 0.`.9.8.u.!.t e e b { 4.r.r..XJ.D._ O.j.o.3.z @.4.3.8.hXXXj.,.$.<.X.X.| ( ' ,.,.D Z X.>.8.V./ Z ` ,.8.a.G.H.X.` F 3.,.$.e.i.1.X.1.e.7.e.e.[ &.S.J.S.S.1.%.g.v I $.O.b.l.V.) { O.",
"x 1 , I R R P P R h.R.j.g.b.c.n.=.A S p q =.5.0.).).'.@.| N.Y $ $ 4 0 d 6.Q.W.A.M *.~.~.8X5.C b ` 7.O.G.G.l.^ m r.O.@.l.k.3.+.k. .G % x.nX.X9.C.l.$.-.) ^ $.*.) K *.) ( ,.y.b s ` $.$.&.J.x.1.a.1 x 8.<.P.w.( &.l.l.7.7.G.w.l.J.'.y.$.7.3.#.8 } J.4.J.D.~ n O.^ ",
"v l m I N 4 9 Y R b.r. .v.4.n.h.V L x 8 l M B 4.{.F.'.K.x.9 # %   % 4 8 =.'.4X~.i.V K G 9 > u 5.c.l.x.k.c $ . @ . 4 ` ..M b 6.d 6 c 8 4  .4.Q.uX{.'.9.` O.| x f C B ) X.).' ' ,.7.Z.e.7.3.X.e...  ; c.H.).G.3.) } ^ ^ C b n c.K.V.l.{ ^ m.n X h.m x n n x P F z ",
"@ D -.z = +   , 4 c V c 6 3 4 < 3 3 7 v :.T v x x F ~ | Z - # O   : * - # % 3 a B p @ X % % = V ..O.V.n 1 l m { ^ n ^ n V S =     @ , # + @ 4 F X.X.H Z 3.| H F G ) G M H B G Z a n Z 6 1 y y   . y F 4.X.F x i 6 6 7 1 = z 4 1 1 m ^ ~ i = % l l 6 = $ < 6 < = ",
"{ 6.1XjXyXyXuXtXtXyXY.*.=.' g O L u.T.J.J.J.7XG.J.<XG.@.G.l.n ; b y.C i h h [.jX,Xi.D.2.[ -XL.L.7XgXaX9X#X_.nXCXCXSXSXAXbX5.V -   ; n $.&.%.V.P.).P.;XP.i.].xXdX[.{.P.D.0.3.~ Z  .1.y - ; ; ..u D nXHXhXuXfXuX%XvX+X@.@.M.M.K.J.H.bXBX.X4XJ.wXbXJ.0XqX%X.XC.d O ",
"6XE.0.| 9./.<XyX5X8.).`.^.Y.>.M x.T.Q.;.^ %.,.@.{ ) C.K.H.H.&XF x.`.x.W.-.X.0.7.0.i.].[.D.7X8X1.2.;X8X^.i.eXrX[.:XNXKXJX<X9.}.x o O.G.8.e.e.%.X.r.V.3.7.%.7.L.7...%.,.@XdXNX<Xj.#X1X8.V.7.x.).9.z.yXgXW.|.j.M.z..XB.M.B.B.mXmXmX%XqXqXh.bXBX9XHXOX@.x.J.J.J.} F ",
"9X8XF.D.0.' *.>.i.u.x.,.`.tX3.L  .O.OX6.j.%.7.l.{ @.3.b.l.V.e.x {.wXW.u.) { 3.S.1.,.e.i.2.<.p.$.<.<.$.<.<.;X{.8.&.] ;XAX^.' 8XA 7 | %.S.) ( n X.%.7.) Q $.&.e.r.1.1.X.$.2.e.].)./.u.*.V.].:X^.7.v.).9.9.;.} k.@.h.k.mXCXbXl.H.wXfXwX Xj.K.J.0XrXb.B.} 8 -.J.@.C.",
"D.4X~.u.5.,.p.' >.!.2.8.y.^.B a O.V.E.-.4.-.%.8.%.%.$.r.J.G.O.z A.wXi.,.X. .X.Z.S.2.,.e.p.1.,.e.r.e.y.S.$.r.).e.1.<.1.P.;Xr Q h F  .j.S.^ Q Q ` Q e.e.X.a...w.D.7.$.1.<.>.<.7.<.8.!.6.V.y.D.[.,...u.v.l.@.h.m.N.b.K.uXqXXXh.M.B.0X0XC.h.#.} } K.%XXX+X} 1 %.x.7.",
"0.!.<XT.9.2.i.>.y.u.D./.,X[.Z < 5.`.6.o.%.@.X.X.7.S.4.9.7.l.l.m e.y.S.l.@.V.%.1.S.i.r.7.0.2.>.8.i.e.i.L.e.-XP.r.>.1.$.u.1Xr e p V '.@X8.$.X.$.$.X.X.7.e.y.i.e.7.$.$.$.e.L.i.e.r.*.1.T.~.5.e.e.b o.).6.j.g.m.B.M.uX X$X%XXXB.m.%XuXK.B.K.m.;.{ K.&XP @.%XH.v n x ",
"5.u.!.Y.8.*.' G ) !.L.1.` 8.s < l.9.X.4.,.$.7.{ ,.V.c.e.%.@.@.z F.S.1.3.6.D.1.2.i.5XY.r.,.8.V.1.t.1.8.r.e.P.:XD.,.7.e.<X~.y t s z x.~.H ) $.$.7.y.i.L.t.X.e.e.e.<.7.w.1.L.;X1.7.1.>.C.E.q.9.Z c l.@XV.N.N.N.H.XXz.H.K.XXh.N.N.+XK.M.l.oXk.O.O.@.b.@.#.k.+X+X7   ",
"tX!.K A | 5.8.0.,.p.[.~ V A y 3 W.6.o.4.V.%.r.9.%.@.c.G.l.J.~ @ P.9.*.o.C.t.8.e.y.`.r.r.r.1.i.<.8.r.S.i.$.t.[.i.e.y.u.).1.y ( 7 L E.$.Z ^ ..~ ^ w.i.7.i.a...X.8.%.X.%.$.$.~ ^ ` %.~ 7.V.E.OX'...G #X X%X&XvXnXm.m.B.j.k.N.N.M.K.+X@.@.j.;.O.4.O.k.J.h.h.h.m.@.. ",
"5.M V G ) *.>.*...' f 3 ..8 $ $ D G *.x.3.S ^ r.,.4.G.l.O.J 4 X 5.~.3.4.V.8.t.a.~.7.7.8.2.e.<.$.r.t.a.7.F.i.<.$.y.L.D.L.1.Z 3.< v.4X2.>.$.7.X.n ~ ) %.$...^ X.e.%.X.<.%.^ Z Z X.,.<.8.<.,.x.D.D.9 @X6XbXhX9XnXbXm.#X|.h.k.%XwX=XuXO.` c.l.~ O.^ 4.@.k.h.I I  X{ ",
"$ $ 8 M A v 3 3 3 3 q K 8 X   4 m S J v 8 8 a { O.7.x < o     O F.E.u.E.%.e.r.L.1.8.e.r.,.a.y.' $.e.p.e.L.;XL.[ <.&.w.r.^.1.6.M }.Y.1.>.>.7.i.y.&.^ ) ~ ) X.S.].t.8.] %.7.$.7.e.y.e.y.i.V.Z.[.' 9 } OXZX}.tXNX}.*XoXn.U.K.vXnXbXG.O.P _ 7.P { h.#.F +.h.#.R N.B.",
": 5 =.~.v.=.f L 4.:.Q.kX{.J._.oX$XqX'.J._._._.uXBXGX0X@.F r o   F.4XdXA.X.u.r.7.$.1.&.$.<.7.e.$.2.e.e.e.e.D.r.8.2.1.%.7.}.].Z.v E.S.' ' C 8.~.y.%.e.` ` e.&.e.D.u.1.X.' %.P.].D.i.` ` y.0.F.9XV 9 R h.dXZXhX'.%XXXz.k.XX=XmX%XK.G.O.{ { ^ j.k.} } @.+.#.h.N.B.&X",
"q.5.^.aXT.}.}.Y.0.E.uXZXSXCXbX{.OXMXBXBXbX9XVXVXBXGXKXMXl.6.C.i V.jXV.F F.D.8.r.$.1.2.$.' <.2.i.8.u.e.D.P.S.7.e.e.r.+XJ.<XDXy.x Q.nXy.8.o.` e.i.` w.3.&.&.&.r.7.r.X.$.` ~ 1.r.1.y.1.' C g p 4   q h.&XvXkXfXv.v.H.4.z.XXXXBXK.Y l.@.@.4.O.@.@.} #.} +.N.M.h.+XB.",
"`.T.!.tX}.).T.v.zXDXnXnX|.V.9.X.%.3.7.S.S._.4X@.@.b.oXJ._._.#Xu 6.'.P 6.D.7.7.` X.i.7.&.X.1.,.1.<.a.e.D.i.r.2.i.S.p.S.{ D.<Xg g f Y.}.E.V.Z.9.u.P.u.S.r.%.%.%.l.3.C ~ 7.P.i.i.%.$.>.>.( - 6 &   m h.vX#X6X%X$X.X:.:.m.U.uXV.R #.k.k.@.l.h.G.j.+.h.#.m.M.m.k.K.B.",
"`.<X`.@XQ.#XfXDXhXbXHX8X,.>.3.6.%.) O.O.V.J.{ { j.j.h.m.J.6X%.: ,.6.;.6X4Xl.3.%.%.r.r.X.$.1.,.' 9.a.X.<.e.y.i.u.S.t._ ..F.~.C 6     > 1 4 u p c n v ^ 6XOXE.7.H.@.Z ) | X._.C.o.*.' 0.g f 3     v k.|.g.K.$XnX#XXX%XuX`.V.P h.z.j.j.b.P O.l.l.@.@.h.J..XM.+.k.B.",
",.Y.dXuXJXFXfXhX}.AXSXD.1.,.) X.3.-.7.X.X.4.O.O.g.@.Y 4.c.oXn u @.J.OXnX9X1.7.7.r.7.,.r.i.S.1.8.F.y.9.8.&.V.D.V.y.$.1.0.i.eX! * 9 <   X # # o % > 1 > i D +.v 7 # # < = $ 1 = < + $ p K L f r ; v Y B.|.g.n.yXR.6X]._.H.+.k.+.h.F h.k.@.j.h.h.M.h.O.#.#.b.M.B.XX",
"`.zXDXtXpX`.i.3.K *.Y.>.*.1.,.,.,.o.F.9.4.l.-.j.+.J P +.} H.l.{ %.0XVXMXJ.P.L.e.{ $.X.P.<X].3.i.D.1.F.9.` X.E.Y.F.<.r.,.D.aX( o c %XK.z.#.k.;. XXX|.+.6 X O     O o O   h e.4XdX1X1XkXDXE.C.6X=.N I #.%XuXv.OXoXj.6.z.H.H.j.@.@.O.h.P O.O.@.b.M.B.h.Y #.B.B.K.wX",
"HXtXX.G K ) D | u.X.K o.A ( V.V.7.7.7.%.e.P.3.J.W.g.;.#.P I g.{ ,.J.{ ~ 7 b w.&.u.P.P.u.8.D.V.O.2.e.7...o.o.r.).X.$.S.7.<XpXg o J CXqXmXuXwXiX%X%XK.M.N.I m J P Y { 6 X Y.Y.4X8X4XpXxX4X}.9XkXA.N J > v E.vX$X6.J Y U o.K.b.#.} Y O.P F } } H } } #.h.h.B.B.0X+X",
"MX).Z ~ { 7.7.X.u.8.e.@.$.6.l.S.X.V.P.X.` ` l.J.6.O.O.o.3.C.oX~ s 3 # # ; = p X.[.8X:X7.~ 8.).e.Z.A.i.' %.l.2.e.$.%.7.S.&.S.C * J j.+.l.c.G.K.^ j..XqX+X+XK.J.wXvX&Xh.J '.9.5.X.~ X.{.8.!.jXnX`.u < > $ & I OXoX#.@.h.P h.C.#.I Y h.h.h.#.} z 0 P R H.H.k.6XdXOX",
"`.F.7.o.{ G X.-.H 8.8.e.P.X.$.7.&.a.D.8.$.%.@.} n O.V.O.3.oXJ.f c ~ j d f y - < X.:X&.7.$.%.S.P.1.*.`.7.8.V.$.2.r.&.%.V.P.S.C r N.h.h.#.} k.} m O.h.l.V.%.Z O.3.e.E.h.M.E.7.5.9.,.| ,.1.0.`.<XT.< . @ > , , 0 j.wX@.B..XJ.j.#.+.h.k.O.h.h.{ v } h.m.b.M.K.+XMXJ.",
"J.~ 7.7.| H ^ 3.x.e.8.r.2.7.9.7.7.V.8.7.X.j.x.b.k.+.3.C.r.) 4.c 3 E.4.3.6.G G d u ^ V.r.%.%.S.u.X.>.D.0.{.'.D.,.&.1.V.6XMX^ b 6 } P R h.O.n { j.O.;.j.^ F ` r.O.^ l.6X`.A.F.8.$.,.,.X.>.8.).3.9.u N % @ , , , l wX.XK.H.c.k.+.+.G.h.h.h.k.m R R M.+Xm.B.#XW.P.V.",
"X.) ) 3.7.3.O.) u.i.u.8.G 7.8.1.7.7.&.X...G.P.F.K.9.%.7.l.X.` G   -.@XA.,.3.G.C.F < x ^ V.P.~.%.X.i.8.$.S.A.V.^.G.:X9XJ.O.x x @ m P Y n n m l.c.@.} k.k.h.c.J.G.k.3.W.^ 7.8.7.8.7.e.0.5.u.}.dXtXa R J 1 > , < , , a P b.K._.z.b.K.h.h.B.m 0 #.#.b.B.h.@.W.@.c 9 ",
"oXV.8.,.r.).9.1.5.u.i.,.e.8.%.7.S.`.r.,.G.l.X.Q o.J.F.P.9.4.7.C   % Q.C.| v.x.V 9 1 1 7 v 8.:X7.X.5.t.A.J.X.H 3.e.+X3.a % % O X l.+.P P h.4.@.l.3.O.k.m.4.j.4.l.c.9.l.8 -.,.$.e.8.D.,.3.`.`.jXjXd M N N > @ > $ , , & 0 Y oXwXbXl.h.K.O.% I k.h.*X|.g.k.+X| 4 # ",
"@X4X9.,.V.r.r.9.V.).D.5.r.3.,.u.].{.3.V.r.7.H n 7.G.9.G.9.8..X&.O X @ X $ a $   . @ % 9 a c u x b V x z 7 < 4 z u 1 u z x i i 7 J.g.#.c.c.9.%.@.n F @.k.@.O.P F @.9.4.i '.V.7.2.y.A.,.1.1.0.}.*.1 4 M N 9 o $ + @ , , , l @.3.u $ < w & , I Y m R Y z.v. .4 - ; ",
"@.E.D.X.7.Q.#XF.i.u.{.{.u.....9.V.V.r.8.7.3.F H X.%...l.8...4X/ r Q.~ d Z A.,.,.%.9.%.%.X.r.,.S.5.x < . .   e P.7XP.l.l.c.V.OXJ.l.b.j.;.G.7.{ c m J F O.l.l.l.O.O.9.OXZ ).Z.$.X.0.'.D.8.5.E.@X3.= 0 v q l < : X X . @ , > +     X O o : ; d n i 8 v H G d d s k ",
"4Xc.C.6.;.@.A.E.3.D.{.D.^.Z.9.7.7.e.e.P.3.,.7.8.$.X.O.7.P.G.;Xn | @XV.F.[.uXwXwX).r._.P.4X).P.F.,.i.~.X.t   H.bXL.$.$.X.%.%...l.@.#.P { 4.^ ^ ^ j.h.O.7.7.7.7.l.A.6.G f e.1.` V.}.E.y.S.0.Z.tXyX6 W :.k.c.j.Q t e 1 1 % $ ; ; ; - e j / ] V.OXoXoXV.~ 8.kXMX9XP.",
"hX[.9.J.h.g.j.W.v.9.u.A.Y.!.S.1.r.) { P.7.,.r.l.V.` ( V.].G.^ 5 ) %.7.$.$.7.7.o.7.V.6...S.7.^ Q A A V O.{ 4 &X9.F Q _ 7.l.] ` J.O.h.O.P n F j.l.7.l.j.O.Q m ^ l.H.c ^ 6 d D.r.e.).r.,.V.9.9.9X,.+ :.v.v.,.,.6.+.-.| t 5 y r y t t _ ,.| 5.2.4.V.}.7.*.` *.5.u.*.",
"z ) ,.7.v.XX@XH.3.0.5.A.@X}.u.,.8.%.,.r.r.P.0XV.7.%.6.G.l.n * - %.o.V.u.%.%.,.%...%.r.V.,.@.,.X.) V i H V 4 v.u.{ ~ O.] %.%.G.J.P h.O.F P O.^ ] j.%.b.@.P ^ n { F O.%.* a $.r.S.y.7.5.7.| u.| 1 0 g.V.>.,.6.o.| -.x.X.r k j x g >.5.) 5.9.Y.~.,.5.3.) X.' 8.` ` ",
"> 0 V G 9XMXiXj.*.*.*.N 5X5XZ.X.,.~.D.9.F._.3.%.6.6.%.:X).7.t r 9.%.X.,.%.$.,.$.) ..^ ~ O.r.4.X.,.H ^ o. .N #X7.` ` ....$.O.%.) ^ h.P F O.@.h.O.O.b.c.@.3.<.%.P O.G.` o F X.~ u.).i.F.V.D.x 4 1 G T.-.o.o.o.7.,.o.*.l.9.! F ,.,.X.X.*.( G >.i.7.M *.4.9.8.,.8.1.",
"$ $ > 3 L.BXH.u.U l.*.Z.D.8...V ..7.).V.O.@.@.| %.%.{ u.).O.%...7.' ..o.1.2.7.,.3.7.G G { x.4.%.%.) H | -.Y uX%.^ O.%.3.$.{ G.l.F P O.O.O.O.O.O.O.G.l.@.` S.G.l.,.r.%.# F r.X.) ).`.{.V.X.x u y 5.Q.h.:.{ o.5.O.:. .'.{.5.) ' ` ' >.*.) ` ` 1.0.| { 3.>.` 1.5.G ",
"u ; = # x D.` 3.v.Y.D.!.,.) x *.%.{ v.6.7.r.9.l.o.X.*.' 5X7.7.H | %.7.O...` 1.%.{ X.X.` %.P.r.8.%.) { o.O.I G...O.^ h.4.%.,.3.^ I j.j.O.O.h.^ F F F j.O.O.l.O.F H V.%.7 p 5.V.u.A.9.X.x d f s a l.#X,.1.V.Q.o.+.6.5X~.u.y.u.X.V | *.X.| ) | 8.0.5.3.X.D L *.8.s ",
"b s y ; % c ;.E.Z.1.9.) G F | { 9.z.o.6.S.` n x } 6.8.9.9.b b 6 { %.$.%.,.%.` %.` X.X.$.$.e.V.8.X.%.3.6.{ N c f O.@.l.7.O.@.%.n 9 h.P O.h.O.O.P F H h.F ^ P O.O.| { x a 6 H ,.~.8.Z s r g e Z K D 4X^.).F.F.,.-.5.Z.0.y.G ` X.X.9.5.,.) X.Z.0.7.2.u.3.| 3.' C d ",
") O.~ a ; % z o.<X8.' X.*.3.x.E.@X'.x.G V > . = Y -.z.U.6.) s o n o.^ 1.1.$.X.%.%.%.%.7.$.( 4.V.e.-.@.{ #.a o.o.@.b.3.3.~ O.^ 1 # 0 5 m h.h.h.H O.h.O.h.j.P ` O.| D S * v *.Z.G B 8.1.F F f =.a . K S.).D.5.,.9.,.9 ~ ~ | X.) ) 3.9.3.o.9.9.| | i.1.1.,.1.p.( f ",
"x 3.O.| b 2 * 4 x.@X,.7.5.) D x.A.u.T.X.> $ - c h.k.z.0.u.V -   r A.%.6.9.^ ..X.| @.F 3...4.C.C.%.^ O.@.} ; U K.O.%.~ n F $.7 % O # 1 i P h.n O.h.h.P l.O.O.F C { z.f   q #XX.f ` 1.G ` H L -.= # x o.0.y.D.7.1.` U 1 ^ V.r.,.,.,.7.5.V.x.) X.5.1.*.8.) 8.9.p M "
};
