/* XPM */
static char *Stone_256[] = {
/* columns rows colors chars-per-pixel */
"256 256 256 2 ",
"   c #030201",
".  c #090601",
"X  c #0C0A04",
"o  c #0D0D0A",
"O  c #070805",
"+  c #120D04",
"@  c #110F09",
"#  c #151106",
"$  c #1B1305",
"%  c #14120C",
"&  c #1B150B",
"*  c #1E190D",
"=  c #1C1A13",
"-  c #1D1D19",
";  c #161612",
":  c #0E100D",
">  c #231B0C",
",  c #261B0A",
"<  c #231D13",
"1  c #221F18",
"2  c #1E201D",
"3  c #262115",
"4  c #2B2314",
"5  c #24221C",
"6  c #2B251B",
"7  c #2E291D",
"8  c #2D2816",
"9  c #332B1C",
"0  c #352918",
"q  c #3B321C",
"w  c #2D220E",
"e  c #242522",
"r  c #2C2A24",
"t  c #2C2D2A",
"y  c #282824",
"u  c #332D23",
"i  c #342E26",
"p  c #3B3324",
"a  c #34322C",
"s  c #3B352B",
"d  c #3E392D",
"f  c #363125",
"g  c #3C3A33",
"h  c #373834",
"j  c #2E302E",
"k  c #1E2121",
"l  c #43351D",
"z  c #433A2C",
"x  c #4A3D2C",
"c  c #443825",
"v  c #443D33",
"b  c #473F33",
"n  c #513E28",
"m  c #4C412B",
"M  c #56452C",
"N  c #464035",
"B  c #4C4334",
"V  c #45423B",
"C  c #4C453B",
"Z  c #4E483D",
"A  c #4F4837",
"S  c #524534",
"D  c #524739",
"F  c #544A3C",
"G  c #5B4D3C",
"H  c #594935",
"J  c #5D513D",
"K  c #5C5236",
"L  c #5C522D",
"P  c #624D38",
"I  c #64523D",
"U  c #6A553B",
"Y  c #74593D",
"T  c #634F2D",
"R  c #675B32",
"E  c #4B4943",
"W  c #544D42",
"Q  c #5A4F41",
"!  c #524F49",
"~  c #575045",
"^  c #5C5244",
"/  c #55524A",
"(  c #5C554A",
")  c #5F584D",
"_  c #5F5846",
"`  c #5E5952",
"'  c #5A5752",
"]  c #4F504C",
"[  c #635544",
"{  c #6A5643",
"}  c #655945",
"|  c #6C5A45",
" . c #625749",
".. c #645A4C",
"X. c #6B5D4C",
"o. c #685748",
"O. c #735C44",
"+. c #725E4A",
"@. c #785E44",
"#. c #645D52",
"$. c #695F51",
"%. c #635F59",
"&. c #675646",
"*. c #6D614D",
"=. c #6E6244",
"-. c #74624C",
";. c #7B644C",
":. c #796548",
">. c #676055",
",. c #6C6254",
"<. c #66625A",
"1. c #6C655A",
"2. c #6F685D",
"3. c #736554",
"4. c #7A6652",
"5. c #756955",
"6. c #7B6A54",
"7. c #716759",
"8. c #736A5C",
"9. c #7B6D5C",
"0. c #786759",
"q. c #7D715E",
"w. c #7E7055",
"e. c #7D7046",
"r. c #6D6962",
"t. c #746D62",
"y. c #796F61",
"u. c #736E68",
"i. c #777065",
"p. c #7C7264",
"a. c #7C756A",
"s. c #7F786D",
"d. c #75716A",
"f. c #7D7872",
"g. c #3C403F",
"h. c #846A4D",
"j. c #85684A",
"k. c #836C54",
"l. c #816E5A",
"z. c #8A6E52",
"x. c #8C7255",
"c. c #83725C",
"v. c #8B745B",
"b. c #887659",
"n. c #947A5C",
"m. c #9B7C5C",
"M. c #947556",
"N. c #93714C",
"B. c #A37D58",
"V. c #837564",
"C. c #8A7662",
"Z. c #857866",
"A. c #8C7A64",
"S. c #817769",
"D. c #847A6C",
"F. c #8B7D6C",
"G. c #887768",
"H. c #937C63",
"J. c #927E6A",
"K. c #997E62",
"L. c #847D72",
"P. c #897F71",
"I. c #837F79",
"U. c #887768",
"Y. c #80613E",
"T. c #A6825C",
"R. c #B48A5D",
"E. c #8D806D",
"W. c #8E8166",
"Q. c #9C8264",
"!. c #94826C",
"~. c #9B856C",
"^. c #99866A",
"/. c #878075",
"(. c #8C8274",
"). c #8C857A",
"_. c #8F887D",
"`. c #86817A",
"'. c #938574",
"]. c #9A8672",
"[. c #968876",
"{. c #9B8A74",
"}. c #918779",
"|. c #948A7C",
" X c #9B8D7C",
".X c #9E907E",
"XX c #9F9075",
"oX c #A38464",
"OX c #A38A6C",
"+X c #A88969",
"@X c #A38D74",
"#X c #A48E77",
"$X c #AC9274",
"%X c #A4927C",
"&X c #AB957B",
"*X c #A89478",
"=X c #B59879",
"-X c #B3906A",
";X c #A58F69",
":X c #C5A076",
">X c #8D8881",
",X c #948D82",
"<X c #9A8F81",
"1X c #948F89",
"2X c #9C9284",
"3X c #9C958A",
"4X c #999389",
"5X c #9D9991",
"6X c #A39584",
"7X c #AB9A84",
"8X c #A19789",
"9X c #A49A8C",
"0X c #AB9D8C",
"qX c #A79884",
"wX c #B39D84",
"eX c #A49D92",
"rX c #A99F92",
"tX c #ADA08D",
"yX c #B3A28C",
"uX c #BAA488",
"iX c #ACA294",
"pX c #ACA59A",
"aX c #AAA399",
"sX c #B3A594",
"dX c #BCAB94",
"fX c #B4AA9C",
"gX c #BBAD9B",
"hX c #B4A797",
"jX c #BDB09D",
"kX c #B4ADA2",
"lX c #B9AFA1",
"zX c #BCB2A4",
"xX c #BBB4AA",
"cX c #B3AEA8",
"vX c #C5A888",
"bX c #C3AE94",
"nX c #C6B39B",
"mX c #D3B797",
"MX c #C3B5A3",
"NX c #C4BAAC",
"BX c #C9BBA8",
"VX c #C5BDB2",
"CX c #D2BEA5",
"ZX c #D5C3AB",
"AX c #CCC2B4",
"SX c #CAC4BA",
"DX c #D4C9B9",
"FX c #D1C4B1",
"GX c #E1CBAF",
"HX c #D5CDC2",
"JX c #DBD4C7",
"KX c #D7D3CD",
"LX c #E3D9C9",
"PX c #E3DDD2",
"IX c #EBE4D8",
"UX c #F0ECE3",
/* pixels */
"0XF.|.jXMX2Xf.%.X.9.*.,.|.5X|.(.L.(.)./.eX3XeX3XL.a.`.(.5X|.2./.9Xs.1X5X`.4XaXf.1.,XaXcXeX3XaX).i.D.2.3XtXAXPX3X/.` ] Z fX/.V e % &Xq.!.XX8X2XzXpXiXs...(.|.,X(.(.G.(.pX3X[.'.D.3X9XfX9XD.fXVXSXHXKXHXSXAXtXiXgXE..XE = a. XjXaX3X4Xi.P.eXpXpX9X}.E.D.3X|.(.a 7       <.AXzXjX2X XV.-.{.jXiX X,X@Xm.&X!.0.{.sX[.F.l.7XbXwXJ.v.l.+.0.0.t.o.l.U.|.NXIXLXHXHXPXSX0.d.BXbX8XBXVXMXMXVXhXbX3.{ v.C.z   S.KXHXfXfXAXiX`.r./.(.s.2.%.a.W.=.W.XX.XeX%._ _ ] 8 ] r.g.] 2.W.XXe._ /._.`.aXs.1.>X1Xf.2./.L.f.I.).`.d.1X4X2.#.(.s._ ,._ 2.b.",
"(.[.hX<X(.L.u.$.4.X...7.8.|.4X4XL.a.D.L._.,X1X3XL./.,Xs.|.|.i.s.4XL._.1Xi.pXcXf.8.i.5XcXaXeX,Xt.}._.a..X|.aXAX,XfXg.j a _.4XV - # b.C.} A.tXaXfX).D.p.p.G.(.E.).2X_.3XiX2X'.XX4X X'.(.'.tX5X9XiXxXHXHXVXtXiXAXtX XsXZ ; [.5.E.iXeX3X3XiXrXaX9X(.D.q.,.[.zX7.a 5     X ..(.8XpXtX X9.D.9X0X'.(.9X{.v.!.A.o.l.C.C.0.U.[.#XsXF.C.4.C.y.y.A.v.U.V.C.2XVXuXK.m.BXMX0X1. .0.<XsXJ.l.<XP.P.6Xl.X.l.~.[ 6 zXJX2X/.fXfXiX}.E.W.8.q.t.#.q.W.a.XXXX2.%.8 L L L 8 N _ g.] w..X/.=.s..X_.d.1Xs.u.4XI.<.#.>.2.d.a.f.`.L.4Xf.i.s.s.>.i.L.8.q.Z.",
"qX2X|.2X}.G.8.3.-.=.X.X.} *.(.3X_.i.s.L.D.a.P.2X>XiX`./.`./.a.1XeX_.>Xi.f.pXcXd.=.1.5X,XiXpX,Xq.[./././.q.Z.tXDXfXr y a 2.i.a ; % b.C.| [.2XxXhX(.D.D.S.i.9.0.}.(.4X3X3XiXpX4XtXfXxX X2XiXaX3X|. XgXfXfXiXtXxXtX'.eX8 * *.J iXaX3XeXeX8XaXkXaX}.q.X.*.G.6X'.} 7     u 1.tXiX}.8.y.P.NXkXeXF.*.[.l.9.A.z.+.;.C.J.A.rX2XF.<XJ.H.J.C.U.J.0.X.y.P.[.<XK.+X@XwXwXwX7X0XH.c i X. X6XC.Q U.6X;.o.l.J.X.A 7XE.D.L.i.2.(.2Xi.Z.i.t.2.i.Z.s.s.1X4Xd.] 8 m R q N =.K ] >.W.4X_./.s.5X_.s.f.f.`.5Xd.1.` 1.r.u.f.2.2.t./ ] 4X2.) p.).D.p.5.=.",
"[.<X(.P.2X2XZ.9.4.=.D.i...2.s.(.|.D.i./.L.t.y.(.5X5Xp./.a.i./.aX5X5X4X_.4XcX,Xs.s.s.4XI.|.|.|.t./.8./.[././.Z.fXfXN e a d g.r ; * 4.=.Z.2X8.D.9X8X.X'.4X3X,XD.3XpX9X[.[.aXxXiX_.xXcXpXfXxXxXiXtXNXxXiX3XtXyXsXZ.p.t.6 - [.3.|.cXeXeXL.a.kX3Xi.p.i.,.8.2XiX0XE.p O - t /.hXfX9XD.0.P.8X6X3XD.S.].5.].K.4.;.h.l.#XH.J.rX{.o.J.&XsX0X XP.X.0.0.V.2XqXlXMX%XMXDXK.j.J.7XqXn + a o.l.z.J.qXl.V.J.A.l.I W.3.s.2.a.a.a.i.'.XXE.Z.q./.i.d.d.4X`.d.%.g.L R m d 2.>._ e.W.aX4Xf.4X_.`.`.s._.`.I.) 1.t.f.u.f.1Xd.r.u.) N J 8.a.,.a./.s.d.5.",
"s.t.a.y.|.9XJ.!.k.w.4Xa.s._.i.a.,X4X9X(.D.,XL.c. Xs./.).i.2.}.xXpXeXa./.4XxX5X_.aX,XSXeX3XiX8.a.a.5.8.|.Z.(.3X.XBXN y r e y j = X w.!.2XiX(.D.).}.|.2XpXcXiXpXaXxXpX4X3XpXfX,Xa.3X9XpX9X3X2XiXSXKXSXxXfXfXjXdX/.4Xg N = q.).(.aXrX,XL./.D.%...) #.S.D.fXDXsXD. .X r t 8.3XpXiX}.3.^ X.^ 3.y.P. XqXuX+X4.{ +.C.yX6X6XkXJ.J.J.sX<XrXrX$.3.$.G.H.tX0X<XJ.0.<XKXU...P.7XwXuXJ.&   < z V.qX<Xa.P.8XP.| 9XkX3XD.'.^.L.D.^.^.W.}.q.f.4X.X`.I.f.f.` ] K R K A e.r.i.2._ |.I.`./._.d._ >.>X_.d.2.1.f.f.u.d.f.r.r.r._ _ 5.eX5X<.] 1./..XL.",
"D.L.a.P.P.'.F.v.b.{./.a.a./.s.D.1XkX1X(.4X2X,X[. Xi.).L.).a.,XcXcXs.q.1XI.1X/._._.|.aX5XSXpXa.3XaX}.|.3XXX3XzXsXzXj r r y y d 2 % ^.sX9XfXgX3X3X/./.s.,XcXfX2X[.(.iX3X/.2.2.>.q.,X2X3X.XD.1.|.SXAXxXcXDXzXtXgX3X5Xg Q & W.xX/.,.p.L.L.,X,X,Xr.Q 8..X/.kXJXAX4X1.u p.-.,.'.9X9XD.V.3.^ X.y.D.6.k.2XyXH.H.H.x. XNXMXC.C.<XJ.l.D.V.V.D.t.l.9.C.H.K.J.l.Q +.V.l.D 4XqXC.k.@XvXJ.u X * > V.MXV.%.D.%.B E.fXfX5X3X2XhX.X/./.|.|.s.2.s.aX_.`.d.p.] ' L L >.2.2.>.s.i._ r Z / N j d ` %.d.d.f.2.~ W ' W Z E d f g Z p.a.I.1X5X>Xp.2.a.).",
"S.,X,XS.G.1.6.=.W.qXi.i.8.s./.s.L.,X2X,X4X4X2X4Xs./.,Xs.9X,X4X,X,Xd._./.s.`./.4Xs.D.1XaXSXxX5X|.3X|..XiXjXZ.AX%X2.y e t d r j r * c.,X4XfXpX}.L.) 2.a.8.D.p.,.E.3./.4Xq._ *.q.|.aXaX3XiXiXiX3X9X3X4XtXiX.X%XZXBX/./ ~ % 3.D.2X9.d.L.).|.,X2XZ.V.a.p.(.(.hXAXa.E 7.7XW.9.(.(.t.}.6XJ.<X<XD.v.n.7XwX%X0.+.M.@XMXVX<XJ.U.P.F.3.V.P.#Xy.V.y.G.J.J.wX@XC.l.h.+.0.%.6X+.+.oXv.+.K.bXD # * 7 *.U.L.P. .# w.,X_.2XiXtX*X/..X8X(._.`.t.2.t.i.i.=.e.' ' A A _ =._ e./.s.2.2.K A d f >.#.s.i.1.1.%.] N Z W V g N ] <.2.i.s.2.L.cXaXaXcXi._ ",
"P.,XV.P.D.(.5.O..X3Xs.s.8.a.).1.a.3X2XeX|.,X|.9Xa.s.|.4X9X/.|._.s.L._.|.}.|./.f.s.p./.xXcXpXkX.XiX|./.sXE.a.zX3X_ 2 2 f A 2 h d 1 m 3 d s $ z a.>...(.9X9XtXE.8.W.*.a.E.i./.|.9XpXiXaXiXpXkXiX}.a.w.*..X5XiXZXXXs >.N % *.7 F i.s.9XrXrX X%XsX'.7.A ^ q.3XNX_ N _ dXyXA.,.(.D.F.V.l. X].k.oXwXJ.-.l.v.h.z.@X,XV.l.0.l.U. Xl.l.F.<Xy.P.U.*.l.kXkX#XJ.8Xl.@.Q P.rXk.j.+.| ;.~.sXqXV.z > < z W z b & *.,./._.5X[.yX.X8XiX_.4X`.<.2.>._ ] =.W.<.<.A _ _ _ _ i.>.i.2._.5XeX_.s.r.w.>./ s.L.2.u.( V ' ~ N _ t.d./.2._ /.5XaXaXxXxXaXW.",
"3X,XD.'.2XZ.=.w..Xa./.a.L.s.2.2.D.iX3Xq.D.}.2X3Xt.t.a.3X9Xa._.,X4X5X|.3X5X5XL./._.q.|.9X3X|._.3XxXaXaXfX(..X[.[.|.8 e N =.j h f S 8 + X X + & z i.>./.a./.|.}.|._.Z.Z.tX}.9XiXiXaX}.,XzXVXpX}.8.J ,. XiXfXzXD.c f V u # F B  .D.rXiX|. XzX9X(.p.D.8.7.3.9X` s j s AXyXA.].V.3.-.w.%XiX@XQ.{.7XJ.v.0.-.K.K.l.l.+.{ { G.8X<XP.P.C.F.D.P.}.A.<XkXrX#XG.V.C. .b 6XU.v.z.H.h.C.].<XhXBXhXG.u 1 4 f % * 2.|._._.cX_.cXiX9X9XeX4Xf.<.d.d.t.>.2.e._ 2.m K _ F =.q.a.s.1./.`.4X>Xf.i.s.=._ 2.s.s.r.<.r.%._ ( #.1.I.5X|.#.s._.aXpXaXpX|.q.",
"hX|.(.|.(.4.6.XXI.a.3X/.a.i./.).3XS.(.(.G.3.D.`.).(.d.}.}.d.d.3XeX_.).eXaX5Xp.|.eX|.eX3Xf.a.<.|.aXaXSXkX.X3XfX3XD.g.d ,.,._ j : N S & * # # < < a.fXaX_.W.p.[.eXfX5Xp.8.,XfXeX}.9XD.,XpXxXlX2X'.F.qXiXhXVX6Xd p f 7 7 X X.'.9.C 8.fXrX6XhX<X'.P.S.E.!.,.v t j - 3 zXjXyX9X%Xv.-.{.hXhXhXG.J.&X'.J.*.D ^ C.{.U. .+.+.$.J.J.J.y.c.<X3XrXqXJ.9XrX<X'.0.3.V.e [ J.~.C.k.;.l.A.l.J.wXJ.].7X%X4 < &   = e.aX_./.fX|._.aX_.f.4Xf.2.i.t.>.<.<.>.2.i.~ e f *.q.W.E.,Xd.<.i.s.>Xf.f.u.i.2.,.%.g V ) ' ] %./ / 2.1.L.a.L.i.<.p.3XpX5X] g K ",
"8X(.2XD.w.W.w.p._.s./././.|.2X,XiX8.p. XD.D.,XL.I.(._.aX2Xs.y.,X4X1X1X3XaX,Xs.|.pXkXNXaXs.2.1.t._._.aXpXiXpX5XiX(.<.,.w.q.V r O b ..r y 5 5 - & 8 8.iXtXaXzXiXpXpX.XZ.8.}.(.(.(.F.3XE.(.eXpX0X0XhXhX0XhX#X .z c 7 u *   J '.8.$.b #.6X6XG.7.[.0X7X9.5.,.F ) 1.N q dXAXNX%X{.H.x.!.{.qXJ.l.wXk.b b [ 0. .+.0.9.3.$.0.G b V.J.0.3.}.L.9X8X<XrX,X8.3.X.-.b v 3.3.l.F.U.F.F.+.| ].J.z.dX6X7X5.X     & w.eX(.>.9XeXaX3Xr.%.f.%.t.`.i.i.' ] A _ >.Z 8 d w.b..X)._.a.r.<.f.d.u.d.`._.Z _ ] N Z ! ) E ] ' / t.u.u.t.d.1.<.V u v C 5 5 w.",
"2X|..XZ.[./.c.,.) s.t.t.|.fX}.i.i.8.D._.i.,X,Xs./.a._.4XeXeXa.i.I.s.5XaX5X_.L.4XpXpXxXSXaXs.2.s./._.L.a.).5Xs.(.iX) _ s.D.=.e O a 3.#.h t r y r 1 3 J 1.t.iXVXxXxX.X4X.Xi...D.1X[.2XhX9X9X3XE.6XfXNXVXDXhX_ b p 3 < #   x  X(.X.X.0.9X'.L.u.2. X'.3.p.2X X}.9Xh q !.DXjX^.:.@.j.n.wX].A.F.'.A.l.H.z.OXOXH.J.7.l.V.,.o.l.c.l.F.F./._.d.7.$.P.L.V.$.Q X.v [ G.k.9.rXJ.P.<XJ.C.].H.l.H.j.z.qXu     = ,..X[.s._./.eX`.r.<.Z ] <.` _ i.] K _ 2.2._ r A =.*.|.f.`.r.2.r.d.r.r.r.>Xs./ d F ) J _ 2.>.E ) #. .Z #..._ %.s.q.1._ d 7 d =.",
"iXhX.X.X3X4X2XJ F |._./.s.3X).s.1.p./.<.8.3XL./.>Xa.I.aXeXL.t.d._.a.1XeX5X,X_.|.aXaX5XxXiX1X`./.2.(.i.>.t.i.2._.AX8.1.8.w.W.J o p Z.Z.p.#.g t a W h 5 7 g N _.SXVX2XtX).a._ F p.9XiXfX|.`.fX9X9XzXNXxXHXP.B 9 6 6 1 %   9 D.8XG. X2XhX X].'.(.D.t.a.8.P.hXgX1.: x gXAXnX~.;.j.x.gXhXC.6.-.3.[.qXgXsXbXwX@X'.9.$.7.a.l.[.2X8XrXcXeXu.b B X.V.S.(.y.$. .V +.C.| 9.J.V.Q 0.0X].l.k.z.k.O.J.wX'.    8 _ 8.9XcXcX>X5XI._.t.d.|.s.) _ _ _ _ 2._ _ i.f 9 8.a.s.,Xd.d.d.u.%.2.i./.f.2.>.#.J >.>.K _ ~ W _ X.X.^ ( I.L.a.a.a.f._./ u W -.",
"tX|.fX3XfXcX}._ Z.,Xf.4X).L./.s.*.8.p.1.p./.1.8././.I.,XeX/.u._.5Xf.3X5X1X_._.,X4X5X9XeX3X/._.4X4X/._./.).s.i.8.|.3X|.E.Z.5._ 8 7 V.!. X[.q.>.C W 1.V t u d u Z aXVXHXqXD.D.,.D }.xXkXhX6X5XD.).2X7.1.} 4 x 9 u 7 < o   > 5.hXrX|.i.2Xt.#. X(.1.%.(.,X3XNXrXx % c [.fXBXwXoXuX$XE.G.V.!.k.B G F.hXfXJ.&X X .( 8. .7.0.V.t.V.|.aX,XP.$.X.F.2XF.6.X.V.y.9.G.J.c.!.l.W v +.U.J.J.l.&.n Q l.U.yXW   m 2._ Z.xXSX5XcXaX5Xs._.L.<.) >.,.i._ ~ >.i.(.g & *./.D.i.2.2.p.a.i.d./._./.i.2.2.>._ #.>.~ A Z ( p.c.p.a.s.u.a.<.d.i.d.V W 5.-.",
"(.aXaXeXAX4XJ } |.2X|././.a./.8.^ _ >.p.s.s.,.%.d.).i.i._.3Xa.,X|.`.kXaX|.).4XiX3X4X4XiX3Xa.(.3X|.4XkX5X|.AXqXtXtXcXSXfXp.*.m 9 3 [.9X9X|.D.D.E.8.m 8 8 8 >.q...Z s.a.p S (.gX[. .q.G.6.G m q , , $ $ $ w p d d r & X   & ^ 1.D.W ~ A d v z Q 9.S.9XNXkX2XH q 1 8 G ].MXFXuXCX=XQ.Q.^.*XH.6.} 8.6XbX&XK.D.L.D.1.#.0.P.'.3.G -.8X}.4.D.p.P.F.6.0.9.3.0.@X].H.0.l.l.Q P 4.o.*.V.C.4.@.G P k.l. X1 p W.W.q.1._.`._.pXaX_.2.<.>.) ) >.i.1.>.2.i.s.N 8 t.`._.i.8./.a./.a.i.a.,Xi.>.2.i.d.i.d.t.>.K F Q ^ S.iX_.t.>Xa.`.`.r.~ ..p.9.k.",
"zX5XpX/.D.*.H F tX5X).|./.1._.|.1._ 1.s.D./.8.t.i./.L.i.L.3X,X5X_.|.eX4X|._.eXcX9X4X3XeX9Xs.9X9X/.4X>XiXjXtX1.2XSXAXPXcXZ ] A 9 % *.2X9XtX3X/.1.p X # > # q _ 8 8 > # , 8 l p.E.[ p 9 0 , , < , # + $ + < i r 1 &       . 3 * # > 6 > * * # + $ 8 A G p l n 4 + n U j.M.7XbXnXmX$X$X=XnX=X{.F.qX$XJ.V.+.L.3X XG.0.y.}.qXP.0.}.P.o.3.7.L.}.F.'.<XG.p.F.0.H.C.o.+.;.0.v.o.V.P.l.-.k.k.h.z.:XK.-X| p Z.(.aX_._./.aXVX4X_.i._ 2.>.1.) 2.I.a.>.a.5Xg F i.1XaX3X)./././.d.a.5XI.] i.L._.)._.>X1.*.3.A G m B 1.a.d.i.d.1Xa./ 2.F 1.Z.$X",
"8XNXfXq.*.=.A !.iX).>.s.s.2.8.1.>.8._.D._.D.i.>.$.L.).S.I.4XeX,X_.1X1XeXaX_.5XxXaXiXeX1X_.s.9X_.).5X/./.tXiX~ (.SXJXSX<.h E ] q   s >.~ ~ C f a 8 3 $ > > $ w , , $ $ # # $ $ s q # X .                 X > d V / ) %.u.<._ K Z d q _ m f A A d 7 3 3 3 $ & & + Y.R.M.@.@.J.CXVXCXbXuXyX#X].J.uX#X3.U.V.U.t.0.y.D.P.G. X0X XfXrXP.P.1.( L.J.P. Xt.D...X.z Q +.+.9.C.0.&.0.[.J.J.C.z.H.K.-XvXvX-XR q.'.AXJX3X3X5XcX4Xa.s.t.2.r.d.f.s.f.f.i.f.`.` _ g >.,X)./.)./.I.i.I.kX>X>X1X>XI.I.5XI.#.' W D G B z b ^ F ..f.<.W L.1.d >.`.C.",
"s.tXtXw.w.=.W..X8.p.a.a.a.2._ A #.>XeX/.i.a.(.r.#.).>X(.L.t.P.(./.aXeX4X_.5X5X4X5X5XaX5X/.4X9X4XfXiX5X_.2.1.J k.'.zX_.>.V g./ d     $ > > 6 z s 8 6 < 4 > > $ # + X X + X X X X = /.tX'.8.,.2.1.` ~ ~ 8.9XkXDXJXPXJXVX.Xs.L.(.tXFXzXnXXXjX&XXX|.%X|.7X!.*.=     Y -X=X-XM.j.VXJXdXdX!.$.0XqXqXqX@XU.J.3XeXi.D.'.D.y.C.!.'.iXMXhX,XS.0.n 1.U.o.V.P.0.b s Q +.3.l.0.0.C.l.v.J.F.K.v.H.~.oX=X&X+X-Xe.q./.xXfX) i.D.4Xd.L.).r.d.`.>XI.s.i.f.s.`.r._ s a f /./.s./.s.,.t.1X1XL.1X5X5X>X>Xu.%.' ( ! #.#.8.i.8.u.L.D B >.u.f.u.Z <.a...",
".XtXJ K w.e.%X|.[.8.y.L.d. .[ ..,.L.,Xs.[.a.L./.a.<X).D./.d.S.i.s.fX9X_./.1.eX.X5XiX.X_./.9XaX5X4X3X4X/.a._ } W.XXp./.' h ] E r       # $ $ , $ & & # # # $ # o .         X a h 4XDXJXPXDXDXJXPXIXIXzXNXIXSXfXzX|.NX9Xp.s.>.Z.zXVXSXcX,.Z p.|.XXmXqX].A.V.J %   l R.B.:XK.M.HXVX$X@X].G.{.0.^ F.0.*. X7.<X,X}.r.^ G.x.c.V.6XwXfX6XU.l.l.0.3.l.3.0.W #.0.0.0.J.J.0.F.P.#XqXJ.H.=X=X@Xl.v.$XwXwXvXw..XxXpX/.2.>.Z.i.tX.Xd.1.r.f.f.t.t.f.p.4X4X2.a M =.N V 1.2.2.i.1.a.eX`.>Xa.d.`.a.L.u.%.<.<.( t.a.a.f.d.`._.S.7.1.a.u.f.) >. Xb.",
"'.*.w.W.e.XXfXiXhX@XA.'.t.1.i.p.i.X.i.[.|.i.i.,XS.D.d.a.P.s.8.i.s.pX5Xq...) (._.4X4X3X_.1X.X_..X4X4X/.i.D.i./.qXfXpXxX#.e V g.5         X   O X O O + = 2 = = ; % X X O O C ] g E.xXNXAX9XAXxXDXHXzXSXLXzX5XVXzX.XVXzX|.W.[.fXiXNXHX_.9X_ f ,.q.q.4.*.,.D J 6   n -X-X-X=XB.LXVX#XlXqX{.@X].| k.l.3.qX9.V.D...( 0. Xc.'.%XJ.~.dXiX8.J.<Xy.8.2X<X7.Q l.l.C.C.#XJ.l.J.<X9X0XC.x.7XnX@Xl.l.wXwX*X X1.|.iXaXjX`.#.>.) s.i.<.<.r.<.r.f.L.1...i._.d.d A Z B h t d 8.>.>.,X4X1XI.%.1.$.1.r.#.E ( ' #.d.L.>XI.s.,XL.u.|.8.,.f.r.( ) ) D ",
"(.E.{.#XW.VX3XiXsXF.6.3.s.f.s.2.2.D.F.9Xf.r.8.D.S.4X}.).3Xd.t.P..XeX9X5X(.(..X3X.X.XxXaXeXL.).eX|.,X`./.,X4X).3X.XeXSX] e h h = O   O O O : : - ^ i.<.(.s.8.h - = - - : u 2.] w..XSXKXxXfXAXAXAXjXfXxXNXNXxXzX|.D.5XpXeX.XfXSXxXHXHX4XtX.X5.g k h c.c.*.J X.d   M z.v.+X:XCXHXPXVXqX4.o.l.{.H.V.@XOX{.].<X0.[ [ 6.#X X0X$X@X7X0Xv.z.v.V.y.}.3XP.r.0.P.J.F.l.C.C.D.V.P.F.c.%X XVXlXJ.@X4.9.*X=X~.W i.3Xt.2.s.a.f.I.2.2.#.d.f.d.d.s./.s.s.2.a.2.] 8 #.A d N _ ` >.L.>X,X5Xu...1.t...! b ! ^ r.f.I.L.,X`.1X>Xa.s.a./.N ( 1.8./ t ) ",
"A..X X!. XSXfXlX,X<.i.8.f.D.1.y.D.2X8.D.3X8._.3X(.pXxXkXiX(.S. XkX4X9X|.iXsX5X|.L.s./.f.4X|..XcX4Xs.s./.iXaX2XZ >._.jXf.j y h 2 O : y t 2 u d _ XXiX|.tX.X.X/.#.N g g.~ >.V 5.W.tXHXPXAXfXtX2X2XcXKXSXSXxX.X6Xs.t.`.f.q.4X_.iXxXVXJXxX'.8.Z.p.K G C B b.I -.I & j.m.j.vXbXLXHXCXdXJ.0.4.Q -.0.3.Q *.o.3.[.P.V.D.6.c.'.'.c.v.wX].H.[ -.$.s b Q 0.o.l. X3XP.V.&.J.J.,.C.C.]. XJ.tXC.@X XX.0.&X=XOX..a.tX>._ <.,X5Xu.d.1.<.I.f.d.r._ s./.s./.] _ r.; J V K i.8.<.t./.s.3XI...#...( ' ..%.#.E t.L.a.d.>X>X1X`.r.~ g Z W X.<.8.r.1.(.",
"A.2X9X6XhXMXBXBXL.s.<X1.s.P.P.D.p...t.p.1.i.cX8X,XcXsXpX3XS.}.kXkX9XaX4X9XkXVX_.8.>.>.2.iXaX9XfXfX/.).`.d.[.uX3.(..XfXr.j t t 5 X ; t *.w.=.m e.qX2.>.}.L.L.(..Xa.p.W.v.=._ XXiX4XVXHXHXVXaX|.tXaXpXxXxXpXkXp...t./.d.~ >.>.L._.`.|.fX.Xw.6.W.W.^.*.N 4.^.-.[ c @.z.j.mXCXqXv.#XJ.H.J.v.X.G b W D v F 3.9XP.V.J.}. X]. X{.F.E.F.#.v b o.$.+.O.0.4.l.C.J.P.<Xl.{ {.J.J.{.8XD.{.v.#XwXG.C.@XbX7XmX^././.q.a./._.1Xr.I.u.%.r.r.u.f.r.s.s.d.i._ Z.2.* A J K /.5Xs._.t.`.1X>.a.u.#.#.r.1.$.r./ #.r.u.8.u.u.` / / g b ~ <.d.r.r.d.1.p.",
".X[.hXtXHXVXdX0XL.eX).#.L.I.L.u.) ~ ,.8.,._ 3XkXeXxXkX2X8X8.|.VXeX}.3XaXcXkX5X8.#.>.8.(..XkXaXiXiX/.,XaX/.,.*.D.3XkXJX<.g.g 5 2 O ; g W.p.w._ W.|..X(.Z.s.[._.W.q.q.w.3.E.W.[.|.cXcXd.pXaXxXVX5XeX|._.xXVX9Xa.1._ ` A ) 2.>.s.3X_.d.pXJXNX.X|.W.{.*X{.*XdXV.c i P P C.dX#XT n h.].H.~.k.].l.D o.l.9.J.#XrX9.V.P.}.E. XqX{.hX8.Z ! $.S.0.H.@XH.0.l.[.#X XJ.P.6XU.J.J.F.l.X.G.H.J.{.].J.Q.~.{.0XCXjX).2.a.,X).`._.>Xr.<.%.' u.r.r.d.d.d.a.<.s._./.5 z ,._ /.`.L.s.<.s.i.`.1XD.1.P.>Xd.` #.$.o.1.#.B b b E ! ( <.2.i.d.d.r.).L.1.*.",
"2X'.pXNXVXiXaX^ 8 N a.4XL.d.( Z ..S.(.D.d.y.4XpXcXcXkXkX4X]. X2XaX3X|.9X9XiX|.2._.|.i.8..XkXeXeXeX}.}.,X3X).q.9XNXHXSX] g.g.5 = O o A w.*.W.W.p.a.|./.W.p./.W.p.q.W.D.}.9XZ.9XZ.s.s.s./.`.cX3X3XaX,X1X|._.L.s._.<.N a _ /./.2.|.,X_.|.cXaX5X/.fXjXiXAXnXtX*Xr X n M.A.&XM.B.B.K.J.c.X.n -.J.V.V.9.} x.y.'.'.'.9X XD.2X!.qX3XW ( U.P.U.X.l.P.C.b D i. XF.J.[.hXhXqXqX].$.G k.l.H.@X$XH.$XyXVXdXdXMX1.>.4X4XD.d.d./.f.%.r.u.u.f.f.f.r.>.` >.r..X/.8 q _ ).Z.2.>.] / #.2.pXkX4Xs./.I.<.' ' ' %...b s z / ' %.r.f.f.f.f.2.1.` #.3.A.",
"7X9X9Xd 5 3 * # & $ > F 2.#.W t.,X4XeX}.1XeXI.S.(.aXkXkX|.E.V.[.}.eXaXi.2.}._ a._.W.W.p..XeX_./.>.1.q.s.|.iX|.s.4XSXaXZ V h 2 : : ; m b.tX.Xp.>.e.|..X_.W.W.|.(.|.eX2X_._..XNX^.=.1.).|.}./.8.L..X_.1XaXeXd.a.i.q.t.#.>./.d.q.4XeX5X_.}.9X_.D.xXVXfXaXxX(.hXw.X P -Xc Q qX:X-X$X0.b c b I 0.0.0...S X.]. XD.rX2X[.iXG.9.(./.(.rXD.<XF.+.l.l.V.+.Q b Q <XrX].J.qX#X@X4.h.J.OX;.v.uX*XuXMXlXFXVX&XW.~ 3XpX3X(.a.1.u.1.r.f.f.>XI.I.>Xf.t.2.i.r._.r.f q L ).s.V r.r.! 1.1.8.L.1.%.%.<.r.%.'  .W z W ( ' %.%.%.d.f.f.i.u.u.#.v W yXwX",
"^ ~ z & & & + + # # + u ^ 8.(.|.5XaXiXeXcXcX8.a.7.a.4X8X9X[.6.'.eXaXzX|./.|.>.a.D.s..XW.XX.X>X/.*.q.,X|.D.eXfXi.i.iX/.V E V 2 o O 8 W.tXiXW.#._ r./.XX4X_.eX_.W.|.pX9X_..XSXHXNX|.5._ /._.=.L.s./.5XaX1XeX1X).<.i.a.q.1.p.9X,X).fX5X,X`./.L.eXaXiXeX.XpX4XtX2XN M B.n # b 0X6X0XC. .b +.4.-.$.c.9.[ Q V.rXNXNXaX2X}.8X8X8X2X(.}.$.y.l.J.C.0.$.0.k.4.0.y.3.V.8.A.4.V.0.].].%X{.l.*XfXAXDXNXhXrX}.5.5 }.}./.S.).r.r.u.r.%.<.`.1Xf.d.<.2.t.<.<.d.<.= m p.fXL.) L.` Z q.2.q.r.C E ' <.r.r.r.Q ! %.%.( #.` I.f.>X<.I.8...<./ E E !.=X",
"6 & ; - 5 6 - = ; % & 6 q ^ L.).3XeXkX3XkX}.a.a.y.t.I.rX2X XtX}.|.xXiX3X,X4Xq.8.5.W.eX_._.|.`.5Xs.s.`.iX}.4X.Xt.t.5XeXg.h a e O f |.kX.X/.fX|.E./.aXaX/.|..X/.w.Z.D.|._.9XHXDXDXhXiX[.2.}.a.,X`.s./._.f.4X5X<.t./.d.t.t.2.).eX).|.).L._.1X|.4X_.1X.X|.AX%X>.) F U U c 1 $ Q VXJ.{.J.k.k.#X].V.2XV.$.o.9.6X,X9X0XF.#.8.0XtX9X9XP.#.D.V.y.0.V.V.&.k.y.<X1.W [ G G +.{.C.v. XhX&X+XQ. XzXJXAX9XrX&XW.X ) L.u._.>Xa.d.f.d.d.I.f.f.f.r.i.s.<._ ] f.f.= L =./.4Xt.p.>.*.6.a./.2.' ' %.] %.r.' E ' %.%.$.r.f.f.>Xr.` s.t.1.1.( W ^ F.$X",
"A 5 5 1 y 5 5 5 5 5 5 3 > & < $.s.,XaX}.f.S.<XP.S.$.D.,X2XkXkXpXq.3Xq./.kX3Xq.q.w..XtXs.1.}./.9X9X4Xa.i.(.W.,X,X4X5XxXZ h j e 8 =X_.a.i.>.).aXxX_..X5Xa./.w.2.p.s.s..XXXcXkXkXVXKXSXSX(.1.).pXeX1Xa.#.s.(.5X,X5X3X,X/.D.D./.3XiX_./.D..X3X_./.s./.|.!.W.J g u a n P O.n & , 8X#XC.rX#Xv.l.L.0. X}.#.7.H B z 5.6XV.X.9.rXxXcXeXZ.9.[.P.F.'.G.9.9.A.l.D.P.4.:.-.k.].^.k.F.7X Xv.bXwX XtXHXSXAXiXF._ O u |.,X1Xa.L.f.d.u.`.>Xf.u.f.aX`.I.r.` ] <.r.= R 5.E..Xa.>.2.1.#./.aXf.r.u.r.<.%.' ' ` r.` r.L.I.7.r.u.r.r.f.L.#.$.$.$.3.6XwX",
"3.J - - 5 5 5 r 5 2 t r 3 * > p L.eXZ.<X,XD.|.3X<X7.t.S.2X4X4XrX(./.w..XpXfX_.u.|.tX.X_.s.s.4X(.|.aX4X2.(.|.8XxXxX/./.V g.h k 8 b.sXaXw.=.2.i.aXaX.X.Xs.W.p.p.|.s..Xw.fXSXSXkXkX9X).eX_.Z.8.a.,X4X_.i.i.p._ _.5X1X_.i.,.i.8./.5X9XL.s._./.f.`.p.f.3X/.V t 7 t 7 0 O.j.P u > 6 U.qXV.U.J.l.l.a.2Xa.E V.0.{ ^ S G S X.].(.3XxX|.F.y. X,X}.,X,XP.C.J.F.8.0.6.O.3. XxX0X!.7XdX X~.$XyXFXAXNXHXAX9XD.h O = C C <.L.`.f.`.t.u.I.>XI.>X>X`.I.d.<._ <.d.r Z.tXw.q.s.A N r.r.>X4X>Xf.<.r.r.' %.<.d.f.f.L.r.f.y.%.u.u.%.r.<.) 1.V.X.8.dXCX",
"*.6._ t t t a N t y a e 5 5 6 > u P.'.[.9.D.|.P.P.9.).L.s.eX9X,X|.'.W.9XeX4XeXiXtXAXtX9XiXa.t./._.3X|.|.tXdXeXxXVX8.s.a g.] y O 2.fX|.W.t.s./.s./.s././.i.2.|._.w.(.&XVXKXKXxX`.E <.a. XtX|.i._.aXkX3X/./.t./.)._.).s.#...>X4XaXxX/._.s.d./.i./.iXkX1.6 d r 7 7 n -X@.P P l +  .sX0.-.J.J.].P...#.o.V.P.9.c.6.{ +.-.0.0.Q a.}.(.eXP.l.l.l.P.V.c.C.J.0.| G Z.0XxXSX9X XgXyX0XlXsXjXAXBX9XiX3X XG.a O = g 7 1 ~ I.>X`.f.1.r.).f.d.f.`.d.<.%.<.I.f.y m _ =.2.p.i.A ! ' ` 2.~ / ' ' ] ' r.<.<.r.f.r.L.a.1.y.<./ ' b u e Z ,.,.V.wXF.",
"v V.V.*.Z ~  .{ } V t t a a u 6 > 9 G [.<X<XD.y.t.9.1.0.S.8X4XL.a.}.(.|.iX|.}.W.XX9XtXxXeX_._._._.4XeX9X.XtXfXJXaXJ F t N ] e O K jX=.Z.W._.W.] _ >.e.Z.=._.aX.XW.iX9XD._.eXaX_././.i.a.[.).4X,X4XaX4X|./.s.s.L._._.`.L.).eX1Xd.1X/._.s.q.1._.3XiX/.a a a r t a { vXm.@.{ { n ,.sXH.@XqXU.F.P.U.D.Q V.U.9.].!.l.V.D.V.V. .D y.$.#.0.G.P.U.D.0.l.F.[.3.0.9.].8XiXfXiXfXVXgX6XqX0XNXzXiX9XL.,.p.S.N : 5 7 r 3 6 ,.>Xu.u.i.L.I.u.d.I.<.<.%.2.i.>Xg.% d d =.[.s.2.] a < < d N z C E ] ] r.r.r.<./ E ' r.8.C.S.] e B z C B g D ..x , ",
"  9.&XZ.l.V.9.4.9.7.) ^ $.V.G z a 7 5 G D.`.D.D. X9X8.P.,Xa.a.u.1./.|.[.3X1.8.8.3XD. XyX3XpXSX1X`.4XtX5X3XfXSX.X6.Q d g h a =   q {.uXV.1./.E.i.7.Z.D.S.4XSXKXSXaX(.p.J *.3XkX9X_.(.i.t.).).4X/.S.4X>XL.i.d.`.,X,X1X,XpX).4X5Xt.r.,XeX,X).,X3X>X,XS.e u r e B b n M.@.h.j.M.U Q dX#XJ.].&.*.F. .W W o.0.U.J.J.J.U.P.P.U.V.o.D.0.d.0.+.G +.rX<X0.C.[.F.J.P.0XJ.sXtXjXVXSXVXtXb.w.jXfX.XK D X.5.j.v ; & 1 z i 6 b r.0.I.I.r.U.U.1X1Xr.d.(.P.>X%.% X 5 b X.V.u.C 1 > # # & 0 n x Z ) ` ` / #.Q ~ ` ` ' i.1.J g ~ I J ^ N Q S 0 * 3 ",
"  9 A.nX%XV.'.y.o.V.V.9.V.'.!.$.h s r 6 6 - N ,.0X Xa.eX,X/.S.D.i.W.|.iX.X1.2.XX3XL.(.!.Z.a.4XiXfXxXzXpXhXtX1.A *.B z ^ a 6 #   4 -.bXS.>.5.Z.p.S.E.9XtX.Xq.).cX3X5.8.w.8.i.3X4X8.(.`.s.`.,X|..X1X4X8X2.~ 2.s.`.1XpXL.(.2X5XkX|.%.I._.a.i.9X`.(.rXy.1 r r e d p z S { v.OXn.O.z eXwXbXK.+.l.#XJ.3.$.P...^ F.J.C.P.eXP.+.P.2XV.>XP.l.U.P.P.l.&.0.J.7Xy.P.0XrXsXMXjXfXkXtXfX|.[..XyXyXiXX.p H H c e % + % > n s 6 r ! 0.$.U.k.l.1X9X9X8XgXP.z * O . # x  .7 > & > < > > , , 0 l z ( F i 7 6 6 i b / / g ! g.a ( J I N d p w 3 4 , ",
"  % p H.wX X XX.Q 8.7.3.F.}.E.9.>.~ u 3 * = < 5 d 0.2XpXaX5X2.8..X|.(.9Xs.i.s.tX0XF.$.3.^ F ~ W {.nXjXtXA.N S p 9 6 9 m p >     0 O.jXE.5.].G.8.8.7X.XZ.S.8.1._.4X9X/./.,X4X,X1._ _.L.).9Xs.2.>.,X,XeX).8._ 7.4XkXaX<XD.eXaXpX1XL.8.).>X`.a.D.(.L.a 1 i e r F S c H @.@XoXv.v.P 6XiXJ.H.J.qXeXP.k.0.J.0.z [ l.J.qX[.&.0.7.F.P.<Xl.U.P.<XlX<XG.qXsX0X6XC.U.yXbXVXSXxXtX.X.XzXAXAXqXnX2X*.| 4.V y j @   X & < 9 = 1 i i Q l.' l.b ..E.7.E 6 & @ O . & u > + + $ > < 4 6 < , 0 0 , , 4 4 6 < 1 0 9 6 6 9 f 8 z 8.6.A u * $ * * $ # ",
"3 & 9 u {.MX].o.D 7.G. X}...9 3 9 6 s u 3 9 s r e a ..Q >X4X<.~ 1.8.~ ) i./.3X{.Z.N 6 8 8 5.qXV g ~ >.w.I z c c 6 9 9 3 4 +     8 :.CX=XW.A.s.L.tXBXq.Z.4X8.i._.s.(./._.,X5XeXi.*.}.i.tXs.a.Z.i.,XpXxX>Xt.^ %.aXcXpX1X2XcXcX1X8.t.) r.1.2.1.,XiX(./ s u e a X.G S { K.vXoXv.K.K.].'.$.l.H.U.|.F.F.P.V.+.W k.H.v.#Xv.z.J.U.l.<Xl.U.<X2Xl.0.<XqXiXMX8XsX0X0XP.eXNX.XtXfXfXfXfXNXHXjXzX1.!.&XA.a N b :   O . > 0 6 i p z Q E b i i r 1     O   O O     .     . . X X # % 1 > , $ $ $ , $ $ < 9 < # $ $ , X O # m U 6 + X . X # X   ",
"l $ > q 3.4.p p X.P.G.P._ , & & $ * < 3 6 s A F v Q X.C W a.d.#.W ..X.*.*.K M 9 w 4 9 u 9 S -.Q ! a D z 7 f 9 8 > & $ + $ .     > 4.:Xn.p.t./.fXdX!.p.-.}.a.p.)././.,.a.5XeX5X1X/.|.E.a.a.4X).|.eX,X,XaX(.$.#.eXcXpX1X,XcXcX5Xp.#.1.C ~ X.8.L.9XS.a.V r u A X.H | O.Q.uXm.@X@XoX<XJ.x.J.H.V.S.V.+.l.0.F.l.J.K.C.J.K.$X#Xk.0.U.Q 0.eX5XP.^ P.MXiX0X#X8XfXlXsXP.[.[.XXVXAXAXxXtXa.v N [ 6.&XW.W V g : O 1 k.wXsXMXdXsXsXMXDXBXhX1X2X8XrX%XC.x.U.J.|.'.P.U.$.b 6 p x D b c c < # .     X .     3 #.i.(.t.i.8.i./.6.G I F p 3 #     ",
"q m w 0 0 , 4 < p B X.s & # # & & X # & 3 z H F W 5.5._ s s s d B ~ D c 0 , $ , 4 4 4 0 q 0 c n 8 8 & # # X                     X ^.uXqXiXxXVX.XE.D.W.a.S./.L.s.a.4X/.s./.|.1X3Xs.i.8.i.s.).,X|.aX3Xt.,X1Xt.L._.1X`.(._.,X,X/.5X(.0.F.eXG.3.(.|.y.(.t.d ^ *.,.H m O.@.:.H.OX=XbX6XJ.@XJ.0.W W o.4.+.&.U.qXyXgXqXOXqXqXK.@X8X6XJ.l.V.U.|.8XlXVXlXfX6X#X{.l.rX6XsXxXxXVXVXAXzXa.6 = 5 5 I +.5.,.h h ; @ D J.<XMXsXM.l.k.wXnXsX#X].&X*XOXoXK.m.K.mXnXZXGXHXZXCX&XbXvX=XvXG.C.k.l.h.S &     3 ,.kXHXHXSXxXJXJXNXiX|.0XuX%XF.C.v.-.S ",
"8 L l $ $ + .       & . X . .       % - y - ; 3 6 d i 7 6 # o 3 z N > + X $ $ # $ $ + X . + < 1 d ,.,.A *.5.9.6.3.3.4.X.z 7 o   # =XFX3XxXSX3X/.V.|.(.a.'.D.E.E.)./._.`.s.1.s.L.3X5Xs.s.3X|.s.,X3X<X>X/.S._.pX3X4X,XL.L.iX,X`.5X|.S.eXkX .p.8XsXy.v a b _ [ b.=.c M U v.H.@XsX6Xo.( y.W b b Q &.$.0.t.o.U.nXhXqX@XqXH.J.sXMXMXrXP.J.<XL.P.L.pXrXfX[.J.eXfXrXrXNXpXVXSXAX).N 7 r 7 7 d d d / E g j % ; x 6 Q MXB.j.K.K.M.K.K.@.#XuXK.x.j.B.=X-X-XB.vXwXwX$XJ.K.J.C.J.K.+X#XK.:X=X+XQ.A 6 } sXMXNXSXaXaXs./.d.` / 7.8.2.1.(.6X X{.",
"L L q * < < u z B C B D 0.4.S I I T H K [ K A 3.E.[.(.F.Z.S.-.D x U 3 = = & % X         1 L.5X,X3X9XtXsX7X[.D. X#X7XqX X%X!.X.1 # uX3X^ _.kXiXeXE.[.E.p.2XD.8..X|.,X|.s.a./.).).).|.E.8.L.).|.5X3X4XeXaX,X5X4XL.,X,Xu.L.>X5XaX5X`._.3Xt.%.aXrXV.h e u v Z B m l n +.+.H.dXqX9X$Xj.D s &.$.Q D 0.0.l.P.P.U.G.V.J.qXrX0X0X6XqXsXsXP.P.V.o.$. .(  .Q #XJ.hXVXHXHXVXVXAXNX.X>.a a 7 5 5 s N B A 5 d 1 X 1 n n b M.wXK.mXB.n.K.o.j.z.x.x.+XM.@XVXwX@X$XwX#Xz.v.o.l.! Q K.H.-.o.z.H.H.9.8.4.H } (.8XpXVXaX/./ ) W s.f.r.u.s.D.Z.'.F.!.",
"yXXXA.{.!.].sXnX#XbXbXbXnXdXwX&XyXuXMX=X=XvXmXLXIXLXDXnXBXFXwXdXdX7XH.6.8.X.Z 5 o     . P.IXVXkXcX1X' 0.S.! ` V.}.<X,X}.P.7.V g 0 w.).3.8.kXxXkX(./. X9XsX9XD.9X5X|.).).d.,X5XiX,X5.*.8.9.1X,XeXeX).(.3X8X(.<X>X).|.t.i.s.).eX>XG i.3X2._.zX(.,.a y d ..G A m w n l.U.J.<X3XnX$XJ.l. .0.0.0.0.o.^ ^ [.J.0.3.x +.}.J.P.0XkXMXMXMX(.b #.8.X.0.G.4.l.6XgXBXVXVXKXHXKXSXxX|.,.u 7 6 7 r d s 6 0 4 0 < @ 1 G M.B.-XCXmXmXvX-XK.#X=XK.+X$Xz.z.K.gXVXJ.U.z.C.z.l.o.` 0.-.F.<X7.v Q 0.0.F.U.D u H F.}.eXxXy.7.#.y.$.P.<X(.d.f.D.[.5.[ 3.",
"tXyX%Xw.c.v.V.'. XC.V.{.wXJ.J.J.{.{.#X{.dXvXbXuX7XtX^.P [ [ [  XBXwX*XK.c.g y f d 5   c BXVXS.^ Q G b ! 1Xr.U.6XP.8.V.6X6Xy.#.s :.A.(.%X'.'.fXkX3XqX8XtX8X|.D.).9X1X,X_.D.`.4Xp.>.3.Z..X|.2Xi./.rX4X,Xd.^ |.iXaX).2./.5X|.D.(.~ f ~ N N 9XD...b 5 f ~ ~ A S l m Q G.J.J.l.#.6XuXJ.V./ D o.U.U.7.W b o.J.J.U.P.J.U.<X X8X XkXVXrXg D X.5.q.!.0X XJ.l.hX0XiX8XfXJXHXHX5X8.C 7 1 3 7 9 6 > 9 9 7 7 < @ u Y.z.@.z.bXqXJ.z.&.0.].U.@.@XwXz.j.#X7XvXl.o.o.j.C.C.0.o.o.4.l.t. .0.%.V.{ U.1.W l m c.8XVX<Xv ..a.y.V.].[. X,X|.D.F.9.$.F ",
"W.tX8.| ].yXwX6.3.X.J.qX6XF.J.#XyX{.6.4.Z.#XdX~.C.;.I [ | 0.X.3.sXwX*X&X=X:.;.;.S H ; [ AX[.x X.0.o.o.' ' 0.P.S.r.}.' #.wXJ.V.v h.n. XpX,X2X.X,X(..X8X9X[.8.(.(.4X`.`.,X/././.D._._.2X2X|.4X_.2.1.S.4X).P.9.G.).jX,XaXaX|.Z.,.~ Z s d _ i.fXF.r J Z d f s q I H o.J.J.|.I.1.F.#Xo.Q Q &.o.J.P.J.o.$.o.J.@X@XwX0XlX0XJ.<X X<XpXE g $.-.6.9.~.gX(.G.kXhX].l.0.2XHXHXDX( f a 7 r 6 - 6 r 5 5 a a r O * U P P [ z &.l.l.&.&.+.+.o.z.K.K.M.M.#XK.n.+.;.@.;.0.j.j.l.o.+.0.+.[ $.0.#.+.E v { n 0 9.fX0X/ W ..r.7.D.qXyX8X XiXqXc.k.3.~ ",
"U U -.*.c.A.G Q X.0.J.A.@X!.6X6X9.k.uX!.5.3.^.^.*X].I { l.| { Z.l.{.yX=X=XQ.z.d r N u v.zXL.t.F.U.%.<.u.d.d.r.r.r.a.d.f.vXG.( a H.^.eXiX/.6.V.(.,.8.|..X[.p.'.'.t.i.I./.i.s.s._.iXtXaX|././.s./.L.,XxX5X}.y.i.,X,X}..X9X).i.2.A F ,.8.E.(.,X( p J *.^ F K =.-.K o.BXdX0.D &.Q b E b o.$.V.J.U.J.U.o. .k.x.J.6X<X0X6XpX3Xl.S.U.a ~ 1.S.[.{.yXNX<X[.MXVXMXG.0XfXBXJXNX .d r a a r u N z a p s t 5   x m.O.{ @.{ 0.l.$XM.o.z.l.j.K.+XwXK.K.z.v.+.k.@.@.&.U.J.l.l.o.l.0.4.l.l.1.E &.&...O.c p 9.hX[.#.$.$.#.1. XhXrX8X3XL.i.p.V.V.8.",
"| I -.~.&X~.v.:.v.F.Z.A.+.X.].c.h.~.&X~.c.6.4.w.F.6.M I c.+.k.v.H.@XBX=XuX Xr 5 r d 9 #XxX_.3X.X[.a.u.u.d.I.d.r.%.r.u.<.<XU.` v !.V.8.(.F.C.V.'.w.q.p.[.'.[.'.(.2.2.i.s.>X_.a._.3X4X/.(._.s.s./.eXkX,X5X4XP.4XpX9X.Xs.iX4X8.d N 9.p.5.E.|.5X2.D 9.3.8.C.A.9.5.z b MXMX4.^  X[.l.b D &.V.J.J.<XJ.J.o.b 0.l.0.l.P. X<XlXU.&.&.z / a.D.}.0XsXgXyXzXrX6XsXrXsXfXfXiXDX_.*.D g t y h Z F A K D i 5 :   P +XB.z.M.m.$XJ.U.z.l.K.K.K.$XwXqXK.j.o.j.+.l.z.l.0.U.z.+.0.l.v.l.v.m.K.%.o.+.k.@Xk.n 7 0.NXVX}.7.$.%.r.y.P. XeX,Xr.%.F.D.i.3.",
"{.~.-.qX8XqX*X$X#XC.l.3.Z.[.].6.K v.k.3.I k.| K U I U e.k.@XA.A.k.G.&X@X@X!.s d a D 6 k.9Xs. XS.y.a.L.d.y.r.u.#.%.r.u.<XwXP.1.C  X2X9.8.9.9.c.F.{.F.!.q.Q.!.9.8.1.>.^ 1.>X_./.>X,X(.r.D.2XD.a.s.,X_.4X5XaXaXeXeXfX X(.(.8.u N (.(.$.8.D.,XG.D...G.i.( 3.C.G.$.s x [ 9.K.H.lX<X4.&.W o.P.<X6X<XU.U.%.+.l.0.U.}.3X0XsXL.z b &.o.J.@XOXV.sXMXVXNXHXSXNXkX%X+.'.qXrXiX!.| V g t a G N J J *.c.Q = . X P z.K.B.B.+X+X&.b Q j.K.&X&XK.K.J.z.v.+.Y.+.j.j.U.0.z.o.0.K.m.m.K.z.l.l.J.0.#.0.<X#XP , 3.DXDXeXL.#.$.y.1.$.P.2X/.u.u.s.|.D.C.",
"OXuXA.F.^ H @XyXgXsX#Xv.F.yXhXV.+.H.c.F.9.c.W.x.x.h.J.H.].%X].J.C.!.A.@X@XQ.3.S s B < m A.a.E.8.0.d.L.y.y.r.1.u.V.V.y.J.U.#.V D 0XzXZ.p.y...!.6X0Xq.c.V.0.q.9.7.1.) _ i.)._.2XaX|._. X X/.4X3X9.s.`.eXkX(.3XaXeXtXiXaX(.C A 8.1.i.~ X.i.a.8.3X,X) %.V 7.F.J.F c m m m U #X8X4.+.k.l.U.}.l.V.G.l.k.j.k.l.0.3XMXMXrX0.5 x j.Q &.z.@.-.'.MXBXNXHXgXfX8X0X&X;.J.].<X2XhXW V g a A A J F ~ w.0.y.1   $ Y j.x.=X:X$Xk.&.D l.&X=X#XK.K.#XK.K.&XJ.z.z.k.o.0.0.0.l.K.0.M.M.U.K.U.l.l.l.o.o.V.6X{ & q {.NXeXI.#.1.8.y.t.S.a.}.,Xa.i.a.L.p.",
"z.z.K.-.x 3.7XsXqXwXsXqX{.[.A.C.W.6.4.C.V.[.!.C.4.l.K.H.v.{.@XwXJ.C.7XBXbX$X~.| c 3 % * -.%XD.s.I.t.%.r.u.#.L.I.I.d.L.P.t.! d.o.[.kX[.p.7.$.7.(.8XF.c.c.9. XF.D.q.W.*.(.3X1X,X/.D.aX3X_._._.i.8.p.,X3X,X2X4X,XfX2XfXfX2Xd ~ i.Z J p.).L./.L.a.p.a.%.s.}.A.p.G B d 5.m q U.#XU.6Xl.l.l.o.o.J. XU.J.H.l.0.&.o.U.! a ; i l.#XK.K.l.G X.Z.F. X0XVXNXMX{.6XdXwXsX[.[.hX3Xg N V ..*.F ^ C _ ,.U.U.;   > n @.v.CXbXJ.{ @.+.J.wXz.z.j.z.#XK.K.K.C.C.C.l.+.D 0.0.M.0.l.K.n.K.J.l.U.Q o.M.z.+.J.o.+ + [ D.S.L.D.8.t.7.$.%.D.kX(.6X'.1.8.D.",
":.j.x.Y h.4. XSXhX7X*X{.OXH.V.'.6XA.C.l.$.*.P.{.l.v.k.H.@X~.6X#Xl.J.wXFXnXbXnXn & &   + U .X[.6X2XI.r.f.).u.L.a.L.1X/.iX[.,.).Q E.AXiXi.8.|.u.,.1.(.{.~.[.V.F.9.3.F.,...L.4X,XI.>XP.f.4X,Xf.7.D.|._.D._.4X4X|.iXhXiXhX>.N 2.s.5.0.V.I.0.o.$.H ^ D.f.2X'.U.V.V. .m V.W.=.w.E..XzXU.U.<XJ.J.].U.C.K.U.l.].U.U.o.D 5 b l.qXJ.K.wX&XA.4.A.6XF.1.0XDXjX;XdXsXyXjXgXnXAX5Xj W ..c.G.1.&.+.l.6XqXl.6   & M Y -XvXJ.v.j.k.v. XhXU.j.j.j.#X+XK.#XU.K.K.].J.0.&.M.oXoX].+XK.J.l.0.&.0.v.B.+XB.K.S # , c.3XI.L.r.#.P.a.y.y.}.4X}.6XP.t.H.i.",
"z.+X=XuX=X Xl.l.v.%XyX%X^.c.!.]. X XC.3.[ b o.4.v.~.H.hXgXhXJ.@X].wXuX7XbXDXbXc $ #   c n.`.(./.S.S.I.1X1XI.d.( t.y.a.(.Z.,.}.Q 9.KXSXp.1.L.L.s.L.(.S.X.X.X.,._ >.y.X.^ ( (.}.,Xs.7.u.a./.,X,XD.D.p..._.aX,X,X_.s.i.F 6 1.)./.8.^ ` %.0.G C ,.1.u.eXrX%XA.F.9.G m *.q.w.c.=.*.gXwXU.<XwXK.J.].J.K.].].6XqX#X#XJ.U.l.U.|.<X<XqX<X0X[.gXZXCXnX8XfXtX%XdXdXAXjXuXDXjX~ V ) ( 9.J.F.o.+.U.J.J.U.&.i < P T M.wXqXK.j.z.K.j.U.U.o.z.J.=X=XwXK.K.].#X#XU.0.@.m.:X+XK.K.G.0.l.k.&.o.+.x.m.k.[ c # m !.zXD.%./ $.S.t.t.r.t.r.f.L.a.a. X3X",
"=XuXuXdX&X#Xl.@.O.k.!.&XyXQ.{.7XyX0XJ.G.C.l.&.4.#X@X#XsXyXqXv.n.@X].9.x 4.C.v.0 & #   I } 5X5Xs.d.r.d.`.L.a.t.S.8.~ B x 3.[.( D ;.JXiXp.D.d./.S.D.y.k.;.J ..Z ..t.i.9.0...r._.eXa.L.P.).a.u.>X/.i.8./.1.A g v d = 6 m 1.5.2.E.p.u.0.0.$.0.a.>XI.t.u.xXDX7XZ.9. .B ..J =.5.w.} ~ rXwX<X#X&X#X].U.J.J.z.K.wXlXwXl.V.P.U. X0XsX9X6XgXzXSXDXDXgXwXkXfXDXDXJXPXDXLXDXW.g g ~ X.0.F.U.U.U.U.l.U.l.o.b w M l n bXnXm.M.K.U.K.l.&.o.#XvX=X=X&Xk.z.K.=XB.m.U.U.j.@.U.+X&Xk.+.v.z.z.K.l.k.;.+.Y M > | '.|.t.%.a.a.y.a.7.| 7.<.L.rXS.r.t.S.",
"&XdX=XM.z.4.P.#Xv.9.V.yXdXyXdXdXJ.G. X[.%X<XJ.H.qXtXwX].v.+.=.U :.*.k.3.~.4.S 4 & o   J i.r.`.I.>XD.u.a.L.<.1.a.7. .| I U c.$.z 9.SX,Xi.s.,X4X,X/.*.H.6.9.0. .3.P.i.J.J.P.r.L.L.r.L.I.a.a.r.<.8.i.,X4X7.d 7 s d B 7._.p.5.-.2.1.U.>X%.o.y.`.>X<.d S G.xXdXQ 1. .J w.L L -.G ~ C D 1X0XJ.J.K.l.Y.z.z.K.B.U.].#XU.&.( U.U. XsX,X6XgXMXqXhXMXAXBXAXJXFXFXLXUXJXjXvX*.h j C 4.y.].J.'.l.J.U.H.C.l.Q 4 n U P 6XnXK.k.#XJ.z.k.j.].].J.$XK.z.j.l.K.K.K.B.K.z.l.U.wXwXz.+.K.l.j.K.K.x.k.4.x.@.c , w.) r b  .y.y./.G.G Q $.d.<X8Xa.%.] #.",
"[.v.~.H.9.D.P.}.6Xy.$.0.iXMXtXC.{. X%XV.l. X7XqX#X@X6X[.0.l.;.c | v.[ 6.4.3.S > $ o   X.,X%././.d.$.t.D.t.a.a.L.y.*.6.5.n.H.D.[  XHXHXiX8XP.P.3XL.}.qXG.A.D.8.1.i.D.a.q. X,XL.L.f.d.a.$...<.2.D.8.A d i d ,.} I ..1.8.1.=.5.2.i.r.S.f.S.I.1X5XU.8.v.z.Q t p y.9.=.J q m 4.V.3...&.V fXbXC.n.K.z.+X=X+Xz.j.+X&X].+.z.K.v.G.6X7XwXNXhXqXtXdXDXPXHXjXhXSXDXDXIX6X*.Q E v W v.@XJ.0.&.l.U.C.K.K.U.E < n Y.N.K.#XJ.hXMX#XU.l.0.&X#XJ.J.C.Y.&.{ z.k.m.m.0.o.wXvX].M.K.K.K.k.m.z.z.K.B.m.h.n 7 w F B d j E ..$.7.0.G +.,.a.P.D.V.y.1.C.",
"%X@XM.K.'.J.y.[.F.[ ^ m 0.8XqX7X6X'.l.4.V.+.[.%X-.G.sX'.G M.z.b.@X$X~.z.G [ x & # O   ,.,Xd./.I.d.y.u.L.r.V.S.}.D.8.S.].$XF.D.D ~.VXKXiX4X}.J.,X/.(.|.F.X.L.D.d.i.F.S.S.qXrXL.>X>XS.d.<.8.1.a.'. .Z B N G p.,.8.D.a.d.3.,.*.~ i.5X3X>X1X).S.I.1X`.K.4.o.Z V V./ ~ K L c m _ ,.^ ( W 8XLX-XK.z.z.K.+XB.+XK.+XK.].K.vXvX:XOXwXH.G.DXJXDXMXjXKXJXJXDXAXDXDXLXIXiX1.0.Q t Q H.J.$.4 1 x z k.C.J.J.o.i n Y.N.K.J.M.J.k.K.U.K.qX].].].l.+.j.k.j.&.K.z.j.@.&.z.z.K.wX#XK.M.@.z.z.z.K.K.M.+.n p * m A B $.X.#.V.Z.Z.C.v.0.1.9.1.#.$.3.0.",
"qXwX#X[. XJ.<X0XV.V.[.l.G 3.F.S.Z.3.Z.0.4.l.V.X.3.J.F.#X@Xv.^.*X*XA.$Xv.-.A.9 & # %   F 4X/._./.D.>X>X1.W [ ;.4...8.J.wX!.1.D z O.].MXeX}.U.C.G.[.<XP.a.1.|.,X(.i.>.Z.].qXsX(.$.I.>X1.^ ( ( 1. .1.p. ._ 1.,.7.p.(.I.r.(.S.i.i.2.I.`. XI.S.0.I.3XZ.OXV.G.y.a.y.E J K m m N 8 d  .S.' J.LX0XwXwX+X+XK.K.K.+XK.m.0.C.K.K.K.K.=X:XK. XHXHXAXNXDXDXDXAXJXJXJXUXDXs.aXD.Q z 0.+.D c < , & , 6 Q K.U.l.{ n j.N.P.0X&.i 1 6 1 i z.K.B.K.=XK.K.j.P Y.l.z.o.0.z.z.K.#X+X0.+.M.z.k.j.0.o.k.;.{ b u l M = B S.7.#.#.1.V.].G.p.L.i.Z.3. .4.v.",
"F.<X6X<XJ.2X{.].@XqX!.6.z.;.[ 5 p 9.#Xv.{ @.O.-.#XqX<X#Xx.H.@X{.*X*X~.{.qX~ 3 1 # %   u (._.I.a.S.1X|.t.0.$.3.V.1.,.S.P.7.z { z 4.C.fXPXxX<XK.K.0X].(.8.(./.,Xp.,.#.9.Z.'.P.#./ #...( ^ ,.3.G [ 8.A F 7. .^ p._.).s.#.L.L.`.u.#.S.r.%.1X1X5XI.l.K.wXP.y.5X(.S.b f A K 5.*.8 # s U.P. XVXMXMXvXvX=X#X=X-XK.+X+XB.B.B.j.K.+X-X=X$X*XfXDXMXsXiXNXHXDXIXIXUXSX_ F B v W +.[ u u < < 1 < < * D l.0.Q c T B.z. X0.9 9 i 6 6 6 c n n { z.+.o.+.j.K.K.$X@.z.#Xz.#X+X+Xz.j.m.z.j.o.W Q Q K.z c p m m e.K b C $.X.y.P.{.'.F.D.p.9.3.6.6.| ",
"[.F.@X<X].G.l.+.X.D u | ].J.C 1 5 -.$XOXH.].^.{.XXNXXXe.T.W.*X#X@X@Xv.J f a u 7 < *   q Z.>.) L.>X3XI.0.H.oX~.7X Xu.3.F N -.C.& G A.9.iXSXlXqXqXhXJ.Z.L.S.t.D.s.p.p.0.9.,.W V 0.#.Q #.0.F.9.[ [ F  .8.8.i.p.7.S.p.>.%.b g ' V 6 E C E <.d.>XS.|.H.G.|.>XpX1X#.g * 5.q.q.3.M L c v / v ~ gXLXuX+X#X].MXbX-XK.-X=X&X-Xj.j.k.7XdX0XBXDXVXhXfXsXlXAXSX(.8.(.8.F m d r Q G u 9 1 r i n c 9 b o.0.l.&.l T z.J.&.1 6 l n n n n n n @.n { { n P z.B.B.B.K.K.U.j.k.v.K.j.l.M.j.j.+.+.Q +.M.=.b.6 q e.;X5.N 7 J n.sX_.i./.#.C 7.Q q.W.A.,.",
"[ Q y.V.x < < < 9 P P P x u i [ +.I c G v.NXyXyXW.8.e.^.W.*X7X^.!.#X5.q p W a 2 u < O L $X,.,./.).L.'.'.@X&XJ.V.).3.j.oX+X~.S @ G c.1.#.xXMXnXBXwXv.@X'.t.p.).<XS.q.$.-.X.Z #.X.^ 7.1.9.Z.y.$.$.~ *.1.( ..#.8.u.8.t.t.V y ; e V v k 1 ; 1 s I.uXJ.>XS.%./ ' f.E X _ E.*.*.:.I -.=.K U W.wXdXCXwX#X#XbXMXdXwXwXnX&XuX#Xr.(.rXVXSXAXHXKXSX,X_ Q F ( C ~ F D C v b y p u u y e i b P P +.M.l.l.! v c U { b l 0 n P n P P P n P @.j.v.M.x.j.@.K.B.M.wXwXl.v.z.M.x.K.z.v.K.z.v.k.k.k.h.W.3.s l e.W.W.} m A 6.9X_._.a.` W Z ~ W S.1.V ",
"P > < < 7 < c m.M.K.-X=XK.O.+.l.6.~.!.;.{.p.G A.q.W.;X:XW.b.&XuXwX~.S m p B J 3 8 3 8 w.|.'.).a.a.I.6XhX0X9XG.9.1.%.v.OXv.G < & ^ 6.b u 1.gXFXBXvX$XoX!.0.V.MX*X3.Z.'.!.3.#.X.~ #.1.8.X.S B F V ( %._ F G ( F B 3.i.E C W b s $.%... .! ( 1.r.0.W #.%.Q g r.f.r X B a.w.W.!.A.{.b.@XdX-.m H [ *X8XMX1XU.2X3XrXlX6XiXpX1XZ D }.zXDXVX|.8.9 0 0 p ~ ~ ( ) z z b d i t r r y 5 z W D Q k.l.0. .z 6 4 Y Y.c 6 u c c 0 0 P j.j.j.@.c 9 @.M.M.j.Y.z.7XbXl.U.<XK.-X+XvXvXK.B.B.K.+.J.K.w.*.h e c e.e.5.V.w._ ~ !.2.%.d.1.X.1.X.1.) u 8 ",
"U q 4 0 < x Y I 4.+.l.~.;.4.k.c.l.-.~.dXDX4XQ ^ q.w.[.c.*.b.=X*XA.p d U m a N 9 3 3 M *.%.' /.a.<X0X9X6X9X2XqX~.,.,.!.G 4 * > # 9 z 7 9 < #.HXDXlX~.+X-X$XyXnX$Xk.]. X[.1.X.V.,.X.#.9.G b $.....7.%.( -.-...Q $.'.( W ....$.#.Q $.( ! #.d.,.C a b b ..r.$.~ 8 + X 9 d F i.8.p.p.8.6XF w w 8 w w n &.s b b W t.U.8XP.t.t.p.d > x L.[ $ , , , u 9 6 f >.^ p z d p v D v r y e Q &.C k.U.&.c i 9 < + c l < 1 , < < n Y @.j.{ c < , $ 9 Y.j.Q Y K.MXrX).8X$XK.J.&XwXvXJ.l.K.k.k.o.&.=.j h 5 n e.U l =.5.C >.A < 6 r u g X.p.F 8 3 > ",
"l S P x c n j.h.M.;.c 0 < c +.!.~.A.G [ tXNXfX).pXW.>.W.W.w.K c 3 3 a K m f v m 3 3 L m C V ~ p.<X<X(.8XP.8.p.V.S.'...* < > * X X > 4 9 9 6 [ hXfX'.wXCXZXDXMXdX7XfX0Xq.,.c.{.X.W (  .F B N u N Q W / X.3.3.D.2Xs./ ( 0.#.$.G.}.y.7.Q s v r e t v / #.Q c 3 $ X O > 9 f g Z Q C m N , > w w w , 0 0 0 0 6 4 6 Q y.&.G  .Q D 9 & $ $ w 0 0 q p w 0 q z 0 0 q p z P.0.&.b t s P j.+.U.j.r i r 1 @ . $ < p x p 4 n j.N.Y 0 , + + + + $ 0 P T n @.0.$. XJ.C.x.4.b b b n { b a G l.l.K j h t m R L m n l l 8 < = 3 4 8 8 d G m 8 % + ",
", 4 0 l n 0 x c c l , , $ $ , S K l 0 l m J *.J m A d B m K N 9 7 v N u f d v d 9 L =.M p m H } +.F W 7.G.V.8.7. X3.u 3 < < & .   + $ $ > 0 c c H x S  .[.hXhXNX0X9X X[.9.V D A.*.#.Z - = 3 > > > 1 B D #.o.7.[.D.P.G.8.L.a.t.( D 0.3.v y W v h g b u X X X O     # > N 8.,.B q q > $ $ * * , , , 4 , , $ $ $ $ , 0 x z p x c < 4 4 , 4 0 0 0 9 q 4 w w w 4 w q #.o.0.z.@.&.+.4.Q M.S 6 i 6 % O . . > w , c l n n 0 + . + . . + . + $ , w l 0 w 0 0 0 0 w 0 , w 0 n c 0 1 i i s q d t - q 8 % ; , w 8 8 ; & X # > 8 9 q 3 X X O ",
". + + , , , $ $ $ + + + + X + + X # $ $ > , w 3 w > * $ $ $ w w < 7 9 f 8 3 4 & # L R L * > > < < ; o & 6 f i z X.u * # + .             X $ 4 w , , $ $ * 3 x ^ m u s 7.F r z ;.x.k.# X $ $ , * # w z S u c c x z v b V W W [ Q u u s F D $.z 1 % o                 + # 0 8 4 w w $ $ # # X + # & + + + + + + + $ + # $ & & , > , $ > > $ , > > , , $ $ $ + + # + + w n P { n b Q &.P b b 1 o .       * C o.y.t.&.b v 7 > , + + X . X O . + @ @ o . + . . . . X + + @ @ . X @ X O 2 Z L R _ e.K >.s.d.d.a.t.p.1.J A B z =     X ",
"      . + + . . .   .       . . O @ 3 = @ ; : O X X X X O O   O O   O o : : 5 d K b.W.w.b.8.7.7.a.a.|.,X_.8. .^ $.<X6X9...X.7               X X   X 1 6 f ^ 8.(._.,X|.s.s.D.(.8X'.D.d.d.8._ A A K J m m 0 0 < u 4 * & e W 4XHXMXsX9XzXxXhX,XL.^ E 1 X o f a O O     O 3 q & + # # $ $ # # + + X @ & % ; & ; ; < 1 1 < = & % o X % 3 5 # # .             . X X   5 ! 0.r.,X8XfXhX0X0XwX#XwXpX`.1     b <XeX0.2XbXHXUXDXbXyX&X@XK.@X#XOXwXyXMXrXS.1.D v 6 - 1 1 %       X r 1 i W _ _.dXXXXX[.&XtXzX[.D.D.3XkX3X X'.'.( 9..XX.    ",
"              ; ; ; - ; ; 2 k - ] ).(.eX5X<.h t y k j N e 2 o O   ; a g ` a.F.$X$X@XJ.].qXNXVX2XP.P.kXeXS.P.9XG.U.sXbX#XJ.wX#Xz         o @ % % q [.*XXXpXHXJXLXSXJX4X2..XaX_.D.(.L.iXSXDXPXDXAXfXqX6X6XOXQ.qXjXiX,X|.iXNXPXUXDXDXFXSXNXAXDXNXzXfX(./ 2.jXuXW.A : q w.e.XXW.V - ; = - 8 y 5 2 e r 5 7 j t y j a s y y r a h h >.8.8.` a t r - X O O o # ; ; r pXPXSX|.L.fXjX.XjXLXDXSX[.W.W.kX|.  b  XqX5.J 5.a.tXxXVXaXAXAXBXnXCXLXZXBXnXsXqX!.F.S.5.(.(.` ] g.o   o K XX|.3XjXgX X8.,.a.D.S.}.P.P.r.Q D.1Xr.%.D.y.X.k.H.J.+.e ",
"          o y h g.j t k t j j _ _ s.VXxX_._.w.>._ p.2._ g.g.= O ; b Z.qX&X&X#XK.k.9.J.J.0.y.V.l.y...#.o.o.P.<X].J.P.J.<XK.M.C.Q =   X u N 7 = U =XXXW..Xs.w.9X/.K V d Z >.2.i._.fXW.2.s.(.D.|.W.(.[.q.C.^.#XqXzXhXiXfXSXAXiXiXAXJXDXAXzX4X8.d N q.W.|..X9XdXtX|.=.W.Z.XXXXW./.K 2 e 2 e j t d h j h j t y y e B 6.} z d J 9.!.uXuX<.r.9.a a a e O o * = 2 Z [.DXVX/.L.i.2./._.5XeXxXiXiX*XXXa..XZ F.q.%XtX{.XX4Xp./ ) 1.[.iX5XxXxXxXzXkX2Xa.Z.i.[.<XV.S.[.W.` ' - O A w.E.qXb.:.G.'.X.#.$.y.y.$.7.#.t.o.( /  .l.F.V.J.OXl.l.v.+X",
"        o 5 N a g.] h r j h ] 1.>.V 3XeX_..X.X%X.Xi./.2.Z g.2 o r | -.H.@XV.{.J.9.0.V.D.t.3.X.C.l.0.0.+.A.P.P.{.J.J.P.J.K.K.C.v i & N F A g K =..XiXtXW.e.e.`.p.2.i._ ~ >./.pXSX5X(.i.1._ ~ ..>.} } -..XyX~.tXxXhX(.zXJXAXD...t.3XAXNXaX|.s.2.8.>.g V J *.[..X.Xe.XXXXW..Xs.i.p.K t t j a a h j y h j h s h ~ A.{.c.A.E.*X@XG.C.tXyXuX@X>.C t a @ ; e r =..XfXpX4X_.).s.a._.4Xq.(./.eXfXjXtXW..X~ 7X X%XfXtXsX3XE.a.1.>.`._.2.s.I.a.9XkXiXL.u.d.8X XF.A.Z..XZ.(.V q =.*.5.5.[.XX'.V.7.1.1.%.t.y.7.u.V.0.%.( Q k.l.0.G.F.V.l.J.wX",
"      % e e a t h h h g.E %.<./ 2._ _ fX.XjXaX.X|._..X.XXXw.= 5 { 0.^ -.C.J.U.$.U.U.0.0.7.o.$.P.,.y.0.0.P.8X'.J.#X7XJ.0.C.yXU.6 u m [ G V F e.2.}.|.fXE.W.tX_.i.2.i.i.>.i./._./.8.p._ _ u.q.,.J c K =.=.v.sXAXzXzX}.p.tX/.>./ >.a._.tXxXAXtX(.3X2.~ #._ ,.a.] ) =.XXXX[.aX_.XXZ.w._ Z g a j j r t j g.E t.8.D.(.|.>.) *.i.E.[.l.Z.p.V.A.F. .g u = g.] W.uXfX}.p.s./.3X(.eXiXsX5X3Xs.eX).q.D.%XXX^ jXiXhXxXfX|./.i./.}.aX).i.2.1.2.t.u.D.,XI.a.a.S.i.9.F.fXhX%X=XJ F } 7.7.,.p.hX|...0.0.V.7.t.7.r.P.%.$.#...0.0.S.0.C.3.y.1.}.8X",
"    : 2 ! p.g F ) ] <.i.s.q.1.8.>.>.2./.Z./.D.D.E.kXfXXX2.=.t K k.-. . .'.yXp. .8.V.y.y.U.P.'.>X).0.V.J.F.y.l.rXP.U.P.<X'. Xu.a 9 A =.=.A W.(.>.1.*.|.KXxX9X2Xp.,._./._.d.~ A >.i.2.1._ <.t.#.F w.w.*.*.*XfX/./.fXiXL.8.1.) >.a./.|.(._.iXdX.Xp..._ _ *.8.i.2.r q W.W.w.8./.XXZ.b.e.,.5.1.F V d h ] 8.8.8.8.1.L.(.i._ W Q / G.y.p.8.8.9.c.l.l.[ q W..XyXtXfXs.#.D.i.D._.2XiXfXaXfXeXkX|./.s.XXW.F D.AXfX9XxXkXzX|.3Xs.(.i.8.s.2.s.I.1.2.s.L.I.a.S.,.1.9. XhX[.c.F m d w.9.1.w.hXD.%.#.o.y.3.0.i.L.I.d.%.0.7.t.7.$.l.-X+.4.V.V.r.",
"O   - >.[.{.q.^ >./.D.i.<.2.p.>._ 2.D.i.i._ _ 5.q.|.dX9X' ] a F 3.,.X.0. XF.y.l.3.[.'.V.P.P.I.}.3XS.t.0.y.8.$.P.P.L.6XrX'.$.! b 1 B =.K a.xX}.t.a.*.).PXxX8.8.8.i.a.i.s./.i.2.#.~ ~ >.>._ F N ,.}.a.q.;XE.2.8.a.eX|.2X,XL.`.'.p..X.X2.Z >.>...q.,.#.#.Z.8.q._ f d W.W.p.,.Z.(.(.W.Z.q.Z.;X^.W.5.=.Z.}.E.p.,...*...1.L.D.d.1.$.9.W.A.3. .!.C.l.+.A '.tX.Xs.4X(.p.Z.5.w.(..XiXzXcXkXxXxXaX/.=.W.*Xd Z FXtX(.jXiX9X3X,X_.|.1.>.a./.).s.E ( t.>X,Xi.8.q.8.p.D.iXs.8.F p M U q.E.[. Xy.7.#.y.G.+.$.*.0.i.L.t.%.( ( %.V.l.K.0.U.H.z.o.",
"O u A.%XXXtX|.*._ i.a.p.q.,.s.t.>.>.t.2.).s._.,.2.w.9X_.` ` - d o.1.y.6XfX'.'.S.J. X X'.V.8.t.a.D.D.a.r.V.V.d.y.V.J.<X6XP.y.E D 3 r K /.fX2X1.2.7.1.,XxXxX1.F D ,._._.).L.|.4X/.a.2./ _ ) =.=.t./. X[.W.a.4X5X/.i.iXaXpXzXpXiX3X1Xd.` ) _ F >..X_.w./.2X_ ,.~ f m W./.W.9X9X[.[.W.W..X[.c.Z.S.A.e.q.p.5.S.S.E.S.8.D./.a.d.o.#.P.b.(...X.A.6.5.} V 8.%XtXL..X/.Z._.Z.<.i.4X.X9X8XW.iXaX_._.2.W.W.u 9.AX2Xi.9XzX9Xa.Z.).s.p.s.a./.).d./ ,.i.,X3XD.S.|.D.p.1.,X)./ h q P =.V.D.9X3XP.$.#.0.+.c.3.4.t.o.a.r.$.%.#.[ U.r.y.I.6XU.H.B.",
"N ^..X3X/.) >.,.*.=.D.p.2.2._.|./././._ s.aX/.8.D.(.|.r.r.) : 7 [ V.G.qX0X%X!.0.Q / 8.U.y.0.V.V.J.y.D.U.P.S.V.P.P.t.V.P.U.#.&.O.3 * =.9X_.q.>.>.d N i.4X(.p.1. .K _ >._.a.r.2.L./.f.s.s.i.2././.W.q.q.[.3X4X_.2.D.xXkXaX,Xp.t.`./.s._.i._ ] q./.Z._.[._.t.F N q d W.Z.>.i.a.W.^.W.tXtX2.2.8.1.p.9.q.8.*.p.s.|.(.S.i.y.L.y.r.7.#.3.,XD.F.9.*.6.e.A s.&XtX.XeX.X(.[.[.|.[.4X3XjX9X/.E./.Z.%X.XZ.2.5 dX[.8._.2X9XhXtX5X/.8.'./.i.>X/.1.d.L.d.L.i.1.`.iX2XL.(.9X(.( r u M G  X>XL.D.%.#. .z Q 3.3.0.t.r.0.$.1.y.0.1.0.U.U.|.P.P.H.K.",
".X2XtXqX>...W.W.e.*./.jX/.a.s./.s.1._ F 2.|.(.(.(.|.iX/.t.Z O r *.,.E.qX[.Z.F.F.8.7.#.0.V.V.V.y.].P.L. X6XV.0.P.V.%.0.}.@X0.C.M.F q.E.q.F Z F N 2.) d B f ^ (.4X(.X.G Q G V g u./.a./.I.a.i.s.).(./.8.'.aX,Xi.a._.pXkX(.>.m _ a.s.i._.4Xs.s.).2.D.aXxXHX_.g _ =.K ).).p.w.W.XX^. Xf.t.) t.s.2._./._./.(.3X,XD.1.9.L.L.).>X>XL.$._ L.[.A.A.c.-.G A 2XyX(.tXxXiX3XtX_.[.iX5XfXfX_.aX.X/.W.XXNX.Xt p ~.W.D.a.(.a.tXhXtX|.(.2.1.i._.,Xi.i.p././._./.(.9X/.D.8XpXs.8.a 8 K R (.`.#.1.2.t.#.y.D.y.t.$.X.r.0.P.y.y.G.P.t.t.u.r.y.J.J.K.",
"(.).2XL.(.XX|.[.5.=.Z ~ t.i.s.s.1.t.s.).i.8.8./.q.Z.iXD.(.a O 8 ^ C Z.2X2.,.i.i.'.V.y.U.<XD.0.7.F.}.).U.P.P.U.P.l.u.P.J.K.J.@XW A E.8./.a.,.W s D.8.^ 8.7.Q $.G.8.L.9.3.,.1.2.).1Xs.a.s.i./.4X_.|.iXtX)./._.s.4X4X/.i._ A _ *.p./.s.2.s.i.D.D..XxXSXxXkX.XV >./.2.s.s.XXiXtX=XdXf.` 2.8...~ 1.aX,X/.3X,X).|.8.[ H -.S.L.>Xa.1.o.$.I.0XA.v.c.Q V A (.qXXX&XjX1X_.4X.X.XiX_././._._./.,XeXtXzXXXj m ].$X.X(.s.[..X[.|.2X(.8._ #.*.8._ _ _ i.,X9X|.s.t.8.>.>.1Xi.Z N u =.w.b.G.8.#.....0.8.$.7.a.D.0.&.[ S.D.G.y.F.J.U.L.P.U.H.H.C.",
"*.N t 8.8.>.8.s.Z.b.5.A ` s.1.>.2.i.3X9Xa.2.>.i.~ d 1.W.) r o 3 5.w.p.8..... .X.$.t.y.r.,XP.a.D.D.P.u.U.6XJ.J.P.P.J.J.U.+.6XV.6 8 Z.'.2.p.a.a.s.t.#.s.d.t.P.>XP.,XeXL.y.V.t.I.>Xs.a./.,X|.p./.2XiX(.a./.p.1.>.~ N u 3 A *./.s.,._ >.=.~ _ s.).eXeXfXiXXXZ.>.s.s.q A [.fXtX9X4X>.v 1._.L.i.8.`.9X3Xs.a.t.8.8.S.V.y.y.o.y.L.7.$.#.d.f.L.0X X3.N g A *.2.W.dX,X/.|._..X3X|.a.i././.>.2.d.,XNX4X/.d z .X2X1.s.5XpX3Xp.[.tX(.p.8.i.1.*.( p.1...s.1X4XS...8.A ; d v <.r 8 -.tX%Xc.9.3.X.;.7.y.r.C #.P.D.$.7.a.t.V.F.J.J.D.I.U.l.$.b { ",
"m Z ( =.A J q.s.}.q.8.,.1._ A 1.a.a.L.L.(.s.8.J u r _ 1.g.r O 5 =..X|.>.( X.}  .3.t.#.y.D.P.(.S.P.P.t.P.P.#XP.U. XJ.J.K.K. X#., 8 ~ (.8.~ 8.3Xa.f.L.i.d.d.D.I.I.a.t.L./.L.L.>X>X>X_.,X4X,Xs.s./.I.a.p.(.*.F m p d m m A >.s.`././.s./.#.N K 5.2.,.s.s.>.|.L.iX2.8 _ =.<.5._.t.g.a V %.7.s.D._.1X3X3Xr.W ,.F.(.(.}.,XL.a.D.%.a.>X>X5Xr.eX2X.._ D A A 1.|.1.( /.L././.s.i./.f..X.Xi.s./._.aXeX.XE c '.tX(./.2XzXE.9.1.1.q.9.q./.7.).E.p.s...2.1X9X,XP. .r ~ ) ..1.f > =.sXqXq.6.1.5.0.d.L.P.#.#.y.L.7.u.$.V.J.].{.P.U.U.y.0.l.l.k.",
"*.'.q.,.a.Z./.W.s.q.q.D.|./.1.1.>.d.i.i._.5X8.V *././._ v 5 o 6 p.|.a.) ^ ..3.0.y.S.D.D.D.P.}.}.9X<X7.D.P.P.D.F.J.U.J.uX7XJ.n , 6 *.+.<XL.t.t.#.( d.).L.D.I.1XL.u.d.f.L.,X4X>XL.>X5XaX5XaX1Xd.r.2.s./.*._ _ 2./.,.t.2.R _ /.}._.eX4X_._.t._ _ j A _ m L XXXXiX` q *.*.f q W.4Xi...B a Z ..t.>X,X>X|.d.1.,.t.[.D.}.I.P.L.a.L.P.1XaX1Xi.`.(.O.O.-.J J 1.8.W.>.2././._.p./._.i.I._./..X.X4XeXaXaX,Xx ..[.qXzX|.,._ _ ~ d _ ,.1.E./.(.a.p..X[.i.D.L.(.,.u ..(.1.C v a w *..XW.) _ 8.y.S.d.S.A.G.D.y.a.L.y.V.$.U.c.G.H.P.F.y.1.V.P.0.",
"p.E.*.^ p.*.q.s.q.>._ s.s._.q.) 8.,X4X|./.1.s s ,.2.~ 5 a < ; 5 c./.8.*.J ,.8.S.P.S.d.a.1.D.(.L.9XP.D.<XP.y.a.U.U.+.l.wXJ.Q , $ 9 i.B p.<X).(.<.,.t.,X4XL.).3X>XaXeXf.u./.eX5X7.eXxXkXcXxX5X`.`.s.(.D.[. X/.>.s.|..X/.>.A _ (..X).a.s.`.s.i._ _ i.w.s.).W.tXs.h d K _ K K s.L.i.2.^ Q W / 2.1.t.s.d.2.D.(.9.p.}.L.f.L.L.>XS.r.P.>X>Xs.s.'.:.b.n.A Z w.q.W.W.p._.).4X.X/.|._.3X.X/.aXaX,X/..X.XkXH B 5.2X3X_ N m F J N *.3.5.).|.a.i.8.,.8.,.i.t.v e 1 F #.g h b f 8 m q._ W / ' 1.S.F.'.y.) ,.7.u.L.r.S.o.y.U.}.P.V.$.G.U.7.0.i ",
"W.(.2X,.*.A Z ,.J ~ J 8.t.2.>._ ) ) a.`.2.f r h F ( 7 u f - * % 9 J } ,.~ *.q.y.G.0.v b .. .7.P.P.0.L.P.P.,Xi.J.#XU.&.u 0 0 $ + & _ N d i.S.1.2.u._.`.eXI.>X1X>X/.u.( F ,.8.<X<X}./.kXSXkX4Xa.S.W.).}.s.5.E.W.,X8X|.D.p.Z.5.2.a._ =.<.t.t.i..Xs.2._.aXkXkXkXN f q m m _ =.|.s.t.1.#.8.1.7.$.L.I.f.d.u.#.,.9.8.a.a.$.r.f.a.a.r./ W ` i.L.E.6.W.[.F A e.b.9XXX_.D._.9X.X/.s.s.XX|.,X.XcXXX_.tX.XVXX.z X.2.d 8 z _ J ~ =.>.3.i.i.i._ ) ..~ V F F N 6 6 v ( 8.C f 5 > q l z V V A =.;.w.p.5. .B B ..Q ..P.F.t.'.P. X<X..0.G.&.4 , , ",
"5.F q.,.s d V F / K =.8._ Z ` 1.~ _ d a d d f u ..~ u = % % : q q 4 c K } ,.,.Q s z s s 9 x #.7.,.Q r.P.0...X.9.+.c , , , # $ . = 9. .z G (.3X|.1.) i.3X5X5Xd.t.L._.u.t.t.t.1.7.8.1.i.,XxXaX_.2XaXpX9Xq.5./.Z./..Xq./.}.|.(.a.2.2.2.2.t.>.i.1Xi.|..X.X.XiX<.e - 8 A _ L =._.s.<.$.u.L.i.a.L.`.S.d.L.L.8.` %.i.t.D.u.$.$...^ L.7.W ~ 8.1XtXq.,XBXA m W.XXfX_././._.5X_.s.)._.(.s.i.s..XkX.XaXzXSX}.z ~ z 8 8 8 m A _ e.=._ >...N p N ~ Z g r 6 = - v A N m 7 * # O 0 l # ; q m e.-.*.N 3 6 p p 9 b Q #.D C 0.a.0.b x c u , , , , ",
"f y 8 r d ,.w.q.XX1.K _ A r a Z 7 = < O O 3 C d 7 o         & =.Y 0 8 q m m u 7 8 8 m s 4 u b Q F G %...r + . .   X # # X . .   = 9.[ N  .S.cXeX5X,Xs.f.t.1.u.).1XL.u.9.y.t.).).D.t.y.kXrX}.a.3XpXiXiXE.q.[. Xq.q.*.w././.W.|._.1XW._..X_..XL.s.iXaXiX2X|.~ y t 8 R =.=.q.3X<.t.s.,XL.s.f.2.1.i.t.a.) 1.s.2.i.s.).f.i.s.I.}.2X4X_.(.1.p.3XpXcXzXv 7 uXAXD.8.)._._.5X_./._.pX.X_.s.1._.zXeXs.fXxXL.3 6 * > > $ 8 9 7 Z V 8 5 3 < 8 = X + o = 3 p A J q +           9 U m z K p & % = = # % & # & > V $. .Q b 6 X . + + X # # X X ",
"; = : % = r V m _ *.a 8 * X   O * p m F =.5.qXXX_ 9 9 g N g =.w.n.Q.W.[.E.W.D.'.iXkXiX9XrXeX6X9XgXxXMXVXzX'.G f = O             o 9.D z B S.kXSXHXpX,X1Xi.~ %.L.D.I.5XL.y.D.}.eXeX1Xr.4X3X0.6.V.a.p._./.a.,XpX1...>.5.8./.|.|.3X).iXaXfXkXkX4XkXxXcXjXfXtX~ j t f L R *.=.1Xt./ 1.d.2.#.<.>.>.L.t.a.t.s..X(.8.7.8./.a.D.,X).a.P.eX3XD.,.F S.NXD.- 3 uXiX).|.a.L._.4XL./.aXtX(.s.s.D.|..Xs.W.fX,XF %     O X % = r q d K J F r     o v *.=.=.*.b.^.&XyXW.J A F =.=.e.w.].tXqX Xy.} S m D [ G C [ 0.J.~.$XnXDXtXG.g ;   O O       ",
"f f A ] >.>.1.s.E.q./.W.J a A ..E.XX(.W.W.(.tXAXnXBXZX7XjXDXfXtXlXVXSXJXHXSXSXAXkXzXiXfXVXVXHXPXKXHXIXUXJXMXMX&X~.| 7 :         3 ^ ^ X.*.G.DXVXcX3X4XaXP.#. .~ ( %.7.D.3X XI.P.,XeXeX8X_.D.G.p.w.2.p./.3XpXE.8.Z.a.t.8.a.[._.3X/./.5XeXpX|._.aX5XiX5XzXxXV h j 8 L R L D./.1.t._ _ ) i.(.E.i.>.1.) 8.(.Z././.8.i.I.f./.7.! %.3X3XD.s.i.3.{ L.a.; - qXpXiXpX5X/._.|.L.iXjXzX[.2.s./.)._._..XaX2.A %   O : - 2 2.yXjXjXXXXXW.w.=.*.W..XXXE.W.b.w.n.yXJXJXDXDXDXAXzXdXwXqXjXhX2X{..XqXyX6XqX7XqX%X%XwXdXhXBXHXPXDX].W.W e ; @     ",
"Z.eX9X.XtX.XiXfXs.,.'.w.W.(.E.W.(.q.) 8.^.tXdXgXJXPXgXtXBXMXS.(. X6X0XMXSXDXfXE.iXiXG.i.P.xXHXzXyXuXbXVXDXSXJXhX{.#X$XC.C 6     1 X.} D 9.p.}.4XL.4XI.t.7.%.%.#...%.y.I.aX4X}.4XeXxXcX,XeXeX/.u./.}.,Xa.>.2.}.4X,X2X,X/./.s.)./.8.s.9X4X_.2.t./.9X4X2X4X3Xg.h t 8 L R *..X<.F <.a.s.#.1.)././.a.a.2.*.a.E.8.5.8.a.a.2.2.1.1.d.>X(.a.u.D.y.5.d.%.; G tXfXfXtX_./.1X_..XfX&XeXaX.X_.).(.s./.iXtXm A % o ; k e ~ W.tXsX3X/.s.w.|.%XtX X}.E.l.w.W.XXwXnXFXNXDXAXjXZXjXjXjXdX7X7XwXMXFXAXjXBXVXhXfX0XlXDXJXDXLXJXLXAX|.%X[.q.>.N 5   ",
"[._..X/.q.s..X/.>.w.Z.E./.q.(./.8.i.'.*XjXNXdXdXDXsX!..X%XhX8.) ,.t.y.a.i.G.hX8X|.8XD.[.xXVX6Xv.l.l.H.H.0XDXpX<X(.[.OX$X$X=XA.- = 4.G [ 3.Z.D.2X4Xt.#.r.1.1.8.8.u.y.L.a.`.aXeX>X,XeXaX5XaX>X_.(.D._./.s.p.s./.eX5XiX_.s.s.(.5X.X|.%X9X_./.8.q.(.eXfXpXeX3XE g.e 8 =.=.q.(.` _ V Z ( 1.2.2././.(.a.a.8.i.D.a.,.i.s.i.2.) ) 2.).a.u.i.>X4XL.a.<.W % m hXAX_.|._._._.1.s.tXdXdXaX9XXX_._._.|.tXjXW.=.; 5 d V 8.q.q.zXkX).[.Z.'. XhX.XE./.q.b.tXjXuXZXbXdXvXuX9.[.BXnXL.r.a.(.9XfX8X0XBXgXhXhXqXhXzXDXNX8X#XyX0XsXJXIXHX%X9.^.W...N ",
"XX|.D.,.2./.aX/.W.(.(.(..X'.s.a.W.sXAXyXAXgXgXAXdXv.].V.| q.8.8.W ( #.S.y...3.V.8.9.9.G.sX].X.l.4.l.l.~.+X9.V.$XyXtXdXDXVXwX!.u 6 X.*.*.[ 1.8XaX4X#.r.)._.,Xs.u.L.I.I.L.I.L.f.L.1X>XaXaX>X<.8.2X4X_._.D.D._.(.5XaXpXfX5X).)./.5XfXpXaXaX4X/.eX5XeXaXcXiX2X] g.y q R L W.(.2.>.>.Z A ^ _ 8./.,X|.E./.4X/.*.D.9.p.i.2.1.t.a.#.2.7.1.L.).).1XL.^ #.; < q..Xa._.5X_._.D.[.iXxX3X_.2XeX_.|.XX.X*XnXaX5.t w.W.(.W.q.Z.2XkXaX[.|..X3X9XD.q.A.W.dXJXDX=XbXbXDXCX=XJ.'.y.W.D.7.....t.t.$.) y.P.7.8.i.(.NXfXU.].4.-.*X{.6XiX|.2.!.V.;.c.=X",
"[.).D.p.q.p.4X.X|.(.D.D..X(.'.%XtXNXSXtXsXAXFXDX[.6.9.G.F.0.8.5.1. .$.,.8.,.^ [ 9.6XF.8X].X.^ | +.H.A.l.=XJ.V.OXK.F.[.lXlXyXh ; N | c.X.0.3.rXSX5Xa.$...1.D.,X2X3X|.,X4X>XD.I.L.).5X>Xd.d.a.'.D.s._.3X|.3XpX,X_.aXcXfXaX4X/.4XfXkXiXiXfX9X_.D._.4X,X|.3XiXV h e c R R W.(.8.(.q.>.1.*._ 8.a._.2X'.,X}.3Xp.D./.p.i.i.i.L./.1.^ #.s.u.u.S.).P.|.8X; * a 5X5X,X}.|.tXxXxXfXtX3X3X3XaX.X_.(.5X%XXXeXE.d 5.[..XtXtX|.6.'.zX.X2X[.tX2Xc.XXyXdXJXPXBX=XbXDXJXgXG.D.t.D.V.9.y.8.) / 7.p...%.1.0.F.L.3XyXl.[ C.0.9.V.c.M.D { @XvXuXuXuXvX",
".XXX[.(._.).W.}.2XW.=.W.;XtXzXSXDXAX;XW.jXDXDX[.X.1.8.1.8.D.9.V.G.y.X.1...$.8...0.A.G.9XF.6.3. .3.{.G.[ H.v.J.V.9.[.F.0.J.9.t ; d 6.-.*.A.$.D.8XD.a.a.1.$.d.D.,X}.L.a.a.L.I.>Xd.( i./.`.aX'.1.#.<.i.d.f.|.aXfXpX5X5X,X_.5XtXiXtXeX9XD.)..Xs.s.4XaX9XL.|.5Xj h t c W.;X;Xp.s./.L.8.1.8.s./.>.J i.5XiX'.i.F p.(.E.[./.3X9XL.d.s.s.L./.#._ p.#.s.8.: < 8 |.NXfX,XeXxXxXfX9XiXtX4X4XaX5X(._./.s.r./.jXF 9.qXtXiXfXfXyX9X%XtXsX{.XXtXAXNXAXPXSX=XuXAXBXHXVXF.9.S.#.9.F.8.7.7.$.1.t.%.2.8.2.9.[.(.hX!.[  .-.9.@X!.l.OXn.C.~.~.OX@XCX*X",
"q.s..X}..XW.(.|.'.'.tXMXjXyXjX5X1XA.[.AXDXzXNX X(.|.D.3.X._ $.S.V.F.y.1.3.Z.G.S.3.9.(.].l.*.3.k.K.J.H.6.k.+.-.C.J.l.#X0XqXW u ; B -.-.6.5.q.9X9X,XL.3X6X|.rX[.|.3XD.1.f.4X|.a.t.<.` i.5XeXD.>.#.<./._.3XxXVXcXkX3X|.s./.5XpX).s.s._._.4XaX4X_.iXfXiX/..XNXr.` t p bXnX9.F %.i.`.`.8.s.L.L.8.8.i.L.|.2XS.X.*.p.(.2XaX9Xr.%.2.%.r.*.B Q 7.|.(.>.5 X d -.q.HX1X(.4XiXiX|.pXtX/.).|.9XiX}..X|._.a.9.aXE.[.tXiX2X9X6X!.&X7X8X9XhXjXjXBXzXxXtX^.W.FXSXSXSXkX/.,XI.y.r.3.8.G.9.7.y.7.#.p.p.3.1.8.,X X3.X.3.3.x.&X~.$.H.A.k.H.~.v.[.{.l.",
"W.,.E.p./.|._.W.pXKXJXiXXXW.XXsX X9XDXJXHXDXAXF.D.P.D.D.7.9.$.Q .. .4.3.5.G 5.6.3.5.5.0.V.3.$.l.4.l.K.v.X.[ { X.H.A.G.bXG.1 a u B -.b.6..X2XVXaXS.D.1.S.P.P.hX8X}.}.|.P.` 8.i.t.( ..D.>XaXu.1.`.1X/._._.5XxXeX_.4X4X4X_.eX5X_.a._.9XeXpX4X_._..XhXtX3X|.BXa.<.` } {.9._ C W 8.`.I./.a.8./.,X`.L.i.,.i.D.D.8.s.8./.2X|.a.#.1.P.L...~ _ ..,.(.F % O p =.3.xXa.p.D./.W.|.3X4Xq.W.8XtX3XE..X.Xs.Z.5.a.'.NXtX[.0XsXqX9XyX&XfXHXUXJXdX@XiXjXyXxXzXAXAXAXfX8XD.L.y.S.r.8._ ^ ( 7.t.%.3.8.3.X...3.D.!.,.0.$.5.K.oXC.G.l.-.6.k.J.c.C.@XK.",
"[.D.*.) }.NXjXdXJXIXJXAXdXuXdXjX6X8.p.2XpXAXNX8.,.D._.(.9.q.9.$.p.F.c.V.F.S.S.6.6.;.3.4.4.3.v.H.[ { j.+.d S A.X.{ C.#XwXV.k 1.W f ^ b.b.sX8XSXeXV.G.y.7.7.8.'.sXwXZ.2.u.#.1.t.1.t.1.D.`.`.>X2.8.i.q.i.r.s.).s.>.>.s._.5X5X1X/./._..XaX5X(.i.s._.hXzXjXAXiX` ] r.5.*. .N z b u.s.i.u.,.>.1.2.a.).).}.8.,.S.(.8XZ.i.D.P.(.a._.8X}.L.S.G.i.1.t.5 X   q q.5.|./.(.D.(.|./.|.4X}.}.3X_.,.W.q.8.a.|.|.2Xq.(..XD.,.p.BXDXCXZXLXPXPXPXSXkXaXpX5X`.1.i.|.iX_.,.8.a.S.S.7.#.7.p.y.F.9.6.V.3.8.3.X.| *.3.V.8.1.8.H.k.4.C.F | x.k.C.l.k.@X@X",
"W.D.,..XAXFXAXxXaXAXzX3X6X^.b.=.F F ~ D ..L.8.8.>.t.t.1.L.S.0.,.F.p.,.,.s.S.'.9XH.9.'.qXP.o.C.K.{ k.j.S p [ C.+.0.k.k.wXJ.b y.W d I ^.XX<XiXxXpXsX}.9.S.0X XeX0X{.D.t.8.p.P.(.i.i.i.a.i._.3X/.d./.`./.f.s.s.>.J Z ~ t._.3X4X/.i.<.i._.aX9X_.|.|.[.iXhXMX'.N ~ f ,.E.J D ~ ( F u.1._ ( ..) >.t./.>X`.a.u.a.|.[.a.~  .|.kXrX8X/.L.D.(.P.8.}.1.% %   A W.q.iXaX Xp.|._.|.eX8X/.D.|.|.`.a.W.*.W.2XiXiX} p.(.G.y.iXFXDXDXAX|.|.tX[.q.Z.w.*.F B G >...1...,.1.7.y.r.a.t.t.L.y.,.,.8.'.'.[.9.c.5.q.p.,.X.V.C.@.@.[ b u G v.k.{ 0.J.#XJ.",
"W..XNXAXFXjX|.2.9.D.a.,...9.*.*.q.8.1.X.F B 8.y.1.( E W a.D.S.Z.[.a.1.i.|.t.t.(.3X X X3X(.$.P.@XJ.K.x.O.k.k.+.T P I n @.#X XqX/ b e.~.jXNXpXy.3.3.sXhX6XS.o.d.t.'.fXeXrXpX[.q.9.8.t.8.t.s./.).L.s./._.L.q.2.2.>._ ~ >.>.r.).5X5X/./.4XkXVXxXaXp.*.3XqXgXgXg A E 3.tXZ.9.D.s...B ~ 8.` C ~ 1.1.i.L.d.D.a.t.a.(.D.(.S.F./.8XrX,XL.s.s._.5X/.a % *   } W.q.3X_.,X'.eXiX3X3X9X,X4X_..XpXZ.w.'./..XhXtX=.w.*XhXDXLXDXfX)./.a.9.q.X.B Z _ _ p.8._ 8.8...i.Z.8.%...#.d.a.8.L.D.,.1.s.L.d.L.D.F.F.L.,XD.| G.#X6.k.4.D o.3.X.n { 0.G.A.J.",
"jXDXAXtXq...#.8.,.2.9.5._ } J ^ i.|.i.>.1.8.p.F.9.W b E 7.[.,X|.(.L.).i.I.t.u.2.i.D.).4X>Xy.D.P.sXwXJ.K.m.9.0.C.v.l.{ H +.X.9./ B n.~.%XeXt.G 3 + d hX6XJ.U.../ $.L.eX8X3XD.s.`.a.`.3X,XD.8._ i.(.s.>.J ~ 1.2.u.t.2.1._ _ N N 2.L._.aXaXaXaXiX(.[.tXzXDXE._ V ( 3.tX9X3XeXI.3XL.i.,Xi.X.1.t.t.1.>.i.,X(.i.8./.(.8.9XD.,.t.P.L.D.a.a.,XeX1.a 5 = O N !.{.i.>.`.fXeX3XfXfXaXjX8X.X3X|.q.p.q.i.'.E.5.K uXDXJXJXMX2X_ *.#._ p.i.7. ...) ^ (.2Xu.1.i.s.*.9.q.W B ! 1.P.,XS.s.d.y.y.(.t.t.1.1.t.`.1Xs.5.P.6X%X8XC.4.v.4.+.3.G H G [ 9.",
"AXLXAX(.) _ K ` ....s.9.7.7.X.~ 1.|.2X1.2.a.8. XQ 1.1.t.G.|.pX9XD.1._.F.,.P.d.d.>.1.I.s.$.L.<X}.P.V.C.+XH.y.D.J.'.J.+.M.K.8.d D ~ H.H.b = * 3 > & * 9 6XaX6XlXlXNXxXP.Q  .8./.8.1.i.8./.`.,X,X,X_.|./.8.i.i.t.2.i./.|./.s.2./ A ,.2./.4X_..Xs..XfXxXHXfXs.` / 2._ 6XaXkX5X4X4X3X/.a./.)._.(.8.1.1.i./._.D.i.i.1.D.3X8.1.$.a.3X1X>X>Xd.a.w.g 7 7 O 9 [..X*.~ ~ /.4XkXjXpXkX4X,XeX|.) /.XX[.8.p.XX_ 5 X.aXPXzXgX(.~ A r.( ( p.y.Z.s.,.) _ D.D.1.p.(.8.Z...%.1.7.A.[.8X(.s.8. XF.8.D.d.u.r.s.u.D.3.8.P.U.~.J.@XOXJ.8.P.J.A.o.&.P G ",
"q.zXFXNX/._ F ) } 1.1.*./._.a.8.i.G.D.D.S.(.p.0.Q $.|.L.'.G.a.eXt.~ >.}.0X3Xi.2...#.u.u.y.P.pX<XwXC.W o.4. ...#.^  .F.].MXpX%.W u *.p 1 5 6 3 * < 6 > Q xXHXVXSXeX) G $.L.,X3X1X3X_.i.8.3.(.aX1X/.|.|.d.`.r.#.a.a./.p.i.(._.3X.Xs.=._ _ <.s.aXAXjX/.p q F %.a.#.} %XfX5X,XeX4X`.a.t.d.3X5X>Xf.D.a.s./._.3X>Xs.1.a.~ ^ 2.d.f.)./.s.u.( %././ t v % 6 3.sXs.J C d J _.cXfXfXiXsX}._ s.[.'.XXXX!.&XJ d B ^ gXzXAXzX1.^ 2.1.,.,.8.p.[.8.,.9.X.p.D.L./.8.5. .8._.S.J.|.a.<Xu.( d.D.(.,Xr.` #.%.1.t.1.L.<XqXuXc.! 0.y.t...1.r.$.l.k.K.",
"~ 3XDXDX.XG.i.X.#. .~ ) ,.8.1.1.2...) a.(.2X|.E.a.|.).p.S.,.1.(.t.8.L.>X>X4X<XI.$.r.r.1.V.3.o.[ l. .F X.U.y.y.t.U.6X X<XMX5Xr.' 7 [ f 5 e e 6 r e 6 3 p ..L.pX2Xi 6 C P.>X>X<X1XeXrXrXI.,X,XeX3X,X<X(.,X,Xu.r.<.2.s.s./.).,X,X}.8XiXrX(.t.X.D.iXF w , $ w J q.d N XX9X1XkX3X`.s.t.d.).,X>X4X>Xa.D.S.%.}.pX1Xd.1.( F #.1.,.L.I.u.d.#.a t $.$.v g % r b 0.L.2._ >._ 7.hXfXfXzXiX,.D.qX.X*X*XXXXXtXF G X.b 8XDXDX6X}.p.8.,.,.1.,.,.7.*.*.*.8._ /.}./.,Xp.a./.E.p.8.1.y.}.u.u.>XI.L.1X).f.' ' u.d.u.D.L.i.7.$.Z ..X. . ... .3.!.=X+X",
"A |.jX5.8.S.S.8.8.7.G G X.,.8.9.=.=.>.a.(././.p.3XzXi.,.#.2.L.(.u.,.r.).4XD.V.L.S.r.t.P.J.l.v.k.P ^ 3.3.A.<XU.l.U.D.8XqX Xo./ #.= [ *.W j y t a t 6 i q p 3 6 9 z ~ ..,X`.a.>X<X<X}.(.P.}.(.).eXpXkXfXpXpXs.1.8./.}.|.9XL.[.|.|.rXaX,XhXiX,X*.6 > > > > 8 > < & 7 A.|.aX3XD././.d.t.}.eX4X4X,XP.I.D.D.>X4XL.7. .t.i.) ,.p.$.L.)./ h W / g $.#.E * 1 p S *.a._.p.'.'.S.2XfX2.! 8..X7X7XtX7XXXA.^.~ S | B Z.VX|.8.D.L.L.a.7. .^ 1.*.p./.>.J >.5./.s.i.8._.aXa..._ $.y.L.1.u.d.`.I.|./.).r.2.t.u.G.{ G H b ~ 7.p.F. XV.8.G. XqX{.~.",
"J .X3XB X.[.E.V.F.Z.0.X.} 1.q.[./.2.8./.s./._.s.a.).i.a.t.D.D.D.S.1.u.).,Xy.9.P.I.t.a.3X<X X=XK.~.C.G.0.-.o.P.{.G.0.$.U.A.X.l.#.* X.F.E...F  .-. .$.z 3 > > , 6 u $.i.,X1X(.<X(.G.}.<XP.}.L.) ) a.2XpXxXaXs.u.L.[.G.s.9X2X8X|.}.6XrX9X3X2XD.t.s 3 3 3 > $ # # * = J [.fX_./.3X1X}.L.D.).4X>XS.I.a.L.I.L.L.i.,.$.a.t.i.L.D. .L.d.! D ..( r.V.D.$.% H D D 1.) 1.3.D.E..X.X_ g Z a.E. XXXyXyX*XW.tX| A 3...9.zX,.%.t.2XD.D.i.8.X. .3.q.}.[.i.i./.i./.i.2.s./.,.w.2.D.a.y.$.u.u.L.).d.t.D.y.#.7.y.H.C.F.~.k.G ..,.3.4.G.S.0.7.S.}.qX",
"8.tX8.>.( 8.[.(.8.q.5.5.*.*.X.1._.,X}.a.a.s.4X4X).1.7.V.(.L.a.L.y.y.i.P.D.0.t.I.1.*.y.rX8XD.#XJ.0XF.!.c.o.y.'.P.J.F.r./ E 3.J.Q # X.%XV.0.5.0.4.c.v.X.F u & $ 4 D y.p.i.y.a.4XP.D.8X6X8X<X_.t.%.%.t.(.fXtXs.D.f._.s.i.3X3X}.<X|.iXfXrX<X X8.v 6 > 6 3 $ # & 3 - 3 *.F |.hX|.|.}.P.,X>XD.>X,XI.D.S.S.%.#.#.8.3.( ~ 1.S.2Xs.1.#...Q V E Q ( W #.V.5 { ..z >.>.*.q.[.|.2XZ.8.a.1.#.a.XX*X*XuX&X{.!.k.^ q.0.iX(.1.$.#.D.|.p.3.0.....w.8.=.a.|.}.s.`.s.).|.).s.i.8.p.f.1.r.t.r.S.P.P.t.L.(.$./ p.].G.9.&XA.n.6.4.} G $.}.[.7.r.$.^ y.",
"a..X>. ._ ( D.D.[.q.^ } 9.8.X.X.i.).,Xs.s.a./.`./.i._ '.3Xa.>.i.L.L.s.t.a.8.D.D.0.l.t.P.8X0XqXsX0XF.c.H.y.L.S.y.,X,XS.%.! 3.v.Q & s {. XV.V.8.3.*X%X5.-.^ f 3 9 | 8.Q Q a.}.|.a.S.t.1.(.2X,XeX4X).(.|.hXVXlX9XiX3Xa.t.2X|.}.4XD.|.9XqX<X%.b i < 4 8 3 * * > y - - z v g kXaX/._.D.I.<XI.d.D.I. .d.I.a.#.#.S.t.#.(.8.t.D.u.%.u.t.v W ( ( #.2.L.i.< p -.F Z s..X8XxXhX/.2.q. X).8.8.W.!.3.^ 7X-.s 7 F 3.-.9Xd.F #.7.a.D.}.(.8. .3.Z.S._ ..).,X/.E././.s.s.q.2.d.|.y.#.u.S.a.t.p.S.D.L.1.%.%.,.D.].A.q.!.wXv.k.6.,.t.D.D. X}.1.E V ",
"5.2.Z A W ..X.1.D. X(.3.c.G.5.~ =./.,X4X3Xs.L./.i.=._ Z.2X/.a.p.L.S.S.y.( 1.D.y.a.G.P.6X X3XrXP.}.'.V.V.V.S.G.S.U.D.I.D.C E J.3.; * G [.(.A. XqXF._ X.=.I G F J u < 3 b #.6XaXd.d.y.t.u.,XaX8XaX4XD.(.9XfXNXiX,X(.(.eXfXhXiX8X).y.}.P.$.h v 4 , > 3 * 3 3 < 5 ; X + v d B 8.6XD.I.<XP.).i.a.<.#.i.1Xa.^ #.1.%.#.8.i.i.#.( $.y.%...#.) u.r.,Xy.7 * * K E._ ~ /.iX|.tXzXtX9X|.4XsXtXE.Z r 7 H 9 X   ~ F.{.9.( #.%.%.8.t.}.|.2X'.F.S.,.W >.}.)._.3X/.a.L.a._ ) s.p.8.1.d.u.7.2.r./ r.a.2.7.3.p.}.[.8X0X2X}.C.c.9.q.y.y.8.S.}.P.7./ ",
"W.5.D.D.) _ t.D.7.F.qX8X.XZ.1.*./.s.>.|.|._.L._.a.,.8.p.p.i.i._.d.1.d.2XD.D.1.7.t.y.<XS.L.>Xr.o.F.A.5.G.8X,X(.L.P.y.V.S.$.E ' E = O m 4.gXyXMX2X$.W _ -. . .*.*.z * > 7 z d F ..|.rXpX}.1.2.s./.7.L.2X9X3XpX1.m C D.hX9XzXhXiXVXDXhX}. .Q s $ > & & 5 y 5 5 3 X     3 G 7 S <XkX<X<Xi.r.P.<X7.%.$.r.W ^ F C B Z _ z f 6 9 z ( / 8.r.d.u.7.2.b i = 9 m 0Xs.D.~ z q g _ A A A t.i.8.>.q w > $ # X O } {.7XW.F.L.p.1.i.L.y.t.L._.2Xs.i.u.t.`.) (.|._././.8...1.p.2.u.u.s.t...p.'.P.t.) #.8.S.,X).(.L.S.7.'.G.9.a.p.D.S.y.7.y.}.a.W ",
"$X;X9XS.i.9.D.8.1.D.(.iX3Xi.D.p.Z./.s.2X2.i.i.2.L.i./.(.7.(.a.a.1.P.9X8X].'.8.D.L.}.P.a.#.$.#.o.^ { (.qX2XP.4X9X,X0.3.0.V.a.] j =   < c G.hXP.o._ b v C 7.c.3...S 4 3 , 4 < , 0 9 W a.a.#.B ) ,.D.iXVXBXF.m 4 0 p c p 9 N ^ [ Z. X8.$.Q b & @ @ % % 2 5 = - %       + N D 3.[.NXJ.y.P.eXeXD.U.y.#.[ $.0...F s r 7 < & * & $ & < i Q ..z d 7 7 1 = G c } 2XX.h s ~ d $ $ $ $ * $ # < 4 * , * $   X F W..XqXhX(.y.i.D.).2.a.(.).9XD.f.L.8.i.i.|.i.r.s.i.2.1.s.f.%.u.1.f.' 2.4XeXP.}.#.$.t.}._.u.t.r.E W 1.8.D.2X[.'.8X<X<X3.X.$.1.",
"#XwXVXaX,X,XD.y.P.L.D.P.L.a.t.y./.a.(.5X/.a.a.=.D.,X3X4X,X,X8.1.L.3X4X<XF.F. XeXeX,X<X(.d.$.[ $.1.y.|.|.).|.9X,XV.D.|.8.v.sX9X] :     & c 0 , < > 0 0 6 S F 9 3 * 3 3 4 w w , , , , 4 z N v v X.3.X.[ x 0 4 , , , $ , , $ , , , < $ < 4 $ + X o 1 r i z s c i 7 & O . < 1 x ^ S S [ ..fXt.z ..v p z F B p 1 X % % & % + % + + X X X # & # X     & [ x & - = 3 6 3 * $ $ # # X # & & # & & $ X   = ..'.jXhXNXiX(.}.D.r.d.D.D.P.).a.i.s.t.i.).2XD.s.`.2.i.s./.f.d.u.<.<.p.,X1X2Xp.,XL.L.|.|.).i.' ( ~ X. .#.9X2X2X[..X Xi.i.V.X.3.",
"6X{.sXsX}.).t.7.L.P.L.S.S.8.1.D.9.Z.'.2X|.tX|.a.i.s.,Xi.8.L./.`.L.<X3XkX8Xa.t.P.|.y.y.}.U...S X.y.,X|.D.(.D.2XkXE.a.,X[.*X[._.' ;       . . .       . .     . X X + $ # + + $ # + $ $ + $ > , , , , , # , > + X + + X . X . X % @ @ % @ k t V o.J.K.K.$X&X#XJ.J.Z.w.D.9.Q b 4 < * & < 3 u Q 1.D.|.3X(.D.9.1.W 6 %             O     o 1 p B G [ 4.c.C.3.~ a % o : : : & = 5 3 * & = & # & X     3 6.W.tX!.fXVX,XP.a.t.S.a.L.y.%.2.2.t.D.(.}.|.3X9X|.8.i.2.f.,...t.L.I.`.3X9XeX/.p.L.L.}.D.t.i.y.~ W ..,.(.}.L.[.(.[.}.,.a.3X8.8.",
"7X9.1.pX<Xt.$.t.a.a.a.F.@X=X@XF.|.tX|.|.aXiXiX3X4Xp.*.3.} ,.}.9X(.).P./.}._.,.$.D.0.p.y.X.A D [ ) L./.,X8...|.9X(.7...t.2XfXI.g -   o a % o o o % ; r a a s 3 < 3 8 4 < * # % & + X & # & < 1 * & & & % o @ o O           O 2 2 e h g.r.' 0.6X<XV.V.l.@XJ.#X#XP.%X7XgXsX0X<X0X3X(.[.G.i.0XHXNXkXkXeXeX|.8XFXCXOXn.z.O.M x m d s v D { { J.hX&XyXMXMXgXBXCXdX XN e e 2 k t j h 2 t j j y - :     6 4.2XAX[.D 3XiXP.d.t.t.r.r.S.L.3XqX X,X1XL.(._./.|.3X/.) >.5.A 1._.,XL./.D._.,XL.$.8.a.1.9.*. .C Z G ,.L.D.D.1.1.D.8X(.1.` #.s.",
"dXc.+.[.iXP.y.8.7.p.[.2XyX&X~.G._.iX(./.4X3X|.,XpX3X(.9.9.S.9.9.(.(./.}.a.a.L.,XD.D.}.P.8...[ *.X.,.).P.,.X.(.(.t.p.i...L.lX3XV ; 5 C ` g e - t a g '.yX X%X2Xc.*.w.q.F t r j t y y t g t h g.h t 5 1 e y e ; 1 - %       5 a / 1X5XI.U. .! 1.}.i.#.( $.t.r.0. .{.Z.V.J.P.,X<X<X9X X2X8X[.<XF.J.%.a.4X3X|.iXMXdXQ.=X=X:X:X=X$X:X:XB.K.wXMXqXF.$.P.(.t.D.6X&X7X{...F v d p v Z B Z h V g.t ; o   9 6.9XAX0Xl.-.|.<Xa.t.1.7.D.6XlXpX2X(./.`.i.`./.s.3XeX,XL.2._ 2.i.#.2.).s.(.).t.a.i.d.D.i.E.i.~ ~ _ ,.$.8.(.a.,.#.S.}.i.p.8.( L.",
"jX[.A.k.@X'.D.0.$.A.7XF.8.%X0XF.7.i.D.p.}.5X3XtX5XaXiX).[.(.p.S.a.8.,X3XS.P._.,X(.S.y.a.(.L.s.t.8.$.t.#.s.i.8.D.i.,X|.L./.zXpXh - (.AX9X(.i.).|.,X`.2XiXiX X9X8XiXp.2.>...p.~ V W ..a g t t g.h h h a E ] ` g.j e e -   % I :.MXDX8X0.b ' #.#.%.#.y.#.0.0.0.' E V.7.y.V.<X3Xd.D.%X$.F.F.D.y.l.+X~.y.d.3X/.,.D.VXBXwX+X=XvXvXwX$XCXbXJ.[.i.V.2X$.y.C.G.P.b.A.(.0XNXtXc.Q.@XOX@XwXnXMXzX/ j k %   p 3.2XNX X X9.~.%XF.y.7.1.[.8XD.D.9X/.i.s.2.1./.4X_.3X/.|.4Xa.8.p.*.>.s.D.,X,Xi.(._.(.(.p.a.8.1.i.t.9.,.,.8.8.D.,.1.t.(.D.8.1.(.",
"hX9X3X].H. XV.V.!.v.l.3.| 8.6X].Z.q.D.|.zX5X2X4XtX2X_.|.p.L.P.L.t.1.L.a.p.i.(.eXrXy.p.(.S._.>X).L.u.t.t...1.G.2X9X|.).9X(.|.`.a - s.3X,.8.p.D.p.p./.L.D.L.u.` iX3X*.5.>.,.!.5.,.0.c.G r y t j t t t h v v ..../ a k - . G +X&X6X' D E %.o.u.0.W ' ,.,.0./ E ( $.$.#.1.$.3.V.J.wXqX%.$.$.i.y.1.C.oX6...L.2X#.~ 1.].JXuXoXoX~.v.v.VXVXl.G o.U.i.C Q l.H.V.Z.i.i.p.3Xa.8.S.[.s._.D.2X3Xp.5.C N :   6 -.F.9XlX9X}.A.K.'.y.V.y.Z.c.4.9._.|.i.S./.`.aX3X).D._.3XpX,Xa.s.(.q.1.2.f.t.1.a.).3X1Xp.9.8.t./.s.P.u.8.u.8.2.t.t.8.8.(.8X/.p.",
"xXzXzX^.;.'.P.'.].l.k.b.M.3. XwX*XuX{.'.tX5X[.D.|._.'.a.9.P.,X_.8.1.P.d.1.u.1XeX,XS.8.V.y.r.(.}.P.|.t.p.8...p.|.).pXfX9X3XD.<.g e W ^ a.F.L.a.2.( #.2.`././.1.<.1.1.[.^.n.4.b.5.D.D.2.g r t e t h t h g t u a v Q D - ; I oXGX@X&.o.#.0.u.0.V.' E V ,.3.Q Q ( E E o.( 5.c.V.H.&Xt.#.%.#.#.1.r.<.$.$.#.Z ~ ( 1.#.Q (.AX0X*X#XqXVXHXhXl.&.t.#.W Q  .#.y.P.8.#.1.E.XX_ A ~ 8.D.D.1.f.r.q.w.6.x.p   X I q.hXDXfX2XV.V.U.J.[.A.9.5.!.c._.aX[.8X(.s.iX,X}.}.5X,X(./.D.p._.D.` i.s.2.2.t.(.3X(.8.0.F.p.s.8.D.F.F.D.t.,.8.(.}.2X|.D.D.E.",
"NXfXtXpX2X8.G.|.|.K.T.m.Q.H.wX&X%X{.9.*.q./.}.9Xa.tX2X.X(.(._.D.8.S.D.1.) #.t.).).).L.a.y.|.'.V.hX9X8.$.%._ D.}.(.F.}.2Xy.V V p a <X1.y.).|.D.t.2.1.>.|._.)./.<.2.8.a..Xw.*.9.F.i.<.` >.( g r r h g.E g h j a d [ k.d = P k.bXqXu.S.%.r.u.S.t.V.%./ 0.0.k.0./ / s [ ..#.V.$.V.G...! / 1.1.u.y.$.<.%.S.S Z 1.,...E W }.HXNXVXHX0X XqXqX3.U...^ X.8.9.0.l.>.) s.a._ Z d ~ 8.A.(.(.1.r.|.ZX&Xv.z.6 % =.A.hXNXhX{.&XP.d.P.P.A.V.Q.H.V.(.|._.|.i.2.t.(.}.2Xi.|._.(.'.(.L.s.1.2.2.` ) ) u.,X(.S.S.i.D.|.P.a.].].d.r.>.$.P.2X[. X(.8X[.",
"J Z.S.D t.D.D.i.F.n.n.-X+Xx.@X*XF.9.8.3.D.D.).hXyX{. X XiX).i.,.D._.(.s.i.8._._.i.D.I._.pXlX6XP. XD.t.$.W y.|.F.F.9...N - = s - b <Xt.a.}.,X}.}.(.a.d.L.i.a.(.s.t.<.( ,.y.i.9XzXf.' ` a.a.~ G ^ / ! E g h a v C Q o.s 1 Y.@.7XU.1.#./ ` V.P.V.r.<.$.S.].U.o.W o.d 5.J.6.y.F.A.C.W ..1.y.d.y.#.9. X).yXq. .X.t.>.W i.E.fXAXAXaX/.D.9XzX].X.{ +.7.i.t.C.].i.E 1.8.8.) ( } =._ s./.s.D.2.a.5.G m.| d *.[ q.S.1.a.U.y.L.t.$.C.G.$Xn.A.P.2X9.#.#.>.8.i.(.tX X}.,X|.1X,X1.#.L.L.1.t.~ 2.2XL.D.f.D.`.3XeX<Xu.}.L.#.r.( V. XP.'.<X$.Q v ",
"8 8 x ..a.L.2.) F.~.7XwXuXsXnXE.Z.F.!.Z.F.D.D. XtXzXxX9X3X(.|.(.i.t.D._.(.p.D.i.2.3X,X3XeX3X|.P.t.r.y.p.V.P.P.<X.X'.F.~ 5 - y ; Q 8.t.P.L.S.P.D.a.d.t.i.u.8.u.<.#.#.1.#.y.X.,.S.i.1.r.s.1.X.X.5.-.#.( ! E [ Q $.[ 1.b l Y.$XdX$.#. .o.' %.1.u.S.0.<.'.#X' ! %.%.#.i.1.8.9.V.k.3.v 1.}.y.D.t.1.!.qXp.D.3X[.V.1.9.1.8./.|..X3X3X.X2X3X|.BX[.+.6._ #.8.t.1.>.J =././._ _ ,.8.3.J m A m z N J P =.} x  .[ 8 D Q v ! #.#./ / 1.#XwXwXiXkX).1.8.D.q.7.8.S.'.H.sX9X).4XL.D.d.a.s.t.a.f.u.a.t.d._.L.<X9XeX}.L.f.y.r.$.1.U.U.{.[.y...6 % ",
"9 6 8 9 a.L.) ( ( 8XNX6XVXDXgXA.*.X.V.(.iX2X9.B 1.pXHXAXS.1.(.p.p...3.(._.|.(.D.(.<XfXfX2X3.8.P.a.D.P.U.V.y.'.4X2X}.|.F.h 5 y 1 ^ P.D.V.8.8.S.d.t.s.d.L.|.(.a.8.1...8.8.7.#._ F ~ 7.s.L.p.9.c.,.$.a.7.1.3.X.#.1.0.l.P T j.wXhXt.#.#.#.%.%.0.S.u.P.'.l.E ! ` r.' E ( ,.8.1.1.y.a.#.1.F.S.y.P.D.y.( #.8.2.t.D.,.1.i.).).>.2.Z.|..X0X8X).gXZXH.n.;.X.s.[.9.5.W.XX9.3...a.2...*.J d m s >.p.D.k.w.-.u p Q q w z #.r.D.7... .V.pX8XNXHXkXy.9.S.a.i.aX|.8.^ ,.3XSXpX_.t.s.s.t...#._.,XD.D.2.L._.9XhXkX,X2./.L.r.S.S.V.G.P.[.<XP.|.$.* ",
"= 4 8 8 < c ,.9.3.NXKXfXqXdX~.$XA.q.V B 9.9.B G $.3XfXkX2X,XD.~  .S.9X3XeX4X3X(.,X}. X%X0.| 3.D.V.S.U.U.z 1.8X3XeXeX|.u.g h g 5 r.(.V.S.7.X.8.V.f.,XL.a.(.|.D.y.a.i.u.8.1.$.$._ ( ( 8.[.F.V...#.u.S.$.X.$.#.^ ^ ..0.@.P -XnX<X .( ,. .0.+.#.` <.P.P.r.%.0.S.d.o.x 9.(.D. .( P.,XL.L.L.1...1.1.t...u.D.8.,.E.,.#.i.5X|.8.p.|..X9X[.yXdXdXBX X5.W.F.9X Xw.8.F Z F 5.i._ C _ *._ *.*.1._ *.(. X&XZ.u [ b < 0 , 0 D / V / #.<XVXaX}.2X'.F.9.9.Z N 8.#.N p 8.).aX9X`.,Xd..._ 1.1X2X|.3X}.y._.3XrXrXp...+.G.t.D.S.7.b $.rXfXsX,X8Xt.= ",
"% % > 4 0 0 9 9 u pXPXSX8XQ.&X*X9.Q G A.[.8.q.[.[.8XP.D.3X_.A F 1.(.(.D.3X|..X(.D.p.4.G.0.A.G.-.-.9.V.S...y.,X<XpX|.D.( E ` 8.s L.,Xd.,...,.8.,.8.`.|.L.,X,Xa.u.(.)./.(.y.,.#...1...(. XU.D.t.r.s.a... . .~  . .y.G.k.P wXLX|...r./ o.l.S.0.r.P.|.V.0.S.1XpXpXr.3.[.,X(.1.#.F t.(.(.P.%.W 1.d.$.t.L.8.y.!.p.` >._.eX/.Z.|.[..XtXhX7X6XMXMX8.p.p. X9X.X X) g C i.i.2.~ 8.W.q.W./.5.2.2.8.p.|.NX!.* d 4 & w 0 0 , 1 l p p >XKXVX2X9. XF.F.#.G 1.9.*.X.8.i.|._.1.).3XC Z t.|.,Xi.|.2Xa.(.P.F.V.y.8.X.l.G. .$.y.0.C y.6X2XP.|.<XQ d ",
"i ; & * > > < 0 d W zXNXAXyX{.D.8.-.h.{.9XF.(.pXlXZ.y.8.7.W a ..,.2.2.a.[.2XhX(. .G.5.$.8. XG.l.V.p.*.3.X.^ i.P.2X|.9X1.2.%XZ.d ..(.>.2.8.u.,.1.1.1.a.(.}.}.L.f.d.D.>XL.t.1.,.1.#.8.8X0X(.t.'.L.d.X.~ ,.$.X.X.3.F.l.Q O.J.rXP.$.0.l.r.%.0.L. X<X<X1XS.S.>XaXpX3Xp.p.p.8.D...W ..i.p.[.1.7.$.X.%.8.1.2.2.S.a.>.#.s.2.s.tXaX7.p.3X6X( C |.s.9.{.E.q.J S 1./ 2.i.(.1./ 9.{.W.8._.E.J _ E.3Xp.[.2X!.< < > & > , w 4 < , u z z rXNX8XqX9X(.3.[ 9.F.[.6.p.D.a.#.i.a.L.) v / W #.2.D.,X,X,X|.7.y.0.1.$.0.0.*.C.9.7.V.$...y.[.<XsX,Xb ( ",
"S p - = % # & 3 0 ( t.9X<XL.D.(.c.H.0XrX9XqX.XhXtXp.p.S.8.B J [.D.,.^ _ V..X0Xv.~ p.}.U.'.F.3.5.A.V. .X.3.8.0.7.(.iXtX1.a.s.,.~ G 1.t.8.D.p.~ 8.5.` 1.L./.d.D.L.t.y.a.8.t.L.i.t.u.y.8XeXI.<X}.7.a.t.,.3.X. .X.X.V.U.v M C.U.( E ' l.1.$.U.J.`.r.%.>XP.r.u.#.' 0.V.p.[.7X Xy.%.8.S.(.,Xd.y.S.y.1.>.r.u.8. .>.2.) J q./.(.fXs.} *.^ #.d.u.N D.(.9.} ,.E.i.` D.).L.i.) ,.5.q.E.E.a.9.p.i.,.p.(.f C.p u 1 ; ; * % % 4 w 0 0 b E ,XrXi.W f.w.v. XF.}.[.[.2X9X|.a.L.s.~ F #.i.,.( ) 9.'.%XE.( L.P.p.S.(.3.-.A.t.1.0.3.$.9.3.p.hXrX#.( ",
"^ B e 5 1 - & > < z i.u.W B / 8.{.7X6XhX XS.2X3X>...D.~ f z A /.F.9.3.X.b.%XA.Z.L.S.|.D.Z.P. X'.9.3.1.c.E.p.Z.,.[.jXiXV )  Xa.Z [ a.D.i.s.i.1.8.1.y.u.y.L.(.y.y.i.7.t.8.8.a.a.L.L.L.eXI.I.,Xr.7.D.(.8.p.3.X.,.3.l.G.G n { t g E ! %.0.o.k.U.1.r.' ! ` U.<.b b E Q c.V.J.p.8.C B D.eX|.[.L.t.(.t.2.2.1.8.#.>.t.>.=.2.|.iX2X_ g ~ %.D.}./ W <.i.D.[.sX*XG 9./.2.i.s.E.8._ E.E..X'.5.p.(./.9.N u !.[ f x = = 1 < * , < 4 0 D u.( 7.F >.i.C.*X(.i.9.t.3X3X#.1.L.8.B b ) a.i.i.1...8.w.6.8.t.i.L./.s.y.P.P.F.3.y.y.1.8.y.S.'.8XiX1.D.",
"3.^ d y e t r 1 1 < p [ c.!.Q D.dX7X6X0X2X|.(..._ ~ E B J 9.*.*.3.F.H.^.c.Z.q. X)._.(._.`.u.1._ 9.V.Z.9.F.(.E.q..X[.W h ~ 1./ 7 } D.i.8.1.8.t.S.a.,X(.s.r.S.I.a.i.8.i.D.a.L.S.D.y.a.L.L.<X[.[.<Xt.s.s.P.U.V.V.F.l.V.b n M.z g E $.o.0.C.J.l.L.r.] ' ' ` #.o.W b | 9.$.0.9.W F F G L.|.S.d.(.6XP.8.a.s.1.i.t.2.,._ 1.3XtX|.q.! ] ! d.2.~ 9.Z.D.q.8.].;.^ 3.P.a.0.S.Z.9.8.D.S.9X[.'.`.(.3X7.^ 8.6X .p ~ a y 5 5 e 1 ; * < l &.l.o.X.F.P.{.[.'.P.a.S.p.#.#.>.>.s m X.( } >.p.V.W.p.W.q.(.L.s.i.).(.S.d.D.G.V.8.P.(.}.a.d.a.<Xp.g ,.",
"^ D Z D d j t y e = < 0 x.$X~.0XiX8X X<X X(.p.,.5.X.G =.5.E.p.3...V.6X'.!.c.5.W.}.|.L.B B 9 > - D H.~.{.p.p.(.].J.,.s b V F t - z 9.a.i.#.1.u.a.P./.L.L.1.1.D.,Xt.p.i.D.L.S.}.P.d.S.` <.,XU.#XrX|.,X8XS.F.A.3.o.0.H.n c O.o.E b o.0.l.C.J.J.P.l.r.r.' Q ,.` $.l.[ 6.l.l.v.Q 8.V.[ [ D.P.S.(.P.P.V.D.a.D.^.E.E.p.>.D.8.#.(.[./.(.i.C W 7.*.[.[.E.A B G G -.Z.c.| ,.7.8.G.8X X2X3X2XD.p.i.J 5. X9.i 5 Q _ v t y y e e = @ , l H J.C.A.qX0X(.}.d.D.(.1.1.8.%.^ _ *.6.,.1.q.(.2XE.(.q.i.E.Z.L.d.2.~ u * =  .U. XP.P.I.).(.].'.E d v ",
"v b v o.$.F r e k = ; < 9 v.].[ sXzX,X(./.D.i.,.8.s.q.9.a.E.XXW.p. X9XV.W.$XV.^ *.,.z > # & * 5 { 9.l.9.3.V.=X:X-X1. .| V g.a % 6 X.S.>.1.y.d.y.D.L.L.7...1.t.P.t.a.a.9.8.V.6X(.}.P./ / ,XP.P.3X<X}.I.-.V.U.3. .4.K.X.u n h.U.o.$.l.J.J.u.1XU.( 0.Q D o.l.l.l.U.G +.9.l.J.l.0.V.9.V.0.7.a.t.r.8.(.6X(.[.(.%XXXW.e.e.c.W.*.a.tXq.g W 5.5.A J E.p.8.p.G I 4.3.| | 6.9.6.(.qX,X3XE.>.5...F ,.D.~ x B O v F C Q N a a y y 1 & , l x +.(.$.0X<Xt.8.S.D.1...#.p.5.>.8.D.G.F.D.iX.X5.v.a._ *.5.8.A 8 & > * 7 X.0.y.G.i.%.#X=XQ.~ [ +.Q ",
"< v W $.$.$.D z e 1 e ; * < u F c.kXiXP.2.1.1.q.E.9.q.D.E./. XtX0XhXhX&X=X{.7.N B N 3 & & & = u 6.6.0.9.~.Q.:X:Xv.!.F.C h E d * o ~ @X8.t.i.p.s.f.(.d.#.t.t.S.y.1.F.'.~.J.y.P.}.,XS.t.S.J.F.<XiXP.G.8.#.o.0.<X3.3.v.D & n x.0XyXC.0.P.`.u.0.$.b b Q ( 1.o.! Q &.z 6 X.H.M.C.l.8.<X[.%.t.a.D.S.F.S.t.D.tX[.tXyXXXw.W.5.W.a.|.W.a Z i.w._ N Z ..i.(.} [ 6.5.9.3.3.w.q.H.[._./.iX_.( } ..,.9.[.} q 3 X ; u B ^ ..~ b h t e 1 % > 4 < p Q y.fX3X(.L.8.1.>.(.F.p.p.9.D.9XpXE.8X.XE.tXq._ _ F F 8 % & & * c l.9.$.l.v.l.=XvX+X .X.^ / ",
". z 0...$.X. . .Q v b V - ; 1 c [ p.zX X>./.[.(.8X(.[.i.p.a.^.nXdXhXMXsXW.|.s.F N q < * * 3 5 v OXl.9.B.-X~.D.!.$X$X'.' ] V 7 & ; g !.%X9.8.}.qXP.D.S.1.r.$.0.3.v.6.v.v.#.E ..).P.V.#XwX&X'.%XV.V.F.y.#.W ..~.].v.7.a . Y m.+.l.$.S.).I.V.! ! V v Q +.U.( z z i H O.H.OXuXG.0.y.[.D. .t./.1X9XL.( d G s.'.tX2X8.>.7.Z.9XyX.XJ g r.(.5.J J A m }  X^ 4.Z.X.>.W.F...Z.Z.S.2X.Xi.a.( #.3.H.F.l.S 0 & X < = X.1.} X.X.Q g e k e 1 % 4 q S [ 1.AXtX9.(.[.'.D.a.p.E.1.D.4XjXtX8XsX8X'.'.a.J N 8 * * < 7 x | b.n.v.l.oX=X$X{.c.uX8.E ' ",
". > 5.9.$.9.9.X.&.^ ^ ) a ; & < z  .9XhXtX.X'.(.7...C 9 p p m M B 7.[.*.J D.E.8.N f u 7 5 a A D A.$X-XoXH.y.t.p.c.~ ~ ~ A r > + = E i.tX@XA.J.[.|.(.'.J.t.o.[ +.+.B P G v Z ^ z u z H v.$XwX].3.C.l.l.c.9.0.F C.7.g u + T :.l 0 i Q $.! ` E v !  .W x z i 5 1 4 N.v.c.t.V.7.E [ ,.#.y.P.1.2.~ 3 6 s p s N E.I.' 2.i.p.XX|.A 9 W s.|.( d I *.5.J ^ p.q.8.*.8.'.qXZ.Z.8.>.8.8.K N ( 7.D.*.p z 0 3 .   < G 5.#.( X.3.X. .b t t e 1 = 9 l m ^ 4X5Xa.(.V.p.(.W.>.N m m m _ p.5.|.E.,.tX3X*.f f a 6 6 S -.+.v.N.OX@Xk.G.%.p.{.n.#.` V ",
"X . i ..v G ..{ { D Q o.E a e ; 1 D [ Z.^.Z.*.d q u 3 8 8 7 8 > , $ , , f z K S d u a s N J } G G 0XqXF.Q p z 9 6 3 , 9 8 > #   + i d D C.-.6.,.+.P H D n c u u 3 7 p z s p u < * & < 6 c P { | C.J.@XC.[ D b Q v i <   0 P n 0 0 4 1 < 1 9 i D Q D D z i i 4 1 x D D D s z z s s Z 1.1.z d f N -.^ N G H k.W.q.c.5.l w 8 8 9 m ~ 8.w.5.q.*X%XW.*..._ N ..1.!.....9.N ^ Q 3...A ~ Q B 0 8 4 > +     * h.!.1...,.i.6.0.X.v a W a k e = 9 } w.4.^.W.*...F p 9 3 9 9 6 9 4 > 3 8 A ^ *.F g v g 7 m =.| J :.&X'.!.V.Q D B c p p 6 * ",
"    + 6 p 9 M M n n n z z S = o O & > $ $ , > 3 8 3 3 8 8 w $ # # # # O   X + # & & * r [ } J m P K d 9 u 9 < + # # # # # X   X . + > > 3 8 c c q 0 , # & < # > > 9 i p 4 < < * @ < c 4 X X + q 4.z 7 c 1 1 7 & # X   & , , w $ @ + + & @ + + + ; 1 u 1 6 i 4 4 4 < > > $ $ & & > 3 8 6 8 8 q z c 9 9 9 0 8 8 q w 0 w , w w w & 8 z A XXXXXXW.*._ J s d N A A f p N 9 f z z A m 3 < & $ +             > } Z N h G  . .H Q D  .D u = & & > 8 w l q q w * > > > , w w 8 > , $ $ $ $ & 5 6 5 3 7 A *.J S z ,.B c c w > $ # + X + + ",
">.Z.Z.XXXX.XNXAXNXfXiX|.W.[.).e.a : : 2 e - % = % o o o # X d Z B f 7 r d G 1.D.}.2XiXiXjXMXAXNXsX^.V a 5 5 2 1 ; ; - 2 e - o         O X + + + # & * # O O @ X + < 3 & # + X o 2 f L L A L w.XX^.I L =.=.=.=.m q m m w.b.e.q.Z.s.s.a.A d f a u 8 8 > * % % o X X .     . .   .     3 d 3 $ # + X + O O O X # # % # X X O X o o ; 5 5 7 g f r N F J _ >.t.s.D.(.}.|.tX%XsXXX5.5.q.3.a.a.1.>.N O   @ a p m J _ K 5.W.*.,.5...K g t & ; : : ; = = = ; ; ; & : ; * o @ @ : % @ : % ; = ; k ) Z.iXDXJXMXE.5.8 : - - = = = : ; ; % ; ",
"DXXXfXzX4X.XtX|.XXdXtX9X_.zXtXXX;Xe._ _ ] E t 8 2 = r r - u sXnXnXuX].%XgXDXLXDXNXBXfXiX9XiXfXLXDX9XL.E ~ =.u k k y h h g.g y o       O = - - ; 2 2 - - 5 r e y e - & ; = ; ; *.XX^.XXnXZXGXFXyX=X;XuXdXnXZXDXMXjXAXDXLXJXPXLXUXIXIXJX.X|.s.E.9XXXw.=.J ,.g :           O + X X # *.7XDXcX,Xa.^ _ *.E..X|.s.>.j t 2 O   X - 5 a E h k 2 - k Z W.;XtXBXAXjXjXAXAXDXxXDXUXUXUXGXFXDXnXFXZXZXZXjX2X3 d *.W.W..._ J ^.uXuXuXdX*Xw...g t k e e t j y h ] <.E ! ! j g.h j V g j y e y j ] %.I.3XtXFXDXDXLXDXMXXXF t k t j j j j h j t ",
"5.tXDXiX(.L.a.>.w.s.W._ ] e.i.e.=XdXyXXXe.g.e ; % = j h 5 A 5.(.*.-.^..XaX3X,X3X8.2.f.1.1.'.jXNXjXqX[.E.q.*.J p e e y t t h h 5     ; j h j j t j h g g [ X.X.N s h V ] V W b.m.W.:XbXDXPXFX=X;XT.;XMXLXPXFXPXIXUXPXJXPXIXKXKXIXJXPXkX|.(.2._ }.a.A *.^.vX[.u O     O o = ; = x =.*XjXPXJXSXxXiX}.aXJXJXNXVXNXtX_ t - O ; y 5 h V ~ [ ..J 5.W.;X*X*X{.b.l.W.[.8.(.a.Z d.iXAXDXSXsXjXsXqXDXFXFXnXJ - 3.%Xp.J Z J F =.uX.XXX;Xw.W.A.5.E j e j g.>.[././.,.,.^ ~  .~ *.} J =.w.5.J (.8XnXyXtXjXPXDXtXeXiXNXNXyXXXw.h j t h g g.g.h ",
"w.pXxXfX/.Z.W.q.<._ _ ] ~ ` _ W.tXtX.X[.w.g - * 3 = e a d e.W.s._ *.Z.D.2X`.t./.>.t.t.>.>.i._.9XtXZXjXZ.q.5.c.e.^ h a g j j e y   O t h / <.! W E %.9.*.[  .|.G.9.y.w.,.k.n.M.OX=XuXjXzXfXAXDXBXuXFXPXDXDXDXAXxXSXDXJXJXDXSXSXJXJXJXNX(.s.W.] K ..F F W.*X;X5.-   . ; - = 7 I n.b.3XHXfXiXfX3X|.a.L._.) Z <.3XfXs.g.8 O - e a _ 3.W.v.6.b.b.w.b.W.^.b.W.{.E.7.7.q.(.5.N 9.hXjXjX7XsXsX..qXsX=X-XU g Z.7._ ) 8.3.>.W.XX.XiXfX^.W.^. XA.>.h g.<.2._ 1.8.q._ ~ 4.3._ A s I w.z.Q.tXyX]..X%X^.gXDXgX2.2.p.3XsXfXNX*Xb.V j ~ w._ h h ",
"sXq.i.s.9X.XE.w.#.>.#._ 2.w.w.W.XX2.` 2.] 8 - = r r 2 d *.^.}.8.w.V.D.i.i.D._.,X>.) #.1.3.a.s./.,XeXtXXXtXXX5.w.b.w.p.*.~ h y - O ; h ! .X8Xi.) $.u.y.i.i._ s.aX4XL. .[ b.W.n.bXdXjXDX|._ s._.aXPXPX6XW.|..XD.eXjXiX}.p.q.,.D.|.SXSXVXVX.Xs.) g.A ..,.5.XXW.^.=.  : ; 7 N U J w.W.aX/.8.s.a.r.s.1.) Z V <.d..X|.) 1.t ; d K e.W.v.W.V.w.^.{.Z.3.3.c.^.F.E.p.q.V.5.a.W.6.(.jXNXS.D.qX[.X.&X&X*XQ.b.~ 8.) #.2.1.W.&X[.8.2._.JXxXeXeXi.X.| #.1.,.( ) 1.8.i._ ^ _ 7.~ J =.w.e.h.*XsXW..X.Xq.7.9X|.a.,.W.Z.s..X.X9XD.b.w.=.e.1.p.Z.=.",
"iX8._ _ i.2.D.8.w.2.` 2.i.2.r./.|.`./.>.A 8 = q A h d _ 5.tX/.*.y.p.(.).2./.,X/.<.t.8.1.i.`.L.`.1.#.) 8.%XE.}.3.*.3.XXW.3.3.~ 5   k ) 9XkXtXS.9.f.t.1.7._ _ ,.S.t.G } v.;XZXdX=XDXDXhX/.i.w.2._ 8XiX/.8.5.}.iXVXxX3X5.K _ F .._ |.DXSXIXKX}.,...K J ..q.^.6.b.=.o 7 | =.=.b.:.W.fXfX,Xi.D.(.t.1.#.Z E ( i..XtX|.( _ Z r A U Q.W.XXE.V.w.A.c._ _ ^ ) 4.Z.W.4.[..Xw.9.,.9.W./..X{.*X=X!.!.qX].(.6X6.d V F W.5.Z.dXiXi.,._ i.SXNX_.>.W 8.'.p.s.t.1.2._ W C ^ ..~ B z ..V.=.;.W.[.p.>.q.{.9./.E.q.D./..X8XtX(.2.(._ _ 8.,.W.W.[.W.w.",
"L.q.2._ _ _ w.Z.s.w.>.2.>.2.i./.s._./.>.A d t K _ K =.K =.fX).>.D.1XL.p.a._._.8.) 1.a.i.a._.a.>X/.2.#.F >. XAX|.) V c.c.X.l.G.1   a p./.eX3Xs...1./.(.D._ J *.*.^ I b.$XBXdX'.jX9X_ 1.q.s.Z.p._.q.1.(./.iXiX2XpX|.3X5XW.5.=._ 2.W..XSXzXDXxXW.p.>.K K W.b.w.;Xh.8 =.m.x.b.A.[.2X2.f./.(.|.'.` W V E ) d./.|.(.2.V p.a.8 9 m A XX%X{.^.E.^.Z.3.} C m B D D.[.8XhX[.q.c.tX2X_.hXBXBXjX$X@X.X9X[.[.=.B F h.;XXXZX/.>.2.t.2.4XSXjX..F W 8.a.#.t.G.F.1.2.p.8.~ ~ ..[ ,.7.9.S.^.Z.s./.s.2.a.}.qX5XiXfXiXiX6X|.2./ 2.Z.W. Xs.W.tXs.A e.",
"_.a.>.w.D.i.e._ d.a.5.i.t././.2.s./.i.2.i.d f R _ _ 2._ F 8.>.! >.i.#.,.8.d.L.1.` >.2.1.1.2.#.! E V W a.).tXtXhXfX4Xc.n.v.G.V.e   * ..a./.D.q.,.,. X(.V.*._ J _ G =.Q.dXiX6XNXkX_ Z q.2.a.D.p.[./.1.W./.iX8Xs.,Xq.[.qXE.*X.Xw.e.,.s.XX_..XfX6Xw.*.m _ 5.w.XX;X-.P h.w.w.c.9XtX*.>.2.>.9.|.2./ / ' <.2./.s.<.>.<.A 2.|.7 9 A p 8.9XE.(.[..X[.q.-.5.w.w.z ^ .X[..XZ.A.p.D.{.{.XXtXtXyX~.x.H.MX{.7X..c ^.l.q.E.a.Z ) _ Z F 2.9XfXL.,.3.| Q $.t.1.1.) >.i.i.,.) 1.8.(.p.D.Z.[.|.3X2XE.1.E.tXfXfXiXp.,.s..Xs.t.2.i.Z.a.(._._.3X] a K ",
"4X_.Z.[.tXZ.q.8.D.i.=.1.>..X9X(.s.i.r.' r.d a R _ 5.q.5.a.m 9 q d 6 p #.2.1.t.1.W E g E / B v g Z ( t.|.D.`.|.fXxXSXMX0X@X'./ <   o ,.8.5.( ) i.2.s.E.*.e.=.=.=.M.n.uXAXS.q.zXpX/.s.s.D.D.).D._.[.i.*.|.}.t.,.J K E.s.q.&XiXtXW.w.XX,.J ..q.jXtX-.3.,.l.x.e.b.=.U h.b.{.fX5X|.2.D.p.2.>.,.>.1.1.<.a.).s.<.i.a.1.) / 1.f m A _ ~ 9XtX9XE. X[.W.Z.5.Z.C.w.A G D.A.!.{.Z.v.tXtXk.^.#X6XhXXX*XjX7X7X9.C (.X.X.G z V g.>.t.1.p._ Z 5.y.S.7.D z c z B 8.t.P.i.r.8.1.1.a._.|.1.(.hX9X|.i.d.|.iXkX|.F N 2.}.Z.a.a.2.%._ >.5.iXpXfX8.Z } ",
",.2.2.(.E.2.q.s.i./.2.<.2._ >.Z.p._ _ ` 2.E d ] _ 1._ W.a.8.Z.5.^ N t.8.%.7.r.1.#.) C C ( v v 1.t.r.s.>.J 2.eXfXHXPXKXlX6XqXb %   O *.,.K _ 1.,.,.2.W.q...=.=.N.T.dXyXsX9Xa.i.8.t./.Z.)._.)._.s.2.i.>.d./.q.i.*.*.W.L.b.^.tX9XW.Z.5.~ K J D.AXDX%XH.h.H.OXb.{.e.I =.[.AX9X2. XqX2X/.[.1.` ) <.a./.a.|.s.a./.2.) >.a./.d m m X.B ~ tXsX'.D.E.E.q.=.F.E.b.-.3..XqX9XyXXXW..X(.l.| J W.hXjXdXzXDXjX^ 9 9.V.Z.1.#.<.>.p.i.2._ m A 8.p.,.y.9. ._  .1.y.F.(.(.D.t.i.(.D.(.,X2X Xs.(.|.r.i.D.8.^ F A w.w.8.J _ >.>.1.p.E.tXAXDXAX_.2.w.",
",.>.2.[.E.D.Z.|.s.s.t.) s.r.#.2._ =.e.%.d.` r A J *.5.q.>.8._.2Xs.s.p.c.,.W t.|.L.1.#.>.( E F ( a.|.d.*.8.2.`.,XSXSXVXhXP.V.v 1   o A R e.=.*.w.=.K W.W.e.=.e.Q.=XvX;XF.qX|.2.>.w./.2.>.p././._.q.t.2.J _ D._.a.a.s.*.e.W.XX/.>.#.Z.e.w.w.tXZXNXLXdXyX].4.[.dX^.w.gXxXtXp.1.(.9XsX(.(.1.) ) 2.s.).) i.,Xs.i.2.<.i.|.aXv 9 m ..X.d 5.tXi.7.5.2.3.c.(. XZ.-.} p.dXtX X9X^.w.A.6.=.K 5.tXSXVXVXAX9.6 p *.7XG.d.1.d.L.L.d.<.1.5.q.(.y.y.L.(.0.p.L.s.s.a.L.(.(.8.i.a.(.|.}.S.A.q.#.*.N N N 6 3 m ,.'.W.Z.W.a.F d _ D.|..XfXfXs.2.Z.XX",
"i._ }.|.[.Z.q.3X/.s.` ~ ) t.2.#.] w.>.<.s.N r L =.*./.a.2.s.s.s.}.`.1.5.9.3.,.#.2./ ( 2.%.F / ..1.Z././.2.1.a.eXVXDXfXD.t.#.b t o X S K R *.1.R R L =.K K W.^.uXmXR.dXzXtX3X|.p.i.2.>.>./..Xa.).|.L.a.q.q.s.2..._ i.Z.Z.W.W.[.W.5.,.5.XX%X(.tXZXDXFXHXVXqX[.E.l.E.MXfX8.8.s.1.>.2..X/.D.s.2.t._.|.d./.r.2.a.d.|.s.|.}.g z [ *.X.} ^ 2.) 1.>.q.E.E.[.!. Xp.3.A V.hXhXtX^.7XyX^.6.x.n.q..XfXxXp.- 1 b p G [.>.~ D.).s.1.w.q.8.a.L.L.S.r.7.#.8.L.L.D.`.,X).d.i.a.8.s./.(.q.>.~ F F _ ~ N A z m *.V.1./.4X_.a.F ~ ~ V N 1.1.C _ /. X",
"/._ Z.9XL.2.s.|.).<.~ ,.>.#._ K >.8._ ~ <.a 8 L :.E.E.p.t.r.2.i.a.a./.i.1.0...p d ) ! ] ` Z Q 1.D.a.|./.2.>._ F $.i.X.8.D.<./ h : : R =.=.,.1.K K e.=.C =.x.=X*XvX=XZX3Xs.E.(.(.Z.2._ >.i./.i.2.2.D.).|./.>.i.2.) >.i.s.t.>.D.}.|.E.w.-.e.w.c.[.uXBXMXFX0XU.0.H N /.fXfX'.2.2.) _ i./.i.(.S.p.2X,X_.i.>.8.}.9XgXhX(.3.h d X.8.*.} ,.F Z >.8.5.A.F.(. XqX X5.3.[  XgXjX0XyX*XE.;.n.Q.6.B N s r e f b  .^ c.p.p.u.i.1.1.q.E.).s.a._.L.<.1.t.s.i.f.L.2X|.}.4XeX,Xu./.D.L.q.8.p.3...D.S.S.8.G S ^ 9.a./.t.s.(.i.2.K B Z C - N ^.!.8X",
"D.,.8.|.(.D.p.1.>.%.8._./.t._ A K ` E ] r.E 8 R (.W.E.r.) #.2.i.>.>.L.`.( v ..X.~ ^ >.E ~ ( ) } *...1.) >.p.,._ z r 7 5.{.,.E g.; ; =.e.e.,.=.=.e.=.=.v.M.N.;X:XCXAXjX_.1.i.(.a./._./.=.w.W._./.,.>.p.>.t._ *.q._ Z a.a.s.8.*.q.[.|.8.5.5.W.w.w.=XCXCXZXa.g b 1 9 F 9XfXi.2.8.w.i.t.t.8.>..XqXE.9.i.` 2.(.}.8XhX0Xi.v 7 6 A p.Z.q.5._ J K 5.3.D.9XhXtX!.H.c.k.v.} tXBXtXXXqXW.l.$X6.F I b s h F D z ~ ~ [ (._./.L.8./.1X).f.D.|./.D.L.1.#.8.L.(.8.(.,XpXzXeX9Xa.i.a.F.F.'.!.C.9.p.(.[.p.6.X.G 3.(.q.1.t.(.i.a.q.X.9...*.q.*.[.*X",
"5.,.8.p.Z.|.L._ ~ K 2.<.` 2._ _ #.E V ..s.2.- =.E.p.(.,.>.) #.1.1.1.`.L.~ A C  .X.1.^ C E ) *. .N  .i.s.i.a.s.s.i...C 6.x.8.] E 2 3 =.e.=.=.R R U w.+XT.z.N.=XPX9X[.|.|.8./._.2.2./._.|._./.|._.5.../ K 5.2.i.8.=._ _..X.Xw.q.a.,.>.8.8.,.^.=XuXbXCXZXmXP.v 1 + 3 A 8X9Xs.1.7.Z.[.Z.S.i.i.9XMXyX(.8.r.(.9X(.a.L.a.t.a s p i } F._.a.2.W.U =.A.W.W.tXsX{.v.v.b.^.b.X.zXnXtX&XXXMX[.[ k.v.c.v.k.H.d Q H 5 7 Q (.`.8.t.D.).(.,X3X_.t.7.1.( B ^ t.D.6.,.D.(.fX9X'.9.,.5.Z.q.*.3.V.V.q.F.A.w.9.A.Z.6.>.F 5.t.2.) >.E.p.i.(..X|.F.jX^.",
">.w..Xs.8.s.p._ _ i.s._ ~ A _ _ _ V _ 8.q.2.8 _ p.D.2.>.1.2.) ) 1.a.f.1._ ..^ ( _ ) _ B N ~ 7.c.S.8.a.f.a.1.i.s.L.` ..F.4.o.E g e d =.e.e.m m R K w.Q.=X:X:XDXVXtXeXZ.a.|.E._.E.,.8.(.[././.4XeXs.=.K K 2.|.(.Z.Z.2.D..X}.i.8.t._ J 8.8.8.c.^.bXJXgXbXCXdXg.< + 3 A 6XAX2X7.Z.|.9Xp.1.9.E.|.8Xp.8./.i.'.0X|.D.2.` E E N q M D 8._.4X|.w.e.e.7X$X{. XqX$X^.A.^.W.V.D G i.F } ^.[.} w.c.c.C.OX-X+X& B | B x N 9.|.D.a.#./ s.2X[.i.%.,.d.8.1.,.) ~  .#.X.1.(.|..XW.].6X.XqXq.*.A.c.9.9.C.c.q.S.F.S.*.q.W.8.,.1.2.s.*./.2X}.2X3X!.D ",
"#.s.9X|.tX.Xs./.p.a.2._ _ K >.t.W ) .._ *.) 3 *.D.5.>.>.1.8.1.i.7.7.s.i.2.8.2.i.8.>.F F ) _ ,.9.rX3XL.u.L.t.r.,.) W %X@X+.4.Z - ; =.e.=.I m q I W.k.^.vX:X:XfXAXsX3X/.2./.W.|.4Xq.1.W.f./.i.w..X5Xi.K K p..Xs.Z.w.1.s.Z.D.i.w.i.9.t.i.1.8.A.^.dXjXjX7XdXbXf , < b D 8.zXiXD.[.}.%XF.p.p.8.8.p.2./.i.a./.[._.2.8.a.' E 6 9 I I 5. XaX9XA.n.b.^.2XfXaXtX7XXX#X.X2.p.W.*.B H } X.w.].].F.F.#X+X-Xb.% Z b.N B G ^ 3XkX9XP.a.D.d.#.r.P.D.L.r.$.X...V.t.,.a.i.(.2X*XQ.].9XqX6X'.3.G.%X^.0.X.G 3.V.c.F.W.E.'./.F. X,Xa.p.9XaX2X2X.X*.a ",
"2.w.XX|.|.3X|.i./ 2.t._ >..._ 2._ _ >.2.4X~ < *./././.s.p.s.D.9.p./.2.2.i.2.).|.s.a.1.,.F _ I _ $.}.|.L.).>X1.E ~ ..G.!.K.-XD ; : w.*XL q m /.dXvX$X&X@XT.W.jXhX8.}./.=.,.i./..Xa.Z.L.|.L.,.1.s.i.#._ ) _ 8._._.i._ ,.,.s.s.w.5.p.'.W.W.5.6.{.n.hX(.*.W.l.u u u z ~ } ,./.s.s.W.(.iXE.>.1.#.W a..Xi.s./.|./.#.2.a.Z y * d w.*.5.S.9XpX(.qX*Xe./.kXhXqXnXyXW.9.5.D.yXyX=X+X].].W.l.'.qX0X0XvX!.r % ..[ B B H -.5.kXSXkX,X,Xa./ %.y.( r.P.V.3.r.D.G.S.(.s.a.D.9.w.q.3.,.q.V.F.0XdXA.D.3.| -.5.].{.!.Z.|..X_.(.|.,X8XiXzXaXaXzXa.F ",
"D.Z.s.8.q..X|._.i.` i.) _ 1.q._.s.>.1.L.1XK C ) )./.2.a.s.8.D.i.'._.>./.'./.3X5X).8..._ A A m N ^ [ X.1.#.1.$.y.1.1.[.$X@.+XF %   L h.w.!.BXZX$XoX+X=Xn.=.{.DXtX_ 1.|..Xs.p.E.9X|.(.}.4X|.|..X(.,._ <.2.#.8./.i.i.>._ ,.5.i.1.,.8. X6X.Xw.4.tXhXhXp.S.%XX.7 r u z  .X.i.3X8X|.(.iXkXiXp.8.p.X.1.(.a.|./.2X[.(.XXW.h @ # q c..X.XW.D.S./.aX2XtXAXzXfXzXfX3Xq.a.[.'.0XdX&XQ.#XW.*.+.4.G.].qXDXD.5 o D } [ I  .8.F.kXaX).>X>Xu. . .E ( #.#.P.P.D.P.G.a.4X<X(.2XD.D.8.8.5.S.G.y.8X'.8.V.V.V.A.3.V.Z.XXp.q.3X[._.tXp.E.|.5XtX5XjX(.E ",
"[.fXZ.s.3XtX.X(.W.i.%.` 2.i.i.a.).i.8.a./.i.A g Z 1.i.D.D.i.1.p.4X4X|.|._.4X2X_.a.<.#./ ~ _ _ F B ,.7.Q D Q t.(.t.y.V.C.;.+XS   3 tXnXZXLXLXZX+X+XW.+X=Xw.Q.nX9XZ.q.a./.q.s.s.a.8.>.a.W..X_.(.4XZ.p.5.2.2.=.8.>.#.2.2.i.i.*.2.,.*.7. X[.p.D. XfXa.|.NXE.u 0 u * s P I 4.*.0X|.f.5Xr.i.D.8.S.P.qXqX[./..Xs./.|.[.i.t   * c A i.=.H p A 3.1.Z *.E.W.[.tX5XiXs.^.dXdXXXE.N.N.D N _ l.*XdXyX.X3.b 3 O [ -.*.[ ,.Z.V.|.r.}.a.$.' W / / / 1.0.P.1XP.D.I._.,X}.|.pX|.t.1.S.9.p.V.1.7.0.,.S.'.F.9.X.X.p.(.D.(.XX(.|.i.Z i.).2X2X_.|.%.g.",
".XpXi.` _.9XL.p.t.i.2.2._.s./.i.L.8./._.L.) f Z s C a.8.1.8.( (.|._.|.4XaX5X_./.t.<.2.#.1.S.t.L.t.s.(.y.,./.X.8.D.].3.% F =XH   2XLXZXZXZXFXZX;Xv.n.$XnX*XdXyX/._ J ,.q.4X9XD.t.q.>.8.5.q.(.|.eX(.D.E.8.*.2..X.XL.8._..X_.s.2.>.) ..8.(.[.p.D.2X2X0XP.p 6 c 7 & * 8 0 w w B J J C N 8 8 8 p F [ S H c  .*.} q.Z._ < X 0 K M c d 3 & O     X     # 3 4 ^ .Xq.q.W.*.s - 3 p ; 2 7 s W #.,.~ 6 *   o } *.J *.*.8.E.(.1.,XD.#.$.$.#.$.r.r.1.t.I.S.u.L.L.(.,X,X|.a.#.V.(.D.L.G.V.y.7.].[.}.V.8.7.S.F. X2X8XqX|. XD.p.L..XsXaXtXeX<.V ",
"[.p._ _ _ p.t./.s.>.>.i.a.2.>.i.) a.aX5Xu.N f A N u C N ,._ ) |.,X/./.2.2.i.`.(.#.1.1.) a.f.L.(.I.3X_.P.p.p.8. .p.}.9.t 0.H.c 1 CXmXnXmXZXvXCX^.Q.oXbXFXMXAX|.1.V J J q.4X|.|.8.#.q.Z.*.8.E.|..X.X,.p._.q.|.9XaX.X4X3X(.D.w.i.[...c.Z.5.D.i.8.D.2XE.c 4 4 u 0 < X . + $ > $ $ 0 8 $ + + X O     O   X   - [ N.M.M.n.Q.W.W.^.*XtXb.3...d = X O       ; 3 8 z F K *./.s.p.) A v N B A N 6 X       % X.3.3.^ F ^ Z.JX}.t.t.$.L.u.t.L.y.D.y.t.D.u.7.%.$.d.}.P.i.) ..3.D.}.F.S.'.[.<XZ.8X<X2XrX<XE.'.{.yXqX6X0X3X|.p.>./.8X.X|.|.a.] ",
".X9X2.Z J _ f._./ ) 2.2.) >.8.s._ ~ 2.3X2.f s A [ B s 9 F ..,.,X(./.a.) ~ 1.1.) E C #.r.d.S.I.d.1.D./.(.p.,.i...~ ,Xu.E ..3.+.9 uXFXdXuXDXmXuX%X*X].S.p.p.D._.i.>.w.W.i.q.|.}.2._ q.}.5.q.W.W.XX[.i.s.|./.|./.pXeXaXaX|.Z.2.w.Z.i.A.!.E.i.,.*.E.tX'.c 4 u p z 9 X     X % X # X           O O     O   3 Z.DXnXuXyX=X;X*XjXhX*XyX!.F.G.S.9.-.| | 3.^.nXZXtX^.5.5.iXxXJXLXdXyX%X&XtX&X#X#X7.9     1 -.5.6.*.^ X.qXHX0XD.$.%.1.1.$.S.%.L.>XL.a.S.a.$./ d.}.t.(.}.y.(.S.8.p.F.6XsXrX|.|. X}.P.'. X9X7X%XqX6X2X3X/.(.(..X6X|./.(.4X( ",
"|.<.2.2.>.) ) t.2.` 2.2.s._.).i.( ,.2.i._ _ A K K f N ) W ` r.9X4Xp.7._ *.) ~ ~ W ( 8.P.D.L.}.L.u.s.s.8.D N G 1.$.t.,.Q ~ E. .z =XyXDXvXuXCXXX8.(.9.} ^ ^ ,.E.E.2.w.[.eX_.4X2.>.,.8.E.5.w.XX;Xe.5.W.5._ 8..XaXkX.X_.3X_.q.E.9X|.[.S.E.7...,.(.a.9X!.9 u c t z 1 X   X - 2 ; ; ; % ; ; % @ @ = = % ; N *.E.fXJXPXFXAX*XW.*XsXyXhXhX9X|.D.|.hXsXMXZXFXjX|.iX.XZ.iXtX}.SXp.#.s.}..X{.^.;X;XW.6.c   - *.-.v.-.-._ p.8X).a.t.a.y.y.y.V.D.y.t.r.t.S.r.%.#.$.t.D.[.S.y.$.1.7.y.(.0XrXkXfX6X8XD.8.'.9XqX[.(.[.(.(.(.8.E.|.sXiX.Xa.tX|.' ",
") Z _ L.f.s.,.>.#.>.p.q.t./.i./.t.i._.2.A (...3 m z *.a...<.1.D.}.,.8.8...~ %.$.1.W ~ t.i.i.D.i.d.2.#.Z d v $.L.#.7.L.X.r.D.W c =X{.FXBXnX#XG.p.S.F.l.X.$. .G C J p.q.)._.8...J =.q.}.q.*.w.W.q.q.5.1.=.=./.|..X/.a.}.W.L..XpX.XP.}.P.(.9X.X3X9X1XU.P s z g i 1 o   ; j t - - - = j y 2 ; - 2 k t =.*.*.5.iXJXDXAXAXfXaXjXNXDXDXhX}.|.tXVXDXMXgXyX(.i.s.s..XW.NXsXjXHX4XF D.D.d./.XX@XQ.W.k.e.c 9 6.X.z.n.^.c.E.xX_.i.D.p.<XqX[. X<XJ.i.u.a.r.#.#.#.! b ,.D.8.3...7.}. X(.lXNXVXzX3XiXD.a. X2X|.q./..X.X|.4X3Xa.E.fXgXtX}.jX4Xf.",
"..q.a.s.).a.2.p.` ..t.a.s.|._.|.s.#.i.2...|._ < B S q._.i.>.>.L.p.#.1.8.,.,.1.<.%.#.#...~ ( ( F v v Q #.t.8.8.8.%.i.L.8.D.V.b l 4.Z.nXPXHX|.7.3.7.$.9.7.X...~ X.*.1._ ).3Xi.#...q.a.Z.^.(.q.p.a.8.a.|. XW.q.>.s.8.2.,.L.(.eX|._.(.eXpX9X9XhX}.(.+.P.P.y i h i 1 X O ; e e - 2 5 = 2 t y h y V ,.5.5.>.5.#./.DXLXAXfXjX/.Z.i.a._.iXfXNXzXhXqX0XgXW.( ) ) %.i.s./.3XaXSXNXb.E.[.L.uXW.5.Z.=.^.w.} m  .-.n.N.XXtXtXPXI.8.1.( 3.p.<X0X@XH.C.$.W  .( W E E ( $.8.D.W  .p.9.D.y.9.}.(.D.(.'.(.}..X9X)./.(.5X3XtXtXXX8.Z.(.iX.X2XtX/.u.",
") t.s.D._.s.s.) _ <.>.<././.t.2.~ #./...>.8X,.% m -.p.8.>./ Z ,.8.4X_.d.a._./.2.( #.,.,.W a d C B ) ,.i.a.t.t.2.1.0.7.9.J.l.t c $Xm.uXLXiX3.c.S z v Q V.8...3.A.Z.8.Z.a._./.*.*.8.q.8.|.tXa.*.8._ _ /.3X/.2.=.i.XXE.s./.2.E.eX4XP.P.MX>XD.4XE.D P l.].D t a b 1   % B u k t t y * = k j E ) a.W.8.q.E.(...(.PXPXDX8X|.,.W.5.,.t.8.i./.kXAXpXrXsX_.1.1.>._ i.i.1.( #.4X5XXXdX;XW.$Xc.S.hX%X;Xc.J B =.} h.W.XXhXtXeX,XD.0.3._.).D.wXwXK...o...$.3.o.( #.7.a.7.t.y.5.8.y.y.P.}.P.P.Z.,.C 8.|.|.8X/.8.8.a.'.).}.}.a.D.s.tXiXtXXXp...",
"_ 2.1.1.L.i.t.2.>.>.1.1.t.t.>...~ p.i.2.q._.p.3 x 3.p.1.) C E _ 1.|.,X/.s.L.t.1.,.(  .X.F v ( 1.2.t.8.a.D.t.t.9.[ W P.wX$Xb 1 1 vX-XbXLXyXG | m m S | V.V.X.*.5.E..XtXi.2X).i.*.K *.5.E.}.>.i.a.*._ a.8.8.*.W.9XtXkX9XW.D.D.).W.0.P.1X,XL.(.9XF.&.j.l.+.D D s 1 X % ^ c.~ e e e 8 V a h / 8.W.'.a.q.a.Z.2XLXKXAX(.2.q./.>.1.8.>.2.) 2._.3XeX).2.4X/.>.) v ] 2.>._ <.i.s.4XDXuXW.F.F.9XgXFXFXtX} ^ =.U @X7X%XtXiXpX|.'.A.(.eX X8.l.=X#XP.D.t.7.V.7.#.#.Q y.8.t.P.p.S.'.G.p.P.V.....J ~ ~ 1.i.[..Xq././.8.).tXtXtX|.q.i..XfXAXp.d ",
"_./.2.>.i.2.2.<.t.1.2.r.i.>X`.i.>.2.>.) 2.).~ < m A.[.C ) ) ~ ..1.,.~ ..^ #.$.7.#.,.^ ..,.) ..1.8.s.t.%.p.1.3.1.[ F 1.bXF.v - & :X*XAXDXhXE.p.[ 6.w.A.3.G [ X.6.'..X3Xs.3XpXa.1.i.t.}.}.8.i.2X4Xq.>./.W.q._ p.D.(.9X9X(.W.W.4X.X,XP.P.y.U.).<XqX#XbXJ.D D b D y   8 -.W.XX3.u q [ i.p.W.p.p. X[.W.W.p.3XJXJXNXVXp.) ,.p.>.) 2.) 1.1.1.i.p.`.>Xa.>.C / >.>.Z a.L...i.s.i.t._.fXiX}.F.}.(.D.NXiXa.| 5.h.&XdXDXAX'...m } iXpXD.^ I 9.3.C.P.<XsX}.y.8.y.y.,.t.1.8.s.a.D.L.S.y.t.2.7.>.1...^ _ ..*.2.(._..X_.E..XfXfX(.*.a.qXhXDXi.Z ",
"|.s./.1.<._ >.i.1.` >.s._.1X_.i.i./.1._ _ a.W & H !./.) p.,...>.i.i.C b E #.%.i.1. .#.( #.,.1.u.|.(.1.,.(.p.1.1.W [ o.qX#Xh ; 1 -XT.p.NXhXc.w.p.3.7.E.S.$.p...H 5.p..XiX9X).(.s.}..X|./.a.,X).|.E.a.}._.(.Z.8.2.D.4X9X9X_.Z..X1X3XU.U.,XS.U.J.#X0X0Xo.i &.b b i   a q.W.w.5.=.w.F.'.XX^.8.p.E.(.q.5.'.JXJXfXsXNXjX9X(.p.<._ 1.2.8.1.1.p.2.1.~ 1.>._ ) ,.,./ ..q.s.i.1.p.2.) r.W. X6X).s.u.9X,XL...4.vX@X^.qX8.*.p # * B 9XG.0.[.[.1. .1.'.V.$.7.V.V.t.y.G.S.S.,.1.(.(.0.^ B E ( #.,.,.8.2.,._ d N *.8.|.iX2XtX Xs.(.tXhXAXDX_.5.",
"2.5.1.Z.i.>.8.s.f.L.s.f.f.t.>.i.}.s.1.~ ~ i.7.3 =.W.Z.c.5...-.S.1.,.#.( W ! ( 1.1.~ #.1.i.8.p.D.i.d.i.1.D.V.X.X.0.X.$.hX].b ; q :XoX*.zXzXl.{ 1.i.1. .q.F.i.p._ J E.).D.>.F 9.9.W. X3XW.i./.(.s.).E.s.2X|.(.a.w.5.p._..X[.W.pX5X0.V.P.pXrXP. X6XlXl.n s D P v i   d *.,...:.W.W.F.E.E.9.,.p.[.^.|.E.iXxX).).SXfXs.4X).a.8.p.^ 1.a.8.p.s.>.W C >.2.s.a.i.t.1./ _ >.s.i.t.2./ <.i.2.d.P./.(.<X9XL.^ [ ^.v.d 3 ; # & > 6 > x 0XyXhXrXMXMXJ.X.Q $.9.1.8.y.7.G.y.p.2X XP.Z.V.D.(.7.' 1.1.a.|.E.2.8.'.a.9.=.t.(.2XtXtX X3XgXzX'.s./.i.",
"*.a.a.|.s.t.2.2.s._.4X_.t.2./.s.).a.d...~ p.p.8 z.XX#Xq.F F X.7.s.a.t.a.y.%.( ' 8.7.t.a.a.a.).D.>.2.>.( F.(.9.V.F.y.9.wXbX+.% p :Xh.K V.hX0Xq.S.2XG.M c D.).(.1.9.3...1._ =.E.Z.E._.fXiX.Xa.s.s././.8.i./.(./.W.2.8._.aX.XeXaX4XP. XrX6XeX8XsXlXBX&.i i &.D b S O m *.*.U W.%XE.5.[.^.q.q.'.tXDXJXfXs.8./.iXfX2X2.~ ~ ~ 8.W.1.i.i.p.1.i.>.` ) _ 2.<.s.s.1.1.1.1.8.4X/.2./.i.s.i.1.#.r.( }.}.[.~ u A c 7 - * - < * = 5 7 8 9.NXgXhX9X%.z Q 1.(.D.P.9XrX<Xd.2.i.8X'.S.S.F.D.}.8.#.*.a.E.p.8.p.a.Z./.'.|.'.p.,.,.qXxXAX[.p $ 3 N `.",
"f ^ D./.(.(.s.8.7.s.p.f.`././.`.D.(.s.2.,.,.) A c.I I Z.3. .G _ L.,XL.1.t.( #.<.t...a.t.(.(.D.G.i.t.1.` ^ Z s ~ 9.9.&X{.+.x   p -XW.h.m XXzXZ.7.D.q.{ *.(./.a.( >...8.5X4XW.a.W.|.1.i.3XzX9XL.,.a.8.S.8.2.(.|.1.( ~ q.,X5XpX|.E.'.3X'.9X9XhX'.tX7XS i x N.j.o.n p *.p.*.*.*X[.Z.].E.]. X0XMX3XNXSX)...*._ t.2.'.(.2.) W ..1.i.r.D._.L.t.#.a...1.1.#.2.L.2.W ( a.3XeXa.1.t.u.L.t.#.^ ) _ 3.A.G u = c ( B y - 5 5 - 1 e 7 q m D 1.2Xy.7 c #.P.8X|.,.P.8X).L.P.P.2X9X<X6X|.P.(.a.1.8.3.8.p.(.P.p.p.8.(..X2X.X}.'.s.8.a.q > w w 8 A ",
"r 3 7 A i.s.(.L.1.<.s.a.D.i.D.i.2.i.8.) 9.E.1.8 [ J =.9.p.q.~ s Q #.v W ( Z ( 7.u.t.r.%.%.u.1.i.@X8.~ N d B d J D +.X.c 4 ,   < Q.$XW.=.w.hX5.[.2X7.A.!.5XE._ ~ } X.2.).(.9.,.5.8.} G 1.(.|.D.,.1.8.D.Z.q.(.(.(.p.[ i.3X3XiX3X8X3XZ.E.hXfXzXD.W.l.&.b i Y.z.j.P q.W.8.1.p. X0X0XhXqXnXtX'./.>.^ ). X1.1.~ W _ p.p.8.) W ..1._ ~ #.a.).d.u.a.1.8.` ( >.L.3X<.2.,X,X3Xf.2.) 1.8.8...#.2.F.%XE.r f 1 i | F.1.a e t b u y i < 4 4 4 4 6 b Q y.4XP.P.P.L.L.V.S.P.L.V.7.'.9XsXsXNX,X<.1.D.!.'.(. Xi.i.p.D.F. X X[.[.E.=.8 * 8 8 > * * ",
"q u 3 6 _ i.p.t.8.t./.8.i.2.>.i.2.` 7.2.p.8.N % p H w.9.5._ s * < 4 q x F $.Q $.7.$.#.^ ( 2.s.i.w.,.^ F G D K z 7 9 4 4 < +   * Q.-XQ.b.-.tXZ.[. X*.A.9X2X2.Z A 3.q.2.^ J >.7.i.D.*.J ( D.p.8.i.X.>.p.(.(.p.V.F.S.p.p.(.(.2X9X|.W.q.q.2XNXBX!.H.K.+.r c j.Y.D D W.W.c.^.qXzXzXDXBX7X%Xp.~ 2.8.>.#.1.i.1.1.8.t.2.#.#./ ) W 1.2.#.) 2.a.s.1.~ #.t.2.t.2.f.5X2X).3X2X).).d.#.r.u.d.8.p.8.p..XA 7 a & z H.[.'.9.I | 0.X.D b 7 * & & < 4 s 7.S.L.S.I.8XP.y.J.<XP.}.%./ ..r.D.8XhX|.r.r.(.(.p.[.6XE.D.p. X X8X.X(.|.2.N 3 1 < # & > 6 ",
"> p 7 6 f #.t.1.1.D.(.u.D.|.2.r.2.*.Z.Z.~ C - o & q =.^ 9 > > * > , 4 l c | $.G z u f v b F ~ Z N ..B G [ X.K f 9 q 0 , $ .   * -X:X;XW.S.tXXXZ.^.E.W.5.*.~ #.1.1.7.) 1.p.,.9.W.E.,.,.1.1.i.1.S.D.D..X X[.(.|.}.[.D.[.p.a.9XiX}.D.2X9.q.qX7XH.OXK.D b j.N.c b i k.[.%X=XtXHXNXzX1.~  .X.~ 1.1.>.%._  .) 7./.L.2.) ) ) 1...8.1.#.#.u./.`.1.Z ) ,.i.2.d.(.i.a.L.|.eXs.#.t.d.` 1.d.s.<.( a.7.t s u % p #XdX Xc.l.4._ 9.~.6.b u = & < 1 ( J.V.t.0.S.8X|.a.V.D.2X XP.s.2.( <.8XsX XI.).(.(.) s.2X[.(.D.(.iX.XtXE.2.2.a 8 u < * & 2 r ",
"X $ 5 9 < i F ~ 1.,.8.*.!.sX9X/.,XsXgX5.c - o     3 c > , > < * > 1 < w w l 9 , > < < < < 0 f 9 p 5 1 I n.-.d 6 , & $ X X     < R.=XwX9.^.{.jXwX].8X!. Xb.p.8.p._ 1.a.Z.'.a.'.8...V.G.}.1.i.8.~ (.0XpX9X9X9X|.[.dX[.s.p.D.9X9XfXpXiX3XF.S.9X7XjXP.l.z.M.n 1 i 0 =.W.(. XFXhX Xs.....X.,._ 2.E._ t.8.G J ,.t.u.a.d.1._ p.>.~ 1.t.1.#.L./.8.) $.u.#.( a.,XD.8.t.L.3X_.r.s.L.<.1.r.<.#./ S.} 7 g r & * c '.6X'.].U.c.&X].K I S d r < c b b b #.P.rXP.%.r.( %.U.P.<X<X).L.u.8XhXgXgXhX9X}.1.( a.P.P. Xa.%X9XE.'.>.F 6 8 3 - - 2 5 r ",
"X X X > 1 % = p >.i.X.G ;.A.{.0.E.!.q.p &         X     X # & = < 1 9 4 < & + # $ + + # + + X > , + X q S c $ O .             p :.D 7X[.V.hXsX~.6.9.p.%X]._.s...[ 7.p.8.a..X2Xa.3.S.(.p.t.8.8.^ X.8.iX!. X}.(.).].p.). X2X9X}.fXAXDXzXiX[.iXE.q.o.M.j.z.p 6 1 p U Q.].].'.(.a.1.1...8...*.X.-.J ,.S.8.3.~ <.2.a./.d.~ 1.*.1.2.>.<.t.1.r.u.#.8.i.<.a.t./.}.q.8.(.9X`.t.1.8.[.2.) ` D.t.[.X.t g r = % l p >XNXrXJ.wXqX1.[ :.b F _ Q w + 0 c ( 0.2XS.D.S.L.S.r.I.3X8X<XS.t.<X6X%XlX Xi.1.0XsX|.0XrXfX.X2XiXD.N C f 3 * ; - 2 y 5 - ",
"w * 8 < o O . o f D b m B 7 p 6 % X           O & m 9 & # * # X   X # & + .   .   . .   6 .. .[ X.$.l.V.X.H f p u 1 %         7 4.X.Z.p.c.jXyXhX!.} *.A..XiX9Xa.*.p.a.).|.|..XXXXX2X Xi.1.1.,.J J D ,.F.[.|.P.F.9.8.8XqX X XF.3.8XHXVXD.S.5.p.5.Q l.U.&.1 1 i M L Y uX@X^ L.d.1.q.>.G.X.,.Z.6.3.8.1.9.p.1...~ ) 1.t.i.,.<.a.i.>.i.D._.L.#.) 1.i.a./.>.D.2X(.,X4X/.1.` ' ( ` 1.C 1.1.>.[.C r r 7 <   , l [ rXSXMX9X8.Q B F B K *.&.b < $ 4 z 6 6 c ^ P.aX,Xy. .u.d.W 1.(.hXsX0X}.p p G '.S.,.(.9X.XhXFXdXq.F z * = - 2 5 y 5 - ; ",
"k.l.;.I I I D G S F } ~ 1.Z.F.A.v.[.{.{.#Xc.v.n.n.Q.Q.M.h.x.:.m n x c b x 7 < @       o yXDXDXDXLXLXLXBXyXOX$XuXwX=X=XQ.k.x * z $XZ.,.} S.DXJX%XZ.6.b.p.E.[.S.(.E.E.9.(.3XtX|.(.%XsX X5.p.S.p.,.X.p.F.8.2XhX(.D.s.(.2XtX2X[.(. XqX[.,.c p c A A b U.0Xn 6 i P c n c Q.%Xs.s.2.#...8.q. .*.V.w.w.9.S.i.p.>.( ..( ` t.D.(.) ` a.t.i.a.>XL.t.1.f.3X,X/.>.D.(.E.4Xi.a.L.d.( ` 1.~  .D.S.,.,.W a 7 u -   X w T G.0XS.b z s h B K A.-.n c 4 > , w w 4 4 , 6 b /  .! b F L.9XgXnXsXI , 4 4 w , 4 9 c B m G I p m B * % : : = - 7 r a 3 ",
"#X[.wXnXwX&XbXCXMXMXBXBXbX0X'.v.j.h.uXnXZXGXDXLXLXDXDXDXCXuX=XM.m.C.v.o.l.P.7.V 7 3 c U DXHXDXfX0XzX3X(.'.l.K.K.{.gXqX~.~.K.n.} w.9.,.X.[.DXDXw.w.!..X|.p.8.E.2Xa.'./.tXcXiX,XtX|.[.|.E.9.E./.E.[.(.0X[.iXeX2X2X).<X XsXhXNXsXU.A r d 9 u 0 w 4 u o.#XP c n P 9 P G c.!.....r.t.) ..9.3.A.F.W.[.1.8.S.D.#.) >.1.1.>.8.8.1.) 1.p.s.s.i.i.s.L.i.|.9X2X|.L.a.a.p.`.(.I.L.,.p.7XE i.P.G.].C.$.u t a =     + $ & $ + # & > 3 < 0 c & * & $ $ # , > , , $ > > , 4 u 0 c | G x 0 w , & $ # $ # # + X . X # & # % : ; - 7 A V.C.M.n.oXK.",
"$X=XZ.9.X.X.A.J.Z.$.l.&XJ.4.v.v.c.v.&X+XvXZXZXDXdX=XCX*XuXwXbXmXvXvXvX;.4.0.[ +.-.h.:.k.bXSX8Xa.a.$.! L.y.W y.v.G.yX<XqXF.3.k.H ,.c.3...'.tXAXW.{.'.9X(.q.8.t.8.a.|.tX2X2X,X,X'.L.8.(..X|.5X2X(.G.2X9X X(.|.9X2X2XkXkXfX0XJ.Q r 7 u p 3 w 4 c l 0 0 b l i l c z :.OX9.V.c.3.1.$. .1.p.!.E.[.a.L.S.i.D.p.) W 1.i.D.1.^ _ ..1.<.>.).,XL.q.t.L.).}.D./._.D.D.i.1.(.,X_.D.,.E.D.( .Xa.7.$.F x y t r ; % c 1 o . X X o O . o + .   X . . + > + @ + . + . . + % # & > > $ $ $ + o . . . .           o = ; : ; k g.] V.uXW.J.H.@X$XwXOX",
":XvXU O.;.;.4.| Q D F ;.| G Q.$Xk.{.~.v.$X&X=Xb.z.:.| H G { C.vXwX$X+XwX#X@.M.k.S h.M *XyX}.X.D b E ! 2.d.7.J.'.y.7.[ '.].X.[ N e.e.U K =.F .XjXqX.X9XD.q.i././.8.2._.a.p.a./.i.i.i.p._.yXtX8X X}.|.P.y.[.F.%X9XaXkXcX|.D i i v p i 9 8 0 u c 0 i 9 4 < 1 ; i n ^.wX1.[.}.8.8.8._ Z ,.c.9.i. .i.a.,.,.8...#.8.8.*.) _ q.9.s.i...s.|.2./.s.1.a.(._.2.(.p.>.2.<.i.L.p.i.D.V y u.9X}.#. .y.p y y < : v n.!.E - ; - - k y v A.8.G ,.o.z b F v k e k k y 6 y u k r j e - = ; e t k k 1 - % O     @ e e V r.u.<.%.! 3.XX@XV.$.Q $.V.3.",
"k.v.[ { OXK.k.I n G D +.6.+.z.k.;.K.@.e.@.O.k.z.;.I S [ { o.C.0X~.OXM.K.+X+.z.S p :.m A.dX9. .y.7.E ) $.1.L./.y.7.r./ V.yXZ.X.m _ R l q m q J .XqXhX).D.1.t.s.t.,.i.i./.,XE.D././.D./.,X8XE.|.D.S.'. X<XF.[.iXfXfX8X Xo.9 z c c u 7 6 9 0 0 x 0 4 1 l c 1 = b b *XMXS.7.D.,.Q  .^ B *.^.3.,. .y.8.8.t.,.1.,.1.( i./.a././.E.i.) t./.a.8.t.) >.s.}..X Xi.8.2Xa.8.1.) 1.~ y 5 t.|.S.7.7.3.0 , 1 ; : 3.{.].2X$.g.v ' ` ] u.uXnX7XuXqX9.l.3.] h V z a j g h r t y h g.h a j h g.V h j t - ; . o e y / bXHXbXl.Q v  ._ 1...X. .l.#.Q ",
"z G o.B o.[ x H ;.+.+.4.#XJ.+.{ ;.uX~.Y j.O.U x.$X;.I ;.l.[ +.l.6.#XOXx.$XQ.[ 6 9 Y =.:.0XP.F.y.y. .$.7.a.s.a.d.t.7.$.*X&X,...S m m 0 L L c 8 m c. X3.X.f.(.8.*.*.i._.(.s.5XiX).).3._ 5.2X(.p.E.P.7.9.D.V.P.hX0XJ.U.v.x 9 9 l 9 0 6 < 0 7 6 e u c D H.b - c &.x  XZXD.W W ) 3.[ } X.3.8.3.1.5.9.S.8.,.$.>.2.,.>.(.a.i.E.D.i.>.) t.2.>.q._./.2.,.a.fXhX|.(.|.9Xa.^ ~ s y i D X.D.y.V.$.0 1 < r * %  .qXiXG.'.y.U.'. XP.P. X!.F.8.qXdX,._ / W l.[ Q ^ Q E j j t y t j h j g.V V / E d k ; : = b j.$XwXU.V.b &...o.0. .o.0.3.0.-. .",
"G { +.X.4.j.Y S o.+.O.;.-.| k.O.x.v.k.| S :.+.{ [ H G U ;.O.{ v.v.yXCXwX$X| 5 p u U :.yXyXZ.].X. .3.t.t.t.L.1...$.7.#.[.#X9.V.s c e.w.w.=.L 8 & Z.6X3.1./.`.8.8./.2.>.,.E.).(.5.*.^ 5.,.Z.8X'.'.U.8.0.L.r. .Q c c i 0 u < 6 1 4 3 < < 3 i p v Q ' 0.+.e a o.+.Q !.~.1.` E #.,.3.6.x.k. .3.6.6.0.8.y.7.1.5.8.2.2.8.s.s.1.8.t.#.1.a.a.W.iXqX/.p.2.p.'.2X[./.i./.W.8.a 5 C X.,.5.].~.y.v 5 y y y & % ..D.s.#.<...%.2.' ] ' 8.9...( ..1.<.0.0.0.0.o.o.v.v.o.h y t t t h j t j t y i z Q v 1 ; = { R.vX#XG Q X.$.t.0.7.E E W 4.0.4.4.",
"3.[ D l.1.4.j.v.C.I G G [ ;.@.H -.O.U [ H O.| ;.j.j.:.Y z.z.;.j.z.H.K.@XM.| G B 9 p l !.(.q.].c.V.S.L.y.1.#.#.' $.t.G.qXdX].%Xp K ;Xi.} *.=.=.H V.zXF.F.D.iX1X/.(.s.>.=.W.|.s.1.I =.,.w.F '.tXD.D.'.U.,.G x < w l 0 w < 6 6 7 1 4 6 1 5 r F *.X.%.%.+.b Q +.3.&.| !.i.i.( .._  .A.A.!.w.X.| J 3.1.1.p.*.1.2.i.9.8.2.8.8.8.2.8.t.2.i.3X|././././.2X4XE.a.i.D.(./.Z 5  .Z.V.0.l.&X&X[ * r h j j = 1 X.3...#.y.u.7.<./ ] #.y.8.y...~ %.V.V.!.U.$...^ 1.F.0./ C t t t h g h a t r t s D H u o i H N.CX&Xk.l.[ #.9.y.8.#.E Q $.o.3.X.",
"-.x.k.H i { k.A.#XJ.{ +.#XJ.{ S { { J | :.=.@.M.n.;.n.M.~.v.v.v.z.C.X.;.l.v.n.G % O & T {.D.A.A.V.y.L.D.t.#.t.a.u.y.V.0.V.X.,.i e.q.*.q.q.*.L K [.fXA.V.7._.aX5X|._.s.8.q.}.q.=._ ,.8.9.q.} q.2X6XeXU. .C c u 4 < 4 4 6 y z c e 1 r B  .3.3.o.1.$.V.U.D Q +.&.b +.qX(.3.( ~ F } ].A.C.c.5.Q X.9.,.*.J J ,.9.(.(.a.i.8.s.t.>.i.8.2.,.a._.2.d..X4XtX2X(.D.p.i.p._ - v 1.p.9.D.4.c.*Xz - r v h j t r 9.6XG.E t.a.t.1.r.#.2.8.p.p.8.p.8.,.#.1.G.Z.V.P.a.r.( ' y.$.E g g g g h r t i b b z u X n Y M vXJ.$.( [ [ 8.P.7.0.1.o./ $.o.3.",
"n { U x H z.2X@X{.J.c.4.[.J.4.l.+.J -.[ -.4.o.j.k.+.;.x.v.v.v.c.k.K.@XwXK.=XJ.z o o o q Q.XXw. XP.8.#.$.1.t.I.S.L.!.^.@Xc.8. .r 5.;X{.W.W.*.=.5.!.iX'.Z.|.,.D.3X`.).a.>.5.,.5.p.=.a.(.}.^.:.v.dXsX[.1.s 1 0 p < < 6 e a z Q b y a D &.+.l.0.l.U.r.0./ W +.3.&.b 4.uXfXE.X.( ^ ) ,.q.V.[.c.v.c.6.X.3.3.[ c.Z.(.D.S.a.i.D.1.t.1.....1.q././.i.(./.).aX2X!.tX.X#.t C Z ^ p.1.,.3.b.&X/ y j h h j v p 1.S.^ #.i.t...t.L.8.#.1.t.1.%.1.$.#.#.#.l.o.8.,Xf.%.' %.3.3...$.o.^ B v a g v &.+.b x < Y j.j.vX0.b E ^ o.7.r.8.y.#. .0.K.X.E ",
"{ { G P @.+.0X{.x.n.M.l.| 4.l.G.H.h.| [ F X.$.k.;.@.O.j.;.;.$Xv.^ k.#XwXwXvX| # # o   T M.q.D.'.P.u.r.P.d.1.t.1.u.}.a.@X5.Z.7.i *X^.b.V.w.c.c.k.6.p.q.E.fXE.Z p.,._ 1.J ^ *.3X|.} 8.qX.X(.XX{.tX$.b f < < u u = 6 t e p k.v.o. .o.+.Q ! %.U.r.l.S.' z D 3.&.z x S ].fXhX>.) i.8.( 8.i.S.6.| +.l. ...c.4.5.D.(.S.t.t...1.,.2.#...1.q.1.s.s.8.s.(.|.2X2X|.tX2XN v 5.C >.D.8.S.9.4.J.V.h v g t g +.B y.S.#.a.8.8.1...' %...#.7.D.7.$.' ! / y.y.#.W v ..%.<.t.1...8.V.o.X.,.Q G X.X.&.k.o.Q 0 Y j.B.CXo.( Q Q ( ....0.V.P.U.0...C Q ",
"z.+X+X+XM.z.k.[ | v.H.j.[ l.J.l.C.C.3.[ S D X.;.O.n.m.x.v.$XC.4.OXH.v.K.vX=X| > # 3 $ c.tX/.1.9.y.y.7.>XD.$.^ W ....F V.3.,.7.s zX2Xq.W.A.^.#XW.*X2X9.iXSXiXp.J _ 3.J *.E.tXiXp.a.q.E.2XdXfXjX(.7.i < e 4 u 1 u h y g ^ l.l.l.k.+.+.#.l.$.U.%.P.L.! E &.G k c z x @XAXzX..) 8.8.#.S.i.| J ^ F F _ 9.A.0...,.D.D.(.y.) ( W 2.L.1.>.t.q.1._ ,.}..X,X.X.X3Xs.1.f ~ i.) s.1.1.8.A.Z.! 7.' ( E b $.4.I 3.'.$.#. .( X.' 1.<.%.2.,.2.d.a.$.#...1.$.$.W / W ^ S.9.y.V.1...#.7.9.( ~  .4.+.W 0.&.i Y.N.vXhXQ o.o.o.o.7.Q ^  .L.U.! b / 7.",
"$XoXK.v.z.z.{ P U +.V.K.x.k.4.z.C.l.C.V.4.P [ v.n.@XQ.:.M.@X4.;.v.| b B +.v.| , 4 l $ p.9XfX/.8.t.y.r.a.a.1.r.8.G b z z 0.S.B z fXtX3.^.W.A.7XH.7.D..X.X}.2X|.H =.p.9.p.a..X2X).'.p.Z.qXAXAXzXE.u y r 1 y 1 y x H D -.3.l.K.U.l.U.0.l.U.U.' ' I.P.V o.&.W i r ; n ;.zXkX,.#.>.,.1.) ~ :.I X...^ X.1...X.1.*.3.i.t.$.%.1.1.<.a.t.1.` %.>.>.,.2.2.[.p.a.~ d d K 2.2.>.s.7.~ *.7.,.#.r.r.r.r.U.G.@X| ..p.9.>.Q W ( ,.9.1.1.8.1.i.y.%.1.u.y.y.7.^ ( #./ ..4.-.9. X$...#.y.#.^ F F C Q +.l.j.l B.-XVX9X$.o.$.-.$.Q o.l.t.S.r.%.$.r.U.",
"n.oXK.+. .o.9.j.O.X.k.&X$X+X+Xv.4.H.J.G.~.K.@.z.wX{.v.v.v.P I I H [ [ { 4.[ c & > 3 & p.p.7.2.i.y.y.1.#.) #.1.7...X.{ H v.y.z z tXfXp.W.qX!.-. .B s 8 w w 4 l h.Q.W.Z.c.2XfXAXtX|.tX2XyXjXhXgX} 5 i u u s x n G F Q $.1.H.U.0.r.l.l.r.S.l.%.S.U.&.0.0.( o.&.V i G ;.C.MXkX,.,.8.p.>.>.b.z.z.5.o.#.$.#.#.9.8.V.8.$.#.t.2.%...) E 1.1.2./.,.#.K 7 r u 5 f J B -.P./.D.1.v J 1.3.,.r.#.r.V.C.K.H.K.| 0.].P.$.W ( #.o.8.#.#.t.t.a.D.%.7.S.D.D.0. .` ^ ( ) 0.!.D.i.a.y.t.1.Q W o. .[ o.0.H.4.n K.wXCXrX.. .0.0.o.X.v.K.P.<X0.r.#.S.8X",
"+.k.k. .-.3.-.y.0.^ U ~.0XOXk.h.k.l.l.o.4.@XK.v.v.6.*Xk.j.v.P S O.H I 6.-.S 4 , $ X 8 .XD.Z.9.8.$.#.t.( ( ..#.8.8.5.X.j.K.n.S s 2XfXfX!. X].8.^ r u p f i 6 3 S kX*X{.5.'.iX3X|.E.!..X|.hXzX9.= 6 7 y D &.{ &.&.F W C #.v.y.l.l.l.S.S.W b / <.! W l.0.+.k.E ! b D +.x.FXiXi.q.S.8.*.p.F.v.-.7.1.$...1.t.#.9.A.p.1.,.8.2.#.' W C #.1.i.>.N 7 a _ J z ^ *.-.....1.d.t.) ! >.2.E N j 1 r l.qXdX=XK.S c.A.1.#.%.2.$.( $...' / #.d._.u.$.1.$.r.t.r.1.W #...D.}.u.2.D.L.y.$./  .3.+.X.+.l.l.G 0 k.7XK.A.X.3.l. .^ +.M.J.0.0.<X0.$.t.1.",
"j.z.M.4.0.V.y.c. .D [ H ;.].J.l.v.4.^ | { +.v.{ | K.l.+.@.h.O.;.z.4.@.[ x G 4 & * X 9 %X'.S.>.2.t.t.t.$.G } +.9.3.3.A.OXK.P P = A.zX8X[.6X#X X'.$.r e a s V E N /.xXdXW.e.!.8Xv.b.(.jXp.d A 7 - 1 1 y b n P Y.z.@. ...#.,.l.J.,.' l.Q Q b 6 1 r / 0.0.+.M.b W v x 3.3.dX2X1.Z.c.*.1.t.5.3.Z 1.y.y.r.$.$.7.'.'.t.t.p.1.( ) %.( Q >.>.F a f d J *.p.1.*...6.7.o.1.#.r.` r./ g a - = a z o.J.HXbXz.x +.F.t.%...p.2.) #.1.$.#.#.7.t.r.0.#.%. .%.1.$.#.%.1.L.a.u.(.D.1.#.r.1.^  .F W  .8.v.P 0 Y.v.z t F +.| o. .l.l.0.E / #.( o.^ b ",
"c.z.oXH.,.8.0.,...n.x.G Q z.J.z.-.+.h.G G G I S +.v.;.v.x.v.h.M.+.+.v.{ 4.3.= > > * * Z.2X'.9._ 8.L.0.[ x I ;.[ 3.G.G.$X;.j.@.O 9 !.zXAXVXrXgX XF.3.Z s e t t N w.|.jXuXjX7XuXtX9XhX4X9.3 @ 5 t 1 y j a G &.o.K.l.0.%.' C.K.0.#.' $.Q &.v i r z W V.S.o.n i [ &.D l.!.wX3Xy.[.V.+.k.9.9.,.>.y.S.t.$.^ 1.1.9.].0. .1.1.#.^ ^ ( W *.^ m p d ..*.) ,...i.D.q.,. .V.>.] / ~ ( 8.1.) $.0.$.K.Q ` 0.l.b | $Xp.7.1.t...t.7.y.t.1.r.$.1.$.%.0.$.( ..t.t.1.#.1.t.2.L.<Xi.<.$.u.1.$.7.0.o.4.0.-.O.p P P 9 r d Q +.z.O.4.l.V.( ( ( ,.o.$.Q ",
"9.9.+.8.J.0.3.0.C.v.z.j.@.| s 7 G @.x.| U U P 0.l.c.6.+.;.K.k.M.M.@.v.H.3.d 6 1 q w + w.W.Z.9.*.S.|.3.| -.X.X.V.y.8.0. .H T.H O 3 9 !.hXkXgXfXqX'.!.E.9.} G f x c.E.c.9X3X[.|.9.4.A ,.1Xj e r r e y y a G o.o.C.l.1.%.0.l.B.0.0.$.l.l.E D &.$.o.&.4...k.b 6 &.C.X.6.l.V.6X0XrX0XoXT.-X4.1.8.#.1.7.' ) 1.#.5.3.Q ^ ^ ) #.) >.)  ._ A z z } 1.~ ^ ..1.G.[.1.%.$.E E ( ..Q $.a.r.S.P.a.H.M.#.#.W 0.b H K.y.y.%.1.$.t.u.t.L.d.$.%.$.l.%.0.0.1.r.,.y.r. .<./ %.D.D.V.2XD.r.a.P.y.l.0.l.V.k.j.1 n P { ! E Q o.z.M.z.k.U.U.#...W 0.&.W ",
"X.y.y.3.Q b i c b 0 c { +.D 1 < H j.oXB.j.j.j.6.{.{.Y | 4.v.k.;.U U O.X.X.g a = 9 p 8 e.*.>.8./.S.P.*.-.F.x.O.G.$.0.@.U B.j.1 O 3 3 > *.8XiXt. . .J 5.F.c.-.| S b.!.Z...B z C X.7.s.4X2.s e j r e e v o.o.o.o.0.0.U.l.t.J.=X@X6XU.P.0.g j.l.C.U.0.+. .l.n 7 z.l.[ l.$.B p D BXFXwX+Xx.k.V.1.( $.t.7.....G  .C ~ [ ~ ..^ X.V.8.} F A J X.,... .8.D.t.8.9.g v b g B $.y.8.y.r.u.i.r.0.K.v.%.J...#.b x G $.1./ ( t.8.y.u.D.y./ / $.r.0.r.V.l.1.#.y.7.t.t.C E V.1.y.J.2XL.I.y.t.V.( E  .H.j.l M M &.J.b &.k.U.J.k.U.J.#.#.D G o.&.o.",
"x b D 4 1 $ < n n Y U n c c P P P T P Y +X=Xn.j.@.I j.m.;.4.4.k.[ { G x x Q d p 9 m M z.w.F >./.0.Z.A.A.].v.-.4.X.P j.M.-X-.6 % + 6 8 > q 0 z H H 4.Z.c.v.n.x.v.z m !.tXp.[.(.(.9XNXfX1.Z ~ V e z Q ,.$.` #.l.C.0.y.U.U.J.K. .$.`.pXh D &.Q z.M.@.o.3.v.Q n M.O.x 4.4.v 1 < 3.CXvXOXv.v.9.) ' l.C.#.' $.-.X.~  .C W $.$.9.c.3.J [ ~ ,.,.W ( ( #.,.1.[.8.s t e h F 1.8.#.r.$.%.%.J.K.K.V.<.%.%.r.a ; q G y.( ` t.t.d.7.$.( / #.#.u.,.$.U.0.1.0.L.a.S.D.W / y.y.U.J.6XP.<.#.t.1.o. .( z.h.c 0 n @.qXqXl.4.U.U.u.l.0.g b &.{ [ [ H ",
"M & # & > 0 Y.M.N.Y.@.j.Y.o.O.O.@.j.U ;.@X4.+.M.@.;.v.+Xv.x.v.Q.v.B N | H z z 4 m 8 R Z.w.8.5.E.A.'.]. X~.OXk.| G @.N.Y.n 4 4 #   = f 8 * > 3 H Q.Q.Q.oX$XA.Z.%XA < 0 *.6X3X[.}.aX/.*.N d ! g N ,.0.U.0.%.k.M.K.U.r.H.o.1 & > > b U.D z.+.&.U.z.M.l.8.3.b M.vX{ B C.[ 6 7 7 p l.mXZXwXv.k.v.v.&X+X .#.9.n.-.~ ..^ .. .$. .B N N N F #.Q G ~ B W Z _ '.1.W Q E b v 1./ W $.y.%.%.$XJ.l.t.$.%.r.1Xr   < ^ F.%.#.y.(.<Xa.1.E / %.7.l.<.l.U.l.%.( V.D.y.r.C.H.A.J.#XJ.J.D. .( ( ( V.l.o.k.P % 1 M N.j.$X3.V l.#X|.o.v V b b [ v.O.b ",
"n 0 1 0 l T M j.M.| c c P P O.@.O.j.N.@X2XD D k.oX7Xc.;.=X+X+X-Xw.v B J m f 8 3 3 M R L V >.3.XXNXqXqX%XqXwXQ.6.| H.3.# & > 6 %   X = 6 p 9 3 3 S H.%X&XyXsX X9.p.1.f 8 9.D.3.Q c < & > 7 g ~ m.x.l.v.+.' z.B.M.z.+.n < & < 4 < , $ 6 o.%.' l.k.-.6.X.z ;.oX6.5 0 ;.I 7 0 u u 0 G dX#XOX&XvX@XvX*XV.F.H.v.#.E 0.-.C  .4.G B B ....^ #.Z _ 3.G ^ 9.&Xp.h ( #.W ^ o.8.y.#.#.W %.$.U.0.#.%.$.S.D.<..     Q l.].0.p.P.P. Xi.$.1.....0.z.0.+.0.Q E E #.[ o.3.J.&XJ.C.U.l.J.+.o.o.l.0.B.-X$.u X 0 Y.M.Y.p H k.l.o.' ' / b b b G D z i ",
"n P P Y.Y T n n n , + + . $ n j.U T Y.@Xy.V.$.[ X.| ^ G j.@.H f 7 f B ,.N 8 A N 8 R L 8 l m R w.{.E.Z.F.F.!.F.!.7X[ 0 & > 3 3     X % O = i p x } -.A.9X6X.X2X X.XiX(.u 1 c 0 & 4 0 8 > 3 u 7.Q.k.3.m.l.H.C.C.Q 1 < % + * > * * * & . ; &.$.o.b 7 5 = B k.( 6 o   + c q 4 q 0 4 > 9 p c 6.uXuXsXqXyXwXwX~. ._ ,.3.[ Q -.B a y s V v N B G ..F  .qXs./ g V ( $.-.W 0.qXV.7.S.t.$.#.( #...1.S.^ 1       6 c.=X$Xn.G.#X6Xv.K.4. .Q P P z x n E V v r 1 1 i Q C.H.H.U.U.G.+.+.o.n Q l.K.&.7 . & j.@.c 4 4 r 6 1 y 7 i x { { { 1 6 p ",
"$ 0 p 0 n { w $ .           . w c 0 l P H K J } S x c c c S u u d m 9 d 9 3 q q l R m q $ w w 8 = 3 3 c B ..-.V.4.7 1 * % X         O o O o * 3 & & $ > 3 4 7 7 q f F z & > < < 8 0 6 > 3 0 v Q 0.E &.$.U.V.[ > + . X + > < 1 4 < @ @ o 5 b i 1 = p B f 7 3 O       & 4 0 , , , 0 4 4 < & > S $.t.W E V.,.z B C ^ z.:.v x n s H - 5 f z B G -.X.G.Z.q.$.X.F.V.-.P Q 3.y.8X0.z z u 7 u r z i < O         < m k.v.{ Q b n 0 u p < & ; < 6 c r 6 1 & $ < l 0 1 n x i z Q k.{ i 5 i r 6 1 &   . > n l 0 < @ ; 1 1 % & < u c u 1 u u ",
"    s  .y.+.b z f 6 1 ; % # & . + $ 1 > 4 3 < & & & X X + & > < 3 % @ = * 9 9 z h.N.=.e.J Z J d b C ~ G D x z c z a y k - ; ;       - y k - = % ; o % o   X % 3 r 5 + & * X o : & & % % ; = - z W b W ( 1.l.Q b b P { +.;.;.C.J.G.H.U.l.k.o.D &.-.6.} z 6             o > % & ; # % & & 1 < * i z v b s p s r b G F D Q -.[ z } ..w.X...A q q 7 5 6 9 p a B i 1 1 1 ; @ < % & @ @ @ % < e X       o B ^ B z b b F G z u 7 u 1 1 6 6 6 6 6 < & & ; 1 H x < @ X       $ 4 i ( #.( s 1 > % , n c 4 0 c i 1 * < * < < & X $ < & . . ",
"X X.F.c.9XDXFXyXuXyX$X;X^.&X*X^.*XBXZXFXyX/.a.w.d N J E Z -     @ A W W 1.'.!.$XwXdX#XqX8XgX<XF.%XsXbXtX#XU.t.W $.6XqXb t t k :   C 1.g a t e e y t t g a.8XBXDXMXhXa...5.i.~ j t g ' %.r.<.i. XgXMXhX9X0X6XqX@X2X~.v.J.6XwXbXCXBXnXBXFXZXFXdXBXnX&X7.6.[ % = O   X + O : = h g j y h b 7.D.%X0XhXiX2X2XiXhXrX6XrX0XhXhXzXkXzXlX X0X0XiXlX_./ Z W ( ~ v a j y - t m F u : O : ; ; e e - a ,.:   # C.bXZXJXLXLXJXBXFXCXnXCXCXbXvX-XbX#XM.0.&.&.j.B.B.z.K.z.j.@.@.0.0.0XMXAXGXZXwXuX].C.K.+X&X=XK.K.=XvXvX=XM.$Xm.B.$X4.X.s e o   ",
"7.$X[ ..=.tXxXfXyXnXsXFXnXFXdXnXZXnXyXsX|.w.*.3.[.[.W.q.s.V O o U yX7X%XdX*XH.c.4.0.l.0.[.6XJ.4.[ J.qXV.0.J.l.z.x.@X#Xo.j.0.y o N ^.{.A...~ b r ! W g g dXBXsXtX'.[.3X.X|.iXfX/./.<XNXSXpXiX2X|.(.9XMXVXrXNXNXqXqX6XV.2XBXCXGXCXnXBXZXJXPXDXHXDXDXnX,.6...} A ;   @ % s *.8..X%X2X<X6X X[. XJ.}.|.P.P.P.[.[.t.1...E u.P.zXHXNX2XP.p.(.u.t.'.dXnXuX{.~.!.9.1.a.w.W.*XyX'.' N h y k 2 k e F %XC.% p ;X#XBXLXLXBXoX$XvXwXnXCXbX-X:XvXGXvX-XM.j.@.j.M.+XT.z.-XCXCXvXvXvXmXPXGXwXz.@.wXMX#XMXBXVXHXKX#XJ.sXJ.sXmXnXCX=X&XbX$X{ t -   ",
".X[.v.^.W..._ Z >..X4XaXhXAXAXjXtXq.*.p.Z.E.W.W.q.[.s.>.' g.7 K e.Z.^.^.l.$Xh.[ W Q 3.$.$.o.[ 0.Q [ Q ^ 0.J.H.$XK.l.v.K.K.-X+.; -.w.7X{.,.H.H.W.A. .^ $.8.i.8.8.p.2.i.'.E.(.|._.}.p.(.NX4Xs.i.t.a.u.2XsXHXVX9XiX2X2X<XkXNXrXiX9XsXsXAXPXPXPXKXHXiXqX*.8.9.W.*.;   X s 5.q.!.X.,.'.9.o. .y.o.E  .$.8.Z.C.y.D.p.7.) G.8.#./.,Xp.9.1.3.7.X.^ X.%XnXdXzXNXSX0X9.q.k.x.tXKX3X8.D.8.W Z ~ ^ 3.'.P.&X+.m ^.yXXXMXHX9X+X=X+XY.l.k.x.@.-X+XU.vXK.0.m.M.N.z.B.B.vXDXbXbXbX+XB.K.gXZX$Xz.z.=XHXVXK.z.K.VXIXlXl.&.J.#X<XH.J.H.G.@X+.I G v ; ",
"fXtX*XW.[.p.,.N A 8.1.1.p.q.a.%XfX|.1.>.|..X*XtX[.8./.W.c.9.m R } 4.*.c.H.6.z.X.o.o.o.$.l. .$.0.&...b &.v.l.K.+Xn.v.l.J.+XK.+.v -.[.qX7...W.$X@XX.( X.3.X.3...#.s.8.2.7.t.(.S./.i.u.i.`.9X3X>.W / r.a.r.s.` 2.1.' #.P.MX}.D.V.8.}.P.aXxXKXPXPXPX|.3.*.F.hXD.| 3   7 Z.} ^ [.,.Z / ( t...W E $.1.8.G.F.0.^ ..y.1.G.9.#.2.t.2.#.~ E _ ..1.8.0.9.D._.eXkXxXSX| | n.W.[.'...} 8.E.XX^.].!.H. X1.y.l.=.;XnXE.yXeX .C.:XN.o.j.z.M.Q z.K.j.B.B.m.m.B.B.T.=XCXPXZX:X-XMX=Xm.+X+XwXM.z.M.K.lXSXlXxX0XMXKXK.K.v.i o.l.+.l.C.0.&Xv.| +.k.[ ",
"tXfX9XW.q.q.p.E.9Xq.>...,.>.>.q.).s.i.a.p.S.w.w./.tXfX*XW.e.m I -.-.[ 3.wX=X4.k.M.k.[ ( ..,.V.$.&.Q Q z.v.l.k.M.H.k.k.u.}.l.E b 4.jXgXZ.K.&X{.0.^ G 5.F [ c.p.7.8.1.,.8.t.s.D.(.t.%.t.1.1X|.) ) %.t.t.$.r.%.1.#.' u./.<X8XS.P.7.%.1.$.%.eXzXSXPXxX2XW D.xX3X8.r   b c.~ C F.{.1.$.' ^ t.^ b / Q ^ y.y.#...W W W W / 1.i.P.a.1.X.7.7.2.1.....$...1.p.8.( eXsX&X{.E.tXa.*...8.p. X X(.8X8X<XS.7.3.=.$XMXy.t.%X4.X.K.j.{ z.R.z.&.j.M.z.@.M.+X=XDXCXZXCX#X].K.=XwXFXnXbXbXlXqXB.K.z.=XbX#XqXwXxXLXrXm.K.B.B.n z D l.+.[ 7X6.| 6.l.4.",
".XXXjXfX(.|.[.p.W.>.5.>.>.t.8._ 2.a.a.s.8.w._ _ 2.tXiX%X1.<.r J | X.D X.7X@X5.X.@.l.0.0.0.U.P.V...&.3.3.0.o.z.$Xl.o.U.l.0.! v v | dXdX=XuX{.8.( ^ ^  .J ,.y.'.G.1.1.2.8.8.t.t.D.i.,.8.,.8.8.<.1.1.t.d.%.u.$.p.p.2.P.d.<XhX'.G.r.%./ #.! ' L.xXAXi.(.~ g i.fXi.y = x ^ ~ ^ V. X>.$...V b v E #.$.W ) 1.1.1.( b E ) $.#.) %.a.(.D.a.8.8.1...W r.t.1.a.a.<.t.<XL.|.).s.}./.5.6.| 9.L.a.D.}.).}. X#.G V.yX1.W +XV.#.Y.Y.Q &.h.+.h.k.0.M.Y B.CXHXHXVXvX=XS S o.+X-X#XlXVXwXwXwX+X0.o.k.m.z.z.M.j.wX].v.K.N.-XvXn + < v G.@Xv.O.z.].l.",
"_./.tX(.D.(.E.p.q.) A >.q.D.>.A ..5.s./.,.>.8.2.,.D.2X(.A ] 2 K [ | 3.G.OX9.9.o.y.l.l.$.$.,.y.0.$.o.,.( ( ,.+.H.U.C.l.l.l.C z c ,.nXnX].Z.8.t...} [ [ { [ 3. X(.D.1.>.2.2.#.t.D.a.u.8.%.1.8.1.8.u.t.1.1.#.8.F.i.#.<.2.2X}.U.S.t.` 1.#./ r.a.}.|.`./.r t N |.g.2 m I K [ I c.'.$.^ ....B v E #.%.E C $.L.i.^  .( 7.d...V ,.L.L._.t.#.#.%. .1.2.#.W ) 1.t.7.r.E 1.8.a.a.3X-.-.;.8.8.8.D.D.D.'.P...} q.3...9.=X$.9.0.D O.j.z.M.+.h.j.j.M.hXPXbX:X:X$XK.z.j.j.M.-Xm.z.wXwXK.].U.0.j.@.@.&.&.o.j.j.M.v.B.vXwXK.vXP + # z G.@XX.3.0.W ",
"Z.7..XqX[.8.9.8.q.8.8.2.s.a.<.F >.5.)./.1.8./.s.2.,.iX2.B F * m [ 5.3.@X#XG.3.3.V.@.o.&. . .$.t.(  .7.$.1.1.%.0.J.#XU.U.l.P &.l Q &X7XL.d.a.8.$.X.X.:.X.~ ..,.9.E.(.t.>.1.8.8.t.a.i.2.1.1.q.>.p.D.$.r.a.1.D.).#.' ' %.S.F.D.V.8.#.d.L.2.t.8.8.t.NX9X5 s r C s 5 F H l.l.U {.<XW ( / W W ^ W W W W ..1.p.L.,.( d./.t.) $.8.%.t.y.,.%.#...%.d.2...u.r.#.1.$.a.#...p.*.1.[.6.6.[.[.a.i.(.(.L.P.D.g S 9.S.A.Q.v.X.k.l.+.M.M.B.B.B.M.M.K.K.j.K.-X+X=X=XB.M.z.m.M.-XK.$XwXvXC.K.l.z.@.z.@.P D P o.K.vXCX=X=XB.+.J.vX@.7 % u G.7.G.y.W ",
"w././.tXtX[.E.9.q.p.q.2.D.q.>.t.2.t.i.i.a.}..X/.(.|.3X>.1.C O z [ A. X#X9.,.-.#.W X.{ | +.#.1.$.+.$.P.i.y.y.l.y.U.U.l.S.l.+.+.i $.6XJ.r.a.P.A.3.$.+.9.(.^ W 8.8.i.(.a.,.8.y.%.$.V.F.2.<.1.<.,./.i.u.a.D.i.(.|.s.t.r.).S.p.'.9.%.1.t.` t.%...1.a.pX,X2 y e e r a p H qX~.c.%XE.~ #.#.Q W #.$.W ../ C #.0.a.D.7.t.a.y.u.L.7...r.L.S.#...#.#.$.r.t.L.P.y.7.7.y.6X$.*.*.>.i.].c.|.(.S.8.s.s.iX8X..- S V.rXA.5.k.v.z.z.j.B.B.-XR.B.j.sXMX=XB.B.wX=X].$XB.B.M.K.B.B.K.gXhXwXK.B.m.m.z.M.M.j.@.o.&.m.vXuXv.Y.D +.K.K.vX=Xn < 1 z y.0.z ",
"p./.9.q..XqX}.V.W.>._ s./.s...#.a.i.t.8.a./.|./.D.8XfXt.w.a   m I 9.qXy.0.6.+.-.0.V.+. .$. .o.&.0.u.V.P.l.X.V.t.` / o.k.l.l.P 6 y.P.$.r.t.D.F.0.+.@.9.S.7.0.y.t.t.8.D.a.L.7.y.7.k.9.t.1.,.#.>.1.i.t.d.1.,.L.S.y.a.y.aXiX(.<XF.$.#.#.( 1.#.#.7.S.fX(.e r a 2 s N p S  X7X0XtX8.,.#.%.7...$.1.#.7.7...(  .../ r.t.t.t.D.p.y.t.y.,.Q ' %.#.$./ #.L.P.P.L.L.a.` r.P.*.#.) 1.[. XG.F.5.X.2.W %.v u D D 0.}.l.0.4.k.z.j.+.j.M.B.j.j.K.sXyX#X+X=XMXmXK.B.R.B.M.B.B.=XuXMX+XB.+XB.+X=Xz.+Xm.z.&.&.o.o.K.-Xj.&.G @.j.B.wXn.&XU.c 1 0 1 % ",
"8.2.7.a._.E.E.(.q.*.....( >.Z N B 5.).`.).2.t.D.8.p.pX8. .5 O p -.,.G.,. .o.3.4.1.$.7.8.V.[ D [ 0.u.y.l.z.+.l.t.%.0.0.j.z.k.n 6 y.P.2X8.$.u.7.k.@.k.P.r.1.t.1.#.a.(.2X8X{.S.p.9.*.1.>.8.i.9.` 1.D.f.1.1.$.a.s.t.y.2._.D.).8XF.G.y.#...2.2.) [.9XtX(.5 t r y y N 9 M *.w.[.F.#.#...$.,.#...1.7.y.t.a.r.y.t.a.S.t. .( S.t.d.i.9.7.#.2.1.1.7.r.7.t.y.a.4X3Xt.( $.S.1.1.1.,.5.H.F.!.k.5.9.9.d a F H D H.0XG.v.9.;.z.M.N.N.M.j.j.B.wXz.z.K.K.K.+X=XK.B.B.B.M.B.N.J.nX].B.+Xj.M.K.wX=XM.&.P Q o.+.&.K.B.v.+.j.j.z.j.J.J.bXuX+X1 1 > O ",
"8.,.p.{.(.1.p.E.Z.>.>.=.) ! F =.F ^ s.,X}.2.>.>.s u A h N 5   9 k.v.6.k.$.X.+.5.0.$.C / t.y.X.*.$...0.J.J.l.9.y.+.$.0.G +.o.0 < G.6Xy.y.#.$.0.X.Y A.<Xy.$.#.y.r.#.`.eX=X].t.y.V.8.1.,.t.(.'.#.2.8.t.,.t.8.8.y.2.2.t.y.d.iX(.p.i.8.1.>.P.F.D.D.gX2X1.2 y f g a N 4 K *.6.0X..B C d D $. .#.1.^ %.t.a.D.|.1X2Xd.$.%.%.$.7.,.1.t.y.7.<.#.a.a.r.$.7.L.).4XD.$.r.r.$...1.1.7.5.V.%Xc.k.6.6.0.+.F X.z c uXdXJ.J.~.B.N.B.B.B.N.v.=XmXB.j.z.M.z.z.m.B.z.k.Y.j.B.B.B.M.bXM.M.K.o.j.0.rXz.0.m.o.&.o.&.o.o.v.K.&.O.Y.P j.J.v.+Xz.B.j.. O . ",
"E.9X|.[.9._ ^ J 3._ 8.q.>.2.8.Z.3.F 5.2X4X/.a.G r N ~ ( ( 5   c H.7Xc.;.| X.+.3.c.V...) y.r.o.$.0.X.3.v.K.l.G.J.C.l.$.v.&.r 4 & L.sX$.#.1.5.*.| k.E.a.D.7.7.a.a.#.s.L.*X{.r.t.Z.Z.#.%.8.G.D.#.1.2.) t.p.S.L.D.t.$.1.1.L.3X,XD.a.2.2.1.V.].8.a.qXD.W y 2 N Z g u q I | tXL.C Z F F W X.$.Q W $.$.$.u.a.L.D.r.y.D.s.8.^ t.y.#.1.U.,.....%.1.$./ 2.1.t.1.b ^ r.#.( y.$.b ( 0.Z.[.[.[.%XqX$XH.5.X.B f {.&XOXOXwX+XT.R.B.R.wXSXgXm.j.M.B.K.m.j.C.K.B.z.@.j.j.M.z.z.#XU.oXz.z.+.0.l.&.@.m.0.&.0.o.0.o.v.K.U.l.P j.j.j.Y.v.z.N.+X1 . + ",
".XjX|.F C Z N s J _ =.1.q.q.5.a./.7.1.2.).D. .p ^ q._ s r - X q ].Z.,.| X.0.5.4.4.U.U.$.y.y.8.t.0.E  .4.0.6.H.l.y.0.U.&XU.0 & + t.6XV.-.4.3.Q ;. Xa.#.p.t.t.d.1.a.L.'.Z.1.t.$.!.i.2.7.r.i.u.<.,.2.D.a.i.d.S.L.8.1.#.1.P.p.L.D.a.D.d.%.S.8.>.E. X2XC y t X...u % M Q.^.(.W ~ ( F C $.1.F Z b Z W ( D.d.o.^ #.y.D.I.y.~ ^ W $.t.X.$.X.( Q  .$.,.#.W Q d b E C V D 4.| / #.( 1.7.1.S. X~.].dX XA.[ = H %XyXB.K.=XbXvX-XvXBXVXbXM.K.-XK.#X-Xz.j.U.+.M.M.B.M.M.K.M.K.vX#X0.D P 0.z.0.o.o.&.Q 0.0.0.&.+.J.#XJ.M.M.j.O.@.j.j.N.K.v.  > ",
"{.E.J d m d F B J *._ 1.q.2.,._ *.8...a.i.f 6 6 ~ G 7 5 i <   3 k.-.X.Q G 6.V.c.U.0.[ G Q V.V.D.y. .+.C.l.F.0.l.3.&.+.k.x , $ + 1.J.Z.}.9.^ } e.D.a.<.t.t.t.1.r.L.}.8.8.p.#. .p.1.a.1.1.8.1./ 8.a.D.r.i.a.a.2.1.Z.8.r.V.t.u.<.' s.D.u.(.(.i.1.p. XE y F X. .f   p vXnXt.$.u.2.%...#.#.#.~ ~ D v / #.$.%.$.#.#.#.7...^ D Z  .$.7.5.X.( ( 7.1.7.#.( W b ( Q D Q #...Q ..' #.u.1./ _ -.l.W.w._.fX3X* l @XsXH.$XCXBXZXnXbXqXwXvXbXwXB.K.K.=XB.M.z.o.K.B.vXK.B.CXK.m.mX&X&.D &.&.+.-XK.&.D o.&.0.Q b &.K.j.+.M.j.j.Y.@.Q U N.+XwXf > ",
"X.N 8 m A A _ J K J =.5.>.V ~ F B N F A N 3 = u  .J 7 < 3 # X # q m K G [ 3.l.9.4.o.d c G D Q y.V.o.3.].A.].C.l.@.P 0 $ + # +   $.F.D.F.3.3.n.6.p.t.a.D.S.r.d.(.E.}.>.8.7.3.E.1.$.<.1.u.t.#.` <.8.u.>.i.s.d.$.y.(.}.D.a.1.` ' ( 8.a.a.(.(.s.).L.s.` V X.1.X.S . A mX<XL.D.D.t.Q / #.t.P.9. .D Z D z E  .$...#.#.C W [ [ 1.7.t.V.1...#.1.#.#...1...W W D D F  .y.7.r.y.t.d.y.7.8.3.8.c.p.2.2.1.2.1 M l.NX<XsXbXK.VXyX#XsXMXBXDXbXK.M.K.MXK.B.K.j.@.j.$XmXwXmXvX=XCXqX0.&.&.o.&.U.+X0.D +.P &.Q &.j.j.G o.j.z.m.z.P P P P Y.wXtX0 ",
"q 8 3 8 p m Z _ *.J A F m f m F m q 3 & # # f K J z & X       0 q 3 6 c { I [ c < < 4 < 4 c &.Q D G 3.0.G S p 0 3 + + $ + .     q.{.E.E.w.3.A.A.,.7.P.1.1.(.(.a.r.y.#.7.7.y.'.7.9.%.<.L.a.8.<.) %.>.8.a.L.L.2.u.}.,X(.2XL.<.' ' 1.1.r.a.y.I.S.L.'._.~ 6.-.6.X.> W.GX(.1.1.>.1.%.8.8.,.8.p.S.S.0.#.( b b ^ t. .W Q [  .$.r.t.'.}.t.2.1.7.#.#. .[  .+.o.W ..$.$.r.t.y.a.r.a.r.t.D.t.8.F.1.p.(.s.} @ P o.F.qX7XCXgX.Xq.xXiXjXSXfXA.x.Q.vX7Xx.+X-XM.P M.vXvXvXvXmXwX6XU.&.&.&.Q Q &.U.0.D P D P P z.j.&.b &.P j.z.j.@.z.Y n P N.=X@.",
"# # # o & > 8 p d 8 8 6 - * O     % & 3 s [ 6.[ 3     . O   O U z.T I :.x 0 1 7 q p p f c u b 0.X.0.i.G 4 o                     Z.jX].c.D.F. X[.[ ~ F.7.1.y.(.t.#.$.u.D.$.1.y.1.y.#.u.s.d.p.( ! %.#.1.t.d.S.t.7.d.S.(.9X3XD.2.' %.7.#./ / 1.<.$./.iX>.8.c.w.| 0 w.CX[.>.r.8.( >.1.~ %.,.8.p.L.t.t.u.%.Q W [ b b $.#./ %.a.}.<XP.a.a.u.1.(  .$.t.y.-.7.$.a.S.d.y.t.S.1.1.P.G.2.D.S.S.{.H.(.iXD.z + n M n @.wXPXCXdX&X&X&XVXjX*Xb.e.$X=Xk.h.m.M.R.:XwXvXvXvXmXZX&XK.o.D D &.&.D o.0.&.&.0.o.0.@.j.j.o.P { P { z.P Y z.j.N.B.N.B.R.",
"o O O : h *.*.q.5.w.b.J # O # m =.6.h.b.Q.&XdX*Xv.-.+.v.k.:.x.oXT.oX&X#X@X!.C.H.A.l.v.J.J.J.J.wX7XyXDXDXyXK.+.Q d - o           3.%XF. X|.0XgXA.J $.8.p.S.1.2.8.%.$.7.7.( 1.7.' ,.t.1.8.i.8.) #.D.#.1.a.a.i.a.8.2.8.t.D.P.a.t.8.1.%.%.#.'  .1.( (.zXi.,.V.q.D p e.dXW._ #.) ~ ) W V t.}.s.D.u.#.,.V.%.%.( E ^ #.1.r.%. .D.D.S.P.S.1.y.y./ / t.1.$.S.S.L.}.P.G.L.D.p./ / / ! L.(.8.q.S.*X9XhXp.7 > P Y U Y l.zXVXMXFXSXtXtX^.dX$XoX+X+Xh.h.+Xm.+XvXvXmXbXuXvXl.=XoX0.z.&.Q Q D &.P Q &.z.K.z.0.j.P { { Y.@.j.@.Y Y j.N.N.B.:X:XR.",
"- - t Z c.XXsXsX;XW.W.-.=.=.b.{.A.C.b.k.n.^.fXDXMXbXwXdXdXnXyX@XXX=XnX=X&X&XqXuXwXqXqXwXqX0XMXMXNXDXJXLXHXuXOXn.!.5.B g -       -. X9X0XzXMX!.K [ D.a.<.a.S.2.%...$.$.#.t.1.#.' ` 1.1.2.y.t.~ #.8.) u.d.y.1.i.i.t.t.D.a.7.<.$.S.y...S.u.t.V.V.7.D.sX2X.X[.w.H q =.dX/.r.1.W t._ Z N ) [.|.D.a.p.#.W t.V.<. . .%.%.t.a.7.t.' t.P.7.8.$.%.1.^ $.C E 1._.}.(.).(.a.u.s.#.C E W t.9.7.V.8.S.[. X9.> + O.U @.N.Y K.mXyXAXDX;Xe.uXdX;X+X+Xn.4.k.B.B.vXR.B.CXCXvXK.{ K.wXo.0.o.o.o.&.o.&.o.o.M.z.0.&.P D Y.j.D @.j.@.@.@.M.B.j.B.B.B.R.",
"3.w.q.q.*.(.jX.X6.^.W.;XtX%XE.Z.Z.7.=.b.^.tXFXDXJXJXCXCXbXBXdXhX3X6XjXAXVXGXsX0XAXMX9XsXBXVXJXLXLXLXIXIXzXVXhXG.3.3.l.].U.[ a   5.FXjXF.V.S.*.N $.8XL.a.D.1.t.P.%./ ..r.$.r.1.' ) %.3.1.>.t.8.a.u.<.a.D.t.1.t.(.(.S.S.L.a.t.#.S.y.#.V.'.U.].&XV..XhXsXDXdXF J q =.sXjX|.7.2.8.X...^ E #.y.D.,XG.( V ..I.u.%.#.' #.$.$.#.7.P.U.#.S.].' ..t./ E W D E #.S.L.P.t.2.L.S.,.,.) ) ~ g V ,.Z q q 3 $ + + U @.U -X-XvXvX=XAXDXtXz.n.n.OX#XJ.+.4.@.m.M.=XB.B.CXLXMXB.j.P U.].0.P o.0.o.o.&.&.o.0.j.@.&.n Y j.j.{ P @.j.z.z.z.0.@.R.&Xm.T.",
"W.W.c.,.q.3XfX3XE.W.{.2XtXD.F.q.*.4.%XdXZXZX:XBXFXnXyXDXdX X7.'.[..XhXnXuXVXNXBXFX6X2XwXNXDXsXsXqXwXbXDXUXUXUX0XG.V.+.o.c.@XJ.= B %XhX8X5.X.[ S Z.<Xa.,.p.7.2.D.7.' %.V.t.%.#.%.! / 1.1.<.8.D.D.7.2.8.S.i.a.t.}.|.'.L.y.t.<.$.P.S.1.1.S.].wX@XQ 9XpX9XAXr.j *.d U dXjXjXa.9.i.5.7.#.$.../ 2.u.1.$.%.S.1.o.l.0.1.7.#.#. .r.V.3.1.y.i.../ W  .$.$.#.)  .1.7.1.' $.p.d.y.u...~ W N a = < * 3 $ X   & Y O.@.-X:XDXvX;XdXFX^.~.!.w.-.4.K.H.o.+.-X-XR.:XB.VXVXM.z.P P z.0.@.&.@.@.0.0.&.&.0.o.&.z.0.Y Y.{ { P j.j.z.N.R.m.&.@.B.wXK.M.",
"W.W.q.1.q.3XhX.X[..X.X.X[.q.c.-.A.nXDXvXnXbXjXnX-Xn.2X0.G.F.W (  .1.Z.S.,.y.rXJ.l.D.J.qXBXgXC.0.| z.Q.v.dXMXqXG.y.G.0.v.$X*XD o X.].7X@X6.4.A 6.'.(.8.#.y.9.X.~  .$.S.D.$.#.r.#.W ' 2.1.1.1.i.8.#.t.s.s.i.i.D.}.t.t.a.D.t.%.d.a.r.t.a.y.7.@X~.S Z.hXAXiXV j >.B 8 ^.dXAXjX[.E.].U.D.V. .$. Xt.2.u.S.S.%.%.0.1.,.#...7.1.$.$.$.1.X...W W / $.7.t.a.S.a.a.y.#.r.#.~ >.<.( ~ >.,.z 5 7 2 7 3 +     < @.@.h.-XGXCX@XyXAXnXW.Q.+XoXW.O.k.z.j.h.-Xm.z.K.MXkXj.P { { j.@.M.M.0.@.0.M.m.0.&.z.0.o.@.&.&.j.@.&.@.z.M.z.M.R.z.j.j.M.+X=XB.",
" X}.XX.X/.w.tXhXtXXX!..Xb.n.W.%XAXKXJXbXbXnXJXBX-XK.y.3.| +.3.4.X.~ ~ X.0.W $.$.V.V.3.].{.{ [ O.{ 4.-.K.z.P @.wXwXqXdXwXvX[.= % *.~.&X;.K K U &X0. .c.8.7.$.Q W  .%.S.V.y.a.` ..#.1.t.( #.>.#.1.) 2.a.D.8.) D.P.y.d.y.p.%.7.S.S.(.P.,XD.t.1.G b =.a.qXa.V h V f   3 M J !.tX{.W.9.G.V.qXJ.-.E |.<Xa.U.S.i.P.U.0.%.t.#.y.D.( V.K.H.Z v V b / o.a.2XD.P.y.8.D.1.D / ..1...( >.8.y 2 - 6 7 $ O     0 @.@.Y.+XCX-Xj.w.uXuX$X=XuX:X$Xh.+.+.h.m.B.M.n.bX0Xk.M { j.M.+.j.oXm.0.{ z.U.0.@.0.=X].0.M.P @.@.+.@.m.K.m.M.B.z.M.B.z.K.m.B.m.",
"|..X2XtXXX.XtX*X{.n.n.W.@XdXMXHXDXZXtXbXDXPXJXa.*.8.( 1.H.4.3.+.0.^ ( Q X.X.Q X.V.J.[.OX4.D o.{ 4.v.o.v.B.j.-X+Xv.~.bX6X7XW 7 . | C.-.I h.:.A.dX[.6X0.l.7.,. .$.%.$.#.V.$.y.%.y.#.#.1.#.2.>./ $.#.i.t.1.X.~ 2.i.1.u.y.t.$.L.S.y.a.L.a.$.` 1.A G q.E.) >.V t d 3       @ $ 6 0 4 9 0 p [ H b $.0.l.$.Q o.+.t.sX<X9.v.0.3.0.V z.:Xv.W W E B ^ G ~ 0.0.D.#XwXqXV.9.W.8.2.~ _ '.2.7 t d 7 * X       q Y j.M.=XK.z.z.k.OX~.&XnXdXdX^.M.B.K.K.B.yXnX7XsXJ.4.P j.Y.M.z.M.K.&.0.oX@.&.o.&.0.z.0.0.U.@.o.0.z.@.j.oX#XvX+XK.m.@.@.@.B.K.M.",
"W.'.'..X9XW.yX*X^.W.*XZXAXDXDXDXdXM.;XDXDXDXhX) t.p.1.G ..0.c.9.9.$.X.X.^ 3.8.4.5.0.{.v.&.&.&.| x.n.0.4.m.| M.M.H.v.J.].0.u 1 o ^ C.3.6.b.v.0XdXMX0Xy.x.l.#.7.y.0.t...J.V.%.#.#...1.1.>.1.1.) *.3.F.a.a.1.~ ,.2.1.#.u.S.D.D.t.d.y.s.L.%./ %.>.w.E.'.iXfXZ j j 5         . . X @ < * + + & > < 1 < < * 1 6 x  XCX&XuX{.!.!. .4.oX{ b 1.~ F V.3.B B G !.{.} B G | *.A F ,.E.D.u v Z } p + O       < P M B.K.Y.j.m.-XK.~.wXnXyXdX^.M.bXvXCXBXMX6XQ G &.b P N.j.j.M.0.o.&.m.vXj.P &.P &.0.z.@.z.z.@.o.j.@.j.&.0.=Xz.m.m.P Y j.M.B.+X",
"E.5.XX[.XX9X^.@XFXPXIXnX^.7XyX@X^.tXPXHXDXDXiX1.q.1.1.,...D ^ $.[ X.3.X.0.9.-.o.[ 0.J.l.Q  .{ O.h.M.;.O.@.[ j.M.m.+.@XuXC a 1 1 D J.J.P.k.{.gXdXnXP.0.1.0.%.%.,. .y.t.#.J.$...t.>.8.D.i.p.1.#.,.c.S.a.i.2.8.3.1.#.t.F.%XP.V.y.D.V.1.2.1.` <.2.c.W. XzXpXE g 5 5 O c < O X . X X + @ % + @ @ + o @ @ & @ & 6 u o.*.v.+XOXv.B G b 9 < & * < 0 c 9 4 4 c c 9 i f 3 % & > 8 d 8 7 p p 7 3 O o O     0 U M @.uXB.R.z.OXe.n.*XyXjX*Xh.bXVXlX X0.wX&X+.&.M.Y.j.j.Q m.m.P D P 0.M.z.&.n o.0.z.oX@.j.z.M.P &.j.&.&.B.B.P K.z.0.z.R.+Xm.=X",
"d.) *.[.xXnX=XAXPXIXJXdXnXBXFXAXfX9XfXAXSXAX[.>.i.1.1...X.^  .o.0.3.+.V.,.o.( Q [ o.$.+.4.&.&.+.o.h.+.@.F O.{ @.v.k.OXwXC p [ u S G.J.J.!.AXdXyXCXy.r.y.%.S.%.7.D.y.0.#.3.#.U.[.S.(.'.s.1.7.2.s.}.L.p.7.9.G.9.9.$.8...1.Z.V.F.Z.p.8.%.#.2.i.p.3.Z p.a.iXE a 5 ; & j.n ; X : ; & ; * ; ; % - 1 6 9 6 0 0 9 & & $ $ 6 c 4 & # X                   X % % ; - ; ; % : ; ; : & j 2.5...*. .^ F J A @ 4 j.H H O.B.uXj.M.b.Y OXuXyXh.H.#X3.V.y.&.@X&XOXk.M.v.k.j.&.j.+.n D j.B.o.@.0.z.oX0.0.o.0.@.B.B.B.@.&.P z.@.n M.oXM.oXB.B.+XB.=X",
"W.) /.FXDXFXAXDXDXDXjXfXsX].c.X.J G *.q.9XhX0.,.#.1.7.3.$. .$.$.y.4.} ,.C. X8.4.o.o.X.4.l.+.l.O.P { { x z { z.+.+.v.OXoXX...A.a b J.qX%X0XDX0XbXnXP.,XS.1.P.,XV.1.W ^ 1...W G.0XG.(.3Xt.7.3.1.,X}.S.i.8.y.F.G.D./ ^ W ,.].F.p.p.qXy.( 1.r.1.(.c.3.|._.iX%.a r : o U N.Y Y Y.{ { { @.m.M.[ Q x.-XB.-X=X:Xm.n @ @ % X O O   O O O   o % % o O   O - 2 y j A -.W.Z.3.J ) 8.XXnXDXZX^.E.W.l.^.W.b.J 0 @.T P P +X=XB.K.wX@.:.*XqX7X*Xj.H.@Xn A.=Xx.k.+.C.K.j.&.@.Y.P &.&.@.@.&.&.@.0.0.j.o.P K.m.U.m.T.B.z.j.j.n Y @.m.z.oXB.m.m.=XvX",
"%XAXJXDXDXjX X,.8.E.p.G J *.G ^ Z F } } ~ 3. .(  .,.1.8.y.X.3.8.2...^ 5.V.p.F.W.l.l.F.G.+.{ x.H.{ j.{ s ^ O.@.G +.| ;.OX4.X.c.F D J.J.8XMXHXSX0XJ.y.I.2XP.u.u.7.Q W ^ 8.r.( y.[.|.<X|.(.V.6...s.a.,.>.1.D.[.y.^ ..#./ 3.A.*X{.8.'.S.1.9.(.#.~ [ q.3XxXVX/ h 5 O @ j.vXvX:XvX:XB.m.x.K.K.K.m.@X-XvXK.B.K.j.Y.{ i ; ; ; 5 1 % % : ; ; - - ; o   X t a.jXZXLXLXLXLXLXJXPXDXDXDXAXjXqXZ.4.A.jXyXZ.Y 4 P U P n K.vXvXmXFXwXj.n.7XdXx.O.z.@X4.H.C.4.H.H.H.l.+.o.K.j.{ Y z.0.P &.D P P n P P J.#Xj.0.B.B.B.B.n P j.j.@.m.T.B.B.B.#X+X+X",
"DXLXAXiXa._ ..X.J _ ..A G G [ 8.7.5.8.^ F Q *. .A W V W t.2.y.8.u.$.( q.V.#.1.1.0.y.<XP.+.&.J.@XJ.K.@.@.x.@.P H x n x j.k.Q.OXz b @X2X{.8XP.P.3.^ < i y.P.%.#.W  .y.U.V.y.P.D.y.}.(.).|.D.-.6.#.1.%.8.8.8.1.3.~ ^ $.$.....!.7X'.y.' ,.1.a.S.7.*.|.zXSXpXg h e O < +XIXGXgXCXmXwXK.J.K.K.-XK.uX-XvXm.j.m.+.@.j.j.P c 5 - 1 i z i t u u e 2 % O O ) sXV.'.tXzXjX9XtXzXcXAXDXAXfXdXyXE.S.dXhXhXtX=.c n M.c , < x 0.#XnXMX=Xm.*X@XH P { { P n Q +.J.wXk.k.n.@.+.{ P P @.@.&.&.n D P { @.@.b D &.0.z.@.P @.Y j.@.@.j.m.B.B.oX#XwXbXm.",
"LXFXXX3.J ~ J Z _ *.*.*.F ~ D X. XZ.,...X...3.6.~ B Z ..l.J.P.V.1.Z.V.} 7.>.#...#.y.S.V.0.y.J.U.#XK.M.K.h.| k.m.k.P P P { I G F H C.wX..< & & > + $ < < W <. .1.P.U.,X}.a.8XS.#.( ( 2.i.[.6.G 3.1.%.S.G...9.( Q $.-.6...( E.[.p.( W W ( $.(.G.t.s.|.jXi.h a 5 O < M.nXC.v.K.nXJXZXnXCXmXvXdXnXJ.bXvXK.M.M.m.B.N.Y.j.@.T Y Y j.z.N.B.+X@.P =   % .XW.,.~ ..Z.w.Z.p.,.J Z.tX%X'.(.qXtXtXBXjXyX*X6.U c U l & > $ , 4 +.bXbX=X&Xk.| G P P n @.P n &.H.K.K.K.@.o.O.{ P &.@.&.&.&.P P @.0.+.n b P D @.n j.@.@.M.@.@.{ M.oX#X#XgXU.].=X",
"MXAX'...C s B F ~ $...9.A...X.,.W.D.8.7.i. .;.} ( t.8.4.x.P.8XD.Q ^ G.l.J.S.Q W / #.1.( $.].$XK.@XC.[ 3.o.+.4.x.3.-.;.h.@Xl...F 7 z p = 3 5 1 = < = 1 1 p Q D.P.}.eX8X,XeXfX1.3.( W 8.F.*XF...$.D.%X].!.8.!._ ) 9.X.9.9.1.1.r.7.X.! #.F.9.t.'.G.#...}.y.v E k O & P #XO.[ O.+.OXwXl.U.<XbXU.o.D +.U.wXvXvXmX-Xj.C.z.m.K.-X#XwX=X+X-X-XN.B.j.< r wX!.F.y.8.!._ ~ 9.1.X.E.fX(.S.8.8.}.tXgXNX*X.XZ.n < i < # > > > w 4 j.j.K.sX#XM.{ P j.@.z.j.P D D l.#Xz.@.{ Y.P P &.z.z.&.M.j.Y &.{ @.P n z 6 1 S j.@.P j.K.&Xj.M.$X%XwXhX{.J.0X",
"[.BXMX|. . .Q ~ ^  . .3.6.X...*...7.q.8.8.p.4.^ / y.8.l.l.( a.S.W #.y.F.<X,X3.Q W  .Q / o.J.#XC.c. .z [ G F ^ ^ b $.J.@XuXdXu.p 6 p ; 5 5 5 1 - 1 5 5 y 9 4 z D D.<X4XkX3Xr.r.$.) W #.[.V.F.[.D.,.C.C.8.(.a.~ / .. .G.F.y.1.u.a.7...%.0.9.#.a.D.Z #.8X<Xv Q e   P j.;.4.M.@.;.@.&.+.{ Y B.z.z D Y.Y.z.J.J.&X=XwXMXwXsXU.U.].#XwXbXmX=XN.N.B.@.P wXU.F.A.,.A.8.^ Z F _ 7.3X[.S.5.9.[.hXfXzXdXnXW.p # 1 & > & < < , > 4 M v.qXMXK.z.j.z.&.z.@.@.Y.z.z.l.j.Y Y.Y.P n @.M.z.@.z.M.j.j.j.P &.o.9 4 i P Y.P Y j.#X@Xz.j.j.J.dXbXfX7X{.",
"9.gX0XS.8.X.,. .G Q F Q ^ $...G } ~ ,.p.8.i.a.D.<Xy. . ./ ^ V.$.( r.f.u.L.S.L.y./ 0.' $.4.P H x i D [ l.~.V.3.X.0.J.@X@XwX3.#.t 3 l.j e - y 5 5 r 2 e r y ; # c ..! <X<X7.o.y.8...( Q 1.1.'.G.[.8._ .._ .X[.7.*...9.A.5...#.<.S.p.#.$.! ..$.#.S.7.L.}.%.a / h   N.B.j.@.N.j.z.+.Q o.j.j.j.P D P { &.M.z.$.U.].'.U.l.! b E l.0.o.8.6XMXM.Y.z.j.z.7X[. .1.q.3.3.Z.q.^ F  .^ >.V.5.8. X'.p.gXnXtX*.i . . # * & < , , > , , l x P qXwXK.&.P z.m.K.K.K.#Xk.k.z.j.{ P @.j.j.j.Y Y z.j.Y.Y.&.P i 4 P j.&.j.N.m.M.z.M.j.M.OXC.qXBXMXqX0.",
"9.dX_ Q 9.1.X.,.-.[ B G ^ ,.V.X.m ~ 7.7.1.>.X.1.2XD.o. .$.y.8.3.1.#.$.d.P.t.1.$.#.#.0.0.O.4.j.Y P Q [ o.l.V.+. .o.V.{.J.v.x #.u   c.q.C V g a B [ s r e 5 e - 1 H y.'.V.7.1.r.0.%...( 1.t.(.s.D.8.1._ 7.E.9Xa.>.,.[.F.0.#.#.2.( (.y.r.$.' r.F.P.qX}.P.7.j W b % j.oXB.@.j.N.j.{ Y.z.M.z.P P D D Y &.j.+.l.j.&.Q D g b D Q %.l.o.W C G.K.Y.M.z.z.[.Z.p.3.*.8.,.1.p.*.1._ _ 1.,.( ) Z.E..X X7.q.5.p . > . + # $ & , $ , , $ , , O.GXwX&.z.B.=XqXU.K.#XJ.&.Y.&.{ @.M.z.0.oX@.P @.j.{ z.+.u n P Y.Y.j.K.K.B.K.z.N.B.+XwXwX].MXBXF.9.",
"~.'. . .,.9.1...X.X.[ G D } 3.A.6.3.8.D.8.i.1.1.r.r.3.$.V.V.$.8. .1.S.V.y.$.r.y.#. .l.z.-.J.v.;.j.O.+.X.G +.J.G.l.$.[ $.+.k.X.r   I ^.0.6.X.| -.+.X.v a G p 5 5 < [ ].8.8.' t.9.#.$.7.(.1.P.P.7.,.,.>.1.a.'.W.^.F.sX%XZ.W.i.X.#.,.1.u.1.y.@X@XJ.AX0XV./ s b h * z.Y.o.n Y.z.j.Y &.&.Q o.b D j.k.z.+.o.l.U.k.o.E &.! D W l.0.0.! V / 3.#Xx.!.yXx.%XE.9.G.p...3.>.>.X.q.X.~ p.8.) ,.q.D.6X7.~ p.W.v # T 4 + + + > , , $ , w 0 w j.bXgX$XB.B.wX=Xj.k.K.U.Y @.P { j.K.K.z.z.@.@.Y z.j.K.b n @.Y U Y N.-X$XM.z.z.M.+X*X@X{.Q.G.qX7X9.",
"0X9.D ~ _ 9.G.,. .[ ^ G  .G ~ 6.!.F.8.p.p.V.S.F.8.#.$.c.y...$.p.9.7.a.}.p...8.0.( Q *.K.c.9.l.K.+X+.k.+.| 9.V.l.F.V.#.v o.m.@.7   i H.!.3.V.6.0.A.9.[ ^  .X.G b u < 4 z l.J.G.$.3.0. .B y.|.(.$.#.#.%.$.E.s.7.*.}.0X*X X Xs.>.i.%.1.2.7.y.V.~.%XLXP. .v W b < @ { { { G n o.+.j.&.&.b c b K.C.j.P &.Y.v.k.o.l.Q / &.' ' U.%.0.0.o.3.4.J.OXNXkXI {.E.E.(.Z.7.>.X.) 8.>._ ( #._ 1.S.E.S.%XD.) E.[.1 < N.I u & # $ , > , 4 , , , n #XsXqXJ.l.o.z.z.M.l.j.M.j.&.{ j.M.K.0.P @.z.j.M.z.{ l P T Y.Y Y @.j.-XwXK.B.+XK.*X7X&XC.0.,.G.3.",
"9.#.F Q G ( ..9.0.3.[ { *. .G ^ 7./.p.8.7.,.$.t. .x $.2XV.) ,.1.y.3.$.1.#.$.1.$.$.Q $.{. XD.].*X~.v.v.4.1.7.3.$.l.t.o. .E +.+.f   o I wX Xv.C.C.6.9.5.3.V.0.0.k.b 6 1 < b D.0.7.y.P.V.L.(.9.1.$.W ( 3.1.q.*._ 8.1.a.3.Q.@Xf.).<X%.1.r.a.].J.6XMX2XQ z p z x @ O x D P P { { Y.,.D b i D k.H.z.k.+.Q +.P j.z.j.j.&.o.l.l.K.U.+.K.h.k.H.X.].hXy.F F.D.S.9.,.i.7.,.>.p.p.7.9.8.( 8.q.8.,.tXjXD.XXtX= % N.=.b c * , , & , , w , , $ , w 0 P l.K.m.z.J.j.l.sXC.j.O.Y.].#X@.&.@.j.B.B.R.b > P @.Y.j.@.@.K.K.K.K.z.j.{ A.~.-. .*.U x 0 ",
"_ D ,.,.D ..,.,.1.F.V.c.-. .( ( 9.p.D.'.D.a.y.#.Q S  .0.7.8.7.8.1.$.y.$.^ 1.#.$...+.l.[.P.P.L.0.K.v.l.5.$.3.$.3.0.V.V.%.h #.7.c o   9 0.uXA.V.V.~ [ -.9.J.A.V.V.l.b 1 6 < * 1 z D. X$.<X9X8.$.1.) 3.V.'./.) ! a.8./.5.b.-.t.>X2X(. X XwXsXwX].^ x H z f D 4   X P D Q n @.H 7 < i n P &.0.+.U.l.l.o.&.{ @.m.K.M.j.z.M.U.K.K.U.C.m.-.+. .v.k.1 p 6.C t.8._ 8.i.S.8.,.8.Z.E.8.w.3.q.[.D.tXAXyXqXBXt * e.K P G x 1 1 , & & , w u < , , , , , n z.$XK.#XqXJ.J.K.v.wX:XU.@.@.B.@.N.M.O.< = M U @.:.@.K.B.K.B.M.{ { j.~.@Xv.c q 0 w , ",
"x.!.i.,.,.8.V.X.3.G.D.'.9.1.7.,.s...8.S.D.|.i.1.#.$.8...( ,.a.y.Q y.6X XA.9.( / $.~.V.0.r.#.b W 3.4.l.C.V.G.J.G.G.*.0.0.$.' h i %   % H ~.dXuX~.X.*.9.X.c.%Xc.} S z 7 7 6 < 6 < p [  .8XlX9X8. .7.V.1.V.S.u.%.'.[.(.a.q.J A _ W 9.*XyXbX7X-.x x 0 7 u 7 4 +   o j.l.+.o.P P n P j.j.o.k.&.&.j.k.J.o.D &.z.M.m.z.z.z.j.z.l.J.U.v.l.-.3.l.l.*Xt 0 :.~ W _ ) 7.8.G.8.i.8.S.a.1.q.8.E.tX0XqXtXfXFXZXg 3 e.L q L K q > & & & , , , > , , , , , $ w n @.OXv.K.J.#XqXZX=X@.0.B.K.=XvXP < w 6 P :.j.j.M.x.-X=X-XM.=.:.n.n.*X{.H 4 4 , . ",
"$XyXE.8.p.q.X.>.V.y.(.].p.y.8.7.q.i.D.p.7.w. .i.i.s.F.8.#...8.1.S. X6Xy.C.F.$.y.G.l.0.1.#.D D W F $.].@X].V. X[.0.3.o.*.V.D.( v @     o U wX3.G m l.A.4.c.I 3 $ + $ > > 6 6 u p 3 i b ..u.}.y.~ W ~ Z #.7.7.!.{.#Xw.C V z G Q.3.h #.X.H.S p p x 7 4 * @ X .   X v.K.j.P P j.{ z.M.j.H.$.$.0.$.l.l.&.D j.k.j.M.K.+.+.@.+.k.&.P l.J.l.C.G.0.H.1 0 n.Q.V.1.1.#.2.i.) 8.!.V.,.A _ 1.}.D.V.[.XXjX9XXXV $ m l n L K M 6 # & & + + # $ & , , , , , , , , P K.7XhXnXCXwX&.&.0.z.@.4.{ 0 1 1 M j.N.:.P Y j.oXj.;.z.m.k.Q.wXH.| z 0 6 ;   ",
"Q.BXtX X(.q.7.8.8.G.U.V.y.1.9.*.| w._.D.G.q.^ ,.t.(.(.8.i.,.X.7.P.8XiX'.o.0.G.2XF.Z.8.S.#.B D X. .3.U.'.F.U.J.9.&.J.D.X.z.qXI.E O       + 4 , , > c | c.c * # # % @ + # > 9 x x c x | ^ z H } ~ C _ Q [ J J G S B q w 9 p p H e.X.b g z c 9 < % o               K.uXo.P { P l.K.l.l.0.o.$.l.l.o.&.b a j.j.+.z.K.+.Q Q &.D b D +.k.l.l.l.3.;.& 7 OXqXZ.q.,.1.8.t.1.i.{.!.8._ _ ,.q.5.*.S.W.MXt.*.N X 8 c 0 m c m q & # + # + + + $ , w , , , , , 0 c z.+XyX6X@.l , , w 0 c 0 % * < 1 Y.M.M.j.H P j.m.@.N.N.Q.k.k.k.k.x 3 e e y : ",
"A.E.tX!.3.,...1.p.9.0.$.9.9.V.9.D.A.[.}.E.}.[.9.X.1.7.D G 9.|.(.V.P.'. XD. .X.U.y.( ,.3.X.p x D $.V.y.3. . .J.2X3.V.U.y.H.7Xd.b o   > # X X X .     . # . + X X . X % * < 1 9 p 9 x { H 9 9 c i p D z m m > $ & $ * $ & 3 8 4 > 0 * & & < 5 s G  .{ [ [  .S S f J.K.&.+.m.O.v.J.l.l.U.l.$.&.o.o.b g g W k.&.o.l.k.k.+.0.j.&.D &.^ o.o.X.v.v.- 7 *X[.9.>.,.i.i.u.1.a.D.p.5.a.p.1.>.,.D.p.[.iXF -.z   , m m m l L L 8 % ; 1 < # + + + $ $ , , , , l { n l 0 $ + $ & & , , $ + $ > , , M P P c M Y Y M H K Y h.k.5.6.n 3 6 5 k k : ",
"8.F G.tXD.3.#.1.3.1.F.7X=X&XA.p._.D.(.F.D.2X2XS.y.X.^ I G  .9.(.D.8.y.S.F.9.o.t.8.3.5.F x x x W W 9.y.1.Q o.S.P.$.$.D *.#X0Xi.v   d n.b.f + o o & u ~ F s c q 9 p b F v r 6 6 y a d u 9 r 6 9 p ^ z 9 & X X + X O         . r ..<.1.L.(.F.$X@XJ.{.$X{.H.wXbX&XC.K.K.K.M.K.l.j.o.U.U.l.0.0.o.&.b D g s n P P Q &.l.+.k.l.k.l.&.Q [ +.3.G.uX{.#.s %X[.[.S.t...#._  .{.{.^./.p.p.*.*.8.E.[.[.9X*.M f   X q L m l m c q X ; < @ + . . . . . $ , w 0 w , $ # X X     X .   O O . O X + @     . 1 3 > q c 0 H :.:.5.[ 7 % % @ % ; - ; ",
"!.k.| 7X.X5.,.X. .l.K.qX&X{.D.l.D.2.8.9.}..X.X6XP.[.1.I 9.X.[ 9.c.V.P.9.t.(.D.7.t.7.0.8. .[ [ 1.G Q 1.y.X. .3.9.V.D. . .G.rX%.j O w.#XXXW.1...X._ q.CXCX@X~.7X.XP.%X0X%XqXqX0X XS.F.0XsXsXyXjXDX7X1._ Z a - : % ; o     % / MXLXFXMXMXP.~.6.Q $.o. .[  .3.V.~.c.j.l.k.z.Y.{ +.C.l.U.0.C ( Q b 6 i n j.P b Q &.0.l.0.U.l.l.o.l.l.3.0.3.0.wXA.h p E.L.F.V...) ) ) ,.b.6X.XE.p.2.q.c.w.*XW.^.nXc.} z   3 m q , $ > 4 c q o o : o X o : O o + + + $ @ @ + . X O   O . O O o : ; ; : ; k v U.0.z s f 1 - * r 7 7 u 6 7 m N d E v j y ",
"A.!.j.M.v.C.3.-.+.k.4.O.4.wX7X3.X.>.%.D.'. X[.S.F.,X}.a.S.5...3.o.8.P.t.7.8.D.D.7.7.3.X.1.$.$.$.#. .W W $.o.#.-.F.V.0.y.F.sXP.y = XXdX(..X.X X6XqX].nXZXdXyXCX].J.U.y.U.wXqXG.(.[.'.sXqXE.2X X(.[.8.5.'.2XD.W t 1 5 %   p BXCXhX9XfXS.( ( ..Q [ o.X.X.y.3. .5.V.o.k.P +.+.&.o.o.k.l.( &.Q b n n &.z.j.@.o.&.0.%.l.0.l.U.U.0.' U.0.C.$...n.B ) r 7.8X8.F C ,.p.A.[.[.OXV.p.p.9.9.q...E.*XW.dXfX*XB   :.M.w.:.e.W.x.v.v.&.j t k k k e 5 = < & $ $ & % & # # o O % ; ; - k y k j %.r.<.<XqXMXyX=X~.{.].].7X9.#.Z.hXjXDXDXZXyXtXt.` ",
"iXiXA.;.J.k.9.k.k.| { ;.+.J.@XA.C.9.8.iX2XF.Z.i.p.(.F.t.3.p.i.9...t.8.#.$.t.L.,X8.{ X.7.8.y.t.S.8.1.$.$.^  .8.U.P.U.<X Xo. X/ 1 7 %XtXX.} ,.X.1.[.S.8.wX6XZ.V.yXsXX.#. .c.6.Q S.fX'.8. .,.1.( C F  .,.S.8X[.G.c.V - : . @.=XbX$.F b b b u.s.0.3.$.y.V.^ W  .5.!.j.+.+.j.Q x b O.j.&.b Q &.G o.U.l.k.j.0.@.o.%.l.l.! &.&.+.o.l.U.H.v.H.4.z e ( = $.p.1.) >.#.X.(.9XqX!.c.i.a././.i.w.8.E.S.7XDX6.z O =.k.-.e.Q.;XOXH.l.v.z.$.[ e k r 5 1 y i 6 < * < - 1 - 1 - 2 1 y g.k y g.<.$. .Q W b $.].uXQ.=X=X~.X.F V V E.sXjXAXhX0XjXqXtX",
"AXNXhXD.9.y.K.Q.z.:.h.x.;.H.@XH.OXn.9.D.P.S.9.Z..X_.a.q.p.G.S.7.8.i.1. .[ 1.(.(.t.-.+.0.X.0.4.9.0.8.$.#.$.W X.Z.P.6XqXS.'.8.u 5 s 3.X.#.8.5.*.( ~ $.7.3.9.i...G.8.,.p.1.A.c...7.p.G.P.#...$.! W C C C C D ( E ;.v.D   c :X+X%XW o.$./ Q Q Q 1.U.0.0.V.E v 4.@XF.@.P &.@.&.Q D o.Q n &.o.&.0.U.U.o.U.U.+.+.;.+.0.o.o.o.o.P &.o.l.C.K.0.z i C W @ 1 7.2X8.8.D.8.F.F. X|.8.8.9.S.'.p.p.p.D.G.gXDXn 3 X K n.n.4.-.^.c.,.0.8.,...{ =.*.| B a t r - - y t t 5 - y j k k j h g 9.S.G ^ J V.D.8.*.=.8.'.xX.X*.~ ..1..._ 7...7.p.iX5.^ XX",
"fXyXF.{.p.y.y.~.:.:.m.h.-.v.OXA.C.5.9.X.3.q.[.c.c.|.2X(.L.y.$.( i.3...z x ..S.D.V.7.$.r.S.U.l.k.*Xl.Q E W Q C.F.[.S.S.9.B 6 7 ; F 9.F 7.S.8.1.1.1.( i.9.3.X._ Q 3.p.!.!.q.X.J *.,.}.9.0.....^ ( W Q F N s s b G ;.;.o 0 Q.-XE.) / Q D / / ( ( 0.l.,.o.&.Z 3.#X7.@.&.@.z.z.j.o.D D i b &.@.0.U.o.0.U.l.o.C.U.&.D E E s c S +.o.0.J.k.p z o.0.a O % b F.y.s.p.1.8.D.F.8...#.,.p.6.-.b.8.8. XiXX.< & X T x.n.8.q.8...~ ( 8.9.| Y k.6.v.l.Z.g y y 5 y e y j t t g.t t j / H.c.N ~ 4.9.S.s.8.6.W.} ,.Z.Z.c.2.9.,._ [ ^ ^ J } (.F V _ ",
"9 D 5. .Q 9.0.V.k.z.+XT.;.C.OXH.*.3.,.-.5.3.!.$XA.{.(..X[.8.$.1.q.p.y.3.[ 7.P.y.y.$.y.}.'.[.P.y.y.$.....W 9.J.l.0.c.S 1 O = y o 3.0.v 7.F.p.G.p.,.#.1.0.1.8.8.2.$.^ } p.Z.S.C.6.,.4.{ ..1.^ X.( W ( W z p a B G U i O l @.wXF.6.l.C C E W #.o. .#.l.,.Q ^ l.bXJ.D 0.M.&.P &.&.n P P Q D D &.o.o.o.0.k.&.l.l.z.x s z c s i D 0.U.V.6 b [ $.o.r . 1 C  .1.F.t.1.S.F.8.1.q.,.8.9.3.J I 8.(.|.,., 0 X m z.x.].G.8.$.*.X.X.,.3.X.G -.+.| -.6. .a e y k ; j g.j a t a E <.8.3.C ^ 0.3.5.3.9.'.3X!.9.5.7.W.Z._ _  .^ _ }  . .a.( C F 8.",
"0 9 9 ^ 8.$.) +.v.$X-XwXuXnXQ.6.6.c.3.F.3.X.c.n.7XjX[. XG.1.9.y.,.p.X.X.1.8.p. .S.P.a. XsX{.l.V.1.3.$.0.0.G.F.A.9.6.+.d = ; e % 3.V. ...7.S.F.8.1.8.^ #.,...#.X. .~ ~ _ 7.9.8XD.1.X.o.-.V.$.X. .^ ( D s p B b G G p 6 n U @Xy.~ Q Q ( ( / $.1.1. .` 1.l.V.U.qX4.n 0.@.&.&.&.P b &.&.@.&.&.&.&.&.l.l.l.o.j.m.z.0.j.z.0.+.o.b s D z b M.l.l.E ; O 0 ^ Z o.5.8.D.(.p.8.8.9.9.,.1.9. .G G.9.q q u 0 % P ;.k.l.7.0. .-.5.l.l.*.3.} [ | -.6.6.c.*.v j k t g.t B K a Z D.8.1.~ F *.Z.q.S.8.'.|.8.i./...5.q.5._ F _ *.*.} 8.D.S.1._ ,.1.",
"3 0 q p G ..1.G i.iX7XnXHXsXk.O.k.w.1.8X'.-.m [ E.AXdXF.7.S.$.$.Q  .D.G.F.S.p.a.S.<X6X2X Xo.3.C.l.V.l.V.$.5.[.<X].F.J.,.s t r ; $.!.F.#.,.$.$.>.#...^ #.1.$.~  .J ~ } X.^ B ~ _ X.3.3.9.3.3.X.X.X. .Q C G ^ X.4.[ O.x n x.bXp. . .o.` ( ( ,.( Q ( %.0.U.J.,.0.E D 0.+.0.&.&.Q Q b 0.0.@.j.0.o.o.k.o.l.C.B.K.&.0.o.0.%.o.o.&.&.b Q -.0.H.[.a ;   z ,.Q Q ( ( D.L.D.D.i.V.Z.(.F.9.S.(.G 9 q 9 9 1 @ K k.n.-.5.X. .7.9.l.6.X.,.X.[ } 6.c.6.C.c.c.B h h h D =.| X.X.^ ^ q.8.*._ ..~ Z V ) ,.s.E.8.*.p A ,.4.I 5.8.8.D.t.1.8.8.1.( 8.",
"* > 4 4 8 p x x (.HXAX7XdXn.h.n.*.D c B ^ S x m '.9X8X X8XF.W Q 3.S.).2XP.p.9.0.F.l.G.C.{ b X.3.^ 9.9. .b 8. X,X<XF.Z.Q a t t e 9.y.^ ^ ^ X.7...%.,.$.%.7.8.8.3...(  .X.Q D D D B 5.F.8.9.3.G [ 0.9.[ ^ X.G X.o.4.+.c U uXdX,...Q o.o.W ( o.....$.0.b i b &.0.b n &.+.@.Q b P D P &.&.0.o.o.0.0.Q &.j.=Xz.Q &.0.&.%.l.%.+.0.o.&.*.V.7.#.t.v 1   f X.3.( W B #.[.[.}.(.E.S.'.Z.8.[.F.f 9 7 1 a r 3 wXuX4.-.3.3.X. .Q Q I [ S.0.5.-.[ } } 6.-.Z.Z.2.E ..[  .t.1.,.>.~ B ^ _ *.$.Z A _ ^ 7.9.1.a.,.A c J w.w.5.9.2.8.X._ *.q.8.#.p.",
"* & & * > 9 9 1 D.HXAXuXx.n.c.S._ F 6.W.4.I -.Z.F.9.i.#.S.G z b #.1.1.9.P.[.0.c.6.[ -.l.*.$.Q -. .$.0.5.Q $.[.P.D.G.V.z B ,.#.F A.7.#.o.^ Q  .0.8.8.y.2.$.1.$.,.3.,.,...G N D ^ ~ [ l.*.c.8.^ [ 8.$.~ G D G G [ k.{ x T wXhXX.^ E ( (  .o.0.3.#.` ` &. .b -.#X^ n &.&.&.P P &.Q P &.&.&.0.&.Q 0.o.o.l.=Xl.o.l.j.! o.U.S.U.U.U.o.7.t.8.y.y.D 1   9 X.V.9.^ A B _ 8X[.V.G.F.D.9.Z.A.[ A 7 e e g u 7 wX0X| :.j.:.{ I C o.$.y.y...) O.Y [ { =..XiX'...X.^ _ >.d.#.(  .8.i.*.*.8.C C ..*.~ *.X.1.(.*.I J *.*.c.2.(.1.~ _ *.1.1.1...~ ",
"- = % # & , 8 7 9 S.JXyX&X{.[.3.} U b.%X| | c.6X(.8.X.8.^ p B ^ ~ Q ~ 9.C.OX[.-.[ X. .{ V.9. .[ 3.X. .$.^ G 8.$.[.#X9.v X.@X3.N 3.1.) ^  .5. .......7.7.t.7.$.$.X.8.V.X.D G ~ ^ G  .9.E.l.1.8.,.$.Q D [ G G [ | 6.k.H U bXdXX.X.D &.3.#.o.+.l...#.o.#.l.yXwX{.( P P n P 0.o.@.@.o.@.0.@.&.&.Q &.&.0.l.K.z.l.l.o.Q %.0.U.U.l.l.%.0.$.3.V.V.Q s O u 9...$.t.7._ B (.F..X9X%X'.[.S.B ^ F f a t d u z OXv.j.m.j.:.+.+.| | 6.9...( X.6.6.;.:.2XNXE.S.a.i.J A C N B W ~ ~ >. ...,...^ _ ~ ~ ..1.q.p.8.3.*.=.d _ >._ F #...^ 8.8.X.S i ",
"1 - ; ; ; & & > p F 0X6X..W $.9.w.Q.Z.{..XXX6XiXF.8.8.0.b c X.V.4.G N X.k.oXv.J o.y.V.l.0.3.| X.6.[ F X.|  .#.,. X0X XF A.Z.Q b [ $.1.X.#.9.X.+.X.( ( ( 1.s.1. ...#...%.....^ Q Q $.(.P.1.#.V.3.#.o.W &.&.[ &.3.+.3.l @.wXuXU.E ( $.[ Q 0.z.k.0.0.3. .$.[.V.Q $.n &.@.M.U.+.o.+.@.0.z.0.&.P P D Q &.P &.&.K.K.&.0.o.l.U.k.o.0.Q Q o.$.S.G.Q b X 7 6.q.,.q.(.'.7.c.F.F.S.[.%X3.9 z b b s t t x 1 m $XqXC.v.p.$.V.9.9.@Xk.;.X.} 5.6.;.6XtX9X(.V.S.G.i.8.8.,.,.F v _ >.} X.} [ ^ X.3.( I } ,.p.*.8.5.*.J *.} ,.S z J >.,.V.q.9.G 5 ",
"D y = - 1 - ; % < ~ $.W W v $.l.h.!.D.p.q.1.i.*.Q $.^ u p z [ 9.8.,.| { 6.b.=.b.9.$.a.1.#.c.K.l.+.[  .5.3.1.,.~ D.hX'.r  .D.( z  ...$.1.,.7. .| [ .... .) ..1.$. .( ~ X.$._ ^ #. .7. XS.8.G.y...r.1.^ [ G Q +.*.[ | c U k.b [ &.[ o.[ Q +.z.3.X. .0. .^ Q a b  .n P M.B.o.o.+.j.@.&.o.&.&.P P D D P D b D o.&.D %.l.+.j.@.&.i b P ^ X.U.3.v [ <   p 9.*.8.D.E.V.9.!.Z.p r d 1 1 a s g u t t K u I @XyX X,.%.,.S.9.J.wXv.X.;.O.-.;.| .XiX7.9.8.D.9.X.p.|.8.D v G .. .-.9.X.1.G _ ..Q } X.9.9.0.F.8.8.p.[.*. ...K K B ^ _ D.a.a r ",
"[ v u 1 k 1 - - & 4 I Q $.8.y.~.W.2.1.8.t.p...B F ~ B z [ X.G X.3.9.A.z.;.X.9.F.S.8.y.t.7.4.o. .+.3.-.0.9.y.1.$.F. XE r a V z & J l.$.1.1.#.,.$.^ 7.$.^ ~ ..,.$.~ F X.(  .$.#.$...t.y.7.y.].8.7. .$.Q ..0.{ 4.X.X.| c P Q ; y W [ +.+.F @.K.v...^ o.0.0.3.o.0.p 0 n j.z.&.o.&.&.@.0.@.j.&.P Q D b b D P z.j.G Q P D &.&.&.Q b &.&.D l.J.f u [ ; 3 5 B [ }  .q.(.E.q._ d s y e r s a r a y B -.z I !.yX2Xt.' p.(.8.y.'.].p.*.| 6.=.V.fXp.,.8.q.q.#.( ^ p.7.~  .[ 9.9.9.*.X.i.$.D N  .9.9.q.Z.p.,.1.8.1.q.6.F G } -.{ F N ~ g.r g ",
"p s b b t y 1 = % % > H N.k.H.qX).*.8.8.a.7...} D S G Q 5.3.[ =.| ^.W.3.k.} +.9.y.D.Q 4 < 1 o = P | k.c.8.0.6.v.0.W d D Z v y o S 4. ...Q $.5.$.$.t.8.#.( ..$.$. .,.,._ $.#.$...( 1.#.S.S.5.F.0./ o.0.3.C.9.l.l.{ +.u T { v v z [ o.@.k.M.l.0.$.$.$.o.$.8.0. .& , P P P &.P Q &.j.@.o.z.&.&.@.&.P P @.&.@.@.D Q o.Q b o.0.o.o.o.o.H [ s p x G * c I q *.7.8.8..XD.C C Z ) g t v v d r r a [ H.z = z 5.sXgX2X0X{.F.J.y.p.8.^ X.b.c.~ q.G.S.9.D.1.Q C C ^ F ..V.X.6.V.8.3.X.X.( X.,.V.'. X3.8.9...1.p.p.q.3.9...J 7.q.p.*.d t g z ",
"D Q [  .Q v 1 ; ; ; % & H | G D.gXp.,.2.>._ ~ _ 5.X.| ..5.c.w.-.c.XX!.*.n.5.*.Z Q  .p > # @ % = P { X.6.*.h.T.M.v.^ Y D g t 6 . f } _ F W ^ #.1.$.1.t.0.Q ~ $.$...8.5...$.$.8.#.,.#.Z *.0.$.V.0.t.U.0.X.o.&.&.&.+.-.p c { G.Q b { k.h.M.4.l.9.4.0.^ Q ^ [ B u < . c c < 6 p n Y z.j.P @.@.z.@.&.Q o.@.+.j.o.&.j.o.0.D D Q 0.U.0.5.4.D u S x d   3 } c X.[.(./.>.a A 1.p.d.>.~ B ~ A a u K 4.J 7 O < m F.[.D.2XyX{.Z.1.5.8.X.,.q.'.^ * 9 8.'.y.B N D F Z ~ ~ C J X.5.X.9.9. .F 1.8.8.8.G.X. .....p.E.8.1.#.D.i...8.8.a.a.p.^ N d ",
"-.X.[ -.[ [ Q s 1 1 - % # 9 S H tX3Xq.2._ ~  .9.,.,.5.3.w.c.6X0X%XuXtX@X^.q.C z s p $ X @ % % c Y P | ;.w.T.:X-X6.8.w.g j 6 &   - -.9. . .Q 1.7.#.#.^ ( ^ 1.$... .X.X...X.3.9.$.%.X.V ^ 6.0.0.A.V.1.[ 4.l.Q D Q k.j.u 1 n z.l.[ +.l.C.v.X. .3.Q b d W V. .f f &   X , 4 1 1 6 s P j.j.@.@.&.b b D ;.0.P P @.@.M.U.o.o.&.Q D Q Q G [ [ P H A 3   * =.| } (.*.p u 6 *.8.>.9.,.z ~ _ C z A U 6.u = O 3 * *.t.~ _  XE._ 7.8.>.5.1.9.8.^ m 3 = t d z  .S.9.y.$.( ~ ^ 4.9.0.p.9.X.X.3.3.8...5.X.G [ } 9.(.( %.>.>.1.,. .#.i.s...z d m ",
"7 +.$.3. . .{ [ z r e - o = p l H sXqXa.,.1.X.8.5...9.5.} =.!.tXqX^.XXE.p.E.2.m u > % # & ; 1 G @.j.:.h.T.b.b.c.E.{.8.N s 1 O   % z {.9.X.#.3.G.y.$.^ W ^ 0.V...^ X.6.-.^ W 0.V.1.~  .6.k.C.@XV.$.o.W &.0.&.@.H ;.4.u . n ;.K.=X4.b V.$. .W E D b o. .0.d 6 6 %     + < 1 1 6 n j.Y m.z.D b P Y j.z.z.{ b &.M.&.o.+.@.;.o.b g g r Q n.z.+.7 X   # I @X%X2.Z s f N *.1.X._ d C ,.F C H H U 6.u *   4 6 z w...>.Z.Z.1.p. X,.#.1.i._ E X.K 3 = b ,.,.E.S.p.8. .Q _ X.1.8.p.3.8.Z.V.b.6.X.} [ ..X.9.V.1._ ,.1.1...~ ..t.p.8.z 8 s B ",
"  z 3.o.o.-.[ G P v e r ; ; - 0 A XXXX=Xv.1...D.D.G N p q q m J _ *.>._ 9.{.[.d 7 < < < < a z K @.T.n.N.x.~ 1.2.t.F 8 6 < o     o d c.J.4.5.$.0.J.x. ./ W Q [ F W { x.Q v v X. .~  .H.Q.k.l.G.$.y.*.[ D D -.K.o.O.x %   I z.j.6.[ b c. .C Q Z x x [ 0.b < > 1 o     o & , 1 r D s n z.z.D P j.z.B.M.M.@.P j.m.o.o.o.&.P D z D +.6.;.v.-.d X O   o A {.nXq.N F J } ,._ p.~ v 3...F C U U :.X.6 X   6 M z ^ [.,.(.E.8.p..Xq.1.,.8.~ G -.| x 1 Q c.5.p.,.X.,.5.1.a.9.,.X.8.3.3.w.c.H.6. .G ..8.1.9.i.)  .9.w.p. .~ ,.[.W.J 9 u m F "
};
