/* XPM */
static char *chillCarrot_128[] = {
/* columns rows colors chars-per-pixel */
"128 128 256 2 ",
"   c #040301",
".  c #0A0603",
"X  c #0D0905",
"o  c #0E0C0A",
"O  c #130C06",
"+  c #130E0A",
"@  c #180C04",
"#  c #16110B",
"$  c #1C130B",
"%  c #1B1308",
"&  c #141313",
"*  c #1C1817",
"=  c #0E0F10",
"-  c #22150B",
";  c #2B1A0D",
":  c #26170A",
">  c #361808",
",  c #241B13",
"<  c #2B1D13",
"1  c #221E1C",
"2  c #321F12",
"3  c #290D02",
"4  c #2C2116",
"5  c #2D221A",
"6  c #26221C",
"7  c #33251A",
"8  c #3A291D",
"9  c #382517",
"0  c #3B3617",
"q  c #2F2C0C",
"w  c #2A2626",
"e  c #3C2C22",
"r  c #342C29",
"t  c #3C322B",
"y  c #3A3432",
"u  c #312F30",
"i  c #201F20",
"p  c #481B04",
"a  c #561603",
"s  c #791703",
"d  c #671304",
"f  c #562509",
"g  c #442C1B",
"h  c #472B17",
"j  c #4A341C",
"k  c #54341D",
"l  c #5A371D",
"z  c #532810",
"x  c #683417",
"c  c #76391A",
"v  c #692B0E",
"b  c #412E23",
"n  c #443125",
"m  c #4C3424",
"M  c #44342A",
"N  c #4A362A",
"B  c #4D392C",
"V  c #473928",
"C  c #533622",
"Z  c #553924",
"A  c #5C3C23",
"S  c #533B2C",
"D  c #5C3E2C",
"F  c #543727",
"G  c #473B35",
"H  c #573E31",
"J  c #613E24",
"K  c #633E2B",
"L  c #703F27",
"P  c #494718",
"I  c #55531C",
"U  c #5A442A",
"Y  c #4C423B",
"T  c #5D4232",
"R  c #584639",
"E  c #555026",
"W  c #644126",
"Q  c #64432B",
"!  c #6A452B",
"~  c #6D492D",
"^  c #694427",
"/  c #734B2E",
"(  c #79482A",
")  c #644332",
"_  c #6B4532",
"`  c #6D4A33",
"'  c #674B38",
"]  c #734C33",
"[  c #7A4C34",
"{  c #754A35",
"}  c #6A543A",
"|  c #765035",
" . c #7C5334",
".. c #7C5539",
"X. c #77543A",
"o. c #6B572A",
"O. c #6F692C",
"+. c #61641E",
"@. c #574A43",
"#. c #5D5048",
"$. c #67564A",
"%. c #765B49",
"&. c #6C5C51",
"*. c #655553",
"=. c #715F52",
"-. c #624E41",
";. c #7A6449",
":. c #746255",
">. c #7B6758",
",. c #766A45",
"<. c #3E4013",
"1. c #871B02",
"2. c #902A09",
"3. c #AB3406",
"4. c #864829",
"5. c #844E33",
"6. c #825535",
"7. c #8C5334",
"8. c #825539",
"9. c #855A3B",
"0. c #8A5D3C",
"q. c #885837",
"w. c #945C3B",
"e. c #985837",
"r. c #924F2B",
"t. c #A55C37",
"y. c #AC572B",
"u. c #8E603E",
"i. c #876935",
"p. c #92613E",
"a. c #99643E",
"s. c #877533",
"d. c #A8633D",
"f. c #B6673C",
"g. c #B16B30",
"h. c #A54617",
"j. c #CA5210",
"k. c #EC7414",
"l. c #D47839",
"z. c #E47C3C",
"x. c #E57C2A",
"c. c #D56417",
"v. c #875E41",
"b. c #8D6242",
"n. c #86664B",
"m. c #936542",
"M. c #9A6642",
"N. c #966846",
"B. c #9B6A45",
"V. c #9C6D49",
"C. c #946A4B",
"Z. c #836D5D",
"A. c #886B54",
"S. c #946F52",
"D. c #8C725C",
"F. c #987559",
"G. c #95724C",
"H. c #A66B44",
"J. c #B76C44",
"K. c #A3724C",
"L. c #AB754B",
"P. c #B87649",
"I. c #A67A57",
"U. c #B57E53",
"Y. c #8A7362",
"T. c #977A65",
"R. c #846F60",
"E. c #A37E62",
"W. c #C77647",
"Q. c #D67843",
"!. c #C16F44",
"~. c #959434",
"^. c #FC972A",
"/. c #EA853A",
"(. c #F38934",
"). c #F79839",
"_. c #F48F30",
"`. c #FDA72D",
"'. c #FCA738",
"]. c #FDB637",
"[. c #FEB12E",
"{. c #DF832F",
"}. c #B88459",
"|. c #AE825D",
" X c #9E816A",
".X c #A88569",
"XX c #B78A66",
"oX c #BC906D",
"OX c #AD8A70",
"+X c #B38E71",
"@X c #BC9373",
"#X c #B79173",
"$X c #AF9A6D",
"%X c #968451",
"&X c #C8824E",
"*X c #D98749",
"=X c #C88856",
"-X c #D58B54",
";X c #DA9459",
":X c #D49256",
">X c #E58A43",
",X c #E8974A",
"<X c #E49A56",
"1X c #F39943",
"2X c #F7A849",
"3X c #FDB948",
"4X c #EBA45A",
"5X c #F3AB5A",
"6X c #FBB659",
"7X c #EFA04D",
"8X c #C99569",
"9X c #D39D6B",
"0X c #D99B65",
"qX c #CC9B71",
"wX c #C59975",
"eX c #C89469",
"rX c #E49C64",
"tX c #DBA36D",
"yX c #D9A06B",
"uX c #CEA27C",
"iX c #D8A577",
"pX c #E7A668",
"aX c #F2AD64",
"sX c #F8B664",
"dX c #E3AB73",
"fX c #E8AD74",
"gX c #EBB278",
"hX c #F3B978",
"jX c #F0AD6E",
"kX c #C0BB45",
"lX c #FDC34A",
"zX c #FDC858",
"xX c #FFD05F",
"cX c #FDC767",
"vX c #FCC778",
"bX c #FED578",
"nX c #FDD26A",
"mX c #C2C048",
"MX c #FFC43F",
"NX c #D6AA82",
"BX c #DBAF86",
"VX c #E8B889",
"CX c #EABE92",
"ZX c #EBB883",
"AX c #FBC987",
"SX c #FED689",
"DX c #EDC194",
"FX c #F3C797",
"GX c #FED995",
"HX c #FEE199",
"JX c #FEE5A7",
"KX c #FEEAB6",
"LX c #FBDAA5",
"PX c #FEF2D3",
"IX c #FBFBF9",
"UX c #FDF7E9",
/* pixels */
"&.$.&.&.&.&.:.:.:.:.:.:.:.>.>.>.>.>.>.>.R.Y.Y.T.T.T..XOXOXOX+X#X+XoX@X@XwXwXwXwXuXwXuXwXuXwXuXuXuXuXuXuXNXNXuXNXNXNXNXNXNXNXNXNXNXNXNXNXNXuXNXNXNXwXNXNXNX#XNX#XqXwXwX@X@X@X#X#X#XOXOX+XOXOXOXOXOXOXOXOXT.OXT.OX X XOX X X X XT.Y.T.Y.Y.R.R.>.R.>.>.>.>.:.&.&.&.",
"&.*.&.&.&.&.&.:.:.>.:.>.>.>.>.>.>.>.>.>.>.Z.R.Y.Y.Y.Y.T.T.T.T..XOX+X@X@X@XwXwXwX@XuXuXuXwXuXuXuXuXuXNXiXNXuXNXNXBXBXNXNXNXNXNXNXNXNXNXNXNXNXNXNXNXNXNXNXNXNXNXNXuXuXNXNXNXNXwXNXNXNXNXwXNX#X#X#X#X+X#X#X#X#X#XOXOXOX X XT.Y.Y.Y.R.>.>.>.R.>.>.*.>.*.*.:.*.*.*.*.",
"$.&.*.&.&.&.:.:.:.:.:.>.:.>.>.>.>.>.>.Y.Z.R.R.R.Y.Y.T.T.T.T.OXT. X X.XOX+X#X#XwXwXwX@XuXuXuXuXNXNXNXNXBXNXNXNXBXBXBXBXBXBXBXBXBXBXBXNXNXBXBXBXBXNXNXNXNXNXNXNXNXBXBXBXBXNXNXNXwXwXNX@XwX#XwXwX#X#XwX#X#XOX XT.T.Y.Y.Y.Y.R.>.R.>.>.>.>.>.:.:.>.*.*.*.:.*.&.*.&.*.",
"&.&.&.&.&.&.:.&.:.:.:.:.>.>.>.>.Y.>.Y.>.R.R.Y.Y.Y.Y.T.T.T.OXOX#X+X+XOX.XOXOX#X+X@XwXuXuXNXiXNXNXNXNXBXBXBXVXBXVXCXBXVXCXVXVXCXCXCXVXCXVXCXVXVXCXBXVXCXVXVXVXBXNXBXBXNXNXNXNXNXNXNXwXNXNXNX#XNXwX#X#XOXT.T.T.T.Y.Y.Y.Y.Y.R.R.>.Y.>.>.>.>.>.>.>.:.>.:.:.*.&.&.&.&.",
"&.=.=.=.:.:.:.:.=.:.:.>.>.>.>.Z.>.T.R.Y.R.Y.Y.Y.Y.Y.T.T.T.T.T.T..X#X@X@X@XoXoXoX@XwXwXuXiXiXNXNXBXBXVXZXVXVXVXCXCXCXCXCXCXCXCXCXCXCXCXCXFXCXCXAXCXCXCXVXCXVXBXBXBXBXBXNXNXNXNXwX@X@X@X#XOXOXOXT. X X X XT.T.T.T.Y.Y.Y.Y.R.R.R.Z.Y.>.>.R.>.>.>.:.:.:.:.&.:.&.&.&.",
"%.=.:.:.:.>.>.:.>.>.Z.>.Z.Z.Z.R.Y.>.Y.Y.Y.Y.F.T.T.T.T.E.OXOXOXOXOXOX+XoX@XwXwXwXqXuXuXuXiXNXgXVXZXZXVXCXCXDXDXCXCXCXCXCXFXCXFXFXFXDXCXCXFXCXCXCXCXCXVXVXVXBXVXBXNXuXqXwX@X#X+XOXOX.XOXT.OXT.OXT. X X X XT.T.T.T.T.Y.Y.Y.Y.Y.R.R.Y.>.>.Y.>.>.>.>.>.:.:.:.:.:.&.&.",
"&.=.:.:.>.>.;.A.A.Z.A.Z.Z.D.D.D. XY.Y.Y.T.T.T.T.E.E.E.OXXXOX#X#X@X@XeX@XwX8XuXiXiXuXiXiXBXVXVXVXVXCXCXCXDXFXDXFXFXLXLXFXFXFXFXFXFXFXCXCXCXCXCXCXCXVXZXZXZXNXNXNXwXwXwX@XoX+XOXOXOXOXOXOXOX.X.X.X X X X X XT. XT.T.T.T.Y.Y.Y.Y.R.Y.>.>.>.R.>.>.R.:.:.>.:.:.:.:.:.",
"=.;.;.>.n.>.A.A.D.D.D.F.F.T.F.F. X X X.X.X.X.X.XXXOXXX+XXXoXoXwXeX8XuXqXiXiXiXiXiXgXVXVXVXVXVXVXCXCXFXDXFXFXFXFXFXFXFXFXFXFXFXCXCXCXCXCXCXCXCXCXVXVXZXBXNXNXqXwXwXwX@X@X#X#X#X+XOXOXOXOXOXOXOX.XOX X X X X X X XT.T.T.Y.T.T.T.Y. X>. X>.Y.R.>.>.>.>.>.>.>.:.:.:.",
";.=.n.A.A.A.D.D.F.T.I.E.I.E..X.X}.XXXXXXoXXXoXoX+XeXeXeXwXqXqX9XiXiXiXiXdXgXdXBXZXZXZXZXCXAXCXFXFXFXFXFXFXFXFXFXFXFXLXFXFXFXGXFXFXDXCXVXZXVXZXBXNXiXuXiXiXiXuXqXqXqXwX@XoXoX+XoX+X+X+X+X+XOXOX.XOXOX X X.X X XT. XT.T.T.T.Y.Y.Y.Y.Y.Y.Z.Z.Z.Z.Z.R.R.Z.A.A.D.A.A.",
"A.A.A.A.A.S.S.F.F.I.I.E.XX}.XX}.|.XXXXXXoXoXeX8XqXqX9XiX9XiXiXdXiXdXgXVXgXVXZXDXVXCXFXFXFXFXFXFXFXGXLXFXLXFXFXFXFXFXDXCXVXVXVXdXdXiXtXiX9X9XqXqXqXqXqXqXeXqXqXqXqXwXwXoX@XoXoX+XoX+X+X+X+X+X+X$XOXOXOXOX.XE..X X X X X X.X X.XT.E.E.E.F.E.E.E.%X%XT.F.%XF.F.F.F.",
"%.A.%.A.A.A.A.A.A.S.F.I.|..X}.XXoXeXeXeX8X0X9X9X9XiXtXtXdXiXfXgXVXgXgXAXDXDXAXFXFXFXFXFXFXAXFXDXDXCXVXVXgXgXgXfXfXiXiXtXtXqXqX9X9XqX9XqXqXqXqXqX9XqXqXqXqXqXqXeXqXeX8XqXwXeXoXeXeX@XeX@XoXoXoXoXeX+X#X#XXXoX+XXXXX+X#X#XXXXXoXXXXXXXXXeXXXeX}.XX$X$X|.}.XX}.eX}.",
"%.%.n.%.%.n.n.n.A.D.S.F.F.I.I.XX}.eX8X8X8X9XyXtX0XtXtXdXdXdXdXfXgXdXgXgXgXgXdXgXgXhXgXZXZXZXZXZXgXfXfXdXdXiXiXtXtXtXtXiXtXtXtXtXtXtXtX9X9X9XyXqX9X9X9XqXqX9XqXqXqXiXqXqXqXqXqXqXqXqXqXqXiXqXuX9XeXwXwXNXqXqXeXqXeXeXeXeXeXeXeXeX8X8X8X9X8X0XyXyXuXqX0XeXeXeX}.XX",
"S.S.F.V.I.K.I.I.I.I.I.U.}.}.=XeX9X0XyXyXtXtXtXtXtXtXtXtXiXdXdXtXtXdXdXdXfXfXgXgXgXgXgXgXgXgXdXdXdXdXiXdXdXfXdXgXgXfXgXgXgXgXgXfXgXfXfXdXdXpXdXtXtXdX0XdXrXrXiXyXtXtXtXtXtXdXiXpXdXiXdXtXtXiXtXtX9X9X9XyX9XyX9X9XqX9X0XtXtXtXtXtXtXtXyX9X9X8XeXoXXX|.|.F.F.F.S.D.",
"K.I.I.I.U.XXXX=XeX:XeX0X0X0X0X0XyXyXtXyXpXtXtXtXtXtXdXdXdXtXtXtXyXyXtXtXtXiXtXtXtXtXtXtX9X9X9X0XtX0XpXfXpXfXdXjXgXhXhXhXhXhXhXhXgXgXjXgXhXhXhXhXhXZXhXZXZXZXhXgXhXgXgXfXfXdXfXdXdXpXdXdXdXpXdXtXdXfXpXfXfXfXfXfXfXfXdXdXiXtXyX9X8XeX}..X.X|.F.F.F.F.D.D.S.D.A.A.",
"S.C.K.K.I.I.U.E.U.}.|.U.I.|.|..X|.|.|.}.}.oXeX8X9X9XyXtXtXpXdXjXjXgXgXgXgXdXpXtXtXtX9XdXdXpXdXfXjXhXhXZXvXAXZXAXvXhXhXZXhXhXhXhXhXZXvXAXhXAXAXAXAXZXhXvXhXhXhXhXgXhXhXhXhXjXgXgXhXhXhXhXhXhXhXvXhXhXgXgXfXfXdXtXtX9X9XeX8X=XXXXXXXXXXX|. XF.F. XF.F.F.F.S.D.A.A.",
"n.A.A.S.A.S.S.S.S.D.F.F.I.I.I.I.|.|.|.|..X|.|.|.|.}.}.XXoX8X8X9XyXyXpXfXhXhXhXAXAXAXAXAXSXAXAXSXGXAXAXAXAXAXAXAXAXAXSXAXSXGXAXGXGXGXAXAXAXAXAXAXvXAXAXAXAXAXAXAXSXAXvXAXAXAXAXvXAXhXvXhXgXfXdXtXtXyX9X9X8X8XeXeXeXXXXXXXXXXX.X|.I.I..XI.|.F.|.F.F.F.F.S.D.S.A.S.",
"C.S.S.G.S.G.G.G.F.G.K.F.I.I.%X|.|.|.|.|.|.}.}.}.XXeXXXeX=XeXeX8X:X9X0X0XyXyXpXpXpXdXgXgXgXhXvXhXvXAXvXAXAXAXAXAXAXGXGXGXGXGXGXGXGXAXSXGXAXGXGXGXGXGXGXGXAXAXSXvXZXhXhXjXgXjXdXpXyXyXyX8X9X8XeXeX8XeXeXoXeXXXeXXXXXXXXXXX|.XX.XI..X.XI.I.F.E.F.T.F.F.F.S.S.D.S.A.",
"G.K.K.K.I.L.I.L.L.I.I.I.I.U.}.}.}.}.=XeX8X:XyX0X0X4X4XyXyX4X0X<X0X0X0X0X0X4XyXtXpX4XpX5XaXaX5XaXaXsXhXvXAXAXGXGXGXGXGXGXGXLXGXHXLXJXLXLXLXGXGXAXAXvXhXhXjXjXpXpXtXtX0XyXyXyXyXyXyXyXyX0X9X9X0X8X:X8X8X8XeXeXeXoXeXeX}.XXXXXX}.XX|.I.E.I.I.I.I.I.I.F.F.F.S.S.S.A.",
"V.K.L.K.L.U.L.}.}.}.&X=X=X=X:X=X:X=X:X:X:X0X;X:X:X0X:X0X0X4X<X4X4X0X4XyX4XpX4X4XpX4X5XsXaXsXsXsXsXvXvXvXAXSXGXGXLXJXJXKXKXKXJXJXLXGXAXvXhXsXaXaXaXpXpXaXpXaXpXpXpXpXpXpXpXpXpXyXtX4XyXyX0X0X0X9X8X8X8X:XeX=X=XeXXX=XXXXX}.}.}.}.|.|.|.I.I.I.%XK.F.F.K.G.S.S.S.S.",
"V.V.K.K.L.L.|.}.}.}.}.}.=X}.}.&X}.eX=X=XeX=X:X:X:X:X:X:X:X;X;X;X<X4X4X4X5X5XsXsXzXsXcXcXcXvXvXbXSXSXGXGXLXJXJXJXJXJXJXGXGXAXvXvXcXsX6XsX6XaX5XaXsX5XaXaXaXaXaX4X5XpX4XpXrXrXyX4X0X0X;X0X:X9X8X:X8X:X8X=XeXeXeXXX=XXX=X}.}.XX|.|.I.|.I.I.U.I.I.G.I.F.I.F.I.F.K.G.",
"m.m.N.B.K.K.K.L.f.L.L.L.L.U.L.|.}.}.}.&X:X:X:X:X;X<X4X4X4X5X5X5X5X5X6X6XsX6X6X6XsXsXzX6XsXcXvXvXvXvXAXAXAXSXSXGXGXGXGXGXGXGXHXGXGXSXSXvXvXvXcXsXsXsXsXsXsXaXaX5XaXaXaXaX4X4XtX4X4XtX4XpX4X0X0X<X4X;X0X:X:X8X:XeX}.oX}.}.G.I.}.|.}.}.}.}.}.}.}.}.U.L.I.L.L.I.K.K.",
"0.0.p.M.a.a.d.L.L.L.P.}.P.}.&X&X&X&X*X:X:X:X:X,X<XkX4X7X4X4X4X<X<X<X<X<X<X<X4X4X4X4X4X4X5X4X5X5X6XsXcXcXvXbXbXSXGXGXGXJXJXJXHXGXSXAXbXvXvXcXcXsXsX6X6XsXaX6XaXsX5XaX5XaXsX5XsX5XaX4X4X4X4X4X4X<X<X0X4X;X;X;X:X=X:X=XN.I o.E K.=X}.}.}.}.}.}.}.}.U.U.U.U.L.L.L.L.",
"0.p.p.a.B.K.g.}.}.f.}.&X&X=X=X=X:X-X-X:X:X:X-X:X-X,X:X<X:X:X:X&X:X-X:X:X;X;X;X<X;X<X<X4X4X4X5X5X5X6X6XsXcXvXvXbXSXGXGXHXHXHXSXSXnXvXcXcXcXsX6X6X6XsXsX6X6X6XsX6X6X6X6X5X5X5X5X5X4X5X5X5X5X4X4X4X4X<X;X<X;X;X<XU.=XK.P P o.0 p.=X-X=X&X&X&X=X}.}.&X}.U.U.U.L.L.L.",
"d.H.H.H.f.P.P.f.&X}.&Xf.W.}.W.&X&X&X&X&X&X,X,X:X<X,X,X<X,X,X7X7X<X7X,X,X<X,X,X;X,X,X<X<X4X,X7X7X2X2X2X2X2X6X3X6X6XcXbXSXbXSXSXbXbXnXvXnXcXnXcXcXcXcXcXcXcXzX6XzXzX6X6XlX6X6X6X6X6X3X5X6X5X5X5X2X5X4X4X4X<X<X&XO.I i.<.o.P 0 E P U a.=X}.}.f.}.g.L.K.K.V.V.N.C.N.",
"H.H.d.L.f.J.L.J.J.P.W.U.W.W.&X&X&X=X&X-X-X-X-X:X-X-X-X-X-X-X:X,X,X,X7X7X7X2X2X2X2X6X6X2X2X2X5X2X2X2X3X2X3X3X3X6XcXnXSXGXHXJXJXJXJXJXHXHXGXSXbXbXnXnXcXcXzX6X6X6X6X6X2X5X5X2X4X4X7X4X<X<X7X;X<X:X:X:X*X=X=X&Xs.P P P E o.q q 0 ..| G.}.L.L.L.L.K.K.V.V.V.N.N.N.N.",
"w.p.a.a.a.B.H.d.H.H.H.J.L.U.P.U.W.W.&X&X&X*X*X*X,X*X,X,X,X,X,X,X7X7X7X2X2X3X2X3X3X3X3X3X6XzX3XlXzXcXcXcXcXcXbXbXbXHXJXJXJXJXHXHXGXSXbXbXnXnXnXzX6X3X3X3X2X3X2X2X7X7X7X,X,X7X,X,X,X;X:X,X*X:X:X:X:X:X:X:X=X:X}.I I 0 | P q q U =X}.P.L.U.L.L.K.K.K.K.V.V.V.N.N.b.",
" .6.7.p.a.a.a.H.H.H.J.J.P.W.W.W.&X*X*X*X*X>X>X-X*X>X,X*X*X,X,X,X,X,X,X,X1X2X1X2X2X2X3X2X3X3X3XzXzXcXxXnXnXbXbXSXSXHXHXKXKXKXJXJXHXbXnXcXzXlXlX6X3X3X2X3X2X2X2X2X7X7X7X7X,X,X7X,X7X,X,X,X;X,X:X,X*X,X:X:X-X:Xa.<.P I I q P E N.P.P.}.U.L.L.L.L.H.H.H.V.H.a.N.a.m.",
"4.6.6.7.7.w.a.a.d.J.J.J.J.P.P.W.W.W.W.&X&X&X&X*X*X&X&X*X&X*X*X*X*X*X>X,X,X,X'.2X'.'.'.3X].3XlXlXzXzXnXbXSXHXKXKXPXPXUXPXUXPXKXHXSXbXnXxXzXzXlX3X3X3X3X3X3X3X'.2X'.2X2X2X2X7X7X7X,X,X,X,X,X>X,X-X*X:X&X&X*X:Xf.I P <.<.j q U L.U.L.P.P.P.L.L.L.H.H.H.B.a.M.a.p.p.",
"( ( 5.7.7.q.w.w.e.e.t.e.M.t.M.d.H.H.J.P.J.W.W.W.W.*X*X*X*X*X>X/.,X>X1X1X1X).'.'.'.'.].'.].].3X3XlXxXzXnXnXbXSXHXJXKXKXPXPXKXKXHXHXHXbXnXxXxXlXlX3X3X3X].'.2X2X2X2X2X2X1X,X1X,X,X,X,X,X*X*X:X&X*X,X-X+.O.%Xd.W.O.P P q P o.L.P.U.P.f.P.P.J.L.H.H.H.M.d.a.a.p.p.u.",
"6.5.r.7.e.7.e.w.7.M.b.M.b.M.t.t.a.d.d.H.H.J.J.W.W.W.W.*X*X>X*X*X>X>X/.1X1X1X).'.'.'.'.[.[.].].].MXlXlXzXnXSXHXJXKXPXUXIXUXUXKXHXnXzXlXMX].].[.[.'.`.'.'.).'.).1X,X).1X,X,X,X,X,X>X,X,X*Xg.O.+.O.L.-Xi.I +.+.Q.i.I P U P.W.P.L.a.a.}.}.d.H.H.H.H.H.M.a.a.a.w.0.0.",
"r.r.7.7.7.e.e.e.e.e.M.M.t.t.t.M.H.t.H.f.J.J.J.W.!.W.W.Q.Q.Q.>X>X>X/./.>X).1X).1X).).'.^.`.`.`.[.[.].].MXlXzXnXHXKXPXUXIXIXPXJXbXxXMX].[.[.[.`.[.`.`.'.).1X).1X1X>X>X>X,X/.,X>X>X>X,X*X,X*Xo.I o.+.s.X.o.I E N.o.0 I P.W.L.o.P q P ^ a.g.H.J.H.H.a.a.p.p.w.w.w.q.",
"4.7.7.r.e.r.e.e.e.M.t.t.t.d.f.f.J.J.!.!.W.W.W.W.W.Q.Q.l.*X*X{.*X>X>X>X>X>X/./.>X).).).)._.`.^.`.`.`.[.[.].MXxXbXKXUXIXIXIXIXUXPXHXbXxXlXlX].[.[.[.`.`.`.'.).).1X).1X1X/.>X>X/.,X>X*X>X*X*Xs.I  .s.J.+.+.+.+.P I I E ^ o.a.0 0 0 4 V d.L.H.t.H.t.H.e.w.w.w.w.7.7.",
"[ 4.r.7.5.e.e.e.e.t.t.t.t.f.f.f.J.J.!.!.!.!.!.Q.Q.!.Q.!.Q.Q.Q.Q.z.>X>Xz.z.z.z.z.(.(.1X(.).^.^.^.`.`.[.[.lXzXSXKXUXIXIXIXIXIXUXPXGXnXlXMX].[.`.^.`.`.^.).).(.z.z.1X,X,Xz.z.rXz.z.>X>X>XQ.*X>XQ.6.w.P.O.a.i.s.a.o.I q 0 / o.P 0 q P a.d.H.t.t.t.t.e.M.b.e.7.7.5.5.",
"( 4.4.5.r.7.r.e.e.e.e.y.t.d.t.d.d.f.f.f.!.!.!.!.!.Q.!.!.Q.Q.Q.Q.z.Q.Q.>Xz.z.>X1X(.1X(.)._.^.^.^.^.^.`.`.[.].lXnXHXUXIXIXIXIXKXnXlX[.[.`.`.`.^.^._.(.).(.(.1Xz.z.z.z.z.Q.z.z.Q.Q.Q.*XQ.W.Q.J.i.f.w.o.O.L.f.a.Q.O.I ~ I 0 q q j U 7.d.a.t.e.t.M.v.e.5.7.8.5.{ [ [ ",
"( 4.[ 4.5.r.5.r.r.b.e.e.e.t.t.d.f.f.f.J.f.f.!.!.!.Q.!.!.Q.!.4.c W.Q.Q.z.z.z.z.z.z.z.z.(.(.(.(.^.^.^.^.^.[.[.].xXHXUXIXIXIXUXHXxX].[.`.^.^.^.^._.(.(.1Xz.z.z.z.Q.Q.Q.Q.Q.Q.Q.W.W.W.W.W.W.W.J.-.K q.P d.W.J.G.L.O.I o.o.P j ~ a.H.t.w.w.w.v.b.v.v.5.5.[ { { { { { ",
"/ ( ( [ 4.5.5.5.7.r.r.e.e.t.t.t.t.t.t.d.f.f.f.!.!.!.y.f.!.!.t.4.f.Q.Q.Q.Q.Q.z.Q.z.z.z.z.z./.z.(.x._.^.^.^.`.[.].lXnXJXUXPXbXlX[.`.`.^.^.^.^._.(.(./.z.z.z.Q.Q.Q.Q.Q.Q.W.Q.Q.Q.W.W.W.W.W.!.W.!.d.^ P d.i.O.o.i.O.O.O. .<.q o.d.a.m.w.w.w.v.5.5.[ [ [ { { { _ _ _ ",
"! ( { ( [ 5.5.5.5.5.5.e.e.e.e.e.e.t.t.d.d.d.t.f.t.f.f.f.!.J.f.Q.Q.Q.Q.Q.Q.Q.Q.z.z.z.z.z.z.z.(.(.(._.^.^.^.^.`.`.[.[.lXlXlX].`.`.`.^.^.^._.k._.(./.z.z.z.Q.Q.Q.Q.Q.Q.W.W.!.W.W.!.W.W.P.!.P.J.J.I.e.^ w.O.O.o.+.I +.P j P W b.M.w.v.0.v.%.5.L { { { { _ _ _ _ K K ",
"L K L ( { L 5.5.5.5.5.5.5.e.7.e.M.t.e.t.d.d.d.H.t.e.L C 4.t.f.!.!.Q.Q.Q.Q.l.l.z.z.z.z.z.z.(.(.(.(.^.^.^.^.`.`.`.[.].].MXMX].[.`.`.^.`.^.^.^._._.(.(.(.z.z.z.z.Q.Q.Q.Q.Q.W.W.!.W.!.!.!.P.J.J.J.J.J.5.^ / 4.i.+.O.I P q | H.m.w.v.v.8.5.v.5.%.%.{ _ _ _ _ _ ) K H ",
"K L _ _ L { { L { { 5.8.5.e.5.e.b.e.e.M.t.t.t.t.!.4.o   X @ 7.W.!.!.Q.Q.Q.Q.Q.Q.z.z.z.z.z.z.z.x.(.(._.^.^.^.^.^.`.`.[.`.`.`.`.`.^.^.^.^.^._.(.(.(.z.z.z.z.z.z.Q.Q.Q.!.Q.W.W.!.W.!.U.J.J.J.J.J.J.d.j q X O +.O.O.` E ` b.m.b.0.0.q.v.%.5.%.L L { _ _ ) ) ) H H H ",
"K K K _ { L L %.5.{ 5.{ 8.8.5.5.7.7.7.e.e.b.w.( v <   o + X L W.!.!.!.!.!.Q.Q.Q.Q.Q.z.z.z.z.z.z.z.x.x.(.^.^.^.^.^.^.^.^.^.^.^.^.^.^.^._.(.(.(.(.z.z.z.z.Q.Q.Q.Q.!.Q.!.!.!.!.!.J.!.J.J.J.H.J.H.J.w.4 q   , +.+.P T ] K.m.m.b.v.v.v.5.[ { L %.%.L _ _ ) ) K K K H ",
"H K H K K K _ K { *.{ { { 8.%.7 % < D b.v.[ { 9   . & & $ + : L x l z J.W.!.W.W.!.!.Q.Q.W.Q.Q.Q.Q.Q.z.Q.z./././.(.(._.^.^._.(./.x.x.>X/.z.z.z.Q.Q.Q.Q.Q.!.Q.!.W.!.!.J.J.J.J.J.J.J.H.H.L.J h L 8.k q q   I +.I q P } n.n.| 8 8 g %.[ %.-.-.{ L -.@._ ) ) H H H F ",
"@.@.@.-.*.#.*.*.*.*.*.*.Z.*.Z.1   , e -.G + .     X * * + $ + + + # # -.OX+XE.E.E.U.E.U.E.wXU.E.U.U.XX=XXX=XXXW.}.&X).3X3X>X&X&XW.=XW.XX}.XXXX|.U.E.E.E.E.E.E.E.E.E.E.E.E.T.T.T.T.T.E.Z.- . o # O j < o O.I I * q = t &.t #   # $.=.%.&.&.*.*.#.@.*.@.-.@.Y R Y ",
"$.$.$.$.*.=.*.n.A.Z.=.A.R.A.A.5   .   r ,           = < 8 8 w 7 7 e 5 S wXwXwXqXNXNXNXNXqXqXNXqX9X8X8X9X0X8X0X0X0X7XlXSXnX2XpXpXdX9X0X9X9X8X8XqXqXeXeXwXeXeXwXwXE.@XU.@X#X@XOX+XOX+X+X%.< e 2 7 2 +.q 0 O.I <.q X   r V   X . * =.Z.>.>.=.>.=.=.*.*.*.*.#.-.#.@.",
"$.$.=.=.=.A.Z.A.A.A.R.F.F.Y.T.b       . . .   . .   o < 7 7 < < 1 5 1 L wXoXwXE.wXU.E.U.U.qXqXU.eXeX0X0X0X0X0X0X0X<X6XvXvX7X<X;X0X0X0X9X9XeXeXeXwXU.E.E.E.E.E.E.E.@X#XOXE.E.+XE.XXOXoXI.e 2 5 5 5 +.< O.+.+.q 0     o #   .   5 R.R.R.D.D.R.R.>.Z.=.n.*.*.%.*.*.",
"R -.*.%.*.%.:.=.=.A.Z.A.*.-.*.e     . o o & & & o o o , < < , < 1 < 7 -.%.H -.-.v.Y.E.E.E.E.E.U.eXyXyXiXdXtX0X0X0X<XcXGXGXsXpXpXrXpXdXdXdXpXtXqXeXwXeX#XE.T.A.F.F.A.A.Z.n.*.{ #.#.#.$.b.r , < , 5 +.6 ~.+.I q q o o o         t Z.Z.Z.=.>.:.>.:.:.:.&.*.*.*.*.-.",
"i w r y u G G Y G y u y G y y r   . . o o o = o . o . w w r G u r w i i * 1 G @.*.:.R.T.T.R.=.=.$.%.%.n.S.F.A.A.A.F.}.=X=XXXXXoXoX+XXXoXOX.XOX@XwX+XE.OXE.T.Y.T.R.*.#.*.*.*.@.Y y @.G G G G y u U E <.s.~.P 0 o = o .   . .   u @.G Y Y G G Y Y Y G y M M G M u ",
"@.#.#.-.#.#.$.*.*.*.*.G w w u w o o = * i i * * i w w u u u G G @.@.@.G G @.%.Y.T.E.E.E.T.T.Y.Z.=.$.-.%.%.v.%.;.n.C.S.V.V.C.A.A.S.F.F.T.T.T..X@XwXwXwXwXNXwXqXuXNXT.E.E.E.E.E.OX.X XT.T.R.Z.:.*.O.E +.~.~.P <.* 6 i i i i & = w y i w Y =.Z.=.&.*.&.*.-.*.#.@.@.",
"%.%.n.%.v.A.C.S.S.F.E.Y.:.n.:.G * i u y @.@.G u w w w r G @.&.Y.E.+X+XeXqXqXiXfXNXBXfXiX9XiXiXiXyXiXyXiXdXfXjXjXsX6XcXSXbXsXsXfXgXgXfXjXgXgXhXhXfXfXfXfXiXiXNXtXiXNXNXNXNXNXNXNXuXNXwXwX#X#XOXOX%XO.O.~.O.P u y Y @.@.@.y u w y #.#.*.>.Y.Z.Z.Z.Z.Z.A.Z.%.n.%.:.",
"1 1 w 1 1 w r y y G G Y @.@.#.Y G Y Y #.*.&.*.$.@.@.@.&.:.:.=.R.Y.Y.R.F.D.D.Z.A.Z.A.D.F.Y.F.T.S.F.T.F.F.F.S.F.I.U.*X*X,X;X*X:X=XXXE.I.E.T.F.F.F.T.F.Y.F.Y.T.Z.A.Z.Z.Z.Y.R.Z.>.R.R.Z.Z.Z.Y.D.R.R.~.~.~.~.E E =.:.:.=.:.=.&.$.*.$.*.*.#.@.@.@.Y Y G G G G y G y y ",
". .     X o o = = = = & & = * i i w w i i i w w w w w w w u w w i w w r u w u w w u u u u w w w u w u u r u t M M N S D S B G B M y y y r u y u u u u u y y y u u y u w w r r r u u u u u u u r O.~.mXO.P 0 y u u u r w w w w w w w w u w w w w w w 1 1 i i i i ",
"e t n y M N M t n M M G G H G G y G G R ' R R ' ' H H R G -.' ' $.-.{ -.X.X.{ %.{ } -.X.' ' { [ [ X.{ [  .q.9.9.q.q.q.6.7.q.9.[ ] [ { { ] X.` ' ' T T S B V B B B G e e N F N N N G H G V G y t ~.kXkXI P t t u M G t r r r w w w i i w 1 1 , , i 1 * * * & & & ",
"%.v.v.n.n.C.A.S.S.F.F.I.E.E.E.I.A.D.I.E.XXXXXXXXXX.XE.U.XXXXeX9X0XrXrXtX0XrXpXrXaXpXaX5XaXaXaX6X6X5X6X6X6X6X6X6X6XcXcXSXSXzX6X6X6X6X5X6XsX5X5XaXaX4XaX<X<X<X0X9X:X0X8XeXeX8XeXeXeXeX0XqXqXeX$X$X~.kXO.P O..X.XI.I..XXXE.T.S.A.A.F.F.S.S.A.A.A.A.=.%.%.%.%.%.%.$.",
"%.%.%.n.A.S.A.S.F.F.F.F.E.I.E.E.F.E.E..XXXXXXXeXXXXXE.E.XXXXeXqXtX0X9XrXrX0XpXpXpXpXaXpXaXaX5X5X6X6X6X6X6X6X3XlXlXbXPXIXIXHXzXzX6XzX6X6X6XsX6X6XaXaXaXaXaXaXpXpXpXpXpXrX0X0X0X9X0X9XwX|.%XG.,.s.O.O.O.I T.XXXXXXXXXX.XXXE.E.E.E.E.E.E.E.E.E.T.F.F.F.S.S.n.n.=.n.",
"%.=.=.=.=.=.=.Z.A.A.D.F.T.T.E.T.T.T.E..XE.OX.XXXoX#XXXoXoXwXeXqXqXqX9X9XiX9X9XdX0XpXtXpXpXpXpXpXaXaX6X6X6X5X6X6XlXnXKXUXPXHXcXzX6X6X6X6XsXaXaXaXsXaXpXpXpXdXpXtXtXtX0XtX9X9X0XiXoXG.O.O.+.O.O.+.+.I I +. X@X+XXX+XXXXX.X.X.XE.E.E..XE.E.E.E.F.F.D.S.A.Z.A.n.n.=.",
"@.@.@.@.#.#.$.*.&.&.=.=.>.:.>.R.R.Z.Y.Y.T.T.T.T.T.T.E.OXOXOX#X@XwXwXwXwXwX9X9XqXqXqXqXtXtXtXtXpXpXpXpXaX5X6X6X3XMXlXnXbXnXzXlX3X6X5XaXaXaXpXpXdXpXdXpXtXiXtXiX9XqX9XqXqXqXwXXXO.+.+.+.I I <.q q P 4 q P I O. XOXOX.X.XE.T..XT.T.E.Y.T.Y.Z.R.Z.Z.>.=.=.=.=.&.*.*.",
"& = & * * * 1 1 i 1 i i w 6 r r r u y y Y G G G Y @.@.@.@.#.#.#.$.*.=.A.=.=.Z.Z.A.Z.F.S.F.F.F.I.I.I.U.U.U.=X&X*X:X{.,X).).>X).<X:X:X8XeXeXXXXXXXXX.XXX.X.XE..X.XE.E.E.T.T.D.P q 0 q q q 6 # # R Y t , q q <.E >.>.>.>.=.=.=.=.&.&.*.#.#.#.#.#.@.@.@.Y Y Y Y Y G ",
"N B B M G G S G G H G H G H r G R H H y < G B G B H M r G G N M M G B 7 e M 5 r t M e , n n V m N V B B j m Z W ( 4.y.c.y.h.( Q S B H H B B V n M M M M n t t t t t M t y B : - O X O # , $ < N M H 4 , - q P I Y r r r r r 6 w w 5 6 w i 1 & 1 i 1 * * & i & + ",
"-.%.n n v.%.v.v.S.' ' S.C.n.7 T n.A.S.7 7 C.K.S.C.-.b %.S.C.C.K.K.L.K - w.M.O ( J.*XJ : d.W.W.&Xl.l.l.*X&X{.{.{./.).FXLXFX5X{.{.{.l.l.g.g.d.e.d.e.e.e.7.v.5.8.v...%.' X.' { p @   # % % - $ , V m 8 # # + X * P E ' } -.' G * e -.-.-.-.-.' O * @.-.H < . G , . ",
"{ 9 . C { { 8.q.m . F 4.7.;   2 j L K . h 7.5.7.J . . g m C 4.H.J.J.g - !.l.3 f.1X>Xr.c 1X).).).`.`.`.`.[.[.[.MXlXSXIXIXIXJXlXMX].[.[.`.`.'.).).1X).1X1X>X>X>Xz.*XQ.W.W.W.W.P.w.p - r U E <.q 5 7 $ o o . O X X + D 8.Q 7 : . 9 v.w.0.8.[ ..2 < { { 2 @ . F # O ",
"( O   2 L 5.v.{ .   g 5.t.2 $ J g C K ; [ w.7.5.l O - @ , 2 L H.d.!.5.> Q.>Xx r.>X1Xg.r.)./.l./._.^.`.`.`.[.[.].MXbXIXIXIXSXlXMX].[.[.`.`.^.'._.).).(.>X1X>X>X>X>X*X*X*X-XW.*XW.c.c.4.c z 8 4 #   . o . . . X q D L m.8.k 9 O K M.M.w.M.m.M.g - v.[ $   2 D 2 9 ",
"{ g   g v.7.7.7.- . 7.e.H.5.O / L [ w.k t.J.J.J.t.: : C F J e.Q.W.*Xt.x Q.l.g.y.>X).g.l.)./.z.x.^.`.`.`.[.[.].lXxXHXIXIXIXKXnXlX].].[.[.`.`.'.'.^.).1X).1X1X,X>X,X>X*X*X-XQ.*Xg.c l.1X).>XW.h.1.a 3 3 @ . . o g { 5.H.w.4.k @ { H.M.M.m.w.m.F A K [ <   n F L C ",
"5.F 2 9 [ b.v.m.g ; F H.e.K g [ M.H.7.2 H.U.P.P.5.: D [ 5.7.H.*X-X-Xt.4.*X*Xe.y.1X2Xf.y.2X2X2X'.'.].'.].].].].3XzXHXIXIXIXKXxXzXlX3X].].].).'.'.'.2X'.1X1X1X7X1X,X,X,X<X>X-X<Xl.3.3.k.x.f.f.y.h.j.3.1.f p 3 > A M.H.H.H.N.K ; b.J.B.m.M.M.V.A A / 0.2 $ h A K D ",
"%.b K n X.v.n.X.n %.m V.%._ ` 9.I.I.S.m N.I.U.U.v.2 ' I.I.I.}.}.=X=XC.{ }.=Xv.L.<X<XW.P.5X7X7X2X2X2X3X3X3XlXlX3XMXxXJXPXPXbXlXlXlXMXlX3X3X<XsX6X6X5XaX5X5X4X5XaX4XrXpX<XrX-X&X).4.2.k.c.1.1.1.1.2.3.3.s d p p v.L.U.}.U.U.v.n S.I.V.C.V.V.V.F F C.v.B < g D D N ",
"e , e , 2 t M < 2 e - b b 7 7 e B G H G H H Y H B N N H R ) @.R H -.' @.Q ) ' } { { %.v.q.0.v.w.B.H.H.J.J.f.l.l.l.{.{.*X/.*X*Xl.l.&XP.J.J.P.H.H.H.V.B.B.C.C.C.C.C.C.b.n.b.2 ; r.a.f.^.k.3.p d 2.1.3.2.s a a p $.$.$.$.$.-.@.H H @.' @.H R T G G G N < $ < r e w ",
"& * & , - , , * , < < < 7 2 7 e e e b b b b b b n B B B B B N N B H H F H ) H ) K ) ) _ _ ' L 5.{ { { 5.5.e.5.e.e.t.t.y.y.t.t.e.7.7.7.5.[ { { { _ _ _ _ ) _ ) ) H D H R g O : > c z.g.h.y.K v.j.3.3.2.1.p > z M b n M n M b e e 5 e e e w 7 7 7 5 < < 1 , * , & ",
", , , < 1 1 < 5 5 7 e e e e b e e e e b n M N N n n n N N N B S H N H H H K H K ) ) T K K _ L -.{ { { { 5.5.5.5.r.e.e.e.t.e.5.7.7.7.5.[ [ L { { { _ _ _ _ H K H D ) D ) g O 3 > c _.v p z z r.c.j.2.s d x ( m M N M n N M b e e e e e e 8 8 8 7 7 7 5 5 < , < , ",
", ; 1 < 2 2 7 7 7 e 2 e e e e e e b b M M M N M n B N N B B N B N H F H D H K H H ) ) K ) K -.L L { { { { 5.5.5.r.e.e.e.r.v.5.5.7.5.[ [ L v.L [ _ _ ) _ _ K _ ) K D Q S S < z c._.^.2.> p p a h.3.2.1.d f.-Xb.b N n n n n b b b b e e 2 8 7 8 7 5 2 5 < < 1 < , ",
", < 5 < 7 7 2 7 7 7 e 7 7 e b b b e < e b M M N N B N B B B S S H F H K H D H H H K K ) _ _ K K L { { 5.{ { { 5.5.5.7.7.r.4.5.5.L { [ { 5.L %.-._ _ K _ K K H H B S T  .g.l._.k.j.j.2.@ @ 3 2 h.3.1.s d c =Xr.b N N N n n n b e e e e e 8 8 8 7 7 7 5 5 < < < < ",
"< 2 7 2 5 5 < 7 7 7 e b e b b b n n b b N N B B B B S B S S H H H H H H H K K K ) _ K _ L -.L { _ L { L { { { { { 5.4.{ 5.[ [ v.{ [ { L _ K L H D ) K _ _ ) H K r.g.k.k.k.c.3.3.2.1.1.v > @ f 3.1.1.s d d W.[ N N N N N N n n b 7 e b b b e 8 7 2 e 2 1 5 5 2 5 ",
"1 7 7 7 7 8 e e b b e b b n n M M M N B n N N N F B S H S S H S F H K D F H H b K ) ) _ K K H K N F L H K _ L _ 5.{ { { [ 5.{ L { { { L K K K H K K D K ) K K F ( r.h.c 2.3.j.c.j.s 1.3.2.d 1.1.1.s s d e.P.x F N N m N M N n n b b b b e e 8 7 r 2 e < 2 5 2 1 ",
"< 5 7 7 7 8 7 8 8 e b b b n n M M N N b , < < , e B B S D H H H H H H H H H F e F K H K { ' _ { { { { { { 5.5.5.5.{ 5.5.[ [ [ { ( { [ { K K -.L _ _ _ _ _ ) _ H S H H T S y.k.^.j.1.h.c.3.1.s d 1.1.d d 9X4.3 n B B B N m M n b b b b b b e 7 8 7 e 2 e 2 e e < ",
"7 7 2 e 8 8 8 8 b 8 b e b n N M N N N N N F B F H H H H H T H T K H ) _ ) ) ) ) ) H b F H K K K _ _ _ _ _ _ { { { 5.[ { [ { { L 2 : D L _ _ L { _ _ _ K H ) K _ D S D T S c.k.k.3.3.j.j.j.3.s s s s a t.8Xa g S S B F N N N N n n n n n b b b b e e e e r 2 e 5 ",
"1 7 7 e 7 e 8 8 e b b b M M N N B S H H H H S M n e B T T T T ) ) ) _ _ -.' ' _ ` ' _ _ ' { { ' { { { { { { { { _ { _ _ ) _ _ K 2 6 F _ { K K _ _ _ _ _ _ _ ) _ 5.b.b.5.H c.^.k.3.3.3.j.j.3.1.s s d d !.H.x B D H H S S S S N M e m M N n b b b e 8 e e 2 7 7 7 ",
"< < 7 < < e e e b b b m M N n n b b 7 , & @ + o .   4 ' ) T R ) R ) ) ) K ) _ ) ) H _ _ _ _ { _ _ _ _ { { { { { { { { _ _ { ' { %.{ { { { D m ) _ _ _ _ { ) { U.jXjXrXz.f.k.k.k.k.j.j.j.3.3.1.s d d d t.;X:X' H H S B b 8 < n N b B N N B M m b b b b b b e 8 e ",
"e 8 8 e e e 7 e 5 r 5 < , , , , 1 - & # # * 1 1 r r n R H G H R T T R _ { -.$.-._ K D F K ' { { { { { { { { 5.5.[ 8.8.8.5.8.8.5.5.[ 8...[ [ [ X.{ { { _ H [ rXZXCXZXrX1X>Xk.k.c.j.j.3.3.3.3.1.s d d p _ &XdX&XT H K H H n n N B B B n n b b n b b b b b b e e 2 ",
", * & $ + + + X = .     . * , 1 1 * 1 1 1 1 1 1 * 6 i * * i * * i i i i w w e N R -.X.%.v.{ K D H _ _ _ { -.{ { _ { { ' _ _ ' { _ _ _ { ' ' ' { _ H { S.J.rXjXrXQ.rXjXrX,Xk.k.k.c.j.3.3.3.2.1.d d a K H e.;XiXP.) H D H T T T S D S F B B B n b n n b n b b b b ",
"* , < 2 1 e M u r * = = o o o o o o = & 1 i w r u y Y Y @.$.&.:.&.*.*.@.G u w & & i i M H -.8.q.%._ _ { { { { 5...[ [ X...[ { { { { { X.{ { { { { H.rXZXZXpXrXQ.!.jXjXrXrXx.c.k.j.j.3.3.2.1.s s d a H H _ J.0X0XP.' S H D D Z S N m N N N N b b n n b b e b e 2 ",
"7 2 7 r t @.-.R u * = + o X . . . o = + & & * 1 i i 6 w r u y y G G G G G u w & & = * w r =.b.W.H.5.L { { { { *.{ ] ` { { ' X.X.X.{ _ %.I.0X0XP.=XZXCXfXQ.Q.!.y.Q.jXfXZXjXrXk.c.j.3.3.1.1.d s d a F K ' T 8.-XdX;XL.T H T D F B S S S S S B B B N N N n b n b 7 ",
"7 8 < i w r G M 5 * +                                       .       . . . . . . X X n G =.v.@.M F -.5.v.{ { { { ] / | [ { { [ [ [ v.=XfXjX4XW.t.!.fX-X!.t.r.2.c rXjXZXCXZXjXQ.j.j.y.3.2.2.2.s L L t.b.{ H D &XtXiXW.H.{ ) ) ` ' _ ) ) D T D D H D F F m F n n n ",
"b 7 & = & * i = + # w w , * * & = o o o . X . .   . . . . . . . o = & = & 5 2 r t M G Y G u w i * M G _ { { [ { ] ` ] ` ! _ { K.0XpX-XJ.f.t.r.2.t.J.5.2.c v a v z.rXZXDXCXQ.z.rXZXrXrXrX-X-XQ.Q.;XrX-XQ.H.{ H.dX0X=XJ.b.) ' ' Q Q D T T D D S F F F m m n F n n ",
"b + = = = = = + & & & & * * i * i 6 i i i 6 6 i 6 6 6 i 6 w w r w , 1 = i r -.6 * * = = & & * * * & 5 j 9.8.9.0.v.v.v.q.v.L.8XjXrXf.v v c v v h.t.v f f v d z 5.*X<XfXZX-Xl.<XfXfXfXrXrX;X-XrX0X;X=XW.rXjXfXW.:XtX=XJ.M.] m T ` ' T T ) T D S F S A S S B 8 , # ",
"2   . O o o o o & & * & * i i u y y y G y y y y y y y y y u w * w i & * & = M r & & & & o & = & = o o 7 v.m.b.b.m.N.v.U.pXjXpXQ.!.c v f v v v v v ^ ( ( ( 6.b...t.W.-X-XJ.-XfXVXZXdXrX-XrXQ.Q.W.t.c -XrXdXCXyXJ.:XW.J.t.8.+ 2 } ` | } | ` ! ~ ) T B e , X   # 5 ",
"7 o . . . . . . o . o o & & i G &.=.:.:.>.>.>.&.#.#.:.:.>.:.Y w i * * & & = $ V = + o o o o o o o + + V C.m.m.N.m.m.K.fX-X-Xr.4.W.8.0.~ x x c  .b.N.b.C.u.b.;.B.f.y.t.4.r.<XdXZXdXrX:XQ.W.!.d.L p c J.J.W.W.U.t.P.U.H.t.7.] ......| ] | ` ' T V 5 .   . * 8 e , ",
"m # . o . .           . . . o & w w w r r w w w w 6 r y y y 6 + o o o o X . o 7 . . . . X . o # + $ @ W 0.9.v.v.b.0.U.rX;XW.> w.U.v d.H.i. . .~ ] b.n.b.N.u.9.P.,X;X0XW.Q.Q.-X-X-X-XW.P.J.5.v p > c t.4.4.( J.=X7.d.M.e.t.0.R ' T ' %.' H e $ .   , n n b , X X ",
"g <   . . . . . o . . . .   .   .   .   . .         . .   . . . . . . . . o X 8 + O o O + + + O @ O ; ~ ]  .u.b.b.b.H.f.d.( > =Xx x J.W.W.I.b.b.u.N.N.N.N.b.m.*XW.Q.!.rXZX!.t.!.W.J.f.r.x p > > > p x J.&XW.P.W.d.c ( 4.J.H.2 e R R B , O   . 8 V S g , X . . . ",
"g j - . .           . . o = & & & * * * * * * * * 1 * * * * & & + + O O o o . < O . . . . O O O . O : > h J ..u.H.m.P.t.r.v c d.> z e.d.J.=X} n.V.G.C.V.V.C.J.Q.aXrXW.W.rX;Xr.4.c v f f p > 3 > p 3 z t.-X;X=XJ.J.e.L 4.e.x ) ' 8 $ O X X   . < m 7 O . X X O ; ",
"k h $ . . .                       . . . . . . X X X o X X X . . . . . . . . . @ . . . . . . . . @ @ @ ; k W | 0.C.C.-Xr.c x a f p f x c 4.B.R S I.L.K.V.m.V.;XQ.J.f.rXrXf.!.!.4.f p p > > 3 p p > ( I.[ ( r.d.4.( 4.x x p 8 8 $ $ O O O     . % < , X X X X < 9 ",
"g 2 O                                                 . . . . . . . . . . . X @   .           . @ : h A 9.M.H.K.V.W.-Xt.f a f a a p p f f ] U 7 | A.S.C.XXiX-XpXW.f.-XrXf.r.J.W.e.f f p p p v > x I.I.v.h z z f z h p 2 % . . @ 9 g g g 8 9 9 9 2 - . . O - 2 4 ",
"C j h 9 < $ .                                     .         .                       . - 4 2 9 A | 6.N.N.V.V.K.K.W.;X!.r.c a f p f f f v f } 0 , N ,.}  XNXLXNXU.rXjXJ.!.f.J.t.c x x x p f x p z N.K.I.9.D S R %.S ; X . O , g A ~  .^ ` ` / ! Q k 7 < 9 m C A C ",
"W W W ! J J j h 2 < - % .               .                                 $ 2 k W ! | 9.a.a.m.M.M.V.K.V.H.K.V.K.0X!.f.;XP.f l 0.p f v 4.w.U 7 V U n.E $X$XCXCXNX;XjXW.r.c W.J.7.c c c p z p f m.K.K.K.9.k b C 2   . < A A / ] ~ ~ ~ ` ! A A U D W W J A A j m C ",
"K W ! W A Q ^ ~ ` / ] ! ! A g 9 , ; q j 0 0 8 7 j A ^ k Z Z j m A Q U A ~ 5.7.( 7.M.p.p.N.V.M.p.m.B.m.K.K.M.N.&XW.J.;XrXe.f x I.z p v c ..n V U U ,.,.OXZ.>.uXCXiX!.!.r.r.f.4.f > p p p p z V.m.5.m.b.v...` Q N m ~ 9.[ ^ ! Q W U W _ W J k C D D A Z A C C C j ",
"! ~ K Q A ! / ] ] J m m J ~  .0.u.| U j j P P Q ..m.m.0.q.9. .9.m.p.M.u.( ( ( z k p.B.m.q.m.V.K.V.N.H.L.L.K.L.&X!.!.*XJ.4.p q.F.9 p f c S q t 8 U A.%XD.,. X XNXCXU.4.e.-Xd.c f p p p p x V.N.0.v.v...8.9.9.9.| / ` A A ! W D U A D A U A A A A C A A D Z C C C ",
"Q ! T m m D ` m N U 5 7 ] b.I.U.p.k 0 9 Q D 4 q j ` 9.v.9.| ` 6.u.9.0.m.9.^ k A u.p.B.N.m.N.V.K.K.u.m.K.L.a.}.W.!.J.!.r.v p U.V.- > f S $ # 0 q } $.&.%X$X>.T.Z.E.CXeXrX=Xr.f p p p p ^ C.b.9.0.9.| / _ U | Q Q F m h C C Z C C m C m Z A D Z U U A Q D J W D Z ",
", 6 , 6 , , * O , 8 R b.K.V. .x z Z T j 8 j j g Q X...| .. ...p.p.m.N.B.K.V.N.N.G.V.N.N.M.K.G.H.I.K.m.K.H.K.W.Q.f.t.r.v p 5.I.K.g : j % - , t 0 } ,.%X%XOX,.} 0 #.NXBXL.e.c f p p z 8.0.....] | ] _ A F Z k C j g g 8 g b j m k j C m C C D ! ! D Z Z A Q Q Q A ",
"9 4 < 9 j C g 9 U V.L.7.z p > j ] 9.9.u.u.9.m.b.u.m.0.0.m.V.V.m.u.u.N.N.N.V.V.a.a.K.V.N.V.V.M.K.a.M.V.V.K.L.*XJ.t.c a a L L.N.B.a.W X O - $ : <.,.y Y >.} Y E } A.;.#X.Xc z p p ^ 0.8.` Q ^ ! C Z j j 2 < - $ - - ; ; 9 9 g g g Z D C D U K T ! ` ! U ! ! Q ! W ",
"A A Q ]  ./ | q.6.x p > 9 k / 6.9.b.u.0.9.9.u.b.u.9.v.m.N.m.u.q.u.p.0.m.V.a.V.B.V.p.H.V.N.H.V.K.V.K.I.I.H.P.W.y.r.a ( m.L.I.U.I.I.V.Q - O X 7 } ,.+.R E $.E * Y ;.0 V  X/ a f C W C k j 8 9 9 2 ; < $ $ + % - - , 2 2 2 8 g g m Z A Q Q ! A Q W T ! ` ! Q Q ! Q ",
"/ ] ~ `  .../ l k A ! | 9.0.0.6.9.9. .0.u.u.9.9.9.u...9.q.N.a.N.N.0.N.m.B.B.b.m.0.B.B.V.L.K.C.{ v.H.I.K.H.-Xf.4.f c I.K.K.K.K.B.m.m.P.K.m.A.G.%X,. X%XE V G.} q P Y , ' X.p > 2 ; : - - - $ % @ $ - 2 9 g k k S j 8 9 < 9 9 9 9 j C A K W A Q ! ` ] | ~ ~ ` ! ~ ",
"W Q W ~ Q ]  .6.......9.6.0.9.9.| u.0.0.9.u.u.9.9.u.p.7.9...u.N.a.B.p.m.0.0...B.V.V.N.a.H.I.V.B.V.I.L.b.=XW.r.v x V.L.L.V.M.C.H.W.rX0X<X-X}.,.n.,.E ,.n.,.,.,.' 0 U j 9 D 2 $ @ + O O @ @ O O % : h A ! [ / ! ] Q ~ A m 8 9 8 7 h h C C A A A ! Q ! | ~ ~ ~ ] Q ",
"] |  .] Q ]  .} ~ ' T Q X...b.b.9.q.0.0.6.6.9.u.u.u...G.N./ 9.p.m.m.V.m.V.b.9.B.K.I.V.K.v.K.L.K.L.B.B.U.-X!.v a b.L.L.K.H.H.L.;X;X0XW.r.t.-X.X,.A.0 r } } E o.U T Z g 2 h - O X O O O @ @ : 8 Z F /  .9.m.m.N.9. ...~ ~ W Z g g 7 g h j C Q W W ~ ~ | | ..| ` U ",
"A ] | ^ ~ S m n n n n V V B ~ 6.b...9.b.u.9.0.u.9.B.p./ ^ 6.u.6.p.b.m.m.a.b.V.K.B.L.K.V.N.H.K.I.B.w.H.0X<Xf.p 7.K.N.C.B.=X0XpX;X!.t.t.!.rX;X=X,.} r 8 U j P k 9 j 9 3 : - $ - + O @ @ : h J / ..[ b.q.N.p.V.N.m.N.b.b.9.6...! ) A F D C C T ) ' | T S ^  .Q r 6 ",
"/ ..U g e r e t n M M t e n g U / 0.u. . .6.0.9.6.0.p.6.6.u.p.N.B.B.b.p.K.L.K.K.B.a.K.K.m.m.K.C.B.eXrXW.!.2.z I.J.P.U.rXpX8XJ.r.c a ( rX&XJ.d.X.P j g 0 2 ; 2 q q : % % O $ $ - 2 9 C ~ 6.m.u.V.N.N.V.u.C.V.V.V.N.b.p.u.u.u.9...X.] ] ~ F ' X.' B $ # ) | B w e ",
"~ m 7 w e t t M G V G M t n 8 e 8 A 0.9.6.9.u.9.u.9.9.B.N.N.m.N.N.a.m.B.d.r.w.d.m.V.I.V.u.V.C.W.0XrX!.4.v r.=X<X0X<X-XW.d.2.f f p p 4.e.4.c v Z 7 q 9 : ; O @ : ; 3 . O . O < l [ 0.0.M.a.V.V.K.B.u.N.N.V.0.a.V.a.u.u.6.9.9.u.u.b.b.8.} ' } U 8 5 4 S T ' 8 & $ ",
"8 4 4 8 8 e V G Y Y Y V e 8 8 7 8 8 l N.u. ...u.p.u.q.u.N.B.N.V.N.N.a.K.H.r.c H.J.P.a.L.:X-X-X-XW.d.f.W.0XrXrX;X=XW.J.e.( v f p p p p p p f p g : 9 - O : % O . .     @ - j / u.B.K.V.V.a.V.V.V.G.B.H.u.V.p.p.N./ ..u.u.X...b.u...` %.} T 7 . 8 R } } ' ' e     ",
", 4 5 6 7 G y $.#.Y Y t 8 7 4 5 , 4 ; Q u.u.6.N.u.u.b.p.N.N.6.u.p.0.9.a.e.4.c w.d.J.!.W.;X;X-X-X-X;XrXtXW.P.d.e.4.4.c x f p f f z h 3 3 3 3 : 4 O $ % O O       $ 9 j / 9.m.N.V.N.I.K.V.F.m.a.a.K.L.V.V.N.u...9.9.9.9.9.b.| ] v.' } ) 7 X . 7 , @ - 4 n m V M e ",
", , , 5 r r #.R #.Y t 7 4 4 4 $ < , , 9 6.N.m.a.u.p.9.9.0.a.6.k k 0.b.0.w.c v c 4.r.4.4.e.J.P.f.d.M.r.4.c x v f f f f f p > h 2 3 O . . . . 8 8       . O ; g A ] 9.m.K.N.V.B.m.N.u.b.H.0.9.../ q.V.V.9.0.u.u.i.b.0.[ / ..' U m S b X   < B ) N 7 ; # @ # $ 4 8 ",
"$ , , , 7 t t Y t 7 5 q , < % $ $ , - $ C q.6.9.9.u.p.m.N.8.l h ^ 0.B.B.b.c v x v f f a f x v f a a f a p f f f f f p > @ O @ @ - 2 h A L [ 6.^ U m A ` ..p.B.b.V.p.u.M.G.K.V.C.B.N.m.V.m.B.p.I.|.] q.0.u. . .( /  ./ ! h U m 4 ; . , U ` } ' _ ' T U g 7 - % % ",
"* $ $ ; , 5 5 4 4 4 $ , $ # $ O $ % * $ < ..b.v.p.u.6.0.N.b.m.N.V.B.p.m.B.( f f p p p > f p p z z z > 3 3 3 3 3 > > 3 - 2 k / ..q.b.M.K.K.K.w.m.V.H.N.M.m.N.B.K.H.V.m.m.B.V.I.K.m.M.i.u.B.p.9.| } | |  . . .b.6.9.| 0.b.2 : 9 U B 7 S Q ) ' } } } } ) ) R U m g ",
"% $ # $ $ $ $ % $ # $ O $ $ X % O # % $ $ 9 _ } ..9.i.a.0.M.B.0.m.m.0.M.m.a.^ p 3 @ . X 3 : 2 j J K g < 9 g m U Q ..m.M.N.p.a.V.V.B.V.V.V.m.B.u.V.M.N.u.M.K.m.m.K.V.M.0.N.B.m.9.q.0.8.9.6.0.u.u./ p.| W u.p...u.q.q...| 9 ; : : - O 2 8 V S A U ) ) } ' ' ) T U ",
"% X $ % + % % $ O $ X % + X + O % O O $ $ < m m U b.u.0.p.0.B.0.N.u.p.i.p. .z 9 j A A J Q ~ | u.q.b.m.u.m.p.M.H.p.M.V.V.V.M.u.a.V.K.p.p.m.K.p.b.N.N.N.M.p.w.N...b.N.N.u.M.0.0.0.u.u.! ..9.q.6.m.m.m.9.0.p.9.....u.0.9.! ; ; ; ; % . - ; : ; 2 0 g V S U U T ) T ",
"+ # X % O + O O # . # X X # X + X O O # $ < N N S u.b.u.0.m.b.0.u.u.p.V.p.9.u. .a.m.M.p. .u.B.p.m.B.H.m.9.0.0.N.V.N.u.V.a.p.V.u.a.B.K.0.m.0.V.M.N.u.V.V.u. .B. .b.a.m.V.0.v.0.0.B.u.| ~ u.9.|  .0.m.u.0.0.0.9./ q.9.u.b.4 ; < > -   % 2 2 ; ; : : : 2 9 g V N S ",
"X X + X X X X X X O . X O X @ % O X + # , 8 V V ` p.b.b.0.u.q.9.p.N.u.p.u.9.q.N.p.9.0.0.| 0.N.u.v.9.N.m.V.N.m.0.u.M.p.u.m.u.N.9.N.p.V. ...p.a.B.V.b.V.p.u.G. .u.B.0.M.K.M.0.b...u.p.9.6.9.m.b.9.! u.9.b.| 0.| | u.b.9.| 2 ; 2 > -   % - ; < ; ; ; : - % % - < 7 ",
"O O X X X X O X O X X X X X O + X @ # $ 7 M B 8 l 6.u.b.q.b.9.m.N.u.N.p.p.../  . .W [ V.N.N.V.B.w.m.] 0.M.M.u.m.u.0.N. .N.u.B.H.m.b.p.K.V.b.V.0.a.V.a.u.a.0.u.u.N.M.| u.q.m.0./ | 6.p.9...9.| u. .6.u.m...u.q. .9.0.u.9.2 2 2 q -   % % % $ % - : < : : : - % % ",
"X . O . X X X X X X X X . X X X + O $ 7 b B e O - l 6.6. .q.6.u.q.0.p.u.u.N.a.B.u.p.u.N.p.u...` u.N.N.u.K.B.V.V.V.m.V.m.K.K.N.u.C.V.6.^  .M.0.Q u.../ u.u.B.q./ u.9.W  . ...^  ./ ]  .p...u.u.6. . .u.u.9.b.X.6.u.0...| 9 ; ; ; -   % $ O $ X + O + - $ - - - - ",
". O . X . . . . X   X . X X O O X , 5 V S e O X @ h l / / 6.q.q.q.6.q. .u.p.6.u.u.6.9.u.M.V.~ | N.u.q.0.m.K.K.N.M.q.b.B.I.G.M.u.u.u.q.V.V.w.q.0./ / 9.u.6./  . . . .9. . . . ...u.i./ 8.9.9.v.S | 9.....u.9.9.b. .9.../ ; q ; ; @ . % - % # + $ + X $ O + % % - ",
". . X . X . . X . X   X X O O % 4 n U M < . . X $ h W ~  .6.| ../ / 9.p.p.u. .6.q. ./ i.6.m.N.0. .9.9.p.b.b.m.N.m.b.0.u.a.m.u.p.p./ u.p.0.V.m.0.0.0.q.a.9./ u.u. .6. .0. .~ u.q.q.N.0.` N 5 j  .| i.9. .| / ....| / / / 9 ; - - O   O - ; ; : : - % % O + % X % ",
". X X . . . . . . . X X O O % 8 B Y 7 + . . O O : k ^ /  . .u. .| ^ | 6. . .q.6.0.9.b.w.u.! 6.m.u.N.M.0.u.| 6.6.V.u...m.0.0.b.b.q.9.q.u.0.p.0.q.0.0.u.9.p.p.p.q.9... .9.u.u.9.u.9.` V r & . X | b.9.u.....6.u. .| 6.9. .! / k ; - O $ ; : % - - : - % % O % X - ",
"      X O . . . X X X O $ 5 M Y M o         O ; k ~  .6.k Q  .x / ..q.6. . .u.| 6.V.N.q.9.u.i.M.p.p.m.p.m.q.[ 0.w.a.m.9... .0.u.u.p.N.9.9.0.0.m.m.p.m.p.6. .N.u.u.p. .N.7.| | V e 5 r # . X   g 0.6...] ~ ..] .. ...| /  .| ! / ~ J Q / Q j 9 ; % % - : % % % $ ",
"h ; O .   . . . . X O $ 7 7 w +     O - 2 8 j W o./  ./ 9 9 / | 6. .i.0.9.6.q.9.6.6.p.q./ 9. . .0.q.u.0.i.u.N.m.0.u.u.u...] 6.u.u.u.6.9.u.6.m.0.u.p.9.0.u.9.i.6.u.N.N.u.u.N.U * * o . - + O   O m Q ..~ Q 9.0.....| Q ] / ~ W ~ ! J W W ~ W ~ ! h ; % % - % $ % ",
"l Z k h ; - $ . . O $ , o     O ; g A ^ ~ ! / / ! /  . .u./ !  .| 9. .6./ 9.6.q.9./ 7.9. . . . .u...q.u.u.6. .u.m.b.u.9.i.w.0.p.u.u.u.9. .9.9.M.m.B.0.| ..b.m.m.u.u.u.u.u.u.u./ | Q U | ] ! Q g U U ..9... . . ./ ] / ! ! / ^ W ~ ! W ! W A l J W ^ k < % % % % ",
"k A W l C A A j j j 9 ; ; 9 j A W W ~ ^ W ! / ! / ^  ./ J | ~ ..6.9.9.^ | 9.| 9./ ..6. . .u.u.u.9.6.0. .9...6. .u. .q. . .9.9./ 9.0. .u.0.u.9.i.0.0.b.9.M.b.q.0.p.u.0.9./ u.u.q...6... .6... .X.] ! / | A > : Q A J ^ o.! ^ ^ W ^ A W W A W l A W k l W l j 9 , ",
"k k k l k j A Q A l ! ^ ^ W ^ l Q ^ A ^ ~ | Q / W Q ! ~ Q J ^ / / / / /  .6.9... .6.~ 6.9.9.9.6... .9. .9.9. .~ / | /  ./ ....~ b.0.0.9.9.u.u.9...6.u.0.9.u.0.u.u...6./ ~  . .6.|  .Q | ^ ! ! ^ ] J ` / 2 ; - A ! ~ ] ~ | W J ^ l W W W l J J ^ U k k W U ^ ^ U ",
"j j h k k l k k Q l Q W U l U W W Q l x x W ^ ! A ~ l Q / / W k W ^ ~  .|  .|  .6.( 9.q.9.9.9.9./  ...p.6. .u. .../  . . .9. .9.| W 8.q.6.u. .q.0.9.9.u.p.u.9.6.q.6.9..... .../  . ./ / ^ Q ^ ~ ~ ~ | ` | Q ! ~ ! ~ ~ W ! Q J Q ] Q A Q W Z A J l Q W W x l Q Z ",
"h g 2 k 2 > U A W Q U l x A Z W A Q ^ j j l ^ h k ~ l W ^ l l j W l ^ ^ U W / ~ W o. . .] /  .]  .6... . .u.9.6. . . .6.u.u. .0./ /  .i.u.u.u.9.0.0.q.q.6.0.9... . .^  .u.X.6.| /  .| / Z l l Q ^ A l x ~ A j J ! W l ^ ! Q Q Q Q Q J A U A J W Q ^ J U A l A k ",
"z k 9 h ; h 8 2 z k A l U l U x ^ k U J U l z 9 l j W l ^ ^ ^ / k !  ./ /  .k Q / /  .~  .! ] /  . .6.9.u. . . . .9.6.9. . .|  .6.9. ./ |  . .9.6.~ | / / 6. . . .6. .6./ W |  ...o.| / / Q ~ W ! A j A l k Q A k J o.! W ! W W Q l W J C l J A Q l l l A U A k ",
"k k A k l U j k ~ k k Q l l k W Q ^ k h h > ; 2 > 0 A J W ] | ~ Q / | ~ ! | ~ / .... .| / ! ..9.9.6. .J l A / l ^  .^ ] | / |  .| 9.6.| 9. . .| ^ h ; : ^ /  ./ Q |  . .6.6.| ] W | ~ ^ W ~ / ^ l U ~ | !  .! W Q ' W W k A Q W J U ! U J A A U l U x W W A k j ",
"k k h k W k j x l h k l j k A W l h ^ h 8 h h h A ` x W / W ~ / |  .~ W Q |  ./ /  .] ] /  .i...( ! k W ^ U ! /  . ./ | / | 0. .9... . . .../ /  .! 9 h Q / / / / ! ! | / | / | ] ..~ ^ ~ ! Q / | ! ! ! ! ! ^ W ~ Q k W ! ! W J ^ ! W W J U Q ! A Q U A A l W l ",
"h k k A k h A A U J A A A A l k U h Q Q W k C ; 2 ! ~ / ] ~ ! ] ! | / / / ..../ ] | ^ |  ...^ k l W ! | ~  .../ | ~ /  . . ./ |  ...! / / ~ .... ./ ..| | / / ! ~ / / / Q U W ! ! Q ` / ~ | | ~ ! / ! ! ! W ~ ~ ~ ^ ~ Q ! ^ W Q W U W ^ W W W A l W W U l l k h ",
"j A Z Z l j A k A k l l A j l j W l l W l ^ ` ) A ! U W U ^ ! ! | | ~ ! ~ | / ! / / | / ^ ^ l W ~ ~ / / ^ ~ | ~  .~ / | | ..| / Q 9... .| | / / /  ./ / / ~ /  . ./ ! | ^ k 9 h j l Q ~ / ` ^ ! ~ / W ~ ~ W U Q Q W ~ ^ ! W W J J W ! l l A h h j k k k k 9 2 9 "
};
