/* XPM */
static char *chillCarrot_256[] = {
/* columns rows colors chars-per-pixel */
"256 256 256 2 ",
"   c #050301",
".  c #0A0603",
"X  c #0D0905",
"o  c #0E0C0A",
"O  c #130C06",
"+  c #120E0B",
"@  c #1A0C04",
"#  c #1C130B",
"$  c #17110A",
"%  c #141313",
"&  c #1B1918",
"*  c #110F10",
"=  c #22150A",
"-  c #2B1A0C",
";  c #26160A",
":  c #371807",
">  c #241B13",
",  c #2B1E14",
"<  c #231E1B",
"1  c #2D170A",
"2  c #2D221A",
"3  c #2B2118",
"4  c #33251B",
"5  c #3A291E",
"6  c #382516",
"7  c #342F0E",
"8  c #292525",
"9  c #3C2C22",
"0  c #332C28",
"q  c #3A312B",
"w  c #3A3433",
"e  c #332F30",
"r  c #20201B",
"t  c #481B04",
"y  c #551502",
"u  c #781602",
"i  c #671202",
"p  c #4B2209",
"a  c #572509",
"s  c #462B18",
"d  c #4A331C",
"f  c #54341C",
"g  c #5A371D",
"h  c #542D14",
"j  c #662A0C",
"k  c #683618",
"l  c #753919",
"z  c #6E2C0F",
"x  c #412E23",
"c  c #443126",
"v  c #45342A",
"b  c #4A362A",
"n  c #4C3628",
"m  c #553924",
"M  c #5C3B23",
"N  c #533B2C",
"B  c #5B3D2C",
"V  c #533622",
"C  c #463C36",
"Z  c #583F31",
"A  c #623E23",
"S  c #633F2A",
"D  c #763E21",
"F  c #484716",
"G  c #54541A",
"H  c #5B442A",
"J  c #4C423C",
"K  c #5D4233",
"L  c #564539",
"P  c #595327",
"I  c #644126",
"U  c #64432B",
"Y  c #6A452B",
"T  c #6D492D",
"R  c #6A4325",
"E  c #734B2D",
"W  c #7B4D2D",
"Q  c #754527",
"!  c #634432",
"~  c #6A4533",
"^  c #6D4A33",
"/  c #664B38",
"(  c #734C33",
")  c #7A4C34",
"_  c #764A35",
"`  c #69543A",
"'  c #765135",
"]  c #7C5234",
"[  c #7C553A",
"{  c #79563C",
"}  c #74542C",
"|  c #706B2D",
" . c #64621E",
".. c #574B43",
"X. c #5D5048",
"o. c #68564A",
"O. c #765B48",
"+. c #6C5C51",
"@. c #645650",
"#. c #715F52",
"$. c #634E41",
"%. c #7B644B",
"&. c #746255",
"*. c #7D6A5B",
"=. c #7A6657",
"-. c #776B47",
";. c #3E400E",
":. c #881B02",
">. c #922B0A",
",. c #AB3406",
"<. c #8A3E21",
"1. c #864A2A",
"2. c #854E33",
"3. c #835534",
"4. c #83543A",
"5. c #845A3B",
"6. c #8B5D3B",
"7. c #8A5636",
"8. c #935C3B",
"9. c #985837",
"0. c #904F2C",
"q. c #A55C38",
"w. c #AC552A",
"e. c #8E603E",
"r. c #856638",
"t. c #93613E",
"y. c #9B623E",
"u. c #877638",
"i. c #A8623D",
"p. c #B6673D",
"a. c #B76A31",
"s. c #B04410",
"d. c #CB530F",
"f. c #EC7312",
"g. c #D57338",
"h. c #E47C3C",
"j. c #E67928",
"k. c #D86216",
"l. c #855E41",
"z. c #935E40",
"x. c #8D6242",
"c. c #87654A",
"v. c #936543",
"b. c #966846",
"n. c #9B6A45",
"m. c #9B6D4A",
"M. c #976846",
"N. c #9D714D",
"B. c #836D5D",
"V. c #886A54",
"C. c #926E53",
"Z. c #8B745A",
"A. c #997558",
"S. c #85734B",
"D. c #A66B44",
"F. c #B86C45",
"G. c #A3724C",
"H. c #AB744B",
"J. c #B8764A",
"K. c #A37552",
"L. c #AB7A54",
"P. c #A67B5A",
"I. c #B57D53",
"U. c #8A7362",
"Y. c #977A66",
"T. c #856F60",
"R. c #A47E61",
"E. c #C16E43",
"W. c #C87647",
"Q. c #D67943",
"!. c #C27F51",
"~. c #969633",
"^. c #FC972A",
"/. c #EB863B",
"(. c #F38934",
"). c #F69739",
"_. c #F68C2E",
"`. c #FDA72D",
"'. c #FCA736",
"]. c #FDB637",
"[. c #FDB12F",
"{. c #E68430",
"}. c #AD815E",
"|. c #B88459",
" X c #BB8952",
".X c #9E816A",
"XX c #A8856A",
"oX c #B78A67",
"OX c #BD916D",
"+X c #AE8A70",
"@X c #B38E71",
"#X c #BB9373",
"$X c #AB946B",
"%X c #A09253",
"&X c #C9824E",
"*X c #D9864A",
"=X c #C88856",
"-X c #D58B54",
";X c #DA9457",
":X c #D59155",
">X c #E48A43",
",X c #E89649",
"<X c #E49A56",
"1X c #F29B44",
"2X c #F7A749",
"3X c #FDB848",
"4X c #EBA45A",
"5X c #F3AB58",
"6X c #FBB759",
"7X c #EFA04E",
"8X c #C89569",
"9X c #D39D6C",
"0X c #D89B65",
"qX c #C79A74",
"wX c #C89569",
"eX c #E39B64",
"rX c #DCA36D",
"tX c #D7A06D",
"yX c #CEA17B",
"uX c #D7A577",
"iX c #E7A668",
"pX c #F2AD63",
"aX c #F8B764",
"sX c #E3AB73",
"dX c #E9AD75",
"fX c #EBB278",
"gX c #F3B978",
"hX c #F1AD72",
"jX c #C4BD4A",
"kX c #FDC34A",
"lX c #FDC857",
"zX c #FDD05E",
"xX c #FDC769",
"cX c #FCC779",
"vX c #FED578",
"bX c #FDD268",
"nX c #C5C14B",
"mX c #D6AA82",
"MX c #DAB087",
"NX c #E8B888",
"BX c #EABE92",
"VX c #EFBC86",
"CX c #FBC986",
"ZX c #FED789",
"AX c #EDC194",
"SX c #F3C897",
"DX c #FED996",
"FX c #EFC08F",
"GX c #FEE19B",
"HX c #FEE5A7",
"JX c #FEEBB7",
"KX c #F0CCA2",
"LX c #FEF1D1",
"PX c #FBFBF8",
"IX c #FDF7E8",
"UX c #7F8128",
/* pixels */
"@.+.@.+.@.+.+.+.+.+.+.&.+.+.#.#.&.#.&.&.&.&.&.&.&.&.&.&.*.&.*.&.*.*.*.*.*.*.T.T.T.U.U.U.Y.Y.Y.Y.Y.Y.+XY.R.+X+X+X+X+X+X+X+X+X+X@X@X@X@X@X#X#X#X#X#X#XmX@X#XmX@XqXmX#X#X#XmX#XmX#XqXmXqXqXmXqXqXmX#XmXqXqXqXmXqXqXmXmXqXmXmXR.mXmXmXmXmXmXmXmXmXmXmXmXmXyXmXmXmXmXmXmXmXmXmXmXmXmXmXmXmXmX#XmXmX#XmXmXmX#X#XmXmXmXmX#X#XmX#X@XmX@X#XqXmXR.mX@X+X#X#X@X#X@X#X#X@X@X@X@X@X@X@X+X+X+X+X+X+X+X+X+X+X+X+X+X+X+X+X+X+X.X.X.X.X.X.X.X.X.X.XU..XU..X.X.X.XU..X.X.X.X.XU..XU.U.U.U.U.U.U.U.T.T.T.T.*.*.*.*.*.*.*.*.*.*.*.*.*.&.*.&.+.&.+.+.",
"+.@.+.o.o.+.+.+.+.+.+.&.&.&.&.&.&.&.&.&.&.*.*.&.&.*.&.*.&.&.&.*.&.*.*.*.*.*.*.*.*.T.T.T.U.U.U.U.Y.Y.Y.Y.Y.Y.Y.+XY.+X+X+X+X+X+X@X@X@X#X#X#X#X#XqXmX#XmXqXqX#XmX#XmXqXmXqXqXqX#XmXyXqXmXqXqXmXmX@XmXqXqXmXmXqXmXmXmXmXmXmXmXmXmXmXmXmXmXmXyXmXmXmXmXmXmXmXmXmXmXmXmXmXmXmX#XmXmXmXmXmXmXmXmXmXmXmXmXmXmXmXmXmXmX#XmXmXmX#XmXmX#XmXmXqX@XmX#XmXmXR.mX@X#XmXR.mXmX@X+XmX@X@X#X#X#X#X@X+X@X@X@X@X+X+X+X@X+X+X+X+X+X+X+X+X+X+X+X+X+X.X+X+X+X+X+X+X+X+X+X.X.X.X.X.X.XU.Y.U.U.T.U.U.T.T.T.T.*.T.*.T.*.*.*.*.&.*.&.*.+.+.+.@.@.+.@.+.@.@.",
"+.@.@.+.+.+.+.+.+.+.+.+.#.#.&.&.&.&.&.*.&.&.*.*.&.*.&.*.&.*.*.&.*.*.&.*.*.*.*.*.*.*.B.B.T.T.T.U.U.U.Y.Y.Y.Y.Y.Y.Y.+X.X+XR.+X+X+X+X+X@X#X#XqX#XqXqXqX#X#XqXmXqXqX@XmXqXmXmXqXmXqXqXyXyXyXmXqXmXmX#XmXmXmXqXmXmXmXmXqXmXmXmXmXmXmXmXmXmXmXmXmXmXmXmXmXmXmXmXmXmXmXmXmXmXmXmXmX@XmXmXqXmXmXmX#XmXmXmXmXmXmXmXmXmXmXmX#XmXmXmX#XmXmXmXqXqXmXmXmX#XmX#XmXmXmXR.mXmXR.mXR.mX@XmX+XmX#XyX#XyX#X#X#X#X#X@X@X+X@X+X+X+X+X+X+X+X@X@X#X+X+X+X+X+X+X+X+X+X.X.X.XY.U.U.U.U.T.U.T.T.T.T.T.T.T.T.*.*.*.*.*.*.*.+.&.@.&.+.@.&.@.+.@.@.+.@.+.@.@.",
"@.@.o.+.@.+.+.+.+.-.#.&.&.#.&.&.&.&.&.&.&.*.&.&.*.&.*.&.*.*.&.*.*.*.*.*.*.*.*.*.B.*.B.T.T.T.T.T.U.U.U.Y.Y.Y.Y.Y.Y..XY.Y..X+XY.Y.+X+X+X@X@X#X#X@X#X#X#XqXqX#XOXqXqX#X#XqX#XmX#XmXyXyXyXyXqXmXqXmXmXmXqXmXmXmXyXmXmXmXmXmXmXmXmXmXmXmXNXMXmXMXNXMXMXmXmXmXMXMXmXMXmXmXmXmXmXmXmXmXmXmXmXmXmXmXmXmXmXmXmX#XmXmXmXmXmXmXmXmXmXmXmXmXmXmXmXmXmXmXmXmXmXmX#XmXmXmXmXmXmXmXmXmXmXmXmXmX#XyX#X#X#X#X#X@X#X@X@X@X@X@X@X#X+X#XyX+X@X+X+X+X+X+X.X.XU.U.U.U.T.U.T.T.T.T.T.*.T.T.T.*.*.T.*.*.*.@.*.*.*.@.@.&.+.&.&.@.+.&.@.+.@.+.+.@.+.@.@.+.",
"+.o.+.+.+.@.+.+.+.+.+.+.#.#.&.&.&.&.&.&.&.&.&.&.&.*.&.*.&.*.*.*.*.*.*.T.T.*.T.*.B.B.T.T.T.T.T.U.T.U.U.U.Y.Y.Y.Y..X.XY.Y..XY..X.XXXY.+XY.Y.+X+X+X+X#X#X#XmX#XqXqXqXqXqX#XqX#XmX#XqXyXyXqXqXyXmXuXmXmXmXmXmXmXdXmXmXmXMXMXmXMXmXMXMXMXMXMXMXMXMXMXMXNXMXMXMXNXMXMXMXNXMXMXmXMXMXmXmXMXMXmXMXmXMXmXmXmXmXmXmXmXmXmXmXmXmXmXmXmXmXmXmXmXmXmXMXMXmXmXmXmXmXmXmXmXmXmXmXmXmXmX@X@XmX@X#X#XyX@X#X#X#X#X#X@X@X@XyX@X#X#X+X+X+X.X+X.X.XU..XU.U.U.Y.*.U.U.T.T.T.T.T.*.T.*.*.*.*.*.*.*.&.*.*.*.@.&.&.&.&.&.&.+.+.+.+.+.+.+.+.+.+.@.@.@.+.@.",
"+.+.@.+.+.+.o.+.+.+.&.&.#.&.&.#.&.&.&.&.&.&.*.*.*.&.*.&.*.*.*.*.*.*.*.*.*.T.T.T.T.T.T.T.T.T.T.T.T.U.U.U.U.U.U.Y.Y..X.X+X+X+X+X.XY.R.Y.+X+X+XY.+XR.+X+X+X@X@X#X#XqX@XmXqX#XmXmXqXyXqXyXmXmXmXyXmXqXmXmXmXmXmXMXmXNXmXMXMXmXMXMXMXMXMXNXMXNXMXNXNXNXMXMXMXNXMXNXMXMXMXNXMXmXMXNXMXNXMXNXMXNXMXMXNXmXmXmXMXMXmXMXmXmXMXmXMXmXmXMXmXMXNXNXMXMXMXMXmXmXmXmXmXmXmXmXmX@XmXmX!.#XmXR.mX#X#X#XyXyX#XyX#X@XmX@XmXmX#X+X+X+X.X.XY..XU.Y.U.U.U.U.U.U.Y.*.*.T.T.T.T.T.*.*.*.*.*.*.&.&.*.*.&.*.@.*.*.&.&.&.*.&.&.&.+.+.&.+.+.+.+.+.+.+.+.@.+.",
"o.@.+.@.+.+.+.+.+.+.+.+.&.+.+.&.&.&.&.&.*.&.*.&.&.*.*.*.*.*.*.*.*.T.*.T.T.*.T.T.T.T.T.T.U.T.T.U.U.U.U.U.Y.U.Y.Y.Y..X+X+X+X@X@X@X@X+X+XXXY.+XR.+X+X+X+X+X+X@X@XqX#XqXqXqXqXqXmXqXmXmXmXmXmXmXmXmXmXmXmXMXMXmXMXMXmXNXMXMXMXNXNXNXMXNXNXNXNXMXNXNXNXNXNXNXNXNXNXNXNXNXMXBXNXNXNXBXMXBXNXNXNXNXVXNXMXMXMXBXBXMXBXMXNXMXMXNXNXNXMXNXNXMXNXmXmXmXmXmXmXmXmXmXmXR.mXmXmX#X#XmX#XmXmXmXyXyXyXyXyX#XyX#XmX@X#X+X+X+X.X.X.XY.Y.Y.Y.U.Y.U.Y.U.U.U.U.U.*.U.T.T.T.T.T.*.T.*.*.*.*.*.*.*.*.&.&.*.*.&.*.@.&.@.+.+.&.+.+.+.&.+.+.+.+.+.+.@.+.+.",
"+.+.+.+.+.+.+.+.+.&.+.&.+.+.&.&.&.&.&.&.&.&.&.&.*.&.&.*.*.*.*.*.*.*.*.T.T.T.*.T.T.T.U.T.T.U.U.U.U.U.Y.U.U.Y.Y.Y.Y.Y..XY..X+X+X@X#X#X#X@X@X+X+X+X+X+X+X+X@X@X#X#XqX#XqXqXmXmXqXmXmXuXmXuXmXmXMXmXmXmXmXMXMXNXNXMXMXNXMXNXNXNXNXNXNXNXNXBXNXNXBXBXNXNXNXNXBXBXBXBXBXBXBXBXBXBXBXBXBXBXBXBXBXNXBXBXBXBXBXBXBXBXBXBXBXBXNXBXNXNXMXMXmXmXmXmXmXmXmXmXmXmXmXmXmXmXmXmXmXmXmXmXmX#XmXmXyXyXyX#XyX#X#X#X+X+X+X+X.X.X.XY.Y.Y.Y.Y.Y.Y.Y.U.U.U.U.U.U.U.Y.*.T.T.T.T.T.*.*.T.T.*.*.*.*.*.*.*.*.*.&.*.&.*.&.&.*.+.&.+.*.@.+.+.+.+.+.+.+.+.+.+.",
"+.+.+.+.+.#.+.+.#.#.+.&.#.&.&.#.=.#.=.#.*.=.=.=.=.=.*.*.*.*.*.B.*.*.T.T.T.T.T.U.T.T.U.T.U.U.C.U.U.Y.U.Y.Y.U.Y.Y.Y.Y.Y..X.X.X.X.X+X+X#XqXqXqXqX@X@X@X@X@XOXOXOX#X#X#XqXqXqXqXqXyXyXyXuXmXmXmXmXdXmXMXMXMXNXmXNXNXNXNXNXNXNXNXNXNXBXBXBXBXBXBXBXBXBXBXBXBXBXBXBXBXBXBXAXAXSXBXBXBXBXBXSXBXBXBXBXBXBXBXBXBXBXBXBXNXBXNXNXMXNXMXMXMXMXmXMXMXMXmXmXmXmXmXmXmXmXmXmXmXmXmXmX#X#XmX@X#X@X@X+X+X+X+X+X.X.X.X.X.X.XY.Y.Y..XY.U..XU..XU.U.U.U.U.U.U.U.U.U.T.T.T.T.T.*.T.T.*.*.*.*.*.*.*.*.*.*.*.@.*.@.*.*.&.+.&.+.&.+.+.&.+.+.+.+.+.+.+.+.",
"o.#.#.O.#.#.#.#.#.#.#.&.&.&.&.&.#.=.=.=.&.=.=.=.*.=.*.=.*.*.B.B.T.T.T.T.T.T.T.T.U.U.U.U.U.U.U.Y.U.U.Y.U.Y.Y.Y.Y.Y.Y.Y..X.X.X.X.XXXXX+X+X@XOX#XqXqXqXqXOX#XOX#X#X#XqX#XqXqXqXyXyXuXmXmXmXmXuXmXNXNXMXNXNXNXNXNXVXNXNXNXBXNXBXBXBXBXBXBXBXBXBXBXBXAXAXAXAXAXAXBXAXBXBXAXAXBXBXBXSXSXBXBXSXSXBXSXBXBXBXBXBXBXBXNXNXNXNXNXNXMXNXMXNXNXMXMXMXMXMXmXmXmXqXmXmXmXqX#XqXR.@X+X+X+X+XXXXX+X.X.X+X.X.X.X.X.X.X.X.X.X.XY..XY.Y.Y.Y..XU.Y..XY.U.Y.U.U.U.U.U.U.U.T.T.T.T.T.*.T.*.T.*.*.*.*.*.*.*.*.*.*.*.*.@.&.*.&.&.&.&.&.+.+.&.&.+.+.+.+.+.",
"#.#.#.#.#.#.#.&.&.&.&.&.&.&.=.=.#.#.=.#.*.*.*.=.*.*.B.=.B.B.B.B.T.T.T.T.Z.T.Z.U.U.U.A.U.U.Y.U.Y.Y.Y.Y.Y.Y.Y..X.X.X.X.X.XXXR.+XXXXXXXXX+X+X+XOXOXOXqXqXqXqX#XOXwXwXqXqXqXqXyXyXuXmXuXuXmXmXNXMXNXNXNXNXNXNXNXBXBXNXBXBXBXBXBXBXBXBXBXBXBXBXBXBXBXAXAXAXAXAXAXAXAXAXAXAXAXBXBXBXBXSXBXBXBXBXBXBXBXBXBXBXBXBXNXNXNXNXNXNXNXNXNXNXMXmXmXmXmXuXmXqXqXqXqXmX+XR.@X@X+X+X+X+XR..X+X+X.XXX.XXX.X.X.X.X.X.X.X.X.X.X.X.X.XY.Y.Y.Y..XU.U..XY.U.U.Y.U.U.U.U.U.U.U.T.T.T.T.T.T.*.*.T.*.T.*.*.*.*.*.*.*.@.*.@.*.&.&.&.&.&.&.&.&.&.+.+.&.+.+.+.",
"O.#.#.#.#.&.&.%.&.=.=.=.=.=.*.=.B.=.B.*.*.*.B.*.B.B.B.B.B.B.T.T.T.T.T.T.U.U.U.U.Y.U.U.Y.U.Y.Y.Y.Y.Y.Y.Y.Y.Y.R.R..X+X.X+X+X+X+X+X+X@X+X+X@XOX@XOXOXOX#XwXqXyXyXqXqXqXqXyXyXuXuXmXuXmXdXMXmXMXNXNXNXNXNXNXNXNXBXVXNXBXBXBXAXAXAXAXBXSXBXBXVXSXSXBXAXSXAXSXSXSXSXSXSXSXAXKXSXSXSXBXBXBXSXBXBXBXBXBXBXBXBXNXBXNXNXNXNXNXMXMXMXmXmXmXqXmXqXmXqXqXqXqX#X@X@X@X@X+X+X+X+X+X+X+X+X+XXXXX+X+X.X+X+X.XXX.X.X.X.X.X.X.X.X.X.X.XY..XY..X.XU.U.Y.Y.U..XU.U.U.U.U.U.U.U.T.T.T.T.T.*.T.*.T.*.*.*.*.*.*.*.*.*.*.&.*.&.*.&.&.&.+.&.&.&.&.&.+.&.+.",
"+.#.#.#.#.&.%.=.=.V.=.%.*.=.V.=.B.B.B.=.T.V.V.B.B.B.B.C.Z.B.Z.Z.*.U.U.U.U.U.U.U.U.Y.Y.Y.Y.Y.Y.Y.Y.Y.Y.R.+XY.R.+XR.#XR.#X+XR.qX#XOXOX#X#XOXOXOXwX#XqXwXqXyXqX9XyXyXyXuXuXuXmXmXuXmXNXmXNXNXMXNXNXNXNXNXVXBXBXBXBXBXSXBXBXAXAXAXSXSXSXSXSXKXSXKXSXKXSXKXSXSXSXSXSXSXSXSXSXSXBXSXSXSXBXSXSXBXBXBXBXBXBXVXBXVXNXNXNXNXNXNXmXmXmXmX!.qXmX@XqXqXqX#XqX#X#X@X+X@X+X+X+X+X+X+X+X+X+X+XXX.X+X.X+XXX.X+X.X.X.X+X.X.X.X.X.X.XY..X.X.XU..XU.Y.U.Y.U.U.Y.U.U.U.Y.U.U.U.U.U.U.T.T.T.T.T.T.*.T.*.*.*.*.*.*.*.*.*.*.&.&.*.&.&.*.&.&.&.&.+.&.+.&.",
"#.#.#.%.%.&.&.=.=.=.=.=.V.=.V.V.V.V.V.V.B.T.C.B.Z.B.C.U.U.Z.U.Z.*.Y.U.Y.Y.Y.Y.Y.A.Y.Y.Y.Y.Y.Y.R.R.R.R.R.R.+X@XR.@XR.qXR.@X#X!.#XOXOXqXwXqXqXqXqXqXqXqXqXyXyXyXtXuXuXuXuXsXmXdXmXdXMXNXNXNXNXNXVXNXNXBXBXBXBXSXBXBXBXBXBXSXSXKXSXSXKXKXKXSXKXKXKXKXSXKXSXSXSXSXSXAXAXBXBXBXBXSXSXBXSXBXBXSXBXBXVXVXBXVXNXNXNXNXNXmXNXmXmXmXmXmXmXmXqXqX#X#XqX#X@X#X@X#X@X@X@X+X+X+X+X+X+X+X+X+X.XXX+X+XXX.X+XXX.X+X.X.X.X.X.X.X.X.X.X.X.XY..X.X.XY.Y.Y.Y.Y.U.Y.Y.U.U.U.U.U.U.U.U.T.T.T.T.T.T.T.T.*.*.*.*.*.*.*.*.*.&.&.*.&.*.&.&.*.&.&.&.&.&.&.+.",
"#.#.#.#.&.&.=.=.%.=.=.V.V.V.V.V.V.T.V.T.C.C.C.U.A.U.Y.A.A.Y.Y.A..XY.Y.R.P.R.R.R.Y.R.R.R.R.R.R.R.R.R.+XR.!.@XR.@X#XR.@X#X@X+XmX@XwXqXqXqXwXqXqXqXqXuXtXuXuXuXuXuXuXsXsXmXmXMXdXNXNXNXNXNXNXNXNXBXBXVXBXBXBXBXBXSXSXSXSXKXSXSXKXSXKXSXSXKXSXKXSXSXSXSXSXSXSXSXSXAXAXBXBXBXBXBXVXVXVXBXVXVXVXVXNXNXNXNXNXNXNXmXNXmXhXmXmXmX!.mXmXqXqXqXqX#X#X@X@XwX#X@X#X@X#X@X@X@X+X@X+X+X+X+X+X+X+X+XXX+X+XXXXX+X+X.X+X.X.X+X.X.X.X.X.X.X.XU..XY.Y.Y.Y.Y.Y.Y.Y.U.Y.U.U.U.U.U.U.U.T.U.U.T.T.T.T.T.*.T.*.*.*.*.*.*.*.*.*.*.*.&.&.&.&.&.*.+.&.&.&.&.",
"#.#.%.c.%.=.c.%.V.V.*.V.V.B.V.Z.C.T.A.C.A.Y.A.Y.A.Y.A.Y.A.Y.P.A..X.XXXXXR.R.XXXXR.oXR.+XR.@X@XoX#X#XR.#XqXR.qX#X!.mX@XmX!.mX!.qXqXqXwXqX9XqXtXuXuXuXuXuXuXuXNXuXNXMXMXNXNXNXNXNXNXNXNXNXVXNXBXVXBXSXBXBXBXBXSXBXSXSXSXSXSXKXSXSXSXSXSXDXSXSXSXSXSXSXBXSXFXFXFXFXBXBXBXBXBXBXBXBXBXVXBXBXVXBXVXBXNXNXNXNXNXNXmXNXmXeXmXmXmXmXqXqXqXqXqX#XqXqX@XqX#X#X#XOX@XOX@X@X+X+X+X+X+X+X+X+X+X+X+XXX+X+X+XXX+X+X.X+X.X+X.X.X.X.X.X.X.X.X.X.X.XY.Y.Y.Y.U.U.Y.U.Y.U.Y.U.U.U.U.U.U.U.U.T.T.T.T.T.T.T.T.*.*.*.*.*.*.*.&.&.*.*.*.&.*.&.&.&.&.*.&.",
"c.=.c.=.V.=.c.V.V.V.B.V.V.Z.V.Z.A.A.A.A.R.R.R.A.P.R.A.}.}..X}.XX}.}.XXoXoXoXoXOXoXoXOXoXoXOXOXoX!.!.#X#XOXOXOXwXOXqXqX8XqXqXqX9XyX9XuXyXtXuXuXuXuXuXsXfXfXMXuXfXNXfXNXNXNXNXBXVXBXVXVXFXFXAXAXAXSXBXSXSXBXSXSXSXSXSXSXSXSXDXSXSXSXSXSXSXSXSXSXSXSXSXSXSXSXSXSXFXSXSXSXFXSXBXBXBXVXVXNXBXVXVXNXVXNXMXNXmXmXmXmXuXuXuX9XmX9XmXqX9XyXqXqXqXqXqX#XOX#XOX#X@X@X@X@X@X@X@X@X@X+X+X+X+X+X+X+X+X+X+X+X+X+X+X+X+X.X.X.X.X.X.X.X.X.X.X.XY..XY.Y.Y.Y.Y.Y.Y.U.Y.U.U.Y.U.U.U.U.U.U.Z.U.U.U.B.B.B.B.B.B.*.*.=.*.*.*.*.B.=.=.=.V.=.V.=.=.V.=.V.",
"=.O.#.c.O.V.c.*.V.V.V.V.C.Z.A.C.A.Y.Y.A.R.A.R.R.P.XXXX}.}.}.oXoXoXoXoXoXoXoXoXoXoXOXoXoXOXOXOXOXmX@X!.qXwXqXwXwXqXwXqX9X9X9XuXuXuXuXuXsXsXsXfXuXfXMXfXMXsXNXNXNXNXNXNXVXNXVXVXVXFXAXAXFXSXAXAXSXSXSXSXSXSXSXSXSXSXSXKXSXKXSXSXSXSXSXSXSXSXSXSXSXSXSXSXDXSXSXSXSXSXSXVXVXVXVXVXNXNXNXNXdXsXMXuXuXuX9X9X9XmX!.qXyX9XuXyXqXmX9X9XmXqXuX9XqX#XwXqXOXOX#XOXOXOX@X#X@XoX@X@X@X@X@X@X+X+X+X+X+X+X+X+X+X+X.X+X+X+X+X.X+XXXXXXX.X+X.X.XY..X.XY.Y..XY.Y.Y.Y.Y.Y.Y.Z.Y.Y.Y.U.Y.U.B.U.Z.U.Z.Z.T.Z.Z.Z.B.Z.V.*.*.T.*.B.V.Z.V.Z.V.V.V.V.Z.Z.V.",
"c.#.c.=.V.V.V.V.V.A.C.C.A.Y.A.A.A.Y.P.R.P.R.P.R.}.}.}.oXoXoXoX}.oXXXoXoXoXoXOXoXOX8XOX8XwXOXwXwX!.qXmXmX9X9X9X9X9XtXrXrXrXsXuXsXuXsXuXfXsXfXMXsXfXNXNXfXfXfXfXNXNXVXVXBXBXFXFXFXFXSXSXSXSXSXSXSXSXSXSXKXDXKXSXKXSXKXKXSXSXKXSXKXDXKXSXKXKXSXSXDXSXSXSXAXAXFXVXNXfXNXMXMXdXuXuXuXtXtXyX9XqXyX9XqX8XqX9XqX#XmXmX!.qX9XmXmXmXmXyX9XqXqXqXqXqXqXOX#XqXOXOX#XOXOXOXOX@X@X@X@X@X@X@XOX@X@X+X@X+X+X+X+X+X+X+X+X+X+X+X+XXX.XXXR.Y..X.X+X.XY.Y..XY.Y.Y..X.XY.A..XY.Y.Y.Z.Y.A.A.Y.Y.Y.Z.Y.Y.A.A.Y.A.Y.Z..X.X.XU..XA.Y.Y.A.P.A.Y.A.A.A.P.A.",
"V.V.V.V.V.V.V.V.V.C.C.C.C.C.C.A.A.A.A.A.R.R.R.L.}.oX|.oXoX|.}.oXoX|. XoXOXoX XOXoX8X8X8X8X8XqX9XmX9X9X8XtXtXuXrXuXuXsXuXsXsXuXsXsXsXNXfXNXfXfXNXNXNXfXFXFXFXFXCXVXVXFXFXCXSXSXSXSXDXSXSXSXDXDXSXDXKXDXKXKXKXKXDXKXDXSXDXSXDXSXSXSXBXSXVXVXNXNXNXMXfXuXuXuXuXuXtX9X0X9X9XyX9X9XqXqXqX9X8X9XqXqXqXqX8XqXqXmX!.mXmXqX8X!.mX!.!.qXqXqXwXqXwXqXOX#XqXOX#XOXOXOXOX@XOX@XwXOXOX@XOX@X@X@X@XOXOX@X@X@XOX+X+X+X+X+X+X+X.X+XXXXXXX+XXX+XY..X+X+XY.+X.X+X.XXXXXXXXXXXXXXXXXXXXXXXXXXXR.}.XXR.R.}.XX}.XX}.}.%X.X.X%X}.P.}.P.R.A.P.P.P.A.P.A.",
"V.V.V.V.V.c.V.V.c.V.V.V.V.V.V.C.C.C.A.A.A.P.R.P.}.}.|.oXoXoXwX|.oXoXoXOXOXOX8X8X8X8X8XtX9X9X9X9X9X9X9X9XuXtXuXuXrXuXuXuXsXdXdXdXfXMXfXfXNXfXFXfXFXcXFXFXFXCXSXSXSXSXSXSXSXSXSXSXSXDXSXSXSXSXSXSXSXSXSXSXVXBXBXVXFXNXNXfXfXNXNXfXdXmXmXsXsXuXrXuXtXtXtXtXtXtXqX9X9X9X9XqXqX9XqX9X9XqXqX9X9XqXwX9X9XqXqX9XqXqX!.mXqX9XqX8XmXqX!.mXwXqXqXwXwXqXqX#XOX#XwXOXOXOX@XOXOXOXOXOXOXOXOXOXOXOX#XOXOXOXOXOXOXOXOX@X+X+X+X+X+X+X+X+XoXXXXX$X+XR.@XR.+X@X@XOXoXOXOXoXoXoXoXoXoXoXoXoXoXoX|.|.oXXX|.oXoX}.oX}.A.}.}.}.}.}.}.}.}.}.}.}.R.I.I.XX",
"O.O.O.O.O.=.=.O.=.=.c.=.V.c.c.V.V.V.C.Z.C.A.A.A.A.P.}.}.|.|.oXOX8X=X|.8X X8X8X8X8X8X0X8XwX9X9X9XeXuXrXrXrXuXrXrXsXsXfXsXdXmXdXNXfXVXFXfXVXVXcXFXFXNXCXFXFXFXFXFXFXCXCXSXSXAXCXSXFXFXSXVXFXFXCXFXVXVXNXfXVXdXNXdXuXsXrXuXuXrXuXrXsXsXrXuXuXuXtXuXuXuXuXtXyXtXtXtX9XyXuXtX9X9X9X9X9X9XqX9X9XqX9XqXqX9X9XqX8X9XqX9X8XqX8XqXqXqXR.mXqXqXwXqXqXqXwXOXqXwXqX8XqXwXqXwXqXqXqXwXqXqXqXqXqXOX#XOX#X$X#XOXOXOXOXOX@X#X#XyXwXqXwXOXOXOXOXOXwXOXwXOX#X#XwXoXoXOXoXwXOX8XOXoXoX8XoXoXOX|.OXwX8X8X8XoX=XOXoX8XwXoX8X X8XoX X8X8X=X8X8X8X0X8X8X",
"#.l.#.O.c.#.c.O.%.c.V.%.c.V.V.V.V.C.C.C.C.C.A.A.A.A.P.P.}.}.oX|.8X XwXwX8X0X0X8X8X8X8XtXtX9XtXtXuXrXrXuXrXsXsXsXrXsXsXfXdXdXdXdXfXfXNXfXfXfXfXVXfXfXfXNXfXNXfXNXVXVXVXVXVXVXVXVXNXVXVXVXVXVXfXNXfXfXfXNXMXdXdXsXsXsXsXsXsXsXsXrXrXuXrXrXrXsXrXrXrXrXrXuXtXtXtXuXuXtX9XtX9XtX9X9X9X9X9X9X9X9X9X9XeX9X9X9X9XmX8X9XqX9XqX8X9X9XyX9XqX9XyXtXqX9X9X9XqXqX9XqXqX9XqX9XqXqXqXqXqXqXwXqXqXwXqXqXyXwXqXqXOXqXqXqXqXqXyXyXqXwXqXwXwXwXwX#XwXOXOX8XoX8XOX8XoXOXwX XOX8XOX8X8X8X8X8X8X8X8X9X8X8X8X8X8XwX0X8X9X9X8XtX;X9X8X9X8X8X8X=X8X8X=XoX",
"c.#.c.V.O.c.c.V.%.V.c.c.c.V.V.V.V.C.C.C.A.A.K.K.K.P.K.P.L.}.oX|.|.8X8X8X8X8X8X8X8X9XtXtXtXtXtXrXtXtX9XrXrXrXrXsXsXsXsXsXuXsXsXsXsXsXsXsXsXuXsXsXsXsXuXfXfXsXsXfXdXMXdXdXdXdXdXNXfXfXgXVXfXNXfXfXfXdXdXdXdXdXsXsXsXsXsXsXsXuXrXrXsXrXsXrXuXrXrXsXrXrXrXrXrXrXrXrX0XtXtXtXuXtXtXtXuXrXrX0XtXuXtXuXmX9XqX9X9X9X9XqX9X9X9X9XqXqX9X9X9X9X9X9X9XtXtXyX9X9X9XyXqXqXqX9X9X9X9XqX9XqXtXtXrXuXuXrXtXtXtXtXqXeXqXeXyXqXyX#X9XwXwX8XqXwXwXwXwXwX8X8X8XoX8X8XwX8X8X8X8X8X9XwX8X8X8X0X9X0X9X0X0X9X0X0XtXtXtXtXtX9XtX8XwX8X8X XoX|.oX|.}.P.P.P.",
"c.c.c.c.c.C.C.b.V.C.m.C.C.N.A.N.A.A.K.K.K.K.L.P.}.L.}. X X|.|.|.8X8X8X:XwXtXtXtXrXrXrXrXsXrXiXrXuXtXtXrXrXrXrXrXrXrXrXsXrXrXrXsXrXsXrXrXsXsXsXsXsXuXsXsXdXfXfXfXdXsXsXdXdXfXfXfXgXfXVXfXfXfXdXdXsXdXsXsXsXsXrXsXsXsXsXsXsXsXsXsXsXsXsXsXsXsXdXfXhXfXsXsXdXdXdXfXdXdXsXsXsXsXrXrXiXuXrXrXrXrXuXrXrXuXuXtXuXtXtXtXeXmXtXtX9XqX9X9XtXtXtXtXtX9XrXtXtXrXrXuXrXuXrXrXsXsXrXrXuXsXuXiXrXrXuXtXtXuXrXtXeXeXyXeX9XqXtX9XtX9X9X9XtX9X9X9X8X9X9X8XtX9X9XtX9XtX9X9XtXtXtXtX9XrXtXrXtXtXrXtXtXtXtXtX9X8XwXwX8XoXoXXXoXI.R.R.}.A.P.A.A.A.A.C.",
"A.N.A.K.K.K.K.K.L.L.L.L.L.|.L.|.I.I.R.I.}.}.|.|. X|.|.8X8X:X9X9X8X0XtX0XtXrXrXrXrXrXrXrXrXrXtXtXrXrXrXrXrXrXsXrXuXrXrXsXsXsXsXsXsXsXsXsXuXsXsXsXsXsXfXfXNXfXfXfXfXdXfXfXfXNXfXfXfXfXsXsXrXuXsXrXuXsXrXrXrXsXsXsXsXsXsXsXfXfXdXfXdXdXdXdXfXhXfXgXgXgXgXgXgXgXfXgXNXgXgXgXfXfXfXfXfXdXsXsXsXsXsXrXsXrXiXiXrXiXuXiXuXeXrXsXrXsX0XsXuXiXuXsXsXuXrXuXsXsXsXsXfXsXfXsXsXsXsXsXsXsXuXrXrXtXrXrXrXrXrXrXeXyXeXyXtXtXtXtXtXrXrXtXrXrXtXrXtXrXrXrXrXrXrXrXrXrXrXrXsXrXrXrXrXrXrXrXtXtXtX9X9X8X8XoXoX|.oX}.P.P.P.P.A.Y.A.A.A.A.Z.C.Z.C.V.V.",
"K.K.K.L.L.P.L.L.I.R.I.I.|.oX|.|.|.=X8X=X8X=X8X8X:X8X0X0XtXtXtXtXtXtXrXrXiXrXrXiXiXrXrXtXtXtX0XtXtXtXrXrXrXsXrXsXsXsXrXrXrXsXrXrXrXsXrXrXsXsXrXiXsXsXsXsXsXsXsXsXdXdXdXdXsXsXuXsXrX9X9XrX9XrXrXrXrXrXrXrXrXsXsXsXsXsXsXdXdXfXfXfXgXgXgXgXgXgXfXgXgXgXgXgXgXgXgXfXfXfXfXdXhXfXgXfXgXfXfXgXgXgXgXfXfXfXfXfXfXfXgXfXNXhXVXhXfXgXgXfXfXfXfXfXfXdXfXfXsXsXsXsXuXsXsXsXsXsXsXrXsXsXsXsXiXsXsXrXsXrXrXrXeXeXeXyXrXiXrXsXiXrXrXsXiXrXsXrXiXdXdXsXsXsXsXsXsXsXsXsXrXrXrXrX9X0X8X8XoXOXoX}.}.}.XXR.}.}.A..XA.A.Y.A.A.A.Z.A.Z.Z.V.V.V.Z.V.V.",
"m.A.G.K.P.L.P.L.I.I.L.oX|.|.=XoX8X8X=X8X;X8X:X0X9X9X0X9X8X0X8X9X0X0XtXtXtXtXtXtXtXrXrXrXtXrXtXrXrXrXrXrXrXsXsXrXsXrXrXrXrXtXtXtX9X9XrX9XtXtXtXtXrXrXrXtXtXtXtXtX9X9XtX9X0X9X9X9X9X9X0X9X9X0X9XeXrXrXrXsXrXrXiXiXiXsXiXdXiXsXhXhXhXfXfXhXgXfXgXhXgXfXfXfXfXhXfXhXhXhXfXhXfXfXhXhXhXfXgXgXgXgXCXgXgXCXVXcXVXcXgXCXVXhXVXgXVXgXgXgXgXfXgXhXfXfXdXpXfXsXpXdXsXiXsXiXiXsXiXsXiXiXdXsXfXsXsXiXsXsXsXsXMXmXhXhXhXdXdXhXfXhXdXfXfXfXgXaXfXdXdXdXsXsXsXiXrXtXtXtX9XwX8XoXoXoX}.oX}.}.}.}.XXA.P.P.A..XA.A.A.Y.A.U.A.C.C.Z.C.Z.C.Z.V.V.B.V.",
"m.C.m.m.N.K.K.L.P.P.I.|.oX|.|.=X|.=X=XoX=XoX=XoX|.|.oX|.oX|.}.|.|.|.oXoX X|.oXoX8X8X8X8X8X9XtXtXtXrXrXrXrXsXsXrXsXsXiXsXsXsXsXsXsXsXdXdXsXsXsXiXrXtX0X9X0X8X8XwX8X0X0X0X9X0X0X9X0XeX9X0XrXrXsX0XiXiXhXdXdXhXfXfXgXfXfXgXgXgXgXgXgXgXgXfXgXgXgXgXgXfXgXgXgXgXgXgXgXgXgXVXgXcXgXcXVXgXCXcXgXgXCXVXCXCXgXCXCXCXgXVXcXgXgXgXgXgXgXhXgXfXgXgXgXhXgXfXfXfXpXfXpXhXfXgXfXgXhXfXfXfXdXfXfXgXfXgXfXgXfXfXNXNXhXhXgXgXgXgXgXgXgXgXfXsXsXsXdXsXiXuXrX9X9X8X8X8X8X8XoX X8X|.oXoXoXoX|.oX}.XXXXP.P.Y.R.A.P.Y.P.A.A.A.A.A.C.A.C.U.Z.C.A.V.V.V.",
"c.C.C.C.C.A.A.G.K.P.K.P.K.P.P.P.P.P.K.P.P.P.K.P.P.P.K.P.P.P.P.}.XX}.P.}.}.}.}.|.}.}.}.|.|.oX XOXoXwXOXwXwXtX9X9XtXrXrXrXsXfXfXaXfXgXgXxXgXCXgXgXcXgXgXfXgXfXdXpXsXsXrXsXrXsXiXsXsXsXhXfXhXfXhXfXfXgXVXgXCXcXCXCXCXCXCXCXCXCXCXCXCXCXCXCXCXgXCXVXgXcXgXVXgXgXVXcXVXgXCXCXcXCXCXCXCXCXCXCXCXCXCXcXCXCXCXgXgXgXgXcXgXgXgXgXgXgXgXgXgXhXhXgXgXgXgXfXcXfXgXgXgXgXgXgXgXgXgXgXcXgXcXgXgXgXgXgXgXgXgXxXhXNXVXNXhXhXdXdXfXrXrXrXrXrXtXtX9X8X8X8X8X8X8X8XwXwXOXwXwXOXoXoXoXoX|.}.oX}.}.}.R.R.R.P.A.P.Y.R.Y.A.A.Y.U.A.A.Z.A.C.C.C.V.C.C.Z.",
"C.V.C.C.V.C.C.C.C.C.C.C.C.A.C.A.C.A.A.A.A.A.A.A.A.K.P.P.P.P.}.}.P.}.}.P.}.}.}.}.}.}.}.oXXX|.oX}.oX X X XOX|. X8X8X=XwX8X8X8XtXtXrXrXsXrXdXdXgXgXgXcXcXCXCXCXCXCXCXCXCXCXCXCXCXCXCXCXCXCXCXcXCXCXCXCXCXCXCXCXZXCXZXCXCXZXDXCXCXCXCXCXCXCXCXCXCXCXCXCXZXCXZXCXCXSXCXZXCXCXCXCXCXCXCXCXCXCXCXCXCXCXcXCXcXCXcXCXCXVXcXcXVXCXcXVXcXcXCXCXgXCXcXcXCXCXcXCXcXCXVXCXCXCXcXCXCXCXCXcXcXgXcXgXgXgXgXfXfXfXeXmXeXeXuX0XtX9X9X8X8X8XwX8X8X8X8X8XoX8XoXoXoXoX}.oXoXoX}.oX}.XX}.}.}..X}.}.}..XR.P.R.R.R.A.A.A.A.Y.A.A.A.Z.A.C.C.C.C.Z.C.V.V.V.",
"z.c.l.V.C.c.C.c.C.C.C.C.C.C.C.C.C.A.A.C.A.N.K.K.P.P.K.P.P.P.K.L.P.P.P.P.}.}.}.XXXX|.}.}.}.oX}.oX|.oXoXoX XoXoX XOXOXwXwX:X8X8X8X:X8X8X:X0X0X9X0XsXiXsXsXhXgXgXcXCXCXCXCXDXCXZXZXDXCXZXZXDXDXZXDXDXZXDXCXCXCXCXCXCXCXCXCXCXCXCXCXCXCXZXCXZXDXDXCXDXDXDXDXDXDXDXDXDXDXDXCXDXZXZXSXZXZXCXCXCXCXCXCXCXCXCXCXCXCXCXCXZXCXZXCXDXZXZXDXCXZXDXDXCXCXCXZXCXCXCXCXCXCXcXCXgXcXgXgXgXfXfXfXfXsXiXrXtXtXrXtXeXqXeX9X9X8X8X8XwXOX8X8XOX8XoXoXoXoXoXoXoXoXoXoX}.oX}.}.}.}.}.}.}.}.}.A.}.A.}.A.R.A.P.A.P.Y.R.A.A.A.A.A.A.A.A.Z.C.Z.V.C.Z.C.V.C.",
"c.V.C.V.V.C.m.S.C.C.C.C.C.A.C.C.A.N.C.A.A.A.K.A.K.K.K.K.K.P.P.P.P.}.}.}.}.}.}.}.oX}.|.oX|.}. XoXoX XoXoXoXwX X=XwXwXwX8X=X XwX8XwX:XwX9X0X0X0XrXrX0XrXiXrXiXiXiXsXfXfXfXgXcXgXgXcXcXFXCXCXCXZXZXZXCXZXDXDXCXCXZXZXCXCXCXCXCXCXVXCXCXCXCXCXCXDXSXCXDXDXSXSXDXDXSXDXDXDXDXDXDXDXDXCXCXCXCXCXZXCXCXZXCXDXDXCXDXDXDXDXDXDXDXDXDXCXZXZXCXCXCXcXCXgXcXgXfXfXfXgXhXdXsXsXrXrXrXrXrXtXtXtX9X9X9X9X8X9X8X8X9XwXwXwXwX8X8XwX XOXOX XOXOXoXOXoXoXoXoXoXoXoXoX}.oX|.XX}.|.XX}.}.P.P.XXP.R.A.XXA.P.A.A.Y.A.A.A.A.A.A.A.C.A.A.C.C.C.Z.C.V.V.C.",
"m.b.b.m.m.m.N.N.N.N.N.N.N.N.N.A.N.A.K.N.K.K.K.K.K.P.P.P.}.L.P.}.P.L.}.}.|.|.|.|.oX XoX X XOXoX=X=X8X8X=X XwX8X8XwX=XOX:XwX0X0X0X0X0X0X0XrX0X0XrX4XrX4XrX4XrXrXiXrXiXiXrX4XrXiXiXpXiXpXpXpXpXpXgXgXgXgXgXgXCXCXCXCXCXDXDXDXDXDXDXDXDXDXSXDXDXDXDXDXDXDXDXDXDXDXDXDXCXDXSXSXDXCXDXDXDXDXSXDXDXDXGXDXDXDXDXDXDXDXDXCXCXCXCXcXcXfXfXfXdXiXdXsXiXsXiXrXiXrXiXrXrXrXtXtX9XtX0X0X9X9XwX8X0XwXwX8X8X8X8X8X8X8X XwXwX XOXOX8X8XwXwXOX=XOXoXOX=XoXoX|.oXoX|.oX}.XX|.XXI.}.}.}.P.XXP.P.P.P.A.P.A.P.A.P.P.A.Y.A.A.A.A.A.Z.C.A.Z.C.V.V.C.V.V.",
"m.m.N.G.N.K.G.N.K.K.G.K.L.K.K.K.K.K.P.K.K.K.K.P.P.P.P.L.L.}.}.|.|.|.|.oX XoXoX=X$X=X8X X8X8X:X8X:XtX;XtX0X0X0X0X0XtX0X0X0XtX0X0X0X0X0X0X0X0X0X0XrX0X0X0XtXrXrXrX4XrXiXiXiXrXiX4XpXdXaXpXpXhXpXpXaXpXaXgXaXgXaXcXCXCXCXZXCXDXDXDXDXDXDXHXDXGXGXDXHXDXDXHXDXDXDXDXSXDXDXDXDXDXDXDXDXHXDXHXDXHXDXDXDXDXCXZXCXCXgXgXgXhXhXiXpXrXrXsX4XrXiXrX4XtX4XrXrX0XrX0X0X0X0XtX0X0XtX;X9X8X0X9X9XwX9X8X8X8X8X8X8X8X8X8XwXwXwX8X8X8X8X XwXOX XwX=XwXoXoXoXoXoXoXoXoX|.oXoX|.XX}.}.}.}.P.XXP.R.P.A.P.K.A.P.A.Y.A.A.A.A.A.C.A.A.C.C.C.C.Z.C.V.C.V.",
"m.m.N.G.G.G.G.H.H.L.L.L.L.P.H.L.L.L.L.L.L.L.L.I.I.|.|.|. X X X=X=X8X=X=X:X=X:X8X:X0X;X0X4X0X0X4X0X<XrX4X4XrX4X4X4X4X<XrX4X<X0X4X0X4X0XwX0X:X0X0X0X0XtX<X4XrX4XiXiX4X4XpXpXaXpXpXpXpXpXpXpXpXpXaXaXaXaXxXaXcXcXcXcXcXcXcXCXCXZXSXDXDXDXHXDXDXGXDXDXDXGXDXGXGXGXHXGXGXHXHXHXHXHXHXGXDXDXDXDXCXCXCXgXxXgXgXhXhXpXpXiXiXiXiXiXrX4X4XrXiXrXiXrXrXrXrXrXiXrXrXrXiXrXrXrXtXtX0X0X9X0X0X8X0X9X0X0XtX;X8X8X0X0X8X8X8XwXwX8X8X8X8X8X8X8XOXoXOXwX X8XoX|.oXoX|.oX|.}.oXI.oX}.}.}.R.P.R.P.P.P.P.P.P.P.P.P.P.P.A.P.P.P.K.A.C.C.A.C.C.Z.C.C.V.",
"m.m.m.m.G.G.G.G.L.H.L.L.I.I.I.I.|.|.I.|.I.|. X|.=X=X8X X8X=X=X=X8X X=X=X8X:X8X;X0X;X0XtX0XwX0X0X0X0X0X0X;X0X0X;X0X<X0X4X0X0X4X0X4X4XrX4X4XiX0X4X4X<XiX4XiX4XiX4XpXpXpXpXpXpXpXpXpXpX5XpXpXpXaXaXaXaXaXaXaXcXcXcXcXCXCXCXZXDXDXDXDXDXDXDXDXGXHXDXHXHXHXJXJXJXJXJXJXJXHXHXHXDXDXZXCXcXaXgXhXpXpXpXpXpXpXiXiXpXpXiX5XiXsXpXiXiXrXiXiXiXiXiXiXiX4XrXrXiXsXiXiXiXiXrXrXrX4XrXrXiXrXtXrX0XtX0X0X0XtX9X0X8X0XwXwX8X8X:X=X8X8X8X8XOX=XOX8X8X XoXoX|.oX|.|.oX}.|.oXI.oX|.}.}.}.}.}.}.P.P.P.}.P.P.P.P.P.L.K.P.A.K.P.A.A.A.A.A.A.C.C.C.C.V.",
"m.G.G.G.H.G.H.}.L.H.H.I.H.I.H.|.|.I. X&X=X X=X=X=X=X=X=X=X=X:X8X:X:X=X:X:X=X:X8X0XwX:X:X:X:X:X:X0X:X:X8X:X;X0X0X0X0X;XeX4X<X<X4X0X<X4X4X4X4X4XiX4X4X4X4XiX4X4X4X4X4X4X4XpX5X5XpX5XaXaXaXaXxXaXxXcXcXcXCXcXCXcXCXCXZXDXZXDXDXDXDXDXHXHXJXJXJXLXJXLXJXJXJXHXHXHXGXDXDXCXCXcXgXaXaXaXpXpXpXpXpXiXpXiXiXiXpXpXiXiXpXpXpXpXpXpXpXpXiXiX4XiX4XrX4XrXiXiX4XrX4XiX0XeXeXtX4XtX0X;XtX;X9X0X0X0X0X9X0X;X8X:XwXwX:X=X8X8X8X8X8XwX=XwX=XOX=X XOXoX=X=XoX|.8XoX=X|.oX|.|.I.XX}.}.}.}.L.L.L.}.L.P.L.P.K.K.A.A.A.A.A.A.A.C.A.C.C.C.C.C.C.C.C.C.",
"n.G.G.G.G.H.H.H.H.H.L.H.I.I. XJ. X XI.&X=X&X=X=X|.=X=X=X=X=X=X=X X=X=X8X=X8X:X=X:X:X:X8X:X8X:X0X:X:X8X:X0X:X0X:X;X;X0X;X;X;X0X:X;X4X<X<X0X4X4X4X4X4X4X4X5XpXpXpXaX6XpXaXaXaXxXxXcXcXxXcXcXcXcXcXCXvXCXvXZXZXZXDXDXDXDXHXHXJXHXHXJXJXJXJXJXHXHXHXHXDXDXCXCXcXcXaXaXaXaXaX5XaXaX5X5XpX5XpXpXpXpXpX5XpX5XpX4XpXpXpXiXpXpXpXpXpXpXpXiX5XiXiX4XiXiXiX4XrXrXrXrXtXrX;XrX0X0XtX0X0X;X9X;X8X:X8X8X8X:X8X:X8X8X8XwX8X8X8XwXwX8X XwXOXwX X8X|.oX8XOX|.|.|.|.|.|.oXoXXX|.|.|.L.L.P.}.P.P.P.P.L.P.K.K.P.K.A.N.A.N.N.N.A.C.K.N.N.N.N.N.C.N.N.",
"n.n.n.G.N.N.N.G.H.H.H.H.H.I.H. XI.I.I.I.I.I.I.I. XI.|. XI.I. XI. X=X=X=X=X=X=X=X=X=X=X=X:X=X=X=X=X:X:X:X:X:X:X:X;X;X;X;X<XjX<X4X;X4X4X4X4X4X4X5XaXaXaXaXlXaX6XxXaXxXxXcXxXaXcXxXaXxXxXcXxXcXcXCXcXCXZXDXDXDXDXDXHXHXJXHXHXHXHXHXHXDXHXDXDXDXDXZXCXcXcXcXxXcXcXcXaXcXaXxXaXaXaXaXaXaXaXaX6XaX5XaXaXpXaXaXpXaXpXpX6XiXpX4X4XpX4XiX4XiXpXiXiX4XiX4XrX4X4XrX<X4X4XrXeXrX<X<XtX0XtX;X0X0X0X0X:X0X8X;XwX:X8X:X:X8X:X=X8X:X8X8X8X X8X8X=X8X|. X=X|.|.oX|.|.XXI.I.|.R.R.}.L.}.P.L.L.L.|.L.P.P.L.L.P.L.P.L.P.K.P.K.L.K.K.K.K.K.K.K.H.G.K.",
"t.v.v.b.b.M.n.m.m.D.N.G.G.H.D.H.H.H.H.H.L.H.H.I.I.H.L.H. XH.I. X X X XI. X&X X=X=X=X=X:X:X:X:X:X:X:X;X;X;XjX<X<X4X4X4X4X4X4X5X5X5XpX6X6X6XaX6XaX6XaXaXaXaXaXaXxXaXaXaXxXaXaXaXxXxXxXxXcXcXvXCXZXZXZXDXZXDXDXDXDXDXDXDXDXDXDXDXZXDXZXDXDXDXDXDXDXZXDXDXDXZXZXZXZXZXZXvXCXvXcXcXcXxXcXxXxXxXaXxXaXaXaXaXxXaXaXaXaXaXaXpX6X5XpXpXpXpX4XpX4X4XiXiX4X4X4XiX<XrXrX4XrXrX4XrX0X4XtX4XrX<X0X<X0XeX0XtX<X0X;X0X0X0X0X0X:X:X8X=X=XOX=X XwX|.8XoX|.|.|. X|. X}.|.|.|.}.I.I.|.|.I.|.I.I.I.I.I.I.|.I.|.I.|.L.I.I.I.L.|.L.L.L.L.L.K.L.H.K.G.G.",
"x.e.x.v.v.M.n.n.m.D.y.H.G.G.H.H.H.H.H.H.H.I.H.H.H.H.H.I.H.I.H. XI.I.I.I. X X&X=X=X-X:X:X:X:X:X<X<X<X4X4X4X4X4X7X4X5X5X5X5X6X6X5X5X6X5XpX6XpX6X6X6XaX6X6XaX6X6X6XaXaX6X6X6XaXaX6XaXaXxXaXgXxXxXaXcXaXxXaXaXxXaXcXxXcXcXcXvXZXZXDXDXDXGXDXDXGXGXGXHXGXGXHXGXHXGXGXDXDXDXDXZXZXZXCXvXcXcXcXxXxXaXxXaXaXaXaX6XaXaXaXaXaXpXaXaXpX6XaX6XaXpXaXaXpX5XpX5XiXpX4X5X4X4X4X4X4X4X4X4X4XrX4X4X0X4XrX<XjX4XtX0X4XrX<X:X<X0X0X0X9X0X:X8X:X=X=X=X X=X X8X Xm.L.|.P x.|.oX X|.|.|.|.|. X X|.|.|.oXI.|.|.I.I.I.I.L.I.L.L.H.G.L.G.K.G.G.G.G.n.n.G.",
"6.6.x.v.v.v.n.y.n.m.D.G.y.H.i.%XH.H.J.H.I.H.I.J.J.I.H.I.I.I.I.J.I.&X&X&X&X:X=X:X:X:X:X;X:X,X<X7X4X<X7X4X5X4X5X5X5X5X7X5X7X5X4X4X4X<X<X4X<X4X4X<X4X4X7X4X4X4X4X4X5X4X4X4X5X4X4X5X5X5X5XpX5X5X5X5X6X6XaXaXxXaXxXxXxXxXcXcXcXvXCXZXZXDXDXDXDXHXGXGXGXHXGXGXGXGXGXGXDXDXZXZXZXZXZXvXcXvXcXcXxXxXxXaXaX6X6XaXaXaX5XpXpXpXpX4XpXpXpX5XpXpXpXpX5XpX5XaXpX6XpXpXpXpXpXpXpXpXpXiX4X4X4X4X4X4X4X<X4X4X;X<X4X0X;X0X;X;X:X:X;X;X:X:X:X:X8X8X8X=X=X=X=XK.F } x.7 F A.6. X X X|.=X|.|.=X|. X|.I.=X|.I.I.I.L.I.L.L.L.H.L.L.L.H.H.H.H.G.G.H.G.G.",
"6.6.6.6.6.t.t.t.y.n.y.y.D.G.N.i.D.H.H.F.H.J.I.J.J. X&X&X&X-X=X-X-X:X-X:X*X:X:X:X:X*X:X:X:X:X:X:X,X:X;X<X<X<X<X7X<X<X<X<X<X<X:X:X,X:X:X,X;X;X:X<X;X;X<X;X<X<X<X<X;X;X<X<X<X7XjX4X4X<X5X4X5X5X6X6XaXaXaXxXxXcXvXCXZXvXZXZXZXDXDXZXDXDXDXDXDXDXGXGXHXGXGXDXDXDXZXZXZXvXvXcXxXxXxXxXxXaXaX6XaXaX6XaXaX6XaXaX6XpXaX6XaX5XaX5XpX6XaX6XpX6X5XaXpX5XpXpX5XiX5XpX5X5XpX5XiX5X5X5X4XpXpX4XpX4X4XeX4X4X4X4X<X<X4X;X<X;XjX0X;X8X;X:X:X=X=X:X=X=X=X=XL.F F ;..X9 | F ` =XI.I.I.I. XI.I. XI.I.|.I.I. X XI. XJ.I. X XJ. XI.I.|.I.I.J.I.I.H.J.I.",
"6.7.e.r.t.t.t.t.u.D.D.i.y.D.p.J.p.J.J.J.J. XW.&X=X&X-X:X:X:X:X*X:X:X:X:X:X:X:X*X*X:X:X*X:X:X:X:X:X:X:X:X:X:X:X:X:X:X:X:X:X=X:X:X:X*X:X:X:X<X,X:X;X<X:X<X;X<X;X;X4X;X<X<X4X<X4X<X4X4X4X5X4X5X5X5X5X5X6X6X6X6XxXxXcXcXvXvXZXZXZXDXDXHXGXGXHXGXGXGXGXGXGXGXGXZXZXvXvXbXcXxXxXxXaXaXaX6XaX6X6X6X6XaXaX6XaX6XaX6XaX6X6XaXaX6XaXaX6XaXaXaX6XaX5XaX6X5XpX5X5X5X5X5XpX4X4X4X5X5X4X5X5X5X4X4X4X4X4X4X4X<X4X<X<X<X4X;X;X;X;X;X;X:X-X-X-X;X:X=X=X} c.F P F S.F P 7 ^  X X&X&X!. X!.&X=X=X=X&X=X=X=X=X X=X X&X=X&X&X&X XI.J. XJ.I.I.J.J.H.H.",
"6.e.t.t.t.y.y.D.y.i.H.H.J.J. XJ. X X&X&X&X&X&X&X&X=X&X&X&X&X&X&X&X&X&X=X=X*X-X:X:X:X:X:X:X:X:X<X<X,X<X,X<X<X,X:X*X:X:X=X:X:X:X*X:X:X:X:X:X:X:X<X;X<X;X,X,X;X,X<X,X4X<X<X7X<X<X<X4X<X7X4X4X7X4X4X7X5X2X5X2X5X2X6X3X6X6X6X6XxXxXbXcXvXCXZXZXDXGXGXGXGXGXGXZXZXvXvXcXcXxXxXxXcXxXxXxXxXxXaXaXxXlXaX6XaX6XxXaXaX6XaX6X6X6X6X6X6X6X6X6X5X6X6XaX6X5XaX6X6X6X5X5X6X6X5X6X5X5X5X5X5X5X4X5X5X5X4X4X4X<X4X<X<X4X<X;X4X<X4X<X;X<X:X:X<X X3.|.=X0XG G F F F ;.G  .3 { J.:X X-X:X:X&X&X=X=X=X=X=X-X=X=X&X&X=X=XI. XI.I.I.I.J.H.H.G.N.G.G.m.G.",
"t.y.y.i.D.D.D.H.H.J.p. XJ.J.J.J.J.J.W.J.J.&XJ. X&XJ.J.&XJ. X X X X&X X&X&X&X&X&X&X-X:X:X>X,X:X:X,X<X,X<X7X7X7X7X7X7X7X7X<X,X,X:X,X:X:X:X,X<X:X:X:X<X,X:X;X<X<X<X;X4X<X,X<X7X<X7X<X7X7X7X7X7X5X5X5X2X5X2X5X2X5X3X6X2X6X3X6X6X6X6X6XxXxXxXvXcXZXZXGXZXZXZXZXZXZXvXvXvXvXcXbXxXcXbXbXxXxXxXxXxXxXxXxXlXxXxXlXxXaXlX6X6XlXaX6X6X6X6X6X6X6X6X3X6X5X6X6X6X6X6X6X3X6X6X5X6X6X6X6X5X5X6X5X5X6X4X5X7X5X7X5X5X5X5X5X4X4X4X4X4X4X,X<X;X0XP F T iXr.7 F H -.7 | ;.7 d | | d m.u.y.=X=X=X X=X&X XI.I.I.I.I.H.H.H.G.G.H.G.G.m.m.m.m.m.b.b.b.b.",
"D.D.H.i.H.p.H.F.p.J.H.p.J.H.J.J.J.J.J. XJ.J.J.J.J.J.&XJ.!.&X&X&XW.&X&X&X&X-X=X-X:X*X:X*X,X:X,X,X<X,X:X,X,X:X:X,X:X,X<X7X7X7X7X2X7X7X2X7X7X,X,X,X,X:X,X,X,X;X,X<X<X,X,X<X7X<X7X<X7X7X7X7X7X7X7X2X2X2X2X2X2X6X2X2X2X6X3X3X6X6X6XaXlXlXbXcXcXvXvXvXvXvXZXZXZXZXZXvXZXvXvXvXcXvXbXbXcXxXbXbXxXxXxXxXxXxXxXxXxXxXxXxXxXxXlXxXaXlXxXaX6X6X6X6X6X6X6X6X6X6X5X6X6X6X5X6X3X6X5X5X5X6X6X5X3X5X5X5X5X5X5X5X5X4X4X<X4X7X<X<X,X;X:X<XJ.u.} | ;.7 S.G 7 F P | ;.;.> > ` F = - > 7 P L.|.L.L.H.L.L.H.H.G.G.H.G.G.G.G.G.m.m.m.m.m.M.b.b.b.b.b.b.",
"i.D.D.H.H.p.H.H.H.p. Xa.H.J.J.J. XJ. X XJ.&XJ.&XJ.&XJ.&X&X&X&X&X&X&X&X&X-X&X-X-X*X:X*X:X:X:X*X:X:X:X,X:X:X:X*X*X:X:X:X*X:X:X,X,X,X7X,X7X,X7X7X7X7X7X2X7X2X2X2X7X5X7X4X2X2X7X2X7X7X7X2X7X5X7X2X7X2X2X2X2X3X6X2X3X3X6X3X6X6X6X6X6X6XxXxXxXxXvXvXvXZXZXZXDXGXGXZXGXDXDXDXZXGXGXZXZXZXZXZXvXvXvXvXvXvXcXbXcXbXbXxXxXxXxXlXaXlXlXlX6XlX6X6X6X3X6X6X6X3X5X5X5X5X3X5X7X5X4X5X7X4X4X7X4X7X7X<X7X<X,X,X<X:X:X:X:X:X:X-X-X=X-X=X&X=XP 7 G G 7 F P 7 ;.S. .7 F > F 7 7 P / H 7 [ }.I.I.I.I.H.H.H.%XH.H.H.G.G.G.G.m.G.m.m.n.m.m.b.b.b.b.b.c.",
"n.i.i.i.D.i.y.i.i.H.H.p.H.p.H.p.p.H.p.p.J.p.H. XJ.&Xg. X X&X&XJ.&X&X&X&X&X&X&X&X=X&X&X-X*X-X&X&X=X&X:X&X&X:X:X:X*X*X:X*X*X,X*X:X*X:X*X,X,X,X7X7X7X2X2X2X2X2X3X3X3X3X3X3X6X3X6X3X3X6X3X3X2X3X2X3X2X6X2X2X2X3X3X2X3X2X6X3X3X3X6XlXlXbXxXvXZXDXGXHXHXHXJXJXJXJXJXJXJXJXJXJXHXHXHXGXGXDXGXZXZXZXvXvXbXxXxXxXzX6X6XlXkX6X3X6X6X6X2X6X6X2X2X5X5X7X7X1X7X7X7X7X<X<X7X<XjX,X<X<X<X,X:X:X:X,X:X:X:X:X:X:X:X:X:X:X:X=X-X=X=X&X=X&X:Xu.F G F F ;.;.A.H }.G 7 7 3 5 # H I.|. XL.H.I.H.I.H.H.I.H.H.H.H.G.D.D.G.H.D.G.n.N.m.n.b.b.b.b.b.b.v.M.",
"t.y.t.y.y.y.y.y.y.G.y.H.i.y.y.H.i.H.p.H.H.p.H.p.J.J.H.J.J.W.&XJ.J.&X!.&X&X&X&X&X&X-X-X&X*X-X-X-X:X*X*X*X:X>X>X:X,X,X*X,X,X,X,X,X<X7X7X7X7X7X'.2X2X2X2X3X2X3X3X3X3X6X6XkX6XkX6XkX6X6XkX6XlX6X6XkXkX6XkX6X3X3X3X6X6XlX6XlXxXbXvXvXZXZXGXHXJXJXJXLXLXJXJXJXJXHXJXHXHXGXGXGXGXDXZXvXvXvXvXcXbXbXzXlXlXlX6X6X6X3X3X3X2X2X2X3X2X2X6X2X2X2X7X7X7X7X7X1X7X7X7X7X,X,X<X,X,X,X;X,X:X<X,X:X:X:X:X:X:X,X:X:X:X:X:X:X-X-X-X-X=X-X&X&X=X X| 7 ;.-.7 7 { ` G 7 ;.> 7 7 7 ` H.H.H.I.J.I.I.H.H.H.L.H.H.G.H.G.i.%XD.G.m.D.n.m.n.n.m.b.b.M.b.v.b.v.",
"7.7.e.t.y.y.y.i.y.y.y.y.y.G.i.y.i.H.D.i.i.H.p. Xp.p.H.J.J.J.J.J.J.!.&X*X&X&XQ.*X*X*X>X:X*X>X,X*X>X:X,X).,X,X,X,X,X7X7X7X7X7X7X2X2X2X'.2X2X2X2X2X2X3X2X].3X3X3X3X3X3X3X3X3X3X3X3XkX3X6XkX6XkX6XlXzXxXbXbXvXvXvXvXvXvXvXvXvXZXZXZXGXGXGXGXGXGXGXGXGXGXGXZXZXZXvXbXvXbXbXxXbXbXzXzXlXlXlXlXlXlXkX6X6X3XkX3X3X3X6X3X6X3X3X2X2X2X2X2X2X7X7X7X7X7X1X4X7X<X,X<X7X<X7X,X,X<X,X;X,X,X:X,X,X:X,X*X:X:X:X:X:X:X:X*X-X-X=X=X-X=X=X=X Xb. .7 ;. . .# | c.7 - ;.7 7 7 7 ] I.J.I.H.I.H. XH. XH.H.H.H.H.H.H.G.H.G.D.G.G.D.G.n.n.b.b.b.M.M.M.b.x.",
"] 3.3.3.r.9.t.y.y.y.y.y.y.y.p.D.D.D.p.H.D.H.F.F.H.J.J.J.J.W.J.&XW.W.&X&X&X*X*X&X*X*X*X,X;X>X*X,X,X*X*X,X>X,X,X,X,X,X,X,X,X,X,X).7X,X).,X1X7X7X7X2X2X2X2X2X2X2X2X2X'.2X2X2X2X3X3X3X3X3X3X3XlXkXlXlXlXxXbXbXvXbXvXvXbXbXbXbXbXvXvXbXvXvXvXZXZXGXGXGXHXJXHXGXGXGXZXZXZXvXvXbXbXbXbXzXlXlXlXlXlXlXkX3X3X3X3X3X3X3X2X3X2X3X2X2X2X2X2X7X1X7X7X7X7X<X7X7X,X7X,X7X<X,X,X,X,X,X<X,X,X:X,X:X,X:X:X,X:X,X:X:X>X:X:X:X:X-X-X=X&X-X-X=X} ;.7 ;.;.F P G G 7 ;.;.7 d ` K. XI.I.I. XI.H. XH.J.H.H.H.H.H.H.H.G.G.n.H.D.n.G.n.n.n.n.y.t.n.v.n.v.v.",
"1.3.1.3.3.3.7.7.8.t.9.t.y.H.y.y.D.i.D.F.F.F.J.J.p.J.J.W.W.&XQ.&X&X*X&X*X*X*X*X*X*X*X*X*X*X>X,X*X,X*X>X*X*X&X*X&X*X*X*X*X*X:X:X:X*X>X:X,X>X,X>X,X,X,X,X7X1X'.7X1X2X2X2X'.'.3X].2X3X3X3X3X3XkXkXlXlXlXlXlXlXzXzXzXbXbXvXvXvXZXZXZXGXGXHXHXJXJXJXLXLXLXLXLXLXJXJXJXHXHXGXZXZXbXxXzXzXlXkXkX6X3X3XkX3X3X3X3X2X3X3X2X2X2X2X2X2X2X2X2X2X2X7X1X7X1X1X7X7X7X,X7X7X,X7X,X<X,X<X,X,X,X,X,X,X,X,X,X:X,X:X>X,X:X>X:X:X*X:X-X-X-X-X&X-Xr.;.F G ;.;.-.F 7 7 F 7 G P P { J.J. XJ.J.I.I.H.J.H.J.H.J.H.H.H.i.i.H.G.D.G.D.G.y.D.n.n.n.y.n.t.t.t.t.",
"3.3.3.7.3.3.7.7.7.8.8.y.y.y.i.D.D.D.p.J.F.J.F.J.&XW.&X XW.&X&X&X&X&XW.*X&X&X&X&X&X&X*X*X*X*X*X*X&X*X*X*X*X*X*X*X&X&X&X*X*X&X*X*X*X*X*X:X*X,X>X,X>X,X,X,X1X,X2X'.2X'.].2X3X2X3X3X3X3X3X3XkX3XkXkXlXlXlXlXzXbXbXvXvXZXGXGXGXJXJXJXLXLXLXIXIXIXIXIXIXIXLXLXLXJXJXJXHXZXvXvXbXbXzXzXlXkXkXkXkX3X3X3X3X3XkX3X3X3X3X2X].2X3X2X2X2X2X2X2X2X2X2X2X2X2X7X2X7X7X7X7X,X7X7X7X7X7X,X,X7X,X<X,X,X,X,X,X,X:X:X:X:X:X:X*X*X<X:X-X*X-X-X:XJ.F G  .F F F ;.7 7 7 7 ;.> H G.I.J.J.J.J.J.J.H.J.J.J.J.H.H.H.H.H.i.%XG.n.D.G.D.D.y.y.y.y.y.t.y.t.t.t.",
"1.} 1.3.0.3.7.7.7.7.8.t.y.y.i.y.i.i.D.i.F.p.F.F.p.H.p.p.H.p.p.J.E.E.J.J.W.W.J.g.&X&XW.&X&X&XW.*X&X*X&X*X*X*X*X*X*X,X,X*X>X,X*X>X:X,X>X>X>X:X,X>X,X1X1X).2X'.'.2X'.2X'.'.'.'.].].].].3X].3XkX3XlXkXlXzXzXbXvXZXZXGXGXGXHXJXJXJXLXLXLXLXLXLXLXIXLXLXLXLXHXHXGXGXvXvXbXbXzXbXzXbXzXzXlXlXlXkXkXkXkX3XkX].3X3X3XkX].3X3X].2X3X].2X3X2X2X'.2X2X2X2X2X7X).2X7X'.,X7X7X,X,X,X,X,X,X,X>X,X:X*X,X*X:X,X:X*X>X:X>X:X~.J.&X*X-X&X:XJ.r.P G G 7 7 ;.;.7 P H ;.# ;.N.&XI.J.J. XJ.I.J. XJ.H.J.H.H.p.H.H.i.H.i.D.D.D.n.y.n.n.y.y.n.n.t.t.t.t.t.",
"W W W 3.1.3.2.2.0.7.8.7.8.9.8.8.z.9.q.q.z.i.y.i.i.i.i.D.D.i.D.D.F.D.F.F.F.J.F.W.J.W.J.W.W.W.&XW.Q.&X&X*XQ.*X*X*X*X>X*X>X>X,X>X,X1X>X1X1X1X>X,X,X1X1X1X).'.1X'.1X'.'.'.'.'.'.'.].'.3X].3X].3XkXkXkXzXzXzXzXzXbXzXbXbXvXvXGXGXGXGXGXGXHXJXHXJXJXJXJXHXHXGXGXGXGXGXGXZXZXZXGXvXvXvXbXzXzXzXlXlXkXkXkXkXkXkX3X3X3X3X].3X].2X2X'.2X2X'.2X2X).1X1X7X2X1X1X7X,X,X,X,X).).,X,X,X,X*X,X{.*X>X:X>X<X,X*X*X>X:X:X&Xr.G F %X<X Xe.:X&Xt.P F F F F  .F - | d 7 H } H.J.I.I.J.J.J.J.J.H.J.J.H.H.H.H.p.G.H.i.H.D.D.n.D.i.n.y.n.y.y.t.t.t.t.t.t.",
"W W 1.W 2.2.2.7.7.7.7.7.7.8.8.9.8.9.z.z.z.9.9.z.z.z.q.z.z.i.y.i.i.i.D.i.D.D.D.F.F.J.J.W.!.W.W.W.W.W.Q.W.*X*X&XQ.&X*X*X*X*X>X*X>X>X>X>X>X,X1X1X).1X'.).2X1X'.).'.'.'.'.'.'.].'.].].].].].3X].].kXkXkXkXkXzXkXzXzXzXbXbXbXvXvXvXvXGXGXHXJXLXLXLXIXIXIXIXLXLXLXJXJXJXHXGXGXvXbXbXbXzXzXzXkXkXkXkX].3X].].].].3X].].2X'.2X'.2X'.2X).2X1X1X2X1X1X1X,X,X,X1X,X,X,X,X,X,X,X).:X,X,X>XjX:X,X,X;Xp.H.;X:X:X*X*X&X| G G  .=X} G J.*X-X=X} F } P 7 7 , d d ] G.&XJ.J.J.J.H.J.H.J.H.J.H.H.p.F.H.i.H.D.i.H.y.D.D.y.y.n.y.y.y.b.t.t.t.t.t.e.8.",
"1.3.2.3.3.1.2.0.7.7.7.0.8.7.8.7.7.8.8.9.8.9.8.9.z.9.z.q.i.q.i.i.i.n.i.D.D.i.F.D.F.F.F.F.J.E.W.W.W.W.W.*XW.*X&X*X*X{.*X{.*X>X>X/.>X1X>X>X/.).1X1X).1X'.).'.).'.'.'.'.'.'.[.'.'.].[.].].].].].].].kXkXkXkXkXzXzXzXbXvXZXGXGXGXHXJXJXJXLXLXIXIXIXPXIXIXIXIXLXJXHXGXvXvXbXzXzXkXkXkXkX].].].].].[.[.[.'.'.'.'.'.'.'.'.'.).2X).2X1X1X2X).1X1X1X1X,X1X,X,X,X,X,X,X,X,X,X*X:X>X*X,X,X&X9.r.| u.| P | r.&X:X*X-X} G  . .~.P F D.*X&Xi.P F P P F 7 7 b. X=XJ.J.J.H.J.J.J.J.J.H.J. Xp.p.H.F.D.D.D.i.H.y.G.y.n.n.y.y.y.n.8.t.t.t.t.8.6.7.e.",
"3.1.0.7.0.7.9.2.9.0.9.9.9.9.9.9.9.z.9.9.9.z.9.z.9.z.q.z.q.z.z.i.y.i.i.y.i.D.i.p.i.D.F.F.F.F.F.J.W.W.W.W.W.Q.h.*X*X*X*X*X>X>X*X*X>X>X>X>X/.1X1X/.).1X1X).1X).).).).'.'.'.'.`.'.'.'.[.'.[.[.].].].].].].kXkXkXkXzXbXbXvXZXGXGXGXJXJXLXLXIXLXIXIXIXIXIXLXLXJXHXZXvXzXzXkXkXkX].].].].[.[.].[.`.[.`.'.[.'.'.'.'.).'.).2X).).1X1X).1X1X,X,X1X,X).,X1X).,X,X/.>X,X>X>X,X,X>X,X,X>X>X:X&X8.P G | F  . .| u.&X=X:Xr.G G G F F  .n.&XG.F G F G F F H.&XJ.J.J.J.D. Xy.M.| } t.J.J.i.H.p.H.D.D.F.D.H.y.i.i.y.i.i.n.y.t.t.y.t.y.t.t.8.t.6.7.",
"1.0.7.0.0.9.2.9.9.2.9.9.9.9.9.9.q.z.q.z.z.q.z.q.i.q.z.i.y.y.q.z.9.q.i.i.i.q.D.i.F.i.p.F.F.F.F.F.F.F.W.W.W.W.Q.&Xg.*Xg.h.*Xh.*X*XQ.>X>X>X/.>X>X>X>X1X(.1X).).).).).'.).).).`.^.'.`.`.[.`.[.[.[.[.].[.].].].kXkXkXzXzXzXzXbXGXGXHXJXLXLXLXIXIXIXPXIXIXLXLXHXGXZXvXzXzXkXkX].].].[.[.[.[.[.[.[.[.`.`.`.`.`.).'.'.).1X1X1X1X1X).1X1X,X/.,X1X>X,X,X>X:X/.,X>X,X>X>X,X>X,X>X>X:X>X*X>X*X,XJ.H G ;.P  . .UXUX| | u.| R ;.| | F 5.=XH.7 F 7 G F t.&XJ.J.W.&Xr.I -.7 d ; 7 ` } t.G.H.p.G.D.i.D.D.D.D.D.D.D.n.y.y.t.t.y.t.t.t.8.8.8.8.7.7.",
"1.1.0.2.0.2.9.2.0.9.0.9.7.9.9.9.9.9.z.q.q.9.q.q.z.q.z.q.q.q.i.i.D.D.i.p.D.F.F.F.p.F.F.F.F.F.W.W.W.W.W.W.W.Q.Q.Q.*XQ.*X*X{.*X>X>X>X>X>X>X>X>X).).(.1X>X).1X1X1X).1X).).).).'.).`.).`.`.`.`.`.`.[.[.[.[.].[.[.].kXkXkXzXzXzXbXvXZXHXJXLXIXIXPXPXPXPXPXIXLXLXJXGXvXzXzXkXkX].].].[.].[.[.[.[.[.[.[.`.`.`.`.'.^.).).'.).'.).).1X).>X/.1X/.,X,X/.>X,X*X).>X,X>X,X,X>X>X>X>X,X>X:X,X*X*X*Xm.F  .F r.}  .UX .u.G F } L.G G  .P n. .r.F F ;.G P &XJ.J.J.J.G.P ;.7 7 7 7 F 7 7 7 t.p.G.p.F.D.D.p.D.D.9.D.i.y.y.y.i.v.8.8.8.8.8.8.7.8.6.7.",
"2.1.3.1.2.0.2.9.9.0.0.9.9.9.9.9.9.9.z.9.z.q.q.z.i.q.i.i.i.D.p.F.F.F.F.F.E.E.E.E.W.W.W.W.W.W.W.W.Q.&XQ.Q.Q.*Xg.*XQ.*Xh.*X/.*Xh.{.>X>X>X>X>X(.>X>X(.>X1X/.).(.1X).).).).).).).).^.).`.^.`.`.`.`.^.`.`.[.[.`.[.[.[.[.[.].].kXzXzXvXGXJXLXIXPXPXPXPXPXPXPXPXIXLXJXGXGXvXbXzXzXzXkXkX].].].].[.[.[.[.[.[.`.`.'.`.'.'.).).'.).).).1X1X1X1X,X1X/./.,X/./.,X>X/.>X,X>X>X>X,X>X*X>X>X*X>X>XQ.} ;.G  .T &X . .W.-X| | G |  .F G | G F G F r.F 7 e.n.H ] 3.J.P F 7 ;.F 7 / 2 3 d ` i.D.i.p.D.D.D.D.i.D.D.q.i.y.y.y.8.9.9.8.8.8.8.9.7.0.7.7.",
"1.0.2.0.2.9.0.0.9.9.9.9.9.9.9.q.q.q.q.q.q.i.i.i.i.i.i.F.p.p.p.p.p.F.E.E.F.E.E.E.E.E.W.W.W.Q.Q.W.W.Q.W.Q.Q.W.W.Q.Q.h.*XQ.Q.Q.*XQ.h.>Xh.h.>X>X>X>X>X>X/.>X>X/././.1X/.).).(.).).).^.).^.^.^.^.`.^.^.`.`.`.[.[.[.[.[.[.].kXzXbXvXGXJXLXIXPXPXPXPXPXPXPXPXPXPXIXIXLXHXGXGXvXzXzXzXkXkXkX].].[.[.[.[.'.`.`.[.`.`.^.'.`.).).).).1X(.1X)./.)./.).,X/.1X,X/./.,X>X/.,X>X>X>X>X>X>X>X>X*X*X*X*XJ.} 7 P m.6.F.*Xy. . .F F | | G G  .;.F P G  .7 d H 7 7 W &X} ;.;.7 ;.7 > 7 , 9 } y.D.p.G.F.D.i.i.D.q.i.y.y.i.9.y.8.9.8.8.8.7.7.7.7.7.3.7.",
"1.2.1.2.0.0.2.0.9.9.2.9.0.9.9.q.q.q.q.9.q.q.q.q.q.p.i.p.F.p.p.p.F.F.p.E.p.E.E.E.E.E.E.W.E.Q.E.Q.W.Q.W.Q.W.W.E.Q.Q.Q.Q.Q.Q.h.h.Q.>XQ.h.*X*X*X{.*Xh.eXh.h.>X1X(.>X>X1X(.1X).(.1X_.)._.^.^.^.^.`.^.`.^.`.`.`.[.[.].].kXkXzXbXGXGXJXIXIXPXPXPXPXPXPXPXPXPXPXPXPXLXLXJXGXZXbXzXzXkX].kX].].[.[.`.[.[.[.`.'.^.`.`.^.).).).).(.1X>Xh.h.h.1X>X1X>X1X<Xh.,Xh.h.hXQ.eXQ.eX>X>X>X>X*Xh.*XQ.*XQ.h.*X*XD.Y P Y W.Q.n.7 | H.r.G  X .R  XI [ } G G ;.7 F 7 } I.n.r.7 F F 7 7 7 7 G 4.3.9.D.i.F.F.i.i.i.z.i.q.z.q.z.z.9.z.9.z.9.9.4.9.4.2.2.2.4.",
"W 1.W 1.1.2.0.2.0.0.0.9.0.9.9.9.9.9.9.q.q.q.q.q.q.q.p.q.q.p.F.p.p.p.p.E.p.E.E.E.E.E.E.E.E.Q.Q.E.W.W.Q.W.Q.E.E.Q.Q.Q.Q.Q.Q.Q.Q.*Xh.*Xh.>Xh./.h./.h.h.h.<Xh.h.1X(.(.(.>X(.(.1X(.).).^.).^.^.^.^.`.^.`.`.`.[.[.[.[.kXkXzXzXvXZXHXJXLXPXPXPXPXPXPXPXPXPXPXPXPXIXLXJXGXvXzXkXkXkX].[.[.[.`.`.`.`.`.^.^.`.^.^.).).).).).).(.1Xh.eXh.h.1X1Xh.>X1Xh.h.h.h.eXh.h.Q.Q.Q.Q.>X>X*X*X>X>X*XQ.*X*XQ.Q.Q.>XW.] 7 J.J.J.} ~.&XJ.} u.| D.*XD.`  .G F 7 ;.7 P b.d F G 7 ;.F 7 7 7 F 6.D.F.D.D.D.q.i.z.z.i.i.z.z.q.z.q.z.9.9.9.2.2.z.2.4.2.2.2.2.2.",
"W W 1.1.1.1.2.0.0.2.2.9.9.9.0.9.9.9.9.w.w.q.q.q.q.q.i.p.i.p.q.F.p.p.p.p.p.E.p.p.p.E.E.E.E.E.E.Q.W.W.W.Q.E.E.E.Q.Q.Q.Q.Q.W.g.Q.Q.Q.h.*X*X/.*X/.*Xh.h.h.h.1X1Xh.h.(.(.(.(.(.(.(.)._.^._.^.^.^.^.`.`.`.`.`.`.`.[.`.[.[.].kXlXzXbXGXHXLXLXIXPXPXPXPXPXPXPXIXLXJXZXbXkXkX[.[.[.[.`.`.`.`.`.`.`.^.^.).^.).^.).).(.(.(.(.(.(.1X1Xh.h.h.h.h.>X>Xh.h.h.h.h.,Xh.h.Q.h.Q.Q.h.Q.*Xh.Q.*XQ.Q.g.*X*XQ.&XJ.Q.*X2.] r.} r.|  .H.-X[ | !.Q.&Xr.G G F H d F F F 7 7 ;.7 7 7 7 7 - M D.q.z.y.D.q.z.q.q.q.9.z.z.9.9.z.9.9.2.2.2.z.2.2.2.4.4.2.2.2._ ",
"Q 1.W 1.2.2.1.2.2.2.0.0.2.9.9.0.9.0.9.9.9.9.9.q.q.q.q.q.q.q.q.q.q.p.i.p.p.p.p.E.E.E.E.E.E.E.E.E.E.Q.Q.E.Q.E.E.Q.Q.Q.Q.E.p.W.Q.h.*Xh.h.h.h.h.>Xh.h.h.h.h.h.h.h.1X>Xh.1X(.(.1X(.(.)._._.).^.^.^.^.^.^.^.^.`.`.`.`.[.[.[.].[.kXkXzXvXGXJXIXPXPXPXPXPXPXPXIXHXZXbXkX].].[.[.`.[.^.`.^.`.^.^.^.^.^.^.^._.).(.).(.).(.(.>Xh.h.1Xh.h.h.>Xh.h.-Xh.h.Q.Q.h.h.h.Q.Q.Q.Q.Q.Q.Q.Q.!.Q.Q.Q.W.W.W.Q.y.P G I D.Q.E F F | | D.W.Q.J. .!.W.W.u.| F ! b.F N.;.;.7 # 7 7 - 5 ) 6.2.7.y.y.q.q.q.z.q.z.9.z.z.9.9.z.2.9.2.z.2.4.4.2.4.2._ ) ) _ ) _ _ ",
"W Q 1.W 1.) 1.2.2.2.2.0.<.9.<.9.2.9.9.9.9.9.w.9.9.q.q.q.q.q.i.p.p.i.p.p.p.p.p.F.p.E.E.E.E.E.E.E.E.E.Q.E.E.p.p.E.Q.E.Q.Q.9.0.q.E.Q.Q.Q.h.Q.h.Q./.h.h.h.h.h.h.h.h.h.(.>Xh.(.(.(.(.(.(.(._.(._._.^.^.^.^.^.^.^.^.`.[.[.[.[.].kXzXbXZXJXLXPXPXPXPXPXPXPXPXPXJXGXvXzXkXkX].[.`.`.`.^.`.^.^.^.^.^._.^.(._.(.(.(./././.>X>Xh.h.Q.Q.Q.h.h.Q.Q.h.Q.Q.Q.Q.Q.Q.W.W.W.Q.W.W.!.W.Q.W.W.W.W.W.W.E.W.y.$.! b 7 D.D.7 F 8.W.W.W.W.Q.u.u.F.9.u. .F  .T r.{ F F 7 ;.7 B T 7.D.D.D.D.y.i.z.z.9.z.9.9.z.9.9.9.4.9.4.2.4.4.4.2.4.4._ ) _ _ _ _ _ _ _ ",
"D _ D 1.W 1.1.1.<.2.2.9.9.2.9.9.<.9.9.2.9.0.9.9.9.q.9.q.q.i.q.q.q.p.i.p.i.p.p.p.p.p.p.E.E.p.E.E.E.E.E.E.E.p.p.Q.Q.E.Q.E.0.y t h q.Q.Q.Q.g.*Xh.Q.h.h.h.h.h.h.h.h.h.h.h.>Xh.h.(.h.h.(.(._.(.(._._._._.^.^.^.^.`.^.`.`.[.[.].kXzXbXZXHXLXIXPXPXPXPXPXPXPXLXJXGXbXkXkX].[.[.`.`.`.^.^.^.^.^.^._._._.).(.(./././.h./.h.h.h.h.Q.g.Q.Q.Q.Q.Q.Q.Q.Q.E.Q.Q.Q.W.Q.W.Q.W.Q.Q.W.W.W.W.W.W.W.W.W.F.W.F._ _ ^ M G.M 7 F.E.E.p.E.J.n.S.K.H.u.G F | F F | b.G F P P ^ D.n.q.n.9.9.q.z.9.9.z.z.9.9.4.4.z.4.4.4.4.2.4.4._ 4.) _ _ _ _ _ <._ _ _ S ",
"_ D 2._ 1.W ) 1.<.) 2.<.2.2.2.2.9.9.9.9.0.9.9.9.9.9.q.q.q.q.q.q.i.q.i.p.q.p.p.p.p.p.p.p.p.E.p.E.E.E.E.E.E.q.q.E.E.E.W.E.q.<.z p <.g.g.Q.Q.Q.Q.Q.Q.Q.Q.h.Q.h.h.h.h.h.h.h.h.h.h.>Xh.(.(.h.(._.(.(._._._.^.^.^.^.^.^.`.`.`.[.[.].].lXzXZXGXLXPXPXPXPXIXHXbXzXkX[.[.`.`.[.`.^.^.^.^.^.^.^.^._._._.(.(.(././.h./.h.h.h.h.h.h.Q.Q.g.Q.Q.Q.Q.Q.Q.Q.Q.W.W.Q.Q.W.Q.E.W.W.W.W.W.W.E.W.E.!.W.!.W.F.F.F.F.F.P d P F D.F.t.t.b.| | P 5.I.| G ` u. .} I.} ;.7 7 > G n.9.9.i.D.z.q.9.z.8.z.8.6.2.z.4.4.4.4.2.4.4.4._ 4._ _ _ _ _ _ _ ~ _ ~ S ~ ",
"S _ S _ D ) Q ) 2.2.2.2.2.2.2.2.2.2.<.9.9.<.9.9.9.9.9.9.9.q.q.q.q.q.q.i.q.q.i.i.p.q.p.p.p.p.p.p.E.E.p.E.E.p.w.E.E.E.E.E.p.W.E.p.q.F.W.Q.Q.Q.Q.Q.Q.Q.Q.Q.Q.Q.Q.Q.h.h.Q.h.h.h.h.h.h.h.h.h.h.h./.(.{._._._._.^.^._.^.^.^.^.`.`.[.[.].].].kXbXGXJXLXJXGXzXkX].[.[.`.`.`.^.`.^.^.^.^._.^.^._._._.(.(././././.>Xh.h.h.h.Q.Q.Q.Q.Q.Q.Q.Q.Q.Q.Q.Q.E.Q.Q.E.W.Q.W.W.W.W.W.W.W.W.W.!.E.W.E.E.E.E.J.F.F.F.2.T W I 7 D.D. .| |  . .G } ~.G 7.G.P  .r.] ;.F ;.7 7 F n.D.z.z.9.z.z.z.8.6.8.6.4.z.4.4.4.4.4.O._ _ _ _ _ _ _ _ ~ ~ ~ ~ ~ S ~ S ~ ",
"Q D _ D ) 2.D _ 2.) 2.2.2.2.2.<.2.<.2.2.2.9.9.9.9.2.9.9.9.q.9.9.q.q.q.q.i.q.q.i.i.i.q.p.i.p.p.i.p.p.p.p.F.q.q.E.E.p.E.E.q.E.E.Q.W.W.Q.W.Q.Q.Q.Q.Q.g.Q.Q.Q.Q.Q.h.g.h.h.h.h.h.h.h.h.h.h.h.(.(.h.(.(.(._._._._.^.^.^.^.^.^.`.`.`.[.].].].].kXzXzXzXzXzXkX].[.[.[.`.`.`.^.^.^.^.^.^.^.^._._._._.j.(.(.h.h.(.h.h.h.h.Q.h.Q.Q.Q.Q.Q.Q.Q.E.Q.Q.E.E.Q.E.Q.E.Q.W.W.E.W.E.E.E.W.W.F.F.W.F.F.F.!.F.F.R.R.F.z.0.8.s 9.D.|  .| |  .G  .| G / G F  . .F F ;.7 7 m ( i.8.8.8.8.9.z.4.l.4.4.4.4.4.4.4._ 4._ 4._ _ _ _ @.~ ~ ~ ~ ~ ~ S ~ S S ~ Z ",
"S _ ~ ~ S D _ _ D _ ) D ) 2.2.2.2.2.2.2.2.2.2.2.2.9.9.2.2.9.9.9.9.9.z.q.z.q.i.q.i.i.i.i.i.i.i.p.p.p.w.p.E.q.q.E.E.F.E.p.q.E.E.E.Q.Q.Q.Q.Q.Q.Q.g.Q.Q.Q.Q.Q.h.h.g.h.h.h.h.h.h.h.h.h.h.(.j.h.(.(.(._._._._._.^.^.^.^.^.`.^.`.`.`.`.[.[.].].].kXkX].kX].].].[.[.`.`.`.^.`.^.^.^.^.^._._._._._._._._.h.(.(.h.h.h.h.h.h.h.g.Q.h.Q.Q.g.Q.Q.E.g.Q.Q.Q.E.E.W.E.E.W.W.W.E.E.E.W.F.F.!.W.F.F.F.F.F.F.F.F.F.q.7.9.f Q i.r.| | } e.G ~. .F F | P 7 ;.7 F d ` ( M.M.v.z.z.z.z.l.6.6.4.l.4.4.4.4._ 4.) _ _ _ _ ~ _ ~ ~ ~ ~ ~ ~ ~ ~ ~ ~ S ~ S B ",
"Y D D ~ D O.S _ D _ _ ) <._ _ 2.2.2.2.2.2.2.z.2.2.9.2.9.9.9.9.9.9.q.z.q.i.q.y.i.q.i.p.q.i.p.p.p.p.q.q.9.q.9.Q 1.0.p.E.q.q.E.E.E.E.Q.Q.Q.Q.Q.Q.Q.Q.Q.Q.h.h.g.g.Q.h.h.h.h.h.h.h.h.(.(.h.h.(.(._._._._._.^.^._.^.^.^.`.`.`.`.`.`.[.[.].].].kX].].].kX].].].[.[.`.`.`.`.^.`.`.^.^.^.^.^._._._._._._._.(.h.h.(.h.(.h.h.h.h.Q.g.Q.Q.Q.Q.Q.Q.Q.Q.E.Q.E.W.W.W.E.E.W.E.E.!.W.F.W.W.F.F.!.!.F.F.F.F.F.F.F.D.q.q.U M y.] 6.D.8.3.u.UXF G  . .G P 7 7 7 P G.G.n.n.t.v.z.6.6.7.l.l.4.l.2.4.4.4.) _ _ _ _ _ _ ~ _ _ ~ ~ ~ ~ ~ ~ ~ Z ~ ~ B Z B ",
"S S ~ S D $.D _ _ ) S 2.) ) _ _ _ 2.2.2.2.2.2.2.9.2.9.9.2.9.9.9.z.9.9.q.9.i.y.q.i.q.i.i.i.q.i.i.q.q.q.l a s 1 1 p D 0.0.q.E.W.W.Q.Q.E.Q.Q.Q.Q.Q.Q.h.Q.Q.Q.Q.h.Q.h.h.h.h.h.h.h.h.h.h.(.(.h.(.j.(._._._._._.^.^.^.^.^.^.`.`.`.`.[.[.].].].].kX].[.].].].].[.`.`.`.`.`.`.^.^.^.^.^._.^.^.^._._._._._._._.(.h.(.h.h.h.h.h.h.h.h.Q.Q.g.Q.Q.Q.Q.Q.Q.Q.E.Q.W.W.W.W.E.W.E.W.W.F.F.W.F.F.F.F.F.F.F.F.F.F.F.D.9.W d } Y k A 1.k ~. . .| UX| d | P 7 7 m x.v.y.z.v.v.6.l.z.l.4.4.l.4.4.4.4.4.4._ O._ $._ _ @.~ _ ~ ~ ~ Z ~ ~ S S Z Z ~ B B ",
"S S S D S ~ _ D _ _ _ <._ _ <._ 2.2._ 2.2.2.4.4.4.2.9.4.9.2.9.9.z.9.9.9.z.q.9.q.q.i.i.q.i.i.i.i.q.p.i.S X X . o o # 1 1 D E.E.E.E.E.Q.Q.Q.E.Q.Q.g.Q.Q.Q.Q.h.g.Q.g.h.h.h.h.h.h.h.h.h.h.j.(.(.(.h._._._._._.^._.^.^.^.^.^.^.^.`.`.[.[.`.`.`.[.[.[.[.[.`.`.`.`.`.`.^.^.^.^.^.^.^.^.^.^._.^._._._._._.(.h.h.(.h.h.h.h.h.h.h.h.Q.Q.Q.Q.Q.Q.E.Q.Q.Q.E.W.W.W.W.W.E.W.E.F.W.F.W.!.F.F.F.F.F.F.F.F.F.F.D.D.z.D V 7 ; # @ = . ;.~.F  .~.| I { 7 ;.d N O.b.v.v.v.6.z.6.z.4.l.2.2.l.) l.l._ _ _ _ O._ _ _ ~ _ _ ~ ~ ~ ~ ~ ~ B ~ ~ Z B B B B ",
"S S S _ S S D $._ S ~ _ ~ _ _ _ _ _ 2._ _ 4.2.2.4.2.4.2.2.z.4.9.0.z.z.9.z.9.z.9.q.9.q.z.z.q.i.p.q.p.9.h . X X * o + X . g F.E.E.E.E.E.E.Q.E.E.W.g.Q.E.Q.Q.Q.Q.Q.Q.Q.g.Q.h.h.h.h.h.h.h.h.h.h.h._.h.(.j.(._._._._.^.^.^.^.^.^.^.^.`.`.`.^.`.`.`.`.`.[.`.`.^.`.^.^.^.^.^.^.^.^.^.^._._._._._._._._.(.j.h.h.h.h.h.h.h.Q.g.h.Q.Q.Q.Q.Q.Q.Q.Q.E.E.E.Q.W.W.E.E.E.E.E.E.W.W.F.F.F.F.F.F.F.F.F.K.F.D.F.F.F.8.: # F . . o .   | | F | UX;.s x.P f c.n.M.b.v.v.x.8.z.l.5.l.l.l.l.l.l._ ) O.) O._ _ _ _ $._ ~ ~ ~ ~ ~ ~ Z ~ ~ Z Z ~ B B B B ",
"S S S S _ S D D S D _ ~ ~ _ D _ _ _ _ _ _ 2.4._ 2.4.2.4.z.2.z.4.z.2.z.z.9.9.9.z.9.z.z.z.9.2.) 1.2.2.S = . X . o X + + X h i.E.F.E.E.E.E.E.E.E.Q.E.Q.E.Q.Q.Q.Q.Q.Q.g.Q.Q.Q.Q.Q.h.h.h.h.h.h.h.h.h.h._.(.h.j._._._._._.^.^.^.^.^.^.^.^.^.^.^.^.^.^.`.^.^.^.^.^.^.^.^.^.^.^.^._.^._._.(._._.h.(.(.h.h.h.h.h.h.h.h.h.Q.Q.g.Q.Q.Q.Q.Q.Q.E.E.Q.E.Q.E.E.E.E.E.E.E.E.E.F.F.F.F.F.F.F.F.F.F.F.F.F.D.F.F.D.D.8.6 = F X o % . # UXG F UX .7 O.A.F l.n.b.v.x.v.x.x.6.6.4.l.5.2.l.2.) _ _ l._ _ _ _ _ _ _ $._ ~ ~ ~ ~ ~ Z ~ Z Z Z B B B B Z Z ",
"S S S S S S $.S _ ~ ~ _ _ _ _ _ _ 2._ _ _ 2._ 4.4.2.4.4.2.9._ _ 2.2.2.2.2.z.z.9.z.9.z.2.8.0.) h 1 1 * O . . . . . + @ . d q.F.F.i.p.E.p.p.E.E.E.E.E.Q.E.E.Q.E.E.Q.Q.Q.Q.Q.Q.Q.h.h.h.h.h.h.h.h.h.h.h.h.(.j.(.j._._._._._._.^._.^.^.^.^.^.^.^.^.^.^.^.^.^.^.^.^.^.^.^._.^.f._._._.(.j.(.h._.h.h.(.h.h.h.h.h.h.h.h.Q.Q.Q.Q.Q.g.Q.W.E.Q.Q.E.Q.E.E.E.E.W.F.E.E.F.F.E.XXF.F.F.F.F.F.R.F.D.m.i.i.z.i.D.i.z.- 3 G . X o   F UXF q ~.;.0 L  .s l.v.b.v.v.x.z.z.6.z.4.l.5.l.l.O.2.l._ _ _ _ O._ o.$._ ~ ~ ~ ~ Z ~ ~ Z S ~ Z S B B B B N Z ",
"B Z S S S S S S S S _ S ~ ~ ~ ~ _ _ _ _ _ _ 2._ 2.4.2.4.4.2.b 4 6 - 6 s s E 6.8.8.9.8.4.4.8.) 6     . X o + + $ @ $ # X = s Q q.0.0.i.D k 0.F.E.E.E.E.E.W.W.E.Q.Q.E.Q.Q.Q.Q.Q.Q.Q.Q.Q.Q.h.h.h.h.h.h.h.h.h.j./.(.(.(.(._.(._._._._._.^._._.^.^._._._._.^._.^.^._._._._._.(.(._.(.(.(.(.(.h./.h.h.h.h.h.h.h.Q.Q.Q.Q.Q.Q.Q.Q.W.Q.W.E.E.E.E.E.E.E.E.E.E.E.F.E.F.F.F.F.F.F.F.F.F.F.F.z.D S 2.z.2.y.y.2.B . 4 F   X X o | | ;.;.UX7 o F G H { x.b.x.x.5.' U M B ! B B _ 2.[ 2.) [ _ 2.$._ _ _ _ _ $.S ~ ~ ~ ~ ~ B Z Z ~ Z S Z B Z b N ",
"Z Z Z Z L Z / Z / ..! Z / / / ~ @._ @.~ @._ @._ _ @._ O.@.O.x * X   X 6 , K c.l.l.O.O.N B B -     .   o & & & & + % > O O = s M 1 : x @ X s z.F.I.J.J.!.J.J.E.!.E.E.E.E.W.E.E.W.W.E.E.E.W.W.E.Q.W.Q.Q.Q.Q.h.Q.Q.Q.h.Q.h.h.h./.h./.(.h./.(._.^.`.^.^._./.(./.h.h.j.j.h.h.h.h.Q.h.h.Q.Q.Q.Q.Q.Q.Q.Q.Q.W.W.W.E.W.W.W.W.E.F.E.E.F.F.E.E.E.E.F.F.F.F.F.F.F.F.F.F.F.A.H.D.D.D.G.m.G.N.S @ X 5 V s S ) N = . F d   + o 7 ~. .7 P | % o P P ` O.O.O.V.V.` v > O @ @ @ - / O.O.O.O.$.O.$.O._ $.$.$.$._ / ..~ ~ J Z ~ ~ Z Z Z Z Z Z Z N N ",
"J ..L J ....L ..X.....$.X.X.o.o._ @.@.@._ @.@.@.@.@.#.@.#.#.v * o X # L x K #.#.o.b 4 @ % $         . o & & & # X O @ O O $ # X X X . . o @ ! Y.R.R.R.R.R.R.I.R.!.R.XXR.!.R.R.!.R.I.R.!.R.F.R.!.L.I.L.I.I.I.|.|.|.I.I.I.I.I.I.I.!.W.!.W.>X).3X].].'.,X*XW.!.!.!.!. X!.J.I.I.I.I.I.I.I.I.}.L.I.}.P.P.L.L.L.!.R.I.I.R.R.A.R.R.R.Y.F.R.Y.Y.Y.A.A.R.Y.Y.Y.Y.A.Y.Y.U.Y.Y.Y.A.Y.Y.Y.V.x     . X . X # ; @ X  .7   # *  .UX .7 UXF   3  .& 3 0 v X.=.*./ v 3   . X . > X.#.#.+.o.o.@.+.o.o.o.o.$.$.X.$...Z ....L ......J J J L Z J C Z ",
"....X.X.$.X.o.$.o.@.o.o.+.o.o.+.@.#.@.@.#.#.=.#.*.&.*.=.B.=.v O * X o 2 > > 9 o.x .   .         .   . X % % & # O $ = # $ $ # $ + > , > > > 9 V.R.mX#XR.qXqX@X@X#XOXOX#XOX#X#XOX#XqXOXOX#XOXOX#XoXoX8XoXOXoX=XoXoXoX=X8X=XoX=X=X=X=X=X-X1X2X3XlX6X2X1X;X-X-X=X=X=X=XoX=X8X=XoX8XoXoXOXoXoXoXoXoX#XI.@XR.R.R.R.R.R.R.R.R.R.R.R.Y.XXXXXXXXR.XXR.XX.X.XXXY.R.Y.XX.X.XR.R.Y.Y.Y.Y.O.- + # + + @ X X O O $ | 7 X $ # UX| G 7 ~.7   F 7       . b o.C 9 q & . o o o 8 +.#.#.#.#.#.#.#.+.+.+.#.@.@.@.@.@.@.@.@.@.X...~ @...........J J ",
"$.o.o.o.o.o.o.o.o.#.O.#.#.+.#.#.*.=.=.=.=.B.=.T.B.B.V.B.V.B.x X o .   .     O O.v   . .               . + % & 4 4 5 9 5 2 4 4 8 9 5 9 9 5 4 2 _ R.!.mX@XqXwX#XqXqX#X8XqX8XqXOXqXmX!.mX!.8XyXqX!.8X8X8X8X8X8X8X9X0X0X0X0X8X0X0X0X0X;X;X<X2XkXbXvXvXlX3X1X<XeXeXeX0X0X0X0X0X0X9X8X0X9X8X9X8XwXwXOXwXwXwXoXwXOXwXwXmX!.mXR.qX!.!.mX+X+X@XoXoX@X@X@XoX@XoX+X+X+X+XR.+X+XXX+XXX+XY.N - 9 x 4 4 2 4 4 4 4 7 UX7 < = d UX .;.P UX+ % G +         J o.=   o . .   X o 2 +.#.#.*.#.#.#.#.#.#.#.#.+.+.@.#.@.@.@.@.@._ @.@.X.X...@.........",
"o.o.o.o.+.O.+.+.+.o.#.#.B.#.#.V.=.*.=.=.V.=.T.T.B.V.T.T.B.V.C X .     .     + L 4   .                   + % & 6 9 9 9 4 4 4 4 4 2 2 2 4 4 4 4 _ mXqXR.mXqXqXqXwXqXqXqXqXqX8XqXeXqXmX!.qXqX!.eXmX9X9X0X9X0X0XeX0X0X0X0X0X0X0XeXeXeXiX4X2X6XbXZXGXZXbX3X5X4XiXiXiXeXiX0XiX0X0X0X0X9X9X9X9X9X9XqX9X9X8XwXqXwXOXqX8XR.mX!.mX#XmX#X#X@X+X@XoXoXoX@X@XoXOX+X@X+X@XOXOX@XoXOX@XOXOXP.B , 9 9 6 6 4 4 6 5 5 G | 7 9 <  .UX .7 UXG   ;.F         . J o.=   X .   X X   2 #.B.B.T.B.B.T.B.B.#.#.*.#.#.#.#.#.#.#.@.@.@.@.@.@.X.@._ @.......",
"$.o.o.o.o.o.+.@.+.o.#.#.#.#.V.#.=.T.=.T.V.B.V.z.A.T.T.C.T.C./ O . . .         *                         o % > , 2 2 4 3 3 > > , , , , 2 4 2 2 l.!.mXmXqXqXwXOX#XqXyXeXyXqXyXqXqXqXqXmXqX!.mXmX!.0XtX0X8X9X9X0X0X9X0X0X0X0X0X0X8X0XeXeX5X3XzXvXZXvXxX3X4X<XiXeXiX0X0X0X9X9X9X9X9X9X9X9X8X0X9X9XwX9XqXwXwXR.I.R.oXR.R.R.R.R.R.!.@X+X@X#X#XOX@X+X@X@X+X+X@X+X+X+X+X+XoX@XoXoX@X}.^ 4 4 4 2 2 2 4 , , >  .~., , 3 ~.| G ;.~.7    .7           > 9 .   o X X   X . w B.U.U.T.T.U.U.C.T.B.U.U.B.B.B.*.*.=.=.=.=.&.&.&.@.@.@.@.@._ @.@.",
"o.o.O.o.+.#.O.O.c.B.#.c.c.#.V.B.V.V.z.U.U.A.Y.U.Y.A.A.A.Y.U.O.&   .           . . . . o . . . o X       . & 2 3 2 4 4 2 > 2 2 2 8 , 2 , 2 2 x C.mXR.R.R.@XR.R.R.R.R.XXR.!.R.R.R.R.R.#X!.R.#X#X!.oXoX8X8X8X8X8X8X8X0X0X8X8X:X0X:X0X0X:X;X7X2X6X6X6X2X1X<X;X;X8X=X0X8X0X0X0X9X9X9X8X8X8XoXoXoXXXoXR.R.R.R.R.R.R.A.R.R.R.R.Y.Y.+XY.F.Y.XXXXXXXXR.F.XXR.R.R.XXXXXXXXXXXXXXXXXX+XOXn.5 4 4 2 2 , 2 4 , > | | > > F ~.G ;.| UX$ 3  .+       .                     X J B.T.T.T.B.B.B.B.B.B.B.B.*.B.B.*.=.=.&.#.&.#.#.#.@.l.O.@.+.@.@.$.",
"O.#.#.#.#.c.#.B.c.#.V.c.#.V.V.V.V.V.C.U.U.C.U.U.B.V.B.O.#.#.o.>     o         o * * * * * * * * o o o X   % > 3 2 2 2 > > 2 2 > > > > > < 2 N x.C.O.O.O.#.l.c.c.b.V.C.R.R.I.oXR.!.qX8XR.!.I.qX8X8X8XqX9XtXeXeXsXiXsXiXhXhXiXhXhXiXeXiX5X6XvXHXHXHXDXxX5XpXiXiXiXiXeXiXdXdXsXrXiXiXtX9XrXtX9XqX8XwXwXOXwXOXoXOXoXqXR.R.Y.A.R.Y.Y.A.C.C.C.C.c.B.l.z.@._ O.O.&.=.c.%.%.c.c.V.Z.8XF.n , , , , , < < > & |  .> < | ~.G F ~.G   G F   o o o o X o X X             % @.T.B.T.T.T.*.T.*.B.B.B.B.*.*.*.*.&.=.=.=.&.c.#.#.+.+.o.o.o.@.$.$.",
"v C J ..L ....$.X.X.X.@.@.@.o.@.o.+.@.@.o.o.o.@...C C w v C C %         . o o o * o * * * & & o X o o o   * r > > > , > & > > > > < < 8 8 4 C Z C C x 9 C C N ..o.#.V.Y.R.@XR.R.R.R.A.C.Y.Y.R.R.qX9XtXrXuX9X9XeXsXiX9X9X8XOX=X=X|.|.=XiXaXvXDXHXGXGXxXpXiXiXiXiXrXrXrX0XsX9XtXdXdXdXhXNXdXuXrXuXdXuX9XyXuXqXqX#XR.#XR.Y.V.U.U.Y.Y.U.T.V.T.B.B.B.#.@.@.@.@.~ Z C J J C J ..L $.' b 9 8 < < < > & = , ~.G & 7 ~.~.G  .~.- %  .> o * * * * o o X     X     o   & @.B.#.*.=.*.*.*.*.=.&.#.&.&.#.+.+.+.&.&.+.@.@.@.@.+.@.@.@.@.$.$.@.",
"& < 8 8 e e C C C C C C C J ......J L J J ..J J J C C C w C C <       o   o * * o   o * * % % o X X o o   o r 3 < < 8 0 0 0 e e 0 0 8 8 e e 0 e e 0 0 q C J X.X.X.X.@.#.*.B.B.B.U.U.U.B.B.#.B.V.V.V.C.Y.R.R.R.R.XXoX+XR.Y.P.Y.P.R.Y.P.|.=X:X<X;X;X4X;X8XwX9XqXwXqXqXqXqXwXqXqXqXqXqXwX#XqX#XOX#X#X@X@X@X@X+XR.Y.Y.R.Y.U.=.#.*.*.B.@.@.@.X.X.X.X.$.......J C e e e 0 e w q e e 0 0 e 8 0 0 0 8 8 2 6 ~.7 # F ~.| G ~.| # 7 G o o * o o X o     o o X X   o   % J J ............J J C J J J J J J J J C C C C C C J C C C J C C C ",
"8 8 8 e 0 0 e e e C w w C C C J J C w q e w w C C C C C w C C <         o . o o * * * *   * o   o o o o . o r e e 8 e w J L J w C w 0 8 < < % * $ + > 8 w ..X.@.@.#.*.T.U.U.Y.Y.Y.U.U.T.#.@.@.....C C Z Z ..$.o.O.V.V.V.V.=.%.V.c.V.C.A.K.}.=X=XI.|.L.P.oXoXoXOXwX8XwXOX@X#X@XOX+XXXY.Y.Y.+X@XqXqX@X@X+X@X@X@X+X+X+XY.Y.Y.R.R.Y.R.U.B.#.@.@.+.#.&.&.=.#.@.@.#.#.@.@.@.X.......X.X.......J J J J w F ~.7 & UX~. .UXjX .$ G 7   o o * * * o . o     X   X     & C C w e w e w C w C C J J J C J J C C C e e e e e e e e e e e 8 8 ",
"J J J J J J J ..J J ..J L J ......C C C C C e 8 8 8 0 e e e e < *         * * % % r & & % % % * & & & 8 & 8 e e C C w w C C C C C ..C w w e 0 8 0 8 e e w J X.@.#.*.T.T.T.T.T.B.*.B.=.&.@.#.#.@...Z J N b C b b Z Z Z L L L L L K K / ` O.{ l.c.l.O.O.O.O.O.O.O.O.O.#.l.O.c.=.O.=.V.V.B.U.Y.XX+X@X@X@X+X#X#XqX#X#XR.+X@XqXqXqX#X@XY.Y.T.B.B.T.U.Y.Y.Y.Y.U.U.Y.U.U.U..XY.U.U.U.U.B.=.&.+.+.@.@.X.J | ~.7 3 ~.UXP ~.~.F 7  .% o % % & r r r & & & % % o   o o r ....w e 8 e e e ..X.@.+.@.@.X.X.X.@.X.........J J J J J J J J C C ",
"$.@.+.@.o.O.@.O.O.+.#.#.#.B.#.c.B.V.B.*.V.B.@.J e 8 8 8 e e 8 8 & % % % & & 8 8 8 8 e 8 8 8 e e e e w w w e w e w w w e e w C J ..@.+.#.+.#.+.o.X.+.#.V.U.Y.XX+XqXqX#XmXqXqXqX@X#X#X@XR.R.R.R.R.Y.Y.Y.U.Y.A.Y.A.A.A.A.A.A.A.A.A.R.R.P.P.L.L.L.H.L.K.H.K.C.A.A.P.A.R.R.R.XXXX+XXXXXXX+X@X#X#X#XqXqXqXqXmXmXqXmXmXmXmXmXmXqXqXqXqXmX@X@XmXmX!.#X#X#X#X#X8X#X#X#X@X+X+XXX.X.X.X.XU.U.B.T.T.*.*.*.&.+.| UXq P ~. .UXjXUXF G G 8 e 8 e e e e e e e e e 8 8 & r & r e e 8 e e 8 e w X.B.T.T.T.T.T.T.B.*.*.*.B.B.V.&.B.V.B.&.#.@.+.o.@.",
"l.#.l.l.l.c.c.V.c.V.V.V.C.A.A.U.A.Y.A.R.R.R.Y.V.+.X.X.....J w 8 & & & & r 8 8 e e e e e e 8 8 8 r r r 8 & & r r 8 0 w L ..$.#.V.U.Y.Y.XX+XR.R.R.R.oXoXwXqXuXsXdXdXdXmXdXhXdXmXrXyX9X9XuXuXuXmXqXqX8XwXqX8X9X9XsXiXhXhXdXiXpXhXgXhXaXaXaX6XbXxXcXcXxXaXaXhXhXdXfXNXdXdXdXdXfXfXfXfXfXfXgXgXgXVXcXgXgXgXgXdXdXhXdXdXhXmXhXhXVXNXhXhXNXmXNXmXNXNXmXmXmXmXmXmXmXmXmXMXuXyXyXmXmXmX#X#X+X+X+X+X.X.XY.U.~.| C UX~.G jX~. .;. .;.8 e e 8 e e e e w e e e 8 8 8 r r & 8 e w C C J X.+.T.Y.Y.Y.Y.Y.Y.Y.U.U.C.T.U.U.C.V.V.V.V.V.V.V.c.c.V.",
"~ o.o.O.@.O.O.o.O.O.O.c.#.c.c.c.c.V.c.V.V.C.A.A.U.Y.Y.U.Y.Y.#.C & & r 8 8 e J X.@.X.@.X...C w e 8 r r r r 0 w w C L ..o.#.V.Y.XX+X#XqXwXqXqX8XqX9XtXyXuXtXuX9XqXqXqXyX9X9X9XtX8XqXqXqXqX9XqX9XtX9XyX9X9X9X8X8X9X9X9XiXeXiXiXiXpXaX5X6X6XkXvXGXGXHXvXzX6X5XpXeXdXhXhXhXdXrXrXtXiXsXhXhXdXsXdXdXsXdXdXrXuX9X9X9XuX9XuXtXuXuX9X9XqX8X9XqXeXmXmX!.qXqXqXqX#XqX#X#XyXqXqXyXyX#X#XqX#X#X#X#X#X#X@X@X+X.X~.| -.~.~.| nX| G F G 0 e w J ....X.@.@.@.X...J C w e e 8 e X.&.&.&.&.#.&.*.*.B.#.#.#.@.#.#.+.#.+.+.#.+.#.#.O.@.@.O.@.o.o.o.@.",
"8 0 v e e 0 0 0 0 0 e C C C C C J J J J ........X.@.@.@.@.#.@.C C ..J J ..X.@.+.&.&.*.*.&.@.+.@.X.X.......@.&.&.*.T.T.T.*.U.Y.Y.R.XXXXY.XX.XXXXX+XXXXXoXXXXXY.P.Y.A.XXXXXXXXXXXXoXXXoX@XXXP.oXoXoXoX8X8XqXoXoXoXoXR.XX|.|.oX|.=X=X;X7X1X1X2X5X6X6X2X7X7X5XpXeXeX0X8XqX8X8XwXOXoX8X8XI.oXoXR.R.oXR.R.R.R.XXXXXXXXXXR.R.Y.XXXXY.Y..X.XY..X.X.X.X.XY.Y.Y.Y.Y.U.Y.Y.Y.Y.Y..XY.Y.Y.Y.Y.Y..X.X.XY..XY.%X~.| %X~.UXjX~.G ` P G &.#.=.*.*.*.*.*.*.*.*.&.&.&.@.@.@.X.X.@.@.+.@.@.@.X.X.X.X.......J J J C C C C C C C C J w C C C w C w C ",
"% * * * * % % % % % % & & < 8 8 r 8 8 e 8 8 8 e e e e e e e e w C J J C w w J J J J J ..X.X.@.X...J ......@.@.@.@.@.@.@.X.@.@.@.@.@.+.@.X.@.+.@.o.o.@.@.o.$.X.@.o.@.+.+.#.%.&.&.#.+.o.#.=.+.o.o.o.O.#.O.%.&.#.O.O.=.O.O.O.l.c.V.l.G.F.W.F.g.g.h.g.i.D.J.J.K.C.R.P.V.C.V.V.V.c.B.#.#.#.#.V.#.#.*.*.*.*.B.&.&.&.#.&.&.=.=.+.+.@.+.@.+.+.@.+.&.+.+.*.+.@.+.+.#.+.+.+.@.+.+.+.@.@.&.&.&.&.+.&.+.@.@.| jX| ~.jX~.nXUXG | F L *.#.+.+.+.+.@.@.@.+.+.@.@.@.X.@.@.X.X...........J ..J ....C ..C J J J J J C C C w w w w C e w e e e e e ",
"o * o o * X X X o * * * % % & & & & & < < < 8 8 8 8 8 8 8 e 8 8 8 e e e e e e 8 8 e e e w w e e e e e e e e e e w w w w w w w e e w w C w J C C C C C w w C C w w J C w w C C C ..C w C C w C C C C C C C C C w C C C C C C C Z Z L Z Z ! ~ _ ) / L K ! / L ..L L J ..J C C C J J C J J C C C C C C J J C C ..C ......L C J C w w w J w C ..w w C w C J C J C C J C w C C w J C J J ..C J J ..w | jXG ~.jXjX~.G G G ;.C ..C J C w ..C w w ..C w e w w w w w w C e e w w w w e w e e e e e w e e e e e e e e 8 e e 8 e e 8 8 8 8 ",
". X X X . . X X X o X X * o * * % % % % % & % % % % % % & & & & r r r 8 < 8 8 & < 8 8 & & & 8 8 < 8 < 8 8 8 8 8 8 8 8 8 8 8 8 8 8 8 8 8 8 8 8 0 0 8 8 e e 0 8 0 8 e e e q e e e 8 8 8 2 2 8 0 e e e e e 0 0 0 0 q q q x v v C C C v v b b N C Z N Z Z Z N C N b v v v v C v q 0 0 q e e w w w e e e e e e e e e e 8 e e w w w w w w w e e e 8 r 8 8 8 e e 8 8 e e e e e w w w e e e 8 8 8 8 8 8 UX~.G ~.jXjXUXG ;.F 8 e 8 e 8 e 8 8 8 8 r r r < & 8 8 r r 8 8 8 8 8 8 8 e 8 e 8 8 8 8 8 8 < r < r 8 8 8 < & & & & % & & & % * % ",
"< > > > < > < < < , 2 4 < < > > < < & & < < < < & 8 < < < < < 8 r & < < 8 < 8 8 0 0 0 q e 0 0 0 q 0 0 4 4 8 8 8 8 8 0 0 9 0 9 0 0 e 9 9 9 9 9 0 9 9 9 x q 9 c c c 9 9 q 0 9 c x 9 q 9 9 x x 5 5 x 9 9 9 6 9 x s s x n m N n N N m V N B B S Z B B N N B m N n c x x x x x x 9 5 4 x x x 9 9 9 4 4 4 4 2 8 2 2 2 < < & < 8 r 8 8 8 0 8 8 3 & # & & 8 , < < > < < < < r 8 8 8 8 8 2 < r & & & & & ~.~.UXnXnX~. .F ;.F & & < & < < & r r & & & % & % & & % % * * * * o % % % & % % % & & # * * % % % * * * * o * X X X o X * o o   ",
"L Z Z Z L Z $.L Z $.$.$.$.$.! ..! L / / / $./ o.O.o.O.O.O.O.O.o.X.@.o.o.O.o.c.V.V.V.V.c.=.B.C.C.C.V.l.#.O.#.l.c.#.c.c.c.C.C.C.N.N.C.C.C.A.P.m.C.N.G.L.L.K.L.L.L.L.G.N.N.K.K.H.L.L.m.N.N.K.H.G.H.L.G.H.H.G.H.H.H.L.I. XJ.I.J.I.J.J.I.J. XJ.!.!.W.!.F.J.J.F.J.D.D.D.D.H.D.M.M.G.m.G.G.G.G.c.b.v.b.m.C.c.z.z.l.{ ` ` ^ ! / / / ^ / / L / / L N N ! L $.` ' / / ` / / $.o.o.@.@.o.o.o./ $.o.L ..L J ~.jX~.nXjX~.G G  .;...L L C ..C ....X.X.$.X.L L J C J L C C C v C C v 0 e 8 e 8 8 0 8 8 8 8 8 8 8 r < < < < , 4 8 8 < < r 8 8 8 ",
"O.O.O.O.l.O.O.l.l.c.c.c.c.c.V.V.V.b.C.C.C.A.A.K.K.K.R.P.R.R.P.C.B.c.c.V.C.A.R.R.P.I.R.R.R.I.I.@XI.R.P.R.R.A.R.R.R.I.XXoX8XwX8X8X8X0X8X0X0X0X0X0X0X0X0X0X0X0XiXeXiX0X;XiXeXeXiX4XiX<X0X<X4XiX4XpX4X4X4X7X4X5X5X5X5X5X5X5X5X5X5X5X2X5X5X2X2X2X2X5X5X6X2X2X5X6X5X6X5X5X5X5X4X5XpX4X4X5XpX<X<XiXeXiXeXiX<XeXeXrX;X;X0X;X:X;X:X0X8X=X=X=X8X=X=X}.|.|.oX=X8XoXoX|.|.oXoXoX=XwX8X=X8XoXoXoX}.oXoXoX$X%XjX~.jXjX~. .F  . .` .XA.R.P.R.P.R.R.R.R.P.R.R.P.A.Z.V.V.V.V.V.V.V.C.C.V.c.V.=.c.c.#.c.O.O.O.O.c.+.o.o.$.O.$.o.$.$.o.$.$.$.o.....",
"O.O.l.l.c.c.c.c.c.V.l.C.C.C.C.C.C.A.A.K.A.K.K.P.R.R.P.P.R.P.R.C.V.V.V.V.A.R.L.I.I.R.I.8X8XoXI.wXoXoXoXP.P.P.I.P.oXoX=XoX8X=X8X8X0X0XeXeX0X0XeXeX0X0X<XiXiX<XrXiX4XiXpX4X4XiX4X5X4X5X6XpX5X5X6X5X6X6X6X6X6X2X6X6X3X6X6X6X3X3X3X3X6XkXlXcXZXDXHXLXJXHXbXlX3X3XkX6X6X3X6X3X6X6X6X6X6X6X6X6X6X6X5X6XpX5XpX4X4X5X4X5X4X4XiXpXeXiXiXiXiXiX;XiXeX0XeX0X0X0X0X0X0XeX0X0X0X0X8X0X0X8X8X0X9XyX9XqXqXqXqX%X~.~.jXjX~.G F | F A.XXXXI.oXR.R.XXI.oXXXoXP.R.XXR.P.A.N.C.V.C.A.P.R.R.R.R.R.R.Y.R.A.Y.A.A.A.C.A.T.C.C.C.V.V.c.V.V.c.V.c.l.#.c.O.",
"#.l.l.l.=.l.=.c.V.c.c.V.C.C.C.C.A.A.A.A.A.A.A.Y.P.R.P.R.R.R.R.A.C.Y.Y.R.R.R.P.OXOXI.wXOXR.I.OXOXoXoXI.P.R.oXI.R.R.I.|.oXwX8X8X8X9X0X0X0XeXeXrXeXiX0XiXiXsXiXiXsXiXpXiXiXpXpXpXpX5XpXpX5X6XaX5X6X6X6X6X6X6X6X6X6X6X6XlX6X3X3XlX3XkXzXbXHXIXIXPXPXPXIXJXZXbXlXlXlX6X3XlX6X6X6XlX6XaX6X6XaX6XaX5X5XpX6XpX5XpXpXpX5XpXpXiXiX4XiXiXiXiXeXiXeXsXeXeX9X0X9X9X0X0X;X9X9X8X8X8X0XjX9XuXuXwX$X%X%XS.S.-.| UXUXUX~.-.F  .G ` #XXXXXXX|.R.oXI.oXoXoXI.+XP.oXXXR.R.P.A.A.A.R.R.oXL.R.R.R.Y.R.Y.R.A.A.A.A.A.A.A.C.C.C.V.c.V.C.c.c.c.#.c.c.#.c.",
"O.#.#.#.#.#.c.V.c.V.V.B.C.V.B.C.C.C.C.A.A.Y.A.Y.R.P.XXR.XXR.R.P.A.A.R.R.R.R.R.R.+X@XI.oXwX@XR.8XoXoX@XoXoXoXoXR.OX@XwXOXqX9X9X9XtXrXuX9XuXtXrXrXsX0X9XtX0XeXiXiXiXeXiXiXiXiXiXiXiXeXpXpXpXpXpXpX6XaX6X6X6X6X6X6X6X6X6X6X6XkX6X3X3XkXkXvXJXLXIXPXPXLXJXZXxXlXlXlX6X6XlX6X6X6X6X6X6XaX6XaXaX6XaXpX6XpXpXpXpXpXeXhXpXpXiXiXpXiXiXiXhXeXsX0X0X9XeXsXeX0X0X0XrXtX8X0X0X0X9XtXqX$XZ.-.| | | P | | | |  .P  .P  . . .r Y.@X+XoXoXoXOXoXoXoXR.oX@XoXoXR.R.R.R.XXR.R.R.XXR.R.XXR.R.R.R.R.R.R.P.Y.Y.A.A.A.U.A.T.Z.C.C.V.V.c.V.V.#.V.#.c.O.",
"o.O.+.O.#.O.#.O.#.B.c.c.c.V.V.B.V.C.Z.Z.A.Y.A.A.Y.P.R.R.P.R.R.Y.Y.R.R.R.+X+XR.+X+XoX@X@XwXwXwXR.OXoXoX@XoXoX@XOXOXqXOXOXwXwXqX9XuX9XuX9X9XuX9XrXsXeXuX9XrX0X0XiXeXsXeXrXiXiXsX9XiXiXiXhXiXiXpXpXpXeXpX5X6X6X6X6X6X5X5X6X6XkXlX6XlXlXlXvXHXJXLXIXIXJXHXZXbXlXlX3X6X6X6X6X6XaX6XpX5XaXpXpXpXpXaXpXaXpXpXpXaXiXsXiXiXiXiXhXdXiXsXeXsXiXiXiXiXrXsX0XrXeX0X0X0X0X8XtXrXuXOXA.-.|  .| | | | | | | | | | | | P P | G -.qX@X$X$XoXoXoXoXoXoXoXoXoXoXoX+XXXR.R.R.R.R.R.R.R.R.R.R.R.R.XXR.R.R.R.R.Y.A.A.A.A.C.C.C.V.V.V.V.V.V.c.c.#.c.#.V.",
"o.o.o.o.+.O.+.+.#.#.#.#.#.#.B.#.=.=.V.V.V.V.B.U.U.Z.U.U.A.Y.Y.U.U.U.U.Y.Y.R.Y.R.R.+XR.@XR.R.@X@X@XoXoX@XoXoX+XOXOXoXOXqXqX#XwXqXqXqXqX9X9X9X9X9X9XtXrXrXsXsX0XuXsXrXsXsXrXrXeXsXiXsXiXiXhXiXeXiXpX4XpX5XpXpXaX5X6X6XpX5X6X6X6X3X3XlXkXvXHXLXLXIXLXLXHXGXvXlX6XlXlXlXaXaX6XaXaXaXaXaXaXaXaXpXaXpXpXpXhXpXhXiXeXdXsXiXsXiX9XtXtXtXrX9XtXrXiXtX0X0X9X9XwXwX8X9X9XyX$XS.| | | -.| | -.| | -.| | | G G F G G G G G  .| .X#X#X@XoXOX@X+X+X@X@XoX+X+XR.XX+XXXXXXXY.R.XXXXXXR.XXR.R.R.Y.R.Y.Y.A.A.A.Y.A.C.C.Z.C.C.V.V.V.B.c.#.V.c.O.#.+.",
"X.X.X.X.@.X.@.@.o.o.+.o.@.+.+.+.&.&.&.&.&.&.=.*.B.=.B.B.*.T.U.U.U.T.T.T.U.Y.Y.Y.Y.Y.Y.R.Y.Y.Y.Y.Y.+X+X+X+X+X+X@X+X#X#X#X@X#X#XqXOXOXqXqXqXwXqXqXwXqX9XtX9X9XwX8X8X9X9XwX9X9X0XeXeXiX0XiXiXeXeXsXpXpXpXpXpX5XpX5X5X5X6XpX5X6X3X2X2X6XkXbXZXZXGXGXGXZXvXbXlX2X3X6X6X6X5XpXpX5XaXpXaXpXhXpXpXhXiXhXhXhXiXsXdXeXsXsXsXrXsXrXrXrXuX9XrX9XqX9XtX8X8X9XwXwXwXwXwXqX}.-.| | | | | |  . .P G G F ;.;.7 # , 3 # 7 7 ;.F G G P | .X#X+X+X.X+X+X+X+XR.@X+XR..X.X.XXX.XY.Y.R.R.Y.Y.Y.Y.Y.U.U.T.U.T.U.U.B.U.B.B.B.B.#.V.#.B.#.#.O.#.#.#.#.@.o.",
"C C J C C J ..J ..J ....X.X.....X.X.X.@.@.@.@.+.+.+.+.+.+.&.=.*.B.*.B.B.#.B.B.T.T.T.U.T.Y.U.U.Y.U.U.U.U.Y.Y.Y.Y.Y.Y.Y.R.XXXX+X+X+X@X@X@X@X@X#X@X@X#XqX8XqXwXwXOX8XqXwXwXwXqXuXqXqX9X9X9X9X8X9X0X0X0XeX0XeXeXpXiXpXpX5X5X5X2X6X3X3X3X3XkXzXzXlXbXkXkX].[.].3X2X2X5X4X5XpXpXhXiXiXhXiX0X9X9X0X9X9XtXtX9XtXrXtX9X9XqX9X9XqXrXuX9XqX9XqXqX8XqXqXqX8XqXOX#X#XoX|  . . . . .G G F F ;.;.;.7 7 7 # O J -.o.7 $ % r ;.;.F G P G *..X.X.XY.Y.+XY.Y.Y.Y.Y.Y.U.U.Y.Y.U.U.B.T.U.*.T.T.T.*.*.B.=.=.=.=.=.=.&.#.#.#.+.@.@.@.+.+.@.@.@.X.X.$.@.",
"& < 8 8 8 r 8 8 8 8 8 e e e e w q q e w w C C w C C C C J ..J J ..J J ......X.X.@.X.X.@.@.@.+.+.+.+.+.&.*.*.*.*.*.*.U.T.=.B.U.U.Y.U.U.Y.Y.Y.Y.R.Y.R.Y.Y.Y.R.Y.XXXXR.R.+X+X+X@XoXoXoXoXoXoXoXoX8X8XoX8X8X8X=X0X=X-X0X<X4X<X>X,X7X1X'.'.).`.[.'.].'.].].].2X3X3X5X5XiX5XpXeXiX0X0X0X0X9X9X9X9X9XqXqXqXqX8XqXqXqXqX8XwXOXwXwXwXOX@X@X+X@XoX+X+X+X+XXXXXY.XX| G F s 7 7 F ;.;.7 7 7 7 7 # & X X P -.6 L q q $ r 7 7 7 7 F P G | .X.XU.Y.U.U.Y.U.U.U.B.T.T.U.U.*.B.B.*.*.=.#.&.&.&.#.#.#.#.#.#.@.+.@.+.+.@.@.@.X.X.X.X.X.X.X...J ....",
"o o o . o o * o o o o * + * * * % % % + % % % % % % % % & & 8 < < < 8 < < 8 0 8 e e 0 e e e w e e C w w w w C w C C J J C ..J C C J ....X.$.X.X.o.@.X.+.@.o.@.+.o.o.O.#.#.O./ $.V.V.O.V.c.V.l.C.C.C.C.b.m.K.m.A.N.L.I.I.J.H.!.W.E.*X*X*X>X/./.>X>X>X/.Q.Q.<XQ.W.!.J.I.I.L.R.R.oXR.P.P.R.R.R.R.R.P.R.C.R.A.C.Y.A.A.Y.Y.Z.U.U.U.A.A.U.U.U.U.U.U.B.T.B.B.-.;.7 ; 1 , - - , 3 7 7 > r # # # X $ +.3 c C r F ;.$ 7 7 7 3 ;.F G F L *.+.&.+.+.@.@.@.@.o.+.@.@.@.@.X.@.X.X.................X...J ..J J J C C C C C C C C C w C C C w C ",
"8 8 < 4 8 4 9 < 4 2 2 2 2 2 2 2 2 2 8 2 < < < < 8 < > < 2 8 8 8 < 8 8 8 , , < 8 > & 8 < > < 8 > < , , , 2 8 < < < < 8 8 < 8 2 < 8 4 8 8 9 0 9 , 8 9 8 8 x 4 > 8 8 9 8 5 9 v , , b c x c v c c b c b N v n N N m m N H M S S I Y Q ) 1.<.w.w.a.a.w.w.0.1.1.2.S _ ~ ~ ^ ~ / / / K ! / Z K K L J Z Z C Z C N C Z b b C b C C Z C b Z C C N C C C v C C Z K 1 ; ; = # O O O # # # # > > 7 > $ 2 L / L n ` $.4 # 7 > > > > F G G G G J w q w 0 8 e e 0 0 0 0 0 e 0 8 8 8 < < < 8 8 < 8 < < < % < 8 & < < & & & < % * & & % & & + % & ",
"$.$.O.$.o./ / O.o.+.o.O.o.+.+.o.O.O.c.V.c.#.#.l.O.O.O.c.o., N V.#.c.#.l.#.#.+.Z = c $.O.o./ $.$.$.o.o.$.o.b C X./ $.$./ $.L K Z Z Z Z Z L K q @ x N Z Z 9 $ 9 ! Z b b N N 4 @ 9 b 9 x v b v b c V c n c c n n n n V n d f g M k D l <.0.w.d.k.d.d.d.s.1.D D B V n V n n c x 9 9 9 x x x 9 9 9 9 9 9 9 0 0 0 0 9 9 9 9 0 x 4 4 9 8 4 4 4 , 9 4 2 4 2 c V 1 1 = @ X . . . X X + O $ # # # $ 9 d 4 n 5 L N > $ 7 # 7 # + # ;.G P G P q 3 8 2 2 2 8 2 8 3 & < % + < < < , < & < < < & > < < X o % & < & & & % % > O . % & % % . . % ",
"O.o.$.O.O.9 # / #.O.O.#.l.l.c.c.V.V.V.S $.A.A.A.A.A.C.R.O.  ! Y.C.A.A.A.A.Y./ $ 4 $.l.R.L.P.P.P.A.A.C.V.c.5 c P.A.A.A.P.P.A.K.A.P.P.P.K.K.S = f n.6.I.l.= O V l.z.z.J.!.D.4   ; A 2.D.F.F.F.H.F.F.F.J.F.J.E.F.F.J.p.a.a.p.g.W.g.g.g.g.{.1XaXgXgXaX5X{.{.g.g.a.a.p.i.p.i.9.9.y.9.4.8.4.^ ~ ^ ( ( _ _ _ ^ / _ _ S ^ ~ / / S / / _ / / $.$.$.$.O.$.$.o.O.H @ 1 = @ X .   . X X . o X $ $ # # 4 H 3 N 9 @ c # + > # o o o O + ;. . .| ` +.O.+.o.+.o.@.@...L ..O 8 o.#.o.o.o.@.o.$.$.$.o.o.$.>   O C o.X.o.X...N C >   < J X.v X   8 ",
"S S S ~ N @ O N _ ~ _ _ _ O._ O._ l.O.@ @ D l.l._ 4._ m ,   4 ! B ~ / O.6.' >   > s ) z.z.z.e.5.) ) U 4 # = n { 4.O.[ l.5.z.D.D.D.D.D.F.2.=   6 Q D.Q.Q . O p w.Q.&X*X>XF.: @ D W.>X>X>X,X>X1X1X1X/.).).).).).^.^.^.`.`.`.`.`.`.[.[.].kXLXPXPXPXPXIXZXkXkX[.[.].'.`.'.^.^.).^.).(.)./.h.*XQ.Q.Q.Q.W.W.E.F.W.E.F.D.F.i.i.D.H.F.H.n.i.z.l.) l.l._ ) ' O.l.g : @ @ . X # - 7 7 7 7 ; 7 > = > > 9 H L s n 9   + # o X X o O o X > q d F H O.O.` { ` / L N 2 , X = Z / ^ $.{ o.O.O.o.` o.$./ 4     4 $./ / o.K b 5 O   . 9 N 9 .   % ",
"^ ) ~ 6 X . m l.l.l.2.2.4.4.4.4.2.d 4 $ V z.l.D _ 9.S .   . 1 s d S _ ) z.~ @ . O S 4.2.0.7.7.2.) M ;     , Z B S S ~ ~ _ 9.i.i.i.i.D.F.A . . @ <.Q.Q.9.1 1 q.>X>X>X>X>Xg.: 1 g.1X>X(.1X).).).).^.).^.^.`.^.`.^.`.`.`.`.[.[.[.].].kXbXGXIXPXPXPXPXPXLXbXkXkX].[.[.`.`.`.`.^.`.^.^.^.^.).^.).(.)./.>X>Xh.>X>Xh.>X>Xh.>XQ.Q.h.Q.*XW.Q.!.W.F.E.F.J.F.J.D.F.J.i.W g 1 X % 3 9 c F F F G F 7 7 ; > n c m 9 .   o X X X X X X O O X X + @ 5 ~ _ _ S B s 2 , = @   X x ~ S ) ) _ E ~ ~ S S B B c @   , N B Z S 4 @ 4 $   . , 4 # .   O ",
") ) s     . c S S S D l.7.4.7.8.N     . B 2.g 2.i.z.s     X S c s V B B S f @ X : ) 9.7.9.7.9.7.2.s X .   O > , 4 s s s m 7.D.F.F.F.F.F.) = . D W.Q.Q.E.t . 0.>Xh.h.>X>XQ.3.: q.(.).).).).).(.).).`.^.`.`.`.`.`.`.`.[.[.[.].].kXkXzXbXGXIXPXPXPXPXPXLXvXzXkXkXkX].].[.[.[.[.`.`.'.^.^.'.).).).).).).).).).).1X(.1X>X1X(.,X>X>X>X>X*X*X*X*X>X-X-X&X*X-XQ.Q.!.Q.W.l y 1 $ 2 w ..o.P P J q 3 - > # # +   X o . . . X X O X O $ O X . - B ^ 7.8._ S s ; - , O   = ) n.z.n.n.y.n.M.z.z.z.l.5.) ; . B 4.4.2.l.m * # O   = ~ ~ 5   X 5 ",
"_ ~ =   .   . @ h S S l.l.2.4._ @   X   @ 1 h y.q.7.1   . $ : s 6 s s s h f # @ S 1.2.2.2.1.1.2.Q 6 X . O # @ = ; 2 9 6 f z.D.D.F.F.F.E.E.S   Q *X>Xh.,XA @ a *X>X>X>X/.1Xp.t g.1X).).).1X_.(._.`.).`.`.`.`.`.`.`.[.[.[.[.].].].kXlXbXGXPXPXPXPXPXPXJXzXzXzXkXkX].].].[.].[.[.[.[.'.'.`.'.'.^.).).).).).(.1X/.1X>X/.>X>X>X,X>X*X>X>X*X*X*X*X-XQ.*X-XQ.-XW.Q.!.-Xk.d.s.>.y t : s 9 q C J C 0 8 < + . + % % $ + X X X X X O O $ , V m V S [ 2.) M 5 1 ; = O X 6 4.y.n.n.i.n.y.n.v.z.z.8.z.^ @ . S l.4.4.S 6 X       5 _ K # O O d ",
"_ A @     . , g l.2.z.7.2.l.8.S X .   X s S 2.z.z.z.D = . 6 7._ s V S S _ 4.f @ _ i.9.z.9.9.2.2.Q s = X , 4 @ = @ = 1 1 s 1.q.9.q.z.q.F.F.D . t E.Q.h.Q.l w.k i.>X/././.Q.k j >X(.1X(.q.w.Q.h.j._.^.^.^.^.`.^.`.`.`.`.`.[.[.[.[.[.3XlXDXIXPXPXPXPXPXJXkXkX].[.[.[.[.`.`.`.^.`.`.^.^.^.^.^.^.).^.)._.).).1X(.>X(.>X>X>X>X>X>XQ.>X*X>XQ.*X*XQ.Q.Q.W.W.W.W.W.&X&XW.a.j._.j.h.k.w.>.i t : ; 1 = @ + o o .   X X X o . .     X O - d ~ ~ ~ 4.D.D.z.6.[ Y ~ m @ $ d 4.9.v.8.8.v.8.9.8.z.8.6.l.^ # $ - _ 4.z.S @   .   X B ~ : 1 B 6 s ",
") _ V #     6 _ 4.4.4.4.5.6.8.S @     : 7.9.9.9.z.z.i.S . @ 4.2.s M S _ ) 9.S @ 0.F.F.D.F.F.D.F.q.9.f . @ 6 p s f g S S 2.F.&X-XQ.-X*X*X*XD h t g./.1XW.<.h.<.g.1X>X1X(.>X<.0.1X).(.>Xg.g.h.g.h.`.`.`.^.`.`.`.`.`.[.[.[.[.].].kXlXzXvXJXPXPXPXPXPXPXIXZXvXbXkXkX].].].].].[.[.[.`.`.`.`.`.'.'.).).).).1X'.).).).).1X).1X,X1X>X,X,X>X>X<Xh.;X<X*X*X*X*X*X*X-X-X1.j 0.>X).).1X>X(.h.g.w.w.>.:.i y : @ @ @ .   .     . . . O % 9 p A S S ) 9.D.9.2.2.g A d . # d 4.n.y.8.y.8.8.8.8.8.z.6.8.) 6 B s s 7.4.g 6 O     X A ^ 1 M l.f 1 ",
"_ ) ) 1   .   f 4.4.7.4.7.5.4.8.A .   O ~ 9.z.i.y.i.D.Q O . A 8.) 2.9.9.9.D.f 1 D.W.J.E.E.F.F.F.E.D.s   O B ^ ~ _ _ ) D 1.F.Q.Q.W.Q.Q.>Xp.l 9.<.*X,X,Xa.0.,Xl g.).(.).1X1Xw.0.1X1X).>X).).(.a.(.^.`.`.`.`.`.`.`.[.[.[.].kXlXlXzXzXvXZXHXPXPXPXPXPXPXLXGXvXbXzXkXkXkXkX].].[.[.[.[.`.[.'.`.'.`.`.'.'.'.).).1X).).1X).1X).>X1X1X>X,X>X,X*X,X*X*X*X*X&X-X*X&X-XW.k.,.u 0.>X).^._.1X1X<X4X<X*Xk.s.>.:.i i y y : 1 @ X X . . . + < m 6.8.8.8.D.D.v.8.4.D S 6 @ , S 5.D.D.n.n.n.v.y.n.z.6.v.v.E 1 _ 5.s _ _ S ~ O   = : V 4.6 f 4.~ 1 ",
"_ ) ) 4 X N ; @ _ 6.z.z.8.z.6.6.~ O # . 1 8.i.9.q.D.2.1 - @ f 8.2.2.9.7.9.2.@ f F.D.D.F.F.D.D.D.9.h 1 @ > f s h f f S D Q F.Q.!.!.Q.Q.;X0.9.F.k *X,X1Xq.<.7Xz 9.1X).1X).1Xw.z 1X'.2X2X'.2X).1X'.'.'.'.].].].].].].].].].].].kXkXzXbXZXJXPXPXPXPXPXPXIXGXvXzXlXkXkX].].].].[.[.[.[.[.].[.`.[.'.'.'.'.'.'.2X).1X2X1X1X1X1X1X1X,X,X,X,X,X,X*X,XQ.>X-X>XQ.-X*X-X*Xk.s.,.,.,.f._._._.,X0X0X&XJ.p.k.d.d.,.>.>.u i y t : : 1 @ = = s V 2.5.4.6.n.D.n.t.6.2.[ s - 6 [ D.H.H.H.D.G.D.D.n.D.z.v.D.) : ' [ f ) 4.4.B X   , n 6 6.m d 4.O.6 ",
") ) ) 6 @ [ f = [ 6.6.6.8.z.6.z.V . ^ N . ~ D.n.D.z.s S z.s _ G.m.m.G.G.H.) @ 6 D.J.I.I.I.J.F.F.D.s s 6 ^ v.8.v.M.v.D.H.D.J.-X-X;X<X;XeX9.0.q.t p.,X,XQ.1.F.l Q.1X1X1X1X,X0.z 1X2X2X'.2X'.2X'.'.2X].2X].].].].].].].].].].kX].].].kXbXGXIXPXPXPXPXPXLXZXzXzXzXlXkXkXkX].].kX].].].].g.g.2X2X2X2X'.2X2X'.2X2X2X2X2X2X2X2X2X7X7X1X7X7X<X7X4X7XeX4X<X<X<X,X;X;X<Xk.,.,.,.,.f.f.f.k.>.<.u u j y y <.d.d.s.,.>.>.z i y t : t t t ~ ) G.J.I.J.J.J.J.H.G.m.z.V 1 : [ D.D.D.D.b.5.v.n.n.n.n.v.M.] 1 V M S l.5.5.6 @ 5 $ ; f ^ : s 4.~ 1 ",
"[ [ _ # 9 O.V 6 l.z.z.x.z.x.x.l.1 6 C.' = [ G.n.G.l.6 G.m.s M.L.K.K.K.L.L.P.c ; z.I.I.=X|.=XI.I.I.4.1 @ S b.H.L.L.L.L.I.I.=X=X-X0X0XeX;XI.2.S 2.:X<X<X;X8.4.9.-X5X7XpX4X4XE.7.-X6X2X6X2X2X3X2X2X3X3X3X3X3X].3X3XkXkX3XkXkXkXkX].kXkXbXZXJXPXPXPXPXPXLXvXzXlXzXlXkXlXkXkXkXkX].kX3X3X*X=XpX3X6X6X3X6X2X2X5X2X2X2X2X7X2X5X4X7X7X5X7X7X<X7X<X,X<X<X<X<X;X<X;X:X/.f.d.z >.>.k.f.f.d.,.,.:.>.,.>.:.i i s.d.,.,.>.:.z i y t t t : D z.v.D.K.I.I.=X|.I.L.H.H._ @ f n.H.H.H.G.M.l.x.M.M.M.b.M.m.) ; 1 E M.z.z.x.m - Y O = ~ _ 1 V l.f 4 ",
"O.O.~ # Z l.b , O.O.O.l.c.O.c.K 1 $.V./ - O.c.l.l.O.9 O.l.1 B c.C.C.A.K.A.C.L c l.C.A.K.K.P.P.K.C.O.x , x ` C.C.C.P.P.R.R.R.R.R.R.P.P.R.R.V.O.l.K.I.L.K.C.c.C.I.=X=X=X=X8X=XI.=XeX<X<X<X4X4X7X4X5X5X5X5X5X3X2X6X3X3X3X3X3X3X3X].].kXlXzXbXGXJXLXLXHXvXlXkXkX].].kXkXkX3XkXkXkX3X6X6X6XaXaX6X5X6XpXpXpXpXpXpXhXpXpXpXpXiXpXiXiXpXiXpXiXeXeXeXeX0X;XeX;XF.J.=X>X_.a.v / s.f.j.f.d.,.:.:.:.:.:.,.,.u >.,.,.,.>.:.u i y y t t : z.R.K.P.P.P.R.R.I.L.P.K.N.O.v N c.A.K.K.P.L.A.K.K.A.N.m.m.b.' 5 v O.v.c.l.c.! 2 ! = = / O.b b B x N ",
"b N 0 O v Z 0 . , b C N b C N , > b Z v O 9 b N v x 4 9 9 - 2 N Z L L L L Z Z Z L L $./ L ..L L N b b b b Z Z L L $./ $.$.$.$./ Z $.$.S ~ / $.$./ / / / ^ O._ O.O.l.O.l.4.l.l.z.8.M.z.D.D.y.D.D.p.D.F.F.E.W.W.W.Q.Q.*Xh.*X{.*X/.>X).{.(.^._.).).)._.).).).)././././.>X>X>X>X*X*X*X*X&X!.W.&X!.!.I.J.J.L.L.L.L.L.L.L.P.L.P.L.L.L.L.R.L.L.P.P.P.P.K.K.k : : 5 7.*X:X1 K >Xf._.f.d.,.:.i i i :.:.:.>.:.,.,.>.:.u u i y y t t p c.B.*.V.V.V.V.c.V.#.#.O.O.X.X.L ../ $.$.$.$.o.$.o.$.` o.o.$.L ....L ..K L Z 9 O > @ > x v c c c e w ",
"> > # X # > > > > , , < 2 , > # = , 2 , O O , 8 8 4 9 , 8 9 x x x x x c v v v C b v b v v v b v v v b b b b C b N Z N Z Z Z b b N Z B Z Z Z Z Z Z Z Z K Z S Z ~ S S S _ ~ _ ~ _ _ _ _ _ _ ) ) 2.2.2.5.7.7.7.7.9.9.9.9.9.9.q.q.p.a.p.a.g.g.g.g.g.g.g.a.F.a.p.F.i.i.i.i.q.i.y.q.8.9.9.9.8.7.6.4.4.5.4.l.4.[ 4.) ) O.' _ _ O._ _ O._ ` ` ^ / / ^ ~ O.f @ # # # t g p.E.-X,X(.j.f.f.s.>.a x 6 u :.>.:.>.:.,.,.>.z i i y t t y p L L Z Z C J Z C Z C Z b C Z C b N C C b v v v v v v q v c q 9 q v 9 9 5 8 0 > @ & & = < < < < < < < ",
"# % # % # # > > < < = & 1 < & , , < < 1 , 2 2 4 4 4 4 4 4 5 9 6 x 9 9 x x v x C v q v x v c c b b v b b b N b N N Z N N C b b b C Z Z Z Z b b b Z Z Z ~ Z ~ ~ ~ ~ ~ ~ ~ ~ ~ ~ ~ ~ ~ ~ _ _ ~ <.) _ 2._ 2.4.2.2.2.2.9.2.9.9.9.q.q.q.q.q.p.p.p.p.p.p.p.p.q.q.q.q.q.q.9.q.9.9.9.7.2.2.4.4.2.2.) _ _ _ _ _ @._ _ _ _ $._ ~ _ ~ ~ ~ ../ Z / S / K S Z l.6 O @ # - a t a w.>X/./.>Xg.g.d.a.4.  1 L.s.,.,.,.,.,.,.,.:.u i t : t t s Z b b b b v b C b v b b v b c b b v v v v v x x 0 x 9 0 9 5 5 4 4 0 4 4 4 2 2 1 < & 1 & < = & & & # ",
"> & > > < > > > > = < < & & 1 , , 2 2 4 4 4 4 5 5 4 5 5 5 4 9 9 9 x x 9 9 9 x 9 0 x x v c b v c v b b b b b b N v b v v b N N N Z Z b b b Z Z Z S B Z Z Z B Z Z B Z ~ ~ ~ S ~ ~ ~ ~ ~ ~ _ _ ~ _ _ _ _ _ 2.2.2.2.2.2.9.2.9.9.2.9.9.q.w.q.q.w.q.q.q.q.w.9.w.9.9.9.9.7.0.7.2.4.2.4.2._ _ _ _ _ _ ~ _ _ _ _ ~ ~ ~ ~ ~ ~ ~ ~ ~ ~ ~ ~ ~ S Z Z Z Z Z Z B = @ % # : p p t l a.h.g.j t h l i.oXA 6.uXd.d.d.,.,.>.>.:.:.u i p s 1 t s b v b c v v c b b c v v c x < 4 v 4 * 4 x 9 9 9 9 9 5 5 4 4 5 4 4 4 4 4 4 4 2 2 < , , < < = > & # & ",
"> & # < > < > > > > 1 < 2 < , 2 4 4 4 4 4 4 4 4 4 5 5 5 x x x x 9 9 9 9 0 x 9 x x v v c v v v b v b b b b b b b v v v N N N Z N b Z b Z Z Z Z B Z B Z ~ Z B Z ~ Z ~ ~ B Z ~ ~ ~ ~ ~ ~ ~ ~ ~ ~ _ _ _ _ ~ _ _ _ _ _ 2.2.2.2.2.2.<.<.2.2.9.9.9.q.w.q.w.w.9.9.9.9.9.9.0.2.4.l.2.4.2.) _ _ _ _ _ _ _ ~ ~ ~ ~ ~ Z ~ S ~ Z Z B Z Z Z Z Z / Z ~ Z ! Z Z Z ; * # # : t t t D k.{.z y y a p t a 2.D.w.d.k.d.,.>.:.:.:.j i p y S x t b b b v c c b v v v b b v v x 4 5 x 5 , 5 x 9 5 x 5 9 5 0 5 4 4 5 4 4 4 1 2 2 2 2 2 2 , , < < > > > > ",
"> = > > > > > < < , 2 , , 2 2 , 4 , 2 4 4 5 5 9 5 9 5 5 x 5 9 4 9 9 9 0 x x x x c c c c b b b c x 5 x b b b b C v N N b b b b b b b Z b Z Z Z Z B B Z S B B Z S Z B S B B B B B B B Z ~ ~ ~ ~ ~ _ _ _ _ _ _ _ _ _ _ 2.2.2.2.2.2.<.9.q.<.9.9.9.9.q.9.9.9.9.2.9.2.0.2.4.2.2.) ) ) 2.) _ _ _ _ _ ~ _ ~ ~ ~ ~ ~ S ~ ~ ~ ~ ~ ~ ~ ~ Z S Z S Z Z S Z Z Z : X # 1 p t t j w.2X'.s.z a a j a t @ t 0.k.d.d.,.,.,.z z j y <.h q.F.S x b b b c b c v v v c c v x c v x x x x x 9 9 0 5 5 4 5 4 5 5 5 4 4 4 4 2 4 2 1 2 2 2 2 < 1 < > > > > ",
"> 3 > > < > > , , , 2 2 2 2 2 4 4 4 4 4 4 5 5 5 5 5 5 5 5 9 9 9 5 0 9 x x v x v c c v b v v c b v x c b b b b b N b N b b b b b Z B Z Z B Z b Z B B Z ~ Z ~ b B ~ ~ Z Z S Z ~ B ~ B ~ ~ ~ ~ ~ ~ _ <.~ ~ _ _ _ _ 4.4.2.2.2.2.2.9.9.9.9.9.<.9.9.9.2.<.9.9.2.<.2.2.2.2.2.2.D l.D _ _ _ _ _ _ _ _ ~ ~ _ ~ ~ ~ ~ ~ ~ ~ ~ ~ ~ ~ ~ B ~ S Z S Z Z S H N B Z - X = : p 0.{.^.^._.,.y h t y t y a p z d.d.,.,.,.>.z :.i i E.!.q.-Xi.N x v b b c c c c c c x c x c x x x x 9 x x 9 9 9 5 9 5 4 5 5 4 5 4 4 4 2 2 4 2 1 1 < < > > > > < > > ",
"> > > 3 , 1 > , , 4 4 4 4 4 5 4 4 4 5 5 5 4 5 4 4 0 4 5 9 0 5 9 x x x v c c v b b b b b b b b b b b b b b b b b N C N b b N b Z b b B b Z B B B Z B Z Z S Z Z B Z B B ~ S ~ ~ S ~ ~ ~ S S ~ ~ ~ ~ ~ _ ~ <._ _ _ _ 2.4._ 4.2.2.4.2.2.9.<.9.9.2.9.9.2.9.2.2.2.2.2.9.z.4.2.l._ ) ) _ _ <._ _ _ ~ _ ~ ~ ~ ~ B ~ ~ ~ ~ S ~ S B ~ B Z Z B ~ Z B Z ! U B B H # a 0.{.^.^._.f.f.s.t t 1 : : : t t : s.s.,.,.>.>.:.u i y <.eX!.-X!.) x c c b c c c c c c c c x x x x x 9 x 9 9 9 5 5 9 5 5 5 4 4 4 4 4 4 4 4 4 2 2 2 2 2 , , , , > , > > ",
"> > > 3 , 2 , , 4 , 4 4 4 4 4 4 4 4 5 5 5 5 5 5 5 9 9 9 9 x x x x x x x 4 2 x c x c x c x c x v v v b b v v v v b v v b b b b N b Z B b b Z Z Z Z Z B B Z S S Z B B B Z Z Z S B B S S S S ~ ~ ~ ~ ~ _ ~ _ ~ _ _ _ _ _ _ _ 2.2.2.2.2.2.2.9.2.<.9.2.2.<.2.2.2.2.2.D k _ _ ) _ _ _ ~ _ ~ ~ D ~ ~ ~ ~ ~ ~ B B S S B B B B B B B B B B S B B B B m m M Q w.g._.^.^.f.f.f.f.d.,.a @ @ @ : 1 1 @ p z.<.,.,.>.:.:.u i i y w.eXF.!.D n c b c b b b b c c c c c x x x x x x x x x 9 9 5 5 5 4 4 4 4 4 4 4 4 4 1 2 2 2 2 2 , , , 2 , , > , ",
"3 3 , 3 , 2 4 2 4 4 5 , 1 4 4 4 4 4 4 2 4 4 4 5 9 5 9 9 x x x c x x 9 5 1 * , 9 5 x c v v b b b b N b b N b N N N N N N Z N Z B B B Z B Z B Z B B Z B B Z S Z B ~ Z ~ ~ ~ ~ ~ ~ ~ ~ ~ ~ ~ ~ S S S ~ ~ _ _ _ _ 2._ 2._ _ _ _ 2.2.2.2.) 2.9.2.2.2.9.2.2.2._ 2.2.2.S S D _ 2.) _ _ _ ~ <._ _ ~ _ S ~ ~ ~ ~ ~ ~ ~ ~ ~ S B ~ ~ ~ ~ c c B B Z m S W q.g.).^.^.f.f.f.d.d.s.,.,.,.:.; O @ 1 @ 1 @ t ,.,.,.,.>.>.u u i i y i 0Xi.D.l x b b b b b c b b b c v c c x 5 5 5 4 , 1 4 x x 9 9 x 5 x 5 5 5 5 9 4 4 5 4 4 2 1 4 4 < 4 < , , , , ",
", , , , , , 4 2 2 1 4 2 = 2 4 4 4 4 4 5 5 9 9 9 9 x x x 9 x x x x v x x x x x c c b N b b N N N b N N b N N b Z N N N C Z Z Z N Z Z Z Z ~ Z B B B S Z S Z B B B Z B S ~ B ~ ~ B ~ S ~ ~ ~ Z ~ ~ ~ ~ _ _ ~ _ _ _ _ _ _ 2._ 2.2._ 2.2.2.2.2.2.2.2.2.2.2.2._ ) _ _ ) 2.D _ ) ) ) 2._ _ _ _ _ _ D ~ $._ ~ ~ ~ ~ ~ ~ ~ B ~ ~ B B ~ B A S S 2.a.{.^.^.^.f.f.f.d.d.s.,.,.,.,.:.:.:.i > @ @ @ @ @ z ,.,.,.>.:.:.:.u i i y y 9Xi.1.D x n b b N b b b b b b v b c b x c x 5 4 , 4 9 9 9 9 9 x 5 5 5 5 4 4 4 4 4 , 2 6 4 4 4 4 2 , 4 2 , , ",
"3 3 , 6 4 2 6 4 4 4 2 2 4 5 4 5 5 5 5 9 9 9 x 9 x x x x c x c c c v c c b v v b b b c b b b b b b b C N b Z Z b N N N Z N N N Z Z Z B B Z Z Z Z N Z B Z B B B B B B B S ~ S B ~ ~ S ~ ~ ~ S _ S ~ ~ K _ 9.~ ~ _ ~ ~ _ _ ~ _ ~ ~ _ 2.) _ _ _ _ _ _ _ 2._ 2._ _ <._ ) ) _ _ S S S S S V B V B B N N i B B S B B S ~ B S Z B B v <.h.g.{._.^._.f.k.d.d.s.,.,.,.:.:.:.:.:.:.u u :.<.c 1 @ @ p :.,.:.:.:.:.:.u u u i y j 9XD.<.) f n n b b n n b n n b b b b b v v x c x x x x x 9 x x 5 5 5 9 5 5 4 4 4 4 4 2 2 2 4 2 4 4 , , , , , ",
"2 2 4 3 4 2 2 4 4 4 4 4 5 4 5 4 5 5 5 5 5 x 9 x x x x c c c v c b v b b c b b b b b b b N b N b N b N b N b N b b N N N N N N Z v b B Z Z B B B B B Z B Z ~ Z ~ ~ ~ ~ ~ ~ Z ~ ~ ~ ~ ~ ~ S S _ V b x 5 i 2.x x h i Z S B S S S ~ B _ _ _ _ 2.<._ ) 2.2._ _ _ 2._ ~ <._ ~ S _ ~ ~ S S S S B V B B N N B B B B B ~ ~ ~ ~ ~ S ~ b x z 0.w.,.s.s.,.,.,.,.,.,.,.,.d.d.d.,.:.u u :.,.,.<.D j u :.:.:.:.:.:.u u u u u i y p.eXF.D 9.B c n b v v b b b c x c c c x x x x x x x x x x x x 5 5 x 5 5 4 5 4 4 5 4 4 6 , 2 , , 2 2 2 , , , , ",
"2 , , 4 6 4 4 6 4 5 5 9 5 x 9 9 x x x 9 x 5 x x x x c c c c c v c c c b c b v N c x N b b N v N Z N N N Z N Z Z Z N Z Z Z Z Z Z B Z B Z S B Z Z Z Z B N B b 5 4 S 2.B B B ~ S S ~ S Z S ! Z B B S B B B S S ~ ~ ~ ~ ~ _ _ _ <.~ 2.9._ <.2.) ) _ ) ) 2._ ) _ _ _ _ _ _ _ _ _ _ _ _ V S _ ~ _ ~ ~ ~ ~ ~ ~ ~ S ~ ~ B S S B B Z ~ B B N B Z g g k A D A l j.f.f.f._.f.,.i u :.,.s.d.>.:.u u u u :.:.:.:.:.u u u i y z mX!.<.t h d b n n b N b b b c b b c c c x x x x x x x x c x x x x x x 9 9 5 9 5 5 5 5 4 5 4 4 6 4 6 4 4 4 4 4 ",
", , , 2 , 4 4 4 4 4 5 9 5 5 5 5 5 5 x 9 x x x x c c x x c c c c v v b b b b b x 1 * 5 4 = , % 1 4 x b N N Z N Z Z Z Z Z B Z N Z Z Z Z Z Z Z Z b N N N b b 4 1 & 1 S ~ B ~ ~ ~ ~ _ ~ ~ ~ S _ ) $._ _ _ _ _ _ _ ) _ 2._ 2._ 2.2._ 4.2._ 2._ 2._ _ _ _ _ _ _ _ _ _ ~ _ 2.D S _ D _ S p c S S ~ ~ ~ ~ ~ S ~ S ~ B S S B B Z B S Z Z S Z S K Z Z B Z K Z Q j.f.f.^._.j.,.:.:.:.s.d.d.,.,.:.:.u u u u :.u :.u u i i y !.sXD.h : 1 s N N N b b b b b b c b b c b c b b c c c c c c x x x x 5 4 4 5 4 4 4 4 4 4 4 4 4 4 6 2 4 4 < 2 , , ",
"2 4 4 4 4 4 4 6 5 4 4 4 4 4 5 4 5 5 5 5 5 9 x x x x c b v c v b c b b b b b 9 1 & = = < < , > % 1 5 c b b b b b N Z N Z Z Z N Z B Z Z ~ Z ~ Z ~ K ! B ~ ~ Z K ~ Z Z S ~ ~ Z Z ~ ~ S ~ ~ $._ S ) _ ~ _ ~ _ _ _ <._ _ _ _ _ 2._ 2.4._ 2._ ) 2.4.2.2.2.2.2.2.2._ D ) ) $.D l.) _ ) ~ ~ _ _ _ _ ~ ~ ~ _ _ ~ _ ~ ~ ~ ~ ~ ~ ~ ~ ~ ~ Z N Z S K S ! S ! S N 1.f.f.f.f.f.k.,.>.<.s.d.k.k.d.,.:.:.u u i u u :.u u u i y <.dX8Xq.t : : n n n b N b N N b b b c c b b c x 9 x x x 9 x 9 9 9 x 5 5 5 9 5 5 5 5 5 5 5 4 6 4 6 4 4 4 4 4 4 4 2 ",
"4 6 4 6 4 4 4 5 9 4 9 9 5 x x x x x x x x x x x v x c v c b b b b b b b N b b b N b N N b N N Z Z Z Z Z Z Z Z Z Z Z Z Z B Z Z Z Z Z Z Z Z Z ~ Z Z ~ Z Z Z ~ B ~ Z ~ Z Z x x b S Z Z S Z S S Z ~ ~ ~ ~ ~ ~ ~ ~ _ ~ ~ _ _ _ _ _ _ _ _ _ _ _ _ _ _ _ _ ~ ~ _ _ _ _ S x s V S _ S ~ ~ ~ ~ ~ ~ ~ S ~ S ~ ~ ~ ~ ~ ~ ~ ~ S ~ ~ S ~ S B Z S S Z S Z Z B H m w.f.f._.f.k.,.,.:.s.d.d.d.d.d.,.,.>.:.i u u u :.u u i y y J.sX!.<.t : s N n b N N b b b b b b c c c v x v x c c c b c b c b x c c c x 9 x x 9 9 5 5 9 9 9 x 5 4 x 4 4 6 4 4 ",
", , 2 4 4 4 6 4 4 5 4 5 5 5 5 5 5 x x x 5 9 x 9 x x x x c c c v b b b b b b N Z b N N N b N b Z Z Z Z Z Z Z K Z ! Z ! ~ Z Z ! Z Z ~ Z ~ Z ~ ~ Z ! K ~ ! S Z B B Z Z Z v y x x Z S Z ! ~ S S S S ~ ~ ~ ~ ~ ~ ~ ~ ~ ~ ~ ~ ~ _ _ _ _ _ 4.2._ 2._ _ _ _ _ _ ~ ~ _ s * O X X 4 S S ~ ~ ~ S ~ S ~ ~ S S ~ B B B B B Z B Z S Z Z S ~ Z S Z / S / S U K K n s._.f._.f.f.k.d.,.>.,.d.d.k.d.d.,.,.:.u u u i i u u i y >.0X:XD.k t 6 N N N N b N N N N b N N b N b N b b b b b b v b c c c c x c c x x 9 9 9 5 9 5 9 5 4 4 9 4 4 4 4 4 4 4 ",
"4 4 4 4 4 4 4 4 4 4 4 4 5 4 4 4 9 5 9 x x x x c x x b c b b v v b b b N b N b b Z Z N N N N Z N Z L Z K N Z Z K Z Z Z ! Z ! ! L Z Z Z ~ / S $.S ~ $./ / ^ / _ _ / _ / ~ ! ! S ~ _ $._ _ _ O._ ) _ _ _ _ _ _ _ _ _ _ 4.4.4.) 4._ ) ) l.2._ ) _ 2.4._ _ 2._ _ 2.x @ * = * 4 S ~ _ ) ~ ~ _ _ O._ _ ~ ~ ~ ~ ~ _ ~ $.~ ~ _ ~ ~ ~ $._ ~ S S S S S S Z _ B a.f.f.^.f.d.,.,.,.,.,.,.,.d.d.d.,.,.:.:.u u u u i i i i p.-XJ.1.j : d K Z Z Z Z Z N N N N b N b b v v v b b c c b c c c c x x x x 9 x x 9 9 5 9 5 5 5 5 4 5 4 4 4 4 4 4 4 1 ",
", , , 4 5 9 5 9 5 9 9 9 x x x x 9 c c c c c c v b v b b b b n N N N b N N Z Z N N C N N C N b q 4 4 , & 2 ! Z K ! K K ! Z L ! ! ~ ~ ~ ..~ ~ S $.$.S _ ~ ~ ~ / / ~ _ _ _ _ / $._ _ ~ _ _ _ _ _ ~ _ ~ _ _ _ _ _ _ _ _ _ _ ~ ~ ~ K S S Z B S Z B Z B B ! ~ S K ~ ~ B Z Z Z Z $._ _ _ _ ~ Z V S S S ~ ~ S ~ Z ~ ~ ~ ~ ~ ~ ~ ~ ~ Z ~ ) i.L.I.I.L.z.S Z B g.f.f.^._.f.d.,.:.,.,.,.d.d.d.,.d.,.>.:.u u u i i i y z W.F.i.D.D.h N ! K K Z Z Z Z Z Z Z Z N N N N n b b x , 2 b b b b b b b c b c x c x v x x 9 x x 9 x 9 9 9 5 9 5 5 9 4 ",
"< , > 2 4 4 4 , , 4 4 5 5 9 9 5 4 9 9 c x x x c c x x c c b b b b b N Z b b v 9 9 2 2 & & O o X X   . . & K K K ! L L ! L ~ L ! Z ~ Z ~ Z ~ / ~ S $._ ~ / / ~ / ^ / ~ _ / _ _ ~ ~ ~ / ~ / ^ ~ ~ ~ ~ ~ ~ ~ ~ ~ ~ _ _ _ ) _ _ ) _ _ S ~ ~ ~ ~ ! ! B Z ~ ~ ~ ~ ! ~ S S S ! S S S S / S B s 4 6 N ~ ~ ~ ~ ~ ~ ~ ~ $.~ _ ~ ~ ~ S 2.!.hXhXhXeXeX7X<X*Xi.R j.f.f.f.f.f.k.k.d.d.d.d.k.d.,.d.,.,.>.:.:.i i i i i i l F.q.=XdX0XH.S Z K Z Z N b b n c x c c n 5 9 N N N n c n b b b b b b b b b c c c x x x x x x x x x x 5 9 5 5 5 5 5 4 ",
", , , , , , > > > , 4 4 5 4 5 5 9 d 9 9 c 9 x c v b b b b b v v c v 0 0 > % + o . . . . X % $ % % % % + X , / K ! ! K K ! L ! Z ~ ..~ Z / K Z ~ $.S S $.~ ! ~ S B N b Z S Z Z _ ~ _ / _ _ _ _ ^ ~ ~ ~ Z S ! S ~ _ _ _ _ ) 4.2.4.l.) 4.4.4.4.) _ _ 4.2._ _ 4._ ~ _ l._ O.D O._ _ D O._ S S S ~ _ _ _ _ ~ _ ~ ~ ~ ~ ~ ~ ~ S F.hXmXeXeXhXeXeX,X1Xh.>Xg.f.f._.f.f.f.k.k.k.d.d.d.d.,.,.,.,.,.>.:.u u i i i i y y 1.E.W.eX0X;Xn.B K Z Z Z b b n c x 4 - = @ @ 5 x v v n n b N b b c b b c c b c x x x x x 9 9 x x 5 9 9 5 5 5 5 4 5 4 ",
"4 4 4 2 4 5 9 9 9 9 x x x x c c 9 c v v v q q 4 4 0 8 2 > & + + O X X .                   . . X o o O # > c ! L Z Z Z ! ~ / / ~ K ~ ~ ~ ..~ S _ / B B S / ~ ! ~ ! Z N N d n d n N B ^ _ ' _ ^ ) _ _ ) 4.4.) 4.4.4.4._ 4.) 4._ 4.l.2.l._ 2.l.l.4.2.4.2.4.4.4.4.4.z.l.2.l.l.2.2.l.l.D l._ _ O._ ) _ _ ~ _ ~ $.~ _ _ S _ S I.hXeXhXNXVXVXhXeX4X,Xh.h./.f.f.f.f.f.d.d.d.d.d.d.d.,.d.d.,.,.,.:.:.:.i i i i i y y f q.W.-XsX;X;Xe.B K ~ Z L ! ! ! Z Z v x 9 9 9 x v v v v b b b b b b b b v v b v x v c c c c x x 9 x x 9 x 5 9 5 5 5 ",
"4 9 5 9 9 x x 9 9 9 9 8 8 4 4 8 r 3 3 & + & * + + . . X + # > > 4 0 0 0 2 < 2 9 8 0 0 e q q q C C ......X.L L J C L ..C Z C C J J ......X.$.$.o.O.O.O.O.O.O.[ ` _ ~ ! S S B S K ! ~ ~ ~ ! ! ~ ! $._ _ _ _ _ _ ) _ _ ) _ 4.4._ 4.2.O.D l.l.) ) l.4.4.4.4.4.4.4.4.) _ ) ) 2.l._ _ $.2.D O.) _ _ ~ _ _ _ _ _ _ _ _ $.$.S F.NXeXeXVXBXNXNXhXhXhXeX7X,X).f.f.f.f.f.j.k.d.,.,.d.,.,.d.,.,.,.:.:.:.u u i i y y y V Z S F.!.0XdX;X=X] n Z Z Z ! Z Z ! Z Z Z Z K Z Z N N N N b N x x x x x 9 x x x x x x x x x x x x x x x x x 9 5 9 5 5 ",
"9 9 9 8 4 2 < < # # % + o X X X X . X . .         & 8 9 9 0 9 0 2 < < < 8 8 8 8 8 8 8 8 8 r 8 3 r 8 r 3 & & & % & % % % % * * % < & & & & < < 8 8 0 v C C L L L #.c.V.l.l.l.[ 4.) ~ ~ ~ ^ ~ ~ ~ B K N Z ~ ! ~ ~ $.~ _ ~ ~ $._ _ S S ~ ~ S S ^ _ ~ _ ~ ~ ~ ~ ~ _ ~ ~ _ _ ~ $.~ _ $.~ ~ ~ / _ ~ ^ X.~ ~ _ _ ~ S _ 2.) i.hXhXhXeXeXeXQ.eXhXhXpX4X7X7X/.f.f.f.k.f.k.h.j.d.,.,.,.,.,.,.,.:.:.:.u u u i i i y a Z L S 8.!.&XuXdX-X=X' N Z Z Z Z Z N N Z N N Z Z N B N N N N N N b c b c c c c v c c x c x x c x x x x x 9 x 9 9 9 4 5 ",
"* + X X .         . X + + # $ X X & o     X o X . o $ + % o o % * * % * + * + * + + * * * * o % % % % % % & % % & & < < < 8 r r 8 & & & & % % % % % % % & & & 8 0 q C C L o.O.c.m.K.z.Y ~ S ^ ' ) _ ~ ~ ~ _ ~ $.~ _ $._ _ _ _ _ _ S O._ ~ _ ~ S ~ ~ ! K K ~ ~ ~ ~ ~ S Z / ~ ~ O.D $.~ ~ ^ / ^ / ~ ~ Z K ~ c.R.eXeXeXhXeXeXhXeXQ.p.Q.4XeXhXeXeXeX4X1Xk.f.f.f.f.f.k.k.d.d.,.,.,.:.:.,.:.:.:.u u i i y y y S o.S L Y p.&X=XdXuX&X&X5.Z Z K ! ! Z Z Z Z K K Z Z Z Z N Z Z Z B Z Z Z N N N N n s x c b b b b b c c b c x x x 9 x 9 9 ",
"  X O # # > , 2 0 x x 9 4 4 0 8 e 8 r % o * * * o o o % * % % o o * * o * % & & & r & 8 r 8 8 8 0 e e w w w C J J ......X.@.X.X.X.X.......C J w C w e 8 r 8 & & & & & & r 8 r 8 K K K / { I 1 s t ~ ~ ~ ^ _ ^ ^ _ _ _ _ _ _ _ 4.) 4.l.l.2.l.4.4.4.l.4.l._ [ _ ) O.D S S _ S _ O._ _ { ' ' ` O._ { ] ~ ( =XhXhXiXhXeXiXeX<X,X;XQ.q.Q.hXiXhXiXhXhX4X7Xh.k.k.f.f.k.k.k.d.,.,.,.,.,.>.:.:.:.:.u u u i y y y ! L Z K Z 2.W.!.=XNXiXW.!.b.N Z ! K K K ! B B ! ! ! ! Z Z V B n b n c n c c c c c s 9 x x c c c c v x c c c x x 9 x 9 5 ",
", 4 9 5 9 9 9 9 4 4 0 v C C C C w e 8 % % * o o o o o o o o o . o o * % * % & & r 8 8 e e e w w w C J J ..X.X.X.X.@.&.@.&.*.*.*.*.*.+.*.&.=.&.@.X...C w J 8 % % % & & % & % 2 ..q w X.O.c.7.p.=X5.E E _ { ) [ ) 4.4._ l.l._ 4.) 4.) 4.) ) ) [ [ ) [ _ ' 4.[ [ [ O.l._ l.l.l.D l.4.4._ _ _ _ _ _ ( ( m.eXhXiXdXfXhXhXeX-X*X*XQ.W.w.*XhXhXhXhXeXhXeX4X7Xf.f.f.k.k.d.d.d.d.,.,.,.,.>.:.:.:.u u u u i i y f Z N n N N M 9.W.W.0XNX0XW.!.b.N N N N B B N B ! d d n n b x b b b b c c b b n b c v c c c x x x x 5 5 5 9 4 5 9 9 5 1 1 ",
"4 4 4 4 2 4 9 2 , w ..X.$.L L v 0 8 8 % * * o o . o X . . . o o o o o o * * * % % % & r < r 8 8 8 8 8 8 0 e e q e w C ..........X.....X.X.X.X.....C C w ..% % % % % % % % & ..0 0 C L +.c.5.*XxXsXH.W R S ~ ( _ ~ ~ ~ ~ S S ~ ~ / ~ ~ U B Z ~ ! S Z ! ! ~ ~ ! ! S ~ $.S S $.$.S ~ 4.H.8X8X:XI.N.G.0XfXhXNXAXAXfXiXeXQ.*XQ.W.W.q.w.eXeXhXhXhXhXhXhXhXhXh.d.f.k.k.k.d.,.,.,.,.,.:.:.:.u :.u u u i i y p ~ / ^ / ! / H T F.!.-XrXNX;XF.!.b.s v N N N N N n c s c c b b b b b b n N b b n b n b b b V b c n c n c x x x x x 5 5 4 4 ",
"- , , = = 4 9 8 C C C L $.K L L 9 8 r & * o o o X . . o   .   . .     o o   o o o o o o * o * o * * % % * * * * % % & & & & r 3 r 8 8 r 8 8 8 8 8 < < r 8 o % % % o % % * C C & 0 w $.c.c.e.D.J.1.Q 2.q.) _ ] ( _ 4.O._ l.O.~ _ _ ' _ { _ _ _ { 2.O._ ' _ { ' ' l.D l.l.l.D l.K.8XdXgXhXiX<X<XQ.-XhXhXSXKXVXiX-X-XW.W.W.F.q.q.>.Q.eXeXhXhXdXmXhXhXhXhXhXf.d.k.d.d.d.,.,.,.,.,.:.:.u :.u :.u i i y y ~ $.^ / / / / ! B 6.-X-X;XNXrX-XF.I.b.B H K K U K K ! K H ! B B Z ! Z Z B Z Z Z N N N N b b b c n b b b b b b b c c c x x x ",
"4 6 4 9 4 4 3 8 8 e e w J L $.L c 4 & * o o X . . .   X .   . .   . .   .   .     . . .     o   . . . . X o . X o o o   o o o o o o o o o + + % * o + * o o o o o o o o $ K $ & v O.C.C.%.L L Z ^ o.~ ) 0.) 4.4._ Y S ~ _ _ O.D 4.) ( ] 6.( 4.6.4.4.4.5.4.) 4.4.l.l.l.) l.F.rXhXhXhXeXeX;XQ.W.a.0.iXhXfXsX-X&XW.E.a.i.q.0.<.>.l <XeXeXhXhXVXNXVXNXhXhXhXeXd.d.d.,.,.,.,.:.:.:.:.:.u i i i i y y : j O.D ~ Z Z ~ K H N T !.0X:XdXNX:X&XD.J.v.~ ^ / ^ ^ / ! / ^ ! ^ ! ! ! ! U K K K ! K K Z S B B B B B N B N N N N b b V c c c c ",
"9 4 9 9 8 & & % & r 8 e e C 0 . * r 3 & o                                                     .               .   o .   X         .   . .     . o X   . . . o           3 K n O.Y.A.%.L J w w 0 8 b $.! ~ ~ { ' Y ^ _ S S S S _ I Y R M ] _ E E ~ Y S S ( 2.4._ S D _ G.tXVXhXhXeX<X;X*XW.i.w.<.<.;X;X*X*XW.F.p.q.0.<.>.z :.i <.<XeXeXhXhXNXNXVXBXNXNXeXQ.g.k.k.k.g.d.p.d.w.w.s.s.<.<.>.l D <.q.q.p.E.W.E.F.z.) K ! ^ ! i.0XrX0XMX0X&XJ.D.J.5.K / U ^ ! ! T ! ! ! ! K U ! K K U ! Z B B B N Z N B n V c V c s n s V c c c c x h ",
"x c c 2 & * * % & & & r 8 8 < . r r   0 w 0 8 > % o                                                             X   . .   X X           X o X       X     X * > 2 q v L O.O.@.@.....C e e 8 8 8 8 r w L L N ^ l.[ [ O.l.l.) O.D _ ^ ^ ^ ~ ^ ^ U A ~ T Y ~ ( ^ 4.G.=X9XhXhXeXQ.!.Q.&XW.F.i.q.<.z <.E.E.W.a.9.0.<.l z z z u j t <.eX<XeXhXNXNXBXBXBXNXeXQ.Q.eXeXh.NXNXhXeXeXeXh.Q.Q.-XQ.Q.W.W.Q.-XQ.!.;X;X-XQ.!.W.8.Y B N 2.-XsX0XsXeX=X=XD.D.H._ K U K ! ! U H ! H ! B B K U m U B V B N B B B N V N N V b c s x x x x c c c c c ",
"x x 4 $ * * * % % * & % & & % * o * X * % 2 0 e e q q e 0 0 3 < & % % % o o                                                     . o % 8 & & # & < 8 C L Z C ......J w e 8 8 8 8 8 8 8 8 8 r & & & & & w Z v s ) _ ^ S ) ) O.l.l.{ ' ( _ ' ' ^ ( _ { [ ' ( ^ H.fXVXhXeXeXQ.i.w.q.q.q.9.1.l >.>.z 0.!.q.0.<.l z z z z z z a y t 1.h.h.<XeXNXNXBXNXNXNX;XQ.Q.1XeXNXNXh.NXeXeXeXeXeX<X-X-X;XQ.Q.-XQ.eXeXeXeXeX0XQ.!.!.H.m.x.3.!.0XsX0X0X-X&X!.9.D.8.^ / / ! / / / ! ! ! / K U ! Z K ! B B B B N B V N N N N B V N B V b b b V x x 9 ",
"x x # * * * * * * * * * % % * * % * & * * * * % * % & & r 8 8 8 8 e e e e e e e e e w w e e e e e 0 e 8 e 8 0 0 e e e e w w w J C J % & 0 0 %   e w 8 q =.b & & % % & % % % % % & & r r & & & & & & % & w q - U [ { 5.5.[ [ z.l.4.x.l.x.l.l.5.l.( ) 5.3.v.=XgXhXeXeXeXE.<.z l l z l l z z z <.0.p.W.q.j a j j z z z j i y t h 9.W.,X;XeXhXNXNXBXsXQ.g.F.<X<XiXhXdXdXhXhXeXeXeXeXQ.!.eXQ.-X;XeXeXeXeXiXeX-XW.Q.;XeXhXhXeX-XF.=XsX0X0X0X&X!.D.9.D.( ^ ^ / / / U ! ! ! T N H U K ! U Z B B m m d n B m V N m n n V N b b v q 9 2 > ",
"c x O o o * * * o * * * * o o o o & r % % % % % % % % % % % % % * % % % & % & % & & & & & r r r r < r 8 8 8 8 8 8 8 8 8 8 8 8 8 r & & % + + o o o * & % J %.& * % & % & % % % % % % % % % & % % % % % % < 4 = g m.4.4.l.l.5.5.4.4.z.z.l.5.z.z.5.3.8.|.uXfXhXeXeX-XQ.F.<.z z z z z z z z z l 1.w.0.z j y a j j j j a j j j Q x.2.W.*X>X;XeXrXdXdXeXW.F.*X,XeXNXNXNXdXdXeXhXeXeXeXeXeXeXeXeX;X-X-X-XW.!.F.q.W.hXhXhXfXdXrXeXE.F.;X0X0X=XW.!.F.2.i.8.N 2 x n / / / ^ ` / / / ! ! ! H K Z Z I K M B B H m m L Z N b b 9 4 > # O     ",
"c - . . . o o o o * o % o * * o o % % % & % % & & & & r & r r r r 8 8 8 8 8 8 8 8 & r r & r r r 8 r 8 r & & & & & & & & % % & % 8 e 8 & & & & % & % % & & %.q % & & & & & % * * * * * * % % % % % % + + $ # $ s 8.v.x.v.6.v.z.b.b.x.b.b.6.v.5.G.8XdXgXhXiXeX<X-X*XW.<.z l z z z z z z j j z l l z j a j j j k k k l D W x.C.c.3.p.W.Q.-X;XeX;X*XW.p.W.<XeXhXNXNXNXdXhXiXeXeX!.eX-XeXQ.eXeX-X!.W.E.F.q.z F.eXeXiXsXNXBXBXdXE.F.&X0X-X=X!.W.J.z.9.D.S .     V ^ ! / ! T / U ! / ^ U ! ^ U U U U K K K K N N b 9 4 > + X .     O 4 ",
"c =   .   o . . . . o o o X o o * * * * % % & % & & r r 8 e e C ........X.........................C J ....J ......J J J w 0 8 r 8 e 8 % & & & % % & & & + v ` * & % & % * % * o o * * * % * % % + + o X X O # C O.b.b.5.x.x.x.6.b.b.b.b.m.x.H.hXhXhXeXhXiX-XW.Q.!.W.k y a a a z z j j k j j j j j Q x.x.6.c.l.{ O.l.c.e.{ ] [ ) 1.p.W.W.*X-XQ.W.p.q.-XeXiXdXNXNXNXdXdXrXeXeXeXQ.!.-XQ.!.!.W.W.p.9.D i <.eX-X-XeXeXeXsXBXBX:Xq.E.&X=X!.J.F.J.q.8.9.4.4 @ $ s ^ ( [ ' ' { l.{ r.{ { ' ^ ^ ( ^ ! L N N b q 2 = + X X .     + 4 9 9 ",
"n % .     .   . . . o . . . . o o o o o + * % % % % & & 8 8 w ..o.&.&.&.*.=.*.*.&.*.*.*.*.*.+.@.+.@.@.X.&.*.&.&.*.*.+.&.X.C e 8 8 8 r r r & & & & % % * o > O.> * % * o * o o o o o o + * o o o X X X X . # 0 L v.6.b.x.b.x.v.b.v.b.v.b.b.6.rXiX-X*XQ.hXW.9.9.9.F.F.4.C.4.D a t a a j a j j j R [ b.x.l.x.l.l.c.x.5.{ x.x.l.l.v.i.l 0.p.E.E.p.q.<.q.,XeXhXNXNXNXNXsXeXeX;X;X-X-X!.Q.W.W.E.F.q.2.z t t E.Q.W.!.!.-X-X-X=X0X=Xi.D.J.!.!.F.F.D.i.9.z.6.S O.O.[ ] [ { { { ^ ( Y ' ( T T M ! K L N L C 5 = O X O .     . % 9 v c 5 2 ",
"d 4 o % o                 .   .     . o . o o o * * * % % r e C ..@.@.+.+.+.+.+.+.&.+.+.+.@.X.@.......C @.&.&.=.*.+.+.+...w 8 r & & & & % * * * * % % o o + L 4   o o X o X X X X X X o o o   o . X + % & & - U b.v.b.b.6.b.l.b.l.x.v.b.l.|.VXeXeXW.!.eX0.z j <.eXI.D l.A.K.K.8.Q R D l Q 0.y.u.x.x.x.b.b.x.x.b.x.e.m.x.l.b.l.=X,Xp.w.0.0.<.<.z z F.>XeXeXeXdXeXeXeXeX-X*X&X&XW.W.!.E.F.q.z.l a t : k q.0.0.i.F.F.H.J.F.F.F.D.9.D.!.J.F.D.i.q.z.q.9.Q [ l.{ ' { ( Y ( A ( ^ ^ ^ ! ` / K L N c 4 # X X .       + , x c v 9 2 # X ",
"s d O . o o o o                     o     . . .   o * o * % & 8 e e w w w w C w C C C w C w w e 3 e e e w ........C ..C e 3 % % * * o o o o o o X X o X . X v 4   o o o X . X X X X o . X . o o % & & $ O @ - l.v.6.x.5.b.b.b.b.v.b.M.M.M.eXgXeXeXE.eXE.j t y J.gXD.a j Q 9.G.v.[ e.e.x.e.] r.R _ 6.x.l.x.b.x.x.x.e.5.5.x.x.5.;X>X4XpX<XQ.!.i.q.W.W.Q.-X-XeXeXeX0X-X-X=XW.!.W.J.W.F.q.z.D j p t : : j 1.0.1.D 1.2.1.9.1.0.q.0XD.2.D.D.i.i.z.9.9.9.q.7._ O.O.o.O.O.O.O.{ O.( ` ` / L L N 5 ; @ X X .   O > 9 q b b v 5 , $ . . X ",
"m B > . . .   o o o o                     .   .           o * * + & % & & & & & r & & & r & % % < & * * & r & & 8 8 r r & * o o o   o . . o o   X X X . X   9 5   *   . . . . . . X . . + % % % O O O O $ = f x.E ) [ [ x.5.l.5.b.6.3.8.v.!.eXiXeXW.eX0.: @ h eX-XD j 2.q.p.i.9.3.{ ' A M Y I h f ( l.c.x.x.x.x.b.x.c.5.c.' J.*XW.;X<XeXVXVXhXiXhX*XW.Q.Q.!.-XQ.-X=XQ.Q.W.W.F.p.i.z.<.z y p t : : : a 1.D.F.q.<.l l l D q.-XeX:X1.0.i.i.9.7.9.9.q.F.D.^ n Z Z K K N L / O.o.! L N c , $ O .         & N K n x x 9 , $ . . X X X ",
"V N s . X . . .   X X X o o . X   . .                 . . . . o . . o o o o o + o o o X o o . X + o . . o o + + o o o o o X X X o o   . . . . . X o .   . . , 4   .   . . o X O o $ $ % % + X O O O @ @ $ 6 5.{ ( ' 5.( ' 5.5.5.] 5.[ 6.M.!.p.W.q.*XE.j @ @ q.hX9.t a 2.D.J.W.Q.&XD.oXA.x.b.x.x.x.b.x.x.m.A.b.b.m.b.b.z.l.v.;XQ.p.E.E.E.W.W.Q.hXfXeXE.E.W.W.Q.W.W.W.W.W.F.F.i.9.1.z y t t y : : : : t y l 0.q.F.J.F.F.F.J.!.&X<XJ.z D 9.7.1.1.2.q.J.J.8.s , - - 4 b K o.` L x 4 # @ X X . X , q 9 v K Z x 6 9 , + X . X X X X X ",
", : s > . X X . . .         X o o o *   . o . . o                     .       . . X         .       . . . . . . . . . o X           . . . . . .   . . o O o 9 N + * # $ % * * @ $ $ O X O @ O O @ @ + O @ 6 m R ' { ( c.x.b.b.M.b.b.b.M.M.J.q.0.<.9.1.a : y eX-Xl : h W i.F.W.&X&XQ.&X+XO.K.G.b.r.b.m.b.b.b.m.C.m.x.b.M.l.D.>X*X<X<X-XW.i.i.Q.hXBXhXQ.9.9.i.p.F.p.F.p.i.q.q.0.l a t t t : : @ 1 : : : : t j z.W.-XeXeX-XW.F.p.p.:XJ.j k 1.1.Q 1.9.F.!.9.t ; 5 C $.o.K L 9 - $ O X X .     = 9 v L n n c 5 2 # X X X X X X X X X ",
"s 5 s 4 $ . X X X                         o o o % % % & & & % & % & + o + o o + o o X + o o o o o o o o X X X X o . . . . X . o X + o o + + + $ % % + + O o , c O X X .     . .   . X X O O O O @ X . O ; ; ; 6 s s f Q ] 6.v.m.G.M.m.n.D.F.i.q.0.0.1.j : 1.iXD t : p l 9.9.i.F.W.W.W.wX{ / P.v.x.m.N.b.z.v.b.b.l.b.v.M.5.E.Q.,X<XeXhXhXW.F.E.Q.hXrXeXW.<.l <.2.9.w.l z j l j p t t t : @ : 1 : : t : : : z i.F.!.-XeX0X&XW.J.9.0.F.D.l z k Q 1.D.F.q.a s +.O.O./ c 4 > @ X X X .         X X 5 b x x 5 > . X X X X O X X X   . ",
"d m m d 6 @ X X . . X                                 o X % & & < 8 8 8 0 0 8 8 8 0 0 0 8 0 8 0 0 0 0 q e e e e q 0 q 8 8 3 r r & % % + + O X . X . . .     @ = . . . . X X . . X X X O O X O O .   . @ : : : p s g g M ( ] W 6.b.G.M.5.D.-Xi.9.0.0.0.j t 1.:Xj : t a k <.2.9.i.i.F.F.|.%.c K N.G.N.b.N.N.P.b.G.K.N.G.M.L.*XE.*X,X<XeXW.W.;X!.p.Q.eX-X;XW.1.j j z l j a a p p t t t : : @ : : t t : : : _ S D F.F.W.&X:X=XF.F.J.i.9.9.n.1.k D 9.9.Q t t $.O.N x , O O X X O $ + X       . O O 3 4 s x -   O X X X X X X   X 6 c ",
"m p s 5 - # X . . . . . .                                                                                 o o     . o   . . .       .   . .   . X . . . @   = # . . . . . . . . X X X X O X       . = @ @ @ ; : : g Y A ( { 4.5.3.M.M.z.I.-Xq.l 1.<.<.j t j z a t p a a k l 1.1.9.9.q.L.-.n 5 { N.G.G.L.K.G.G.M.x.G.K.v.W.Q.E.p.Q.Q.W.F.*XiXVXW.F.W.-XW.-X-XD.z y a p y t y t t : : : @ : t t p t t : { P.K.D D i.D.D.F.J.H.9.0.i.D.i.9.0.Q l l a t t H K 6 - @ . . O @ $ $ @ O X . .   . O @ 2 - , 6 > X X X X X X . . - N M V ",
"d s p ; # .       . . X                                                                   .         .         .             . . . . . . . . . . X X . . . . # @   . . @ . . @ . . . . .     . . X = @ X = @ ; 6 f g k Y ] 5.x.G.M.G.n.D.-XQ.F.l z a l a t y y p y t a a a j z k D 1.2.P./ n 5 ` t.OXH.N.L.M.K.m.b.m.v.L.pX>X<XE.q.q.w.F.<XiXhX<Xq.w.F.p.p.q.q.1.j t : : : : : t : : : t p a p t t : Q b.4.P.m.A h l Q 1.1.0.1.k j j k z h a t t t s x 2 $ @ @ # 5 6 > $ $ $ O X .       . O O = = = , = . X X X X O @ # , 1 = - ",
"n n s 4 = X X             .                                                               .       .       .     . . . . X . . . X . . . . . . @ . X . . . . = X     . . X . .   .         . X X @ @ = $ = : s I E ] x.b.6.H.G.n.H.K.G.=X;XW.!.0.z a t t a p a p y p t a a a a h j j k A.L v 3 n [ r.Z.C.K.x.C.v.K.V.L.<X4XeX4XeXeXF.<.W.<XeXeX;XW.1.<.9.p.F.F.F.F.1.h t t : : : : : : y a a t t : k I.K.K.K.K.l.p t t t a t p t t t t t t p h d 6 = X X @ > $ , 2 1 = @ 3 # ; , # = # O O > # @ - 1 4 # . O X X O $ O . . . O # ",
"s 6 4 , - @ X                                                                                     .   . .   . .   . . . . .   X . X . . . . . .       .   O @                           . . . O @ 1 1 t d m U R x.v.G.D.n.n.L.3.m.t.&X;X*XW.F.q.z a y p a y a y a t t t t a a a a t g V.F 7 3 > ! U Z.{ c.R.P.M.@XBXAXdXQ.h.eXVXhXeXW.E.Q.*X-X-XQ.p.1.q.F.&X-X!.D.0.l D l j a y t t y a a a t : p n.y.n.XXP.N.l.n I U d p s p g U U B m d 6 , $ X X X + O .   @ ; s M f Y ^ I M U m M S m I M n s 6 4 @ X X . . @ X = , s n n V ",
"6 s s 6 6 1 - - = #                                                                               . .     X   . . . .   . . X   . .                       X                     . O O   @ = 1 s d A E ) 5.5.m.x.m.G.t.G.I.H.H.H.I.I.eX-XQ.E.q.<.z a p t a p y y a a a p a p a p t : ^ O.7 9 2 % n H S.` H .X%X` yXKXJXKXyXR.!.eXW.-XhXQ.p.E.!.Q.g.F.F.q.F.q.0.Q j a a k k j a p t a j j a p t t m.v.m.P.N.b.N.6.H m I N C $.%.C.O.H 6 - ; O O O X       X , d U T ' x.{ k H U ^ U I ^ Y Y H g B s , , @ . . @ - x n s m U M B d ",
"U I M M M g B d d 6 1 , @ X .                                                                                                                                 .         X O - d d s d M f T ] 3.v.n.v.v.G.G.t.t.n.n.v.M.G.y.H.t.J.eXeXQ.W.p.0.0.q.Q a t t a a t a y a a j j k z j a l.` d 5 4 $ d d .X-.d -..X.X.X#XKXKXKXMXF.!.-XiXhXVX!.w.p.F.i.9.p.F.9.<.z j h j j j a t t t p k k a p t : e.N.z.L.K.N.G.m.] M m n b N { { U 6 1 = @ X X . . O . 4 n ! Y g Y Y T T T I M U ( ` U T m I ' ! Y H V M n 5 M B d V M s M m s 6 d ",
"A M U A Y A I H M Y M V m d 6 @ O O X .                                                                                                                     # : d d V f I ' [ 3.6.b.8.M.5.6.b.m.y.r.} t.G.L.N.G.H.t.H.H.m.G.L.N.=XeX*XW.p.9.W.eX&X9.z t : D m.t p a a a k l <.7.1.6.=.F 4 7 0 3 n m .X-.J P $XKXMXMXmXKXKXKXMXK.-XeXhXeXeXF.<.9.1.<.W.eX-XF.q.9.9.0.l 9.0.l a p a k a t t t ] m.b.G.K.P.P.M.6.T M V v c N U K 2 # $ X .   X = d T I ) ( T Y I T { E Y ' ' ( I I ^ U ! T Y g U B U T T A U M f d S d K V N ! V m ",
"A A U M d I I R M A Y A A s M I S s s V 5 - - , @ X                             X X                   X X       .                                   # s f Y ] ] 7.3.l.z.3.m.3.] b.v.m.W G.v.3.e.y.G.L.}.G.G.6.M.G.m.G.|.G.m.v.J.eX*XE.F.q.E.iXeX&X9.l a : R wXQ : y a a j j l 1.1.m.! d 3 4 o.P s P $X{ 7 | .XO.*..XMXAXMXMXMXBX-XeXhXeX-XQ.q.z j j p.*XF.D.9.1.k a t l k a a p a a a t : W t.x.G.n.K.z.b.m.v.l.g s 9 n c 5 - O       @ s I ] 6.g f T ( Y ( ' U H ^ ' Y ^ ^ ( H g s p m U m B M A M A M m M A U m f d s d s M f ",
"Y M U U I ' Y I U M Y U I g ^ H Y ^ A Y ^ U ( I H I d 6 - - @ $ @   + .     6 d 5 N v 2 O X O O $ = 6 s h g 6 # 5 6 - = = # # , c s d 6 s 6 6 s s U 5.7.3.W D W Q y.n.7.t.6.t.G.6.r.H.e.7.G.t.7.y.t.G.y.n.n.n.L.K.G.8.y.M.M.M.:X-XE.p.g.E.<XhX-XF.7.l a : 2.|.G.p t a a j k l l 1.{ d 9 3 H ` d , ` $X/ H -.$X-.*.mX#X-.@XBXMXKXmX!.;XQ.W.E.E.q.z 1.p.0.<.l j p t t t : : t : t a p t t 5.m.x.H.9.b.M.b.K.v.5.N.x.U V H m 6 3 6 3 , m ( [ l.[ E f M T k U T I I m M I I U U ^ R A T g 6 M m m U ! m B B f U M f m d m d M c p d ",
"I B U Y ( I f M M n M U R R Y ^ I _ T T T E E A ] ) E E _ Y I M d - d s V ^ P F F 7 F F ` Y P H E ] [ W 3.3.Q T _ ] x.] ] ] A ] W 2.5.W 3.Y ] l.6.8.3.1.W W D k l t.n.7.m.7.t.t.n.m.n.G.y.n.m.e.n.L.7.] m.b.H.}.G.G.H.3.m.N.J.:XW.F.F.F.&XeX;X!.i.1.k t : t.H.I.g t p a a k l z [ ` n c 3 P ` 5 - -..XF S..X$XBXyX` r | BX#XKXmXAXmXF.F.F.q.9.9.9.W.&Xq.l j a p t t a t t t t y a t t 5.L.N.N.7.j E v.e.b.6.E x.x.x.b.x.6.O.{ E [ Y 5.] I ] ( ~ Y ' ( U H ! H ( R H Y ! U T U g M ^ I I N m N H M m U m M f S M S V n f B m s m ",
"I U E U Y T ' ^ m Y ( Y T E ] W ' ' { U H U Y I D f ' c.' R Q T } R b.{ U ' G 7 7 F 7 7 G H 7 ' E E 3.6.m.5.e.e.W 5.6.l.E ] x.v.7.6.t.n.G.b.t.6.r.k D 3.1.1.1.k g g n.G.t.m.n.3.v.6.e.M.m.n.L.G.W t.G.|.e.3.L.|.D.H.H.m.G.t.&X&XF.E.F.g.-X-X&XF.9.Q j t p K.t.b.s p p p a j j l c.H d F - H / > , S.-.H $X$X#X+.w X.&.KX*.@XmXMXBXBX8X<.1.D z l i.Q.W.J.i.1.l j a t t t t t t p t p v.G.e.M.] x.x.x.5.5.6.{ ( 5.' [ W ] 5.[ [ T E ' T T [ E A A R ' ^ I m H M M M I U m S I I M Y M M d M I I M m f V d m U m m B n s n f d U m ",
"A Y ' I A f n A s n ( g T ^ Q ' E R I 6 ; , x 5 f T ' s I 3.v.m.G.v.{ ^ 5 d 7 7 7 n d 7 7 F P m { c.x.x.m.W b.3.( ] E ^ ] U A ] v.b.v.W r.M.Q 3.] Q W 7.e.Q j t : d 8.e.b.m.n.t.W Q e.y.e.m.K.H.L.}.8.e.|.G.H.L.}.L.L.D.}.J.-Xg.E.E.p.E.*XQ.F.q.1.l a t Q oX|.l.6 - : p a j j ] b 3 3 > > C H @ 3 %XP .X$X-.` +.$XU.$XyXX.yX.XmXMXMXMXI.0.<.w.!.;X*Xq.D k j p p t t t : t t t t h v.m.b.M.v.x.v.6.c.c.] l.^ ] b.E ' { { { Y ^ I B m U A d m M ~ f M A U I ! U m V d m m f d K ! m f K M s M B f d V U S m M B d m M I B s m K s ",
"Q R E T I U H / Y s n ' O.( U c ` d ( ^ n q 4 4 d n I c.P.|.|.}.L.n.I 6 6 3 7 m O.N.c.n # 7 F 7 7 ! 5.{ x.x.b.] e.3.5.E Y E 6.e.e.6.v.] M.b.6.b.x.E k h 6 : @ 6 { e.t.n.v.y.m.m.M.K.L.m.m.}.m.t.D.t.3.W L.}.t.n.L.y.H.H.D.-XW.E.!.E.F.W.E.F.p.0.D j a t b.}. XO.3 # : t y p k K # $ O $ 3 P q X d %X-.Z.P o.S..X.X-.yX+.Z.mXmX=.U.BXMXmXwXeXsXiXeX-XF.D a p t t t t : t t t : R K.M.b.K.6.( b.] { l.[ ( ] ) [ _ ^ [ 4.{ ' E I M ~ S ! m s 6 s Z B m m V V m m B m n S B B m N f H V B S B M M M U U Y H U / U I M I U B d M B f ",
"N n H ! ^ K 9 6 6 n 5 ! H N N , 3 v K H 9 3 > U { x.L.}.L.H.G.t.7.Q k H ` Y 3 3 n f d T 7 5 # 7 d 6 ^ f ^ N.e.e.b.V.c.] { x.7.5.5.e.e.W t.e.v.x.6.b.] d B E { C.y.n.v.7.G.G.M.m.x.v.n.] n.I.m.H.G.G.|.M.R 7.e.|.D.D.9.3.|.-XW.W.Q.q.E.E.F.p.0.D z a t k G.I.|.5., # X : : g ` 4 # # > > 3 P 7 O P .XL 7 X.U.%X%X%X$XMXr o.MX$X8 X.mXMXmXmX9XeX*XW.F.q.<.j a t t t t t t : p Q M.b.4.v.x.{ x.6.5.t.] ( ' M S O.A s d ~ Y U Y I M M 6 x s V m s V V V d m V s c s s 5 d s 5 f V m U U H m m M U U U M c m I N V I I M Y I U d m m ",
"0 0 5 9 9 2 2 0 8 9 4 5 9 0 , # > 0 5 0 ; 3 f C.}.}.K.D.y.7.7.W k a : n s 7 3 6 ; @ s n - > = 3 1 m ' Y ( ^ ^ ^ H ^ Y Y M E 5.5.v.v.v.m.v.M.L.v.m.N.b.N.L.M.] b.r.M.m.G.n.m.3.e.7.8.n.v.G.y.m.G.m.N.m.N.x.N.D.H.I.t.n.M.I.Q.W.-XF.q.E.w.q.9.<.z a t t b.|.|.L.m.: = @ ; H N 1 = # 3 4 # 3 P , > -.X.7 #..X%X.X%X%XyX.Xq L q 7 # J *.yXMXMX#XI.F.i.0.1.l a p t t t t t : A v.t.] 5.[ l.S A ) ] ( W { U ' d d V s d n ! d f M m B B s s s s n s s 6 V M N d m V V m f n d m N V N m s V U Y M M U U B s B K d M K U I U M U ^ ^ U ",
"X O o o o + 3 0 2 > # X X . X X # , = , { }.}.] e.m.6.3.R k k p t h m I ^ ! H ( B s f g f H H ^ r.6.{ A.r.{ ] 3.] 5.b.3.b.e.v.N.b.W 7.b.e.m.N.n.G.G.G.m.v.m.e.N.K.N.m.M.e.b.L.G.H.H.|.m.}.e.m.G.}.P.n.K.y.H.n.3.v.G.P.K.-XW.W.Q.q.F.i.1.<.<.z a t t W P.N.m.n.I.' 6 s N s @ @ # = > # O 9 G = F -.P -..X-.&..X$X$X.XF -.%Xo.7 q #.*.*.mXmXmX}.9.9.0.D k a t t t t : a 3.m.3.] c.E ] x.O.{ [ ' ) U ] Y ! U U N S U H d d V d d 6 6 s x x 5 4 4 c c 5 n s s M M f n f B d 6 x m s ! c B ^ U T ^ H K M M ! V h M / N I T U A I m f ",
", s n , # O @ X # - 6 4 > # $ X = s O.P.|.H.m.7.k R j a p p : p M 3.5.E b.C.5.{ 6.x.5.x.m.b.3.b.e.6.x.t.b.t.3.M.G.7.m.e.M.n.W x.6.t.n.t.b.M.7.n.e.t.L.n.e.m.3.t.t.n.G.L.L.7.7.t.H.t.e.G.G.G.H.H.y.i.m.H.G.m.H.L.m.H.H.J.-XW.Q.E.q.a.w.z j j y y t k L.b.l.v.M.v.n.) s @ @ @ X # # # = # 5 7 , ` | Z.-.C J L | ` -.=.| +.` X.X.-.Z.V.%.Z.MXyX#Xx.<.1.k a p t a t t E b.6.{ ] ] ] ^ { S Y _ Y M h ^ M 6 f B m c d s 6 6 4 - , = = , 1 1 > @ @ - 4 - 6 s 6 V s s x N V K H n s B d H N m M T ^ ' U ' ( Y H U ( m Y ` ' I ^ M U U g ",
"V 6 6 6 n H V H ^ ' R ( ^ T M H Y m.L.D.8.3.Q l j p p ; # 1 f ' ] 7.6.x.[ [ 6.6.6.x.6.3.e.e.N.e.W e.e.5.5.] E v.e.x.G.G.m.G.G.n.x.e.e.W t.}.N.n.e.e.L.t.G.H.m.t.t.n.n.M.n.n.}.m.] G.|.N.7.i.L.n.8.W t.t.t.m.m.N.G.L.D.J.*XW.!.q.9.i.l a y t t p Q G.G.J.G.L.z.N.D.L.P.N O X X # = # # # > > 7 P *.| $ & J X..XS.H d > 0 ..P C P %XS.-.-.U.#X+XY.D l k a t a t h _ { 6.Q ' ( ( M s H M m B B c V m n m 6 6 6 1 @ O O O X O O = = @ # # 1 6 6 6 5 > 6 s x V - , d m M m m m Y ! I Y I f T ! s d ( U U Y U d I Y ' ( U A I I ' T T ",
"s d d m 6 d T Y I ] ] A R U [ t.G.y.3.Q l j a t 1 ; ; s m ( ] [ 5.5.r.x.x.2.b.e.6.) O.e.] e.x.6.c.b.t.6.b.A.b.b.N.b.e.b.e.t.e.t.6.e.n.v.6.3.r.m.G.m.t.e.L.m.e.M.n.G.t.n.D.t.K.G.r.b.N.t.n.N.3.n.L.N.K.}.G.n.n.t.N.K.n.&XW.W.g.0.w.0.a y y h Q G.G.G.G.L.L.I.L.L.n.M.L.K.^ @ @ ; = @ X X X & 7 P | P q 8 7 8 P -..XS.L % o 8 J ` -.-.9 7 4 Z.$X.XO.a a y t t p U U W Y T R U M V s s d s s s s 6 1 1 , - + # # O . @ O O O O O O = 1 , 4 x 6 1 6 4 s x c n s c M M B m I U T M U U / Y U / m M ^ m m %.{ ^ ' Y M g g T U A ^ U g ",
"~ M R T Y U ' ( E ) E } ] [ 7.7.D g a t : 1 @ 1 3 f T ] 5.e.3.} E x.b.] m.v.t.W 5.5.r.5.t.m.b.] { 6.7.] [ 5.x.b.n.b.v.x.x.] 3.3.W m.v.6.6.e.{ G.G.H.t.t.N.3.m.|.D.G.7.5.m.G.H.n.e.N.D.G.}.N.G.H.m.}.b.L.L.}.OXL.D.G.F.*XW.E.w.0.0.l a y 2.P.b.I.G.|.n.P.=XI.H.K.H.K.6.0.n.e.s @ # X . $ 3 H O.-.-..X%X%X%X+.0 r 7 ` %XJ q o 3 | P -.F 0 3 0 .XZ.V.h p p t p B d d s s 6 6 s 6 s 6 6 6 @ = - > = , , - , 1 = = , - # ; 1 2 - 6 , , , 6 1 - 1 = 4 5 5 : s s V d m c m g m U ! m ^ I I f s ^ ' ^ U ' m M I Y ' ^ T ^ ( T m ( T A H ",
"~ T ^ ( [ T ^ { E [ } Q 5.W g t s s s s N U I 5.v.7.t.{ ' 3.6.e.M.e.x.x.Y ] x.6.3.N.] r.8.6.m.v.n.v.m.6.[ A x.e.6.e.e.7.G.t.7.b.b.t.3.e.t.N.r.b.M.D.G.}.m.e.t.t.2.t.m.b.m.n.m.K.I.D.H.t.n.b.b.E [ G.G.H.n.G.I.D.G.G.*XQ.W.F.1.<.1.a y k H.L.L.y.8.G.|.n.z.L.4.m.L.K.M.z.M.i.m./ K ` o.-.-..XS.%X%X%X%XS..X-.P L C 7 ` .X` C & F P P ` 2 2 , K C.O.U y p t 6 6 s s 1 1 1 1 1 1 , , = = = , = O # = @ ; 1 - - - : 6 6 d s N d c n s 4 6 6 , 6 , s x , s s 6 6 : p 5 d M M S M A Y ( H A ( ^ Y I U T ' U A ' T Y E T I ' m m R I T ",
"( ] ' T T ^ ' ' T ] x.] g T M S Y E { ' 5.l.t.] ] 5.6.7.7.t.[ { 3.] r.[ E { l.3.3.e.x.x.6.R [ 6.E 3.b.3.v.t.3.Q 3.E m.m.G.M.m.P.m.y.b.3.b.}.t.n.m.c.e.8.v.c.b.b.b.3.b.G.y.D.r.H.}.I.N.G.e.v.R s { t.3.D.H.D.H.m.K.F.-XW.E.9.<.<.a y z L.8.t.L.K.L.m.I.y.v.K.K.D.2.M.z.q.I.I.=XqX X=X}.Z.-.-.%XA.K ` .X%X%X-.P P P J P %XS.P H 7 r 9 -.9 > n 6 ` O.~ p : 1 6 @ = > , , , # # # @ @ @ O $ O @ @ # = = # > : 6 d 6 V M V f g V n I Y s s s s 6 - , , 6 4 , 4 9 x ; 6 V n V M V M M Y M A g V U H ' Y Y 6.6.7.( ^ { T Y { ( V O.( R ",
"A g ^ M p H U U ] ] { ' ( [ R l.( R { ' ( [ e.l.3.T e.c.6.e.5.' U ] 3.e.M.3.6.v.e.] ] 3.m.6.3.5.^ { x.b.[ 3.M.t.t.3.x.b.v.6.n.b.3.t.G.y.7.7.e.7.n.3.6.t.( V v.L.t.G.6.n.L.6.l.G.9.D.I.L.L.t.n.A.K.b.L.oXoXL.l.x.H.-X-XE.i.<.l z t a m.G.H. XL.9.I.e.t.7.G.m.M.K.z.F.!.eXeXeXeXQ.-X-X&X}.A.` { %X-.J J -.S.S.S.S.` -.` -.%X` ` P 7 > P / 4 6 7 d ! A h @ $ @ # $ # @ @ X . X @ + @ # @ O O X X X O @ = 6 s f m T T R ~ T U Y Y ( I g / ! d s x 5 4 6 6 4 , s 6 6 s c s s f K M N m ! I h d S ~ U g I Y T ] ' Y U Y T ] Y ( { Y E ",
"( M M T ^ ( A ' ^ d W R ] x.5.5.] ] { ^ ' ] U 5.] 5.e.e.] ] e.e.3.[ b.x.e.M.l.3.e.t.e.e.x.5.N.t.6.N.6.3.P.n.D ] b.' V ( E r.b.t.t.t.D.G.e.e.P.v.t.3.b.n.[ K.t.y.m.H.G.t.G.e.e.8.y.H.n.L.}.e.G.I.m.n.L.G.G.n.m.b.I.<XW.F.q.l z a t e.L.1.v.oXH.n.m.m.m.n.i.L.z.H.0XhXhXdXeX-X-X!.!.W.&XJ.XX-.-.S.%X-.q q P S.-.-.S.-.` | *.-./ -.P F d H P n - - V A 6 # @ # $ O X O . . @ @ # @ @ X # O O @ > 5 6 s s A / I M ^ [ 5.] ) Y { 3.E H ' ' E S ! U M s x s s s 5 6 4 9 s s f V m p c d B B M ( A U U Y ^ E f ^ { ] R ` ' A A { Y d ' ",
"E ( [ } ] 3.6.[ M n ^ } [ ] E x.W E x.' ^ ] M E e.] 5.c.] e.x.c.v.7.b.Q 6.5.] 3.e.e.' 6.b.[ x.v.3.t.e.M ' x.M.v.m.x.c.E A m.6.6.M.] m.e.N.G.e.t.M.e.n.R m 8.M.v.G.G.H.}.M.n.L.K.t.b.m.}.D.n.n.n.|.n.y.t.y.t.I.I.0X-XF.g.0.z j t A G.I.L.oXD.L.OX|.n.L.m.2.9.W.eX-X-XdXsX-X!.F.p.q.q.E.W.P.Z.S.-.-.S.J 0 7 ` -.` ` { ` ` ` ` ! H o.P H V d f d - s M 6 @ > @   X X . X X O @ = O @ # @ = 6 5 6 s V m M Y { 5.c.x.e.e.3.t.v.6.6.{ ( T ] ^ T U ' ^ m N N d s s s 4 1 4 s s - d f V d d Y Y Y ^ A _ Y ^ T T U T E T U ] 5.T T ] m A ",
"' ] ' ' 5.T A I ' ] ^ [ ' { T ! K H N N n K H H / ^ { { C.x.6.x.{ 3.5.] x.c.b.v.] 6.E 5.W x.[ b.m.6.m.b.] ' n.G.e.t.6.R v.N.6.7.K.m.5.n.m.N.7.y.6.H.K.r.x.m.m.b.v.G.H.H.G.P.n.b.O./ v.H.P.L.K.D.|.H.7.G.|.L.n.-XeXW.W.p.z j y h G.7.7.n.I.n.n.m.H.t.z.H.=X;XeXeX*XW.W.Q.W.w.0.<.0.E.-XeX=XR.%.` -.c.F 4 0 0 P / ` P P P H G F V H n m d : ; 6 - : n @ O @ . X X . O # @ O O O O @ @ 1 6 s s U S B p E ( x.Q Q m.v.e.6.}.L.t.e.b.] 6.x.x.] M Y T E ~ ^ d s p d n s x 5 x n 6 V d m B M U H m I R ( T ^ ( ] { ^ l.x.5.] ] ^ / K N ",
"^ M I ' [ 5.U I [ ] ' L n c v v v v q n b v c J n c N H E 3.5.' { 5.5.} 5.6.x.e.W [ 3.5.x.m.5.Q W e.b.t.G.e.5.m.7.2.3.e.] 7.9.3.m.n.t.A.v.3.L.G.G.n.t.n.m.t.H.m.K.H.I.H.G.G.n.H.L.J.I.H.L.H.oXH.6.H.G.t.m.t.J.iX-X-X*X9.j y t t.I.L.G.K.8.n.z.z.H. X;X<X;XeXdXeX!.W.F.F.E.p.q.p.-XeXeXeX;XwXZ./ ` ` 9 r 3 7 H G H f d m U d d s s F d - ; 1 ; ; , = # # @ ; = = @ + # O X O # = ; 6 p V U T { 6.W { b.4.6.7.6.m.m.n.G.n.m.] [ b.m.6.x.6.] b.5.' Y ) ` ~ U B S ^ f s s m f x c M B d m ! S M ` A E ^ H ! ^ E Y E ( R E / L C 3 0 ",
"M g A 6.{ s ^ [ h n 5 9 C v v 9 v v v v v b 9 9 N c c H d k 7.3.b.x.5.3.] e.7.m.m.e.m.6.3.5.b.b.t.3.e.n.D.7.R s p g T 3.e.m.Q ] t.Q 6.r.v.e.m.3.7.e.b.5.G.N.L.L.v.t.}.G.n.D.L.t.n.n.y.7.b.v.G.H.8.t.n.E r.J.hX:X*X;XW.1.y t W L.K.v.N.M.K.K.N.=X;XiX<X0XsXeX!.W.W.i.w.9.9.0.E.iXhXeX-X-X&X XA.P P ` v # v H V d s 7 6 d F s 7 s 6 H - ; ; ; 1 = # @ # = @ = $ @ + @ O @ @ 1 1 s f M l.Q W r.3.W ) v.C.7.] 6.N.G.5.W L.x.b.N.b.v.K.6.x.C.b.b.v.5.[ 8.5.l.{ ` ^ ^ ^ U ! U / ! ! m d m ! U K ^ ^ / ` / N N v 6 Y M Y 5.Y v > > % 2 ",
"g E 5.] 5.H d n 9 9 q q 6 9 n b 9 9 v v q v q n 4 9 n 5 N d h D ] v.6.] x.t.] Y 5.W W 7.7.Q e.x.[ 7.e.b.3.e.M.[ T e.m.x.8.e.} z.G.G.N.v.5.7.e.5.b.6.M.b.m.N.K.G.b.G.n.y.v.n.L.t.W 3.3.b.A.n.D.M.z.m.G.F.Q.NX;XW.-X!.p.l y j v.G.H.2.G.D.z.H.Q.eX<XeXiXdX:XF.p.q.q.1.k j a 1.eXdX:X&XW.J.J.F.N.H H P F n d d d 7 6 - - 7 6 : - - : s : - # # - O O $ $ # # # # @ 1 # - 6 6 6 M A R Q 6.[ 6.5.y.G.m.W b.G.m.e.W v.v.v.M.M.N.}.y.7.m.t.3.v.t.t.v.6.e.b.v.6.5.[ x.( Y ^ I U O.U U Y Y N K o.{ / / / / / b ,   $ / m l.[ V q 3 & 0 4 ",
"Q { x.A U n 5 4 0 4 9 v q q 9 q q H v 9 J v 9 v J 5 c c 4 n 9 H I g ] b.N.e.' { x.R W 3.t.n.b.} T n.3.] t.t.W n.m.x.6.5.t.M.N.L.b.M.D.G.t.x.n.n.M.8X0XH.G.H.G.H.K.v.t.7.K.K.i.}.oXn.e.L.D.z.P.G.M.L.=XhXVX;XE.p.p.p.1.a y Q H.J.!.!.!.;X-X-XeXeXeXeX=Xp.q.0.1.l j y t t y F.eXW.J.F.F.9.9.2.x.! n c s 5 5 s 6 7 7 : - - = : 1 - 6 - ; ; @ O O O . X @ X @ # = - x s m m g ( ( T v.v.N.m.N.' v.H.H.t.m.t.G.H.e.v.v.}.G.L.K.t.G.K.N.t.G.m.5.6.e.3.{ 5.e.6.5.{ m.' ' c.] T 6.U I ] ! 6 N ` o./ / ` L 2 +   X 3 N / ] T K v q 8 C q ",
"{ M ' n 4 4 0 q q 9 9 4 9 9 v q 5 q J v 9 J n 2 c v 4 N c 4 c 6 V s f 5.7.3.b.6.W ( 5.5.] e.3.6.b.v.W 7.M.t.G.t.r.b.x.N.M.v.K.K.6.e.H.7.v.L.n.v.9.;Xp.0.J.i.n.7.M.m.H.L.oX}.D.t.3.m.N.G.G.m.K.i.I.hXVXiXQ.W.q.w.<.i y l q.-X;X<XeX*X-X-X<X<X-X!.=XF.9.<.l j a a t t : t k F.F.D.9.9.1.1.l k Q m 5 6 6 6 6 7 : , - - = . O - - 1 1 - - #   O O # X O $ # # - s M A M ' [ 4.b.M.b.n.t.v.7.N.m.|.n.G.m.n.m.M.e.m.K.m.n.W 5.3.r.K.3.t.n.x.l.] t.n.W ] A.5.3.3.5.e.x.b.b.6.c.] E O.O./ ! { o.` ^ K 4 X     # x K K ` / K H 3 8 3 3 3 ",
"' m 6 2 2 4 7 3 4 9 C q q q n J J q b J q 9 J H q v q 2 c 5 5 n 5 d 6 R E v.6.] [ 6.e.x.5.3.3.e.7.5.v.3.g e.G.M.l.b.6.v.v.3.W M.m.n.b.t.v.e.G.n.0.0.j a l p.J.9.t.v.m.n.t.K.H.b.k e.G.3.) z.!.eXhXeX!.W.E.i.0.<.i l F.;XeXeX-X-X-XeXeX;X!.W.p.q.0.1.l z a y y t t t t p l <.1.Q D l j a a t I n ; 6 : 7 6 - $ ; - - # X X $ - # ; : - X X X O O @ X X = 6 f m U 2.z.m.v.6.7.n.7.3.n.K.H.G.b.m.v.G.] e.] e.x.m.D.n.n.x.5.n.H.}.e.7.7.] m.N.E 3.W e.t.] e.t.5.e.6.3.6.5.m.b._ ^ ^ / ` ^ / K 5 @ = n N 9 N H N K / L O.b %         ",
"H 4 4 4 4 9 0 5 4 4 5 q H v 0 C ..J 9 J X.L v C 5 3 9 0 3 n 4 5 5 9 6 d s ] 6.x.x.6.7.5.v.e.e.b.r.t.m.b.E 7.5.e.G.t.m.L.K.G.G.n.K.n.t.m.t.9.H.M.y.F.p.0.j j 9.F.J.i.y.v.6.7.D.I. X;XeXeXeX-XeXeXQ.!.W.F.9.<.w.q.W.;XeX-XeX;XeXtX0X-X-X!.W.F.q.9.1.l z l k a t t t t t t t t t a y y a a t t m c # 5 7 : : - X X = - # X X $ O   O # . .   X O O O @ , 6 s R 3.e.v.m.m.N.L.e.t.N.] t.G.6.v.N.}.m.M.P.M.y.}.}.5.Q e.b.n.t.7.n.N.m.n.v.6.E N.e.] 5.e.R g N.b.] 6.x.x.[ / O.` / ` ` / / K 5 # X 5 ` O.O.` ` ` ^ ! ! N ` / O     .   ",
", > 3 > 3 # 4 0 q 0 4 9 q J L w q ..@.J J b q 5 H v 4 4 4 4 3 3 5 , 5 n 6 g v.m.x.x.t.A U ] e.v.t.e.v.5.6.r.b.6.v.N.6.y.m.t.m.G.n.R e.L.H.n.y.N.H.&Xi.0.1.0.p.q.i.F.W.=X=Xy.y.I.iX0XQ.;XeXQ.!.W.W.F.9.w.p.!.eXeXeXeXeXdX0X0X-X!.J.F.F.F.D.i.i.0.1.D k k z a a p t p t t t t t : t y t p a : V 9 @ - 3 - , # O X # - # # @ X               X # = - 5 g ' ] 6.v.b.b.H.G.L.H.m.}.K.n.L.M.m.m.r.t.7.e.L.m.H.D.n.r.t.n.P.b.2.y.M.3.M.g s x.' x.t.v.m.c.{ e.6.5.m.x.3.b.^ / ! / { / / ! c # X . O 3 4 5 n L / o.{ ` / N L K #         ",
"4 4 4 4 3 3 > 3 4 q C 9 v J J X.o.X.o.J 9 v L C 4 2 3 3 4 $ 3 5 $ > 3 4 3 d A e.{ 5.] [ v.b.e.3.e.e.5.e.v.v.5.M.b.M.e.M.W W 6.m.m.m.b.e.T b.D.n.8.<.z l a Q D.F.J.F.p.E.W.&X&X=XeXeX-X!.!.Q.!.Q.!.W.!.eXeXeXeXuXrXeX-X!.F.F.F.i.q.9.9.2.0.1.1.l j p t t t t t t p a t h t : : : : : : t : 1 9 3 X O # , $ O $ # # # @ . X           X = - - f A 3.] 5.x.5.t.P.M.5.m.H.G.n.P.t.m.K.m.G.L.L.M.y.}.}.D.G.n.7.n.H.M.b.P.6.6.t.} [ m.5.' 3.E [ W T 6.W e.b.V Y 6.6.O./ / ` { ` / ! n > X . . X ; , # # # = - 6 c N K / ! L x > 4 2 2 ",
"# = = 3 5 3 4 3 3 5 0 ....0 L U.*.w q ..@.J q 4 3 5 v 3 3 4 4 3 # = 4 = - # 6 A 3.v.v.b.r.Q b.N.v.W 6.M.x.] D.G.m.3.m.e.] 5.W 6.W e.5.e.T C.W n.7.D.D.q.D z l D 0.a.F.q.i.p.F.E.W.-XeXeXeXeXeXeXeXeXeXeX0XeX-X!.F.F.q.9.z.0.2.1.D l l l k j a p t t t t t p A h Q h p : : @ . . @ @ @ @ @ . c # X @ $ # @ $ @ X . .           @ = 5 s M T ] 6.6.3.5.b.b.b.e.6.m.b.b.K.}.G.|.n.v.P.x.3.7.3.D.y.M.3.y.}.m.G.N.N.N.v.7.n.b.5.[ { 5.e.v.b.b.x.m.] b.x.W %.! U ' ` / / K ` / / n > O X . . $ s L 6 = 3 = = # # # = - 2 x b N K / L 9 ",
"3 # # # > 4 4 0 4 3 q J w o.o.X...J J J L 5 3 5 v 4 > # 2 9 - O 3 5 3 # # - 3 f c.b.x.N.7.5.n.m.v.6.3.M.c.e.' [ e.b.m.y.G.t.] ^ s R 0.t.6.2.' K.b.D a a a k 9.i.9.9.0.9.9.9.0.0.q.F.F.W.W.!.W.W.W.W.F.F.D.q.9.0.0.1.<.D D l z j j k a a p p p p t t t t m ^ M p 1 @ @ @ . . X . . . . . @ b / = O X .               . @ @ # 6 H B ( ] ] [ r.m.G.P.K.m.P.H.G.L.6.N.m.3.v.] e.v.8.t.N.}.T Q 6.f R 3.m.|.G.b.v.m.3.3.y.7.R 5.b.W 3.b.v.5.R 8.5.A 3.t.l.( / ` / / O.K m / n ; X . X . # 5 N K / 5 = = # # > = = # = # # - - - 7 c n ",
"3 3 3 # # # 3 4 4 w 5 4 X.=...4 J +.X.5 3 0 0 5 4 # $ 7 3 $ # > > 2 = # ; 4 3 ; Y 3.r.t.t.G.M.Q e.D.m.e.3.] 6.5.3.e.7.i.r.W f : I I T XXn.r.m.] b.8.0.7.Q a j z l l 1.1.1.D l l Q 0.9.q.D.q.9.9.0.1.<.1.D <.l l k j j a a a a a a p p p a a a a y t : : 6 @   @ O X @ . X X . . . . @ = s c 1 @             X = , 1 s m I U ] Q W 6.5.b.e.N.n.L.3.e.n.M.7.t.e.7.n.e.c.6.e.K.t.H.8.l y.} A.5.E G.7.r.t.t.M.y.N.{ I N.G.e.e.m.M.7.x.e.m.W v.k { ' Y ( U K { n - 6 c L 9 O . X X $ 4 N K K K ! ! K n s 3 - # # # # # # # # # # # > ",
"$ # 3 3 # 3 # > w 5 4 q J J q ..w b q 3 3 q 9 # $ , 6 > # $ $ 3 3 $ = > 4 # # # d E 0.3.e.3.6.6.b.e.3.N.7.N.G.6.b.v.] R t : : @ p d Y e.8.K.H.t.b.3.j t t a l l l l k j j a j a j l 1.1.D l j a a a a a a a a a a p a p p p a a a a a j a a p t : 1 @ X @ @ . @ @ . @ = ; 6 s s h d g U l.[ x.T - ; = - - d d M I ' T E b.x.l.C.e.m.e.e.e.N.D.n.6.N.L.v.c.P.x.t.n.t.M.m.v.m.G.|.n.Q M.m.P.e.3.b.m.[ e.e.7.7.' Y v.N.N.E ] y.] R f Y ] E ) M ^ d n ` T m m 2 # # # = X X . @ 4 N ! / ! ! K / K ! / ` ! K n 5 - = # # # # $ # # # ",
"# $ # 3 2 = # > = 3 C C 3 3 J ..q # 4 9 9 3 # # # 4 3 X $ - 3 # @ $ 3 , $ $ # 3 3 ^ e.7.e.R c.[ E b.R 3.t.v.t.n.b.N.b.{ ( R ( I { e.t.G.7.t.y.t.G.K.l 0.1.z a a a t p t a t t t t p a a y t t t y t t t p t t y y t t y a p a p a a a a p t : @ . O @ @ O @ 1 ; 1 : s h R R 2.R z.5.z.n.3.Q h Q m.6.{ ] [ 4.5.5.x.D.n.K.G.v.) x.m.K.6.b.R [ t.n.G.}.}.m.G.XXt.K.G.n.m.N.e.7.t.W m.}.y.G.x.2.M.yXqX+Xc.g 3.r.x.e.G.Q Y I R g 3.e.I 5.r.' T b.3.I - - d H H n s 6 - # . X 2 N ` / / ` ` ` ` ` ! ! ! H ! / / ! / L V 9 , = # # # # ",
"> # $ $ # > 3 = $ > 0 3 3 0 0 7 > 3 3 4 3 $ # 3 3 # $ # $ # # O O > ; $ X = 3 - @ 6 e.3.) t.8.e.e.M.x.6.n.3.3.6.5.K.] r.m.v.t.e.N.t.D.y.G.t.m.b.6.8.Q j j j k k a p t t t t t : t a a p t t t t t t t t t t t t y t t t t t t : t t : : : @       . = : s I R T ) 5.3.6.b.6.m.v.n.n.m.t.n.b.b.n.D.m.b.e.L.v.m.v.5.5.t.m.n.t.I.N.G.G.N.}.n.v.m.v.b.m.6.G.H.n.H.m.m.e.e.K.t.b.v.M.K.b.W t.v.M.] %.XXO.f T ] ] t.6.Q k ] x.x.C.e.R x.e.T [ U 3.t.v.5 @ - - 1 n ` / ! b 4 4 x m H U ` ` O.` { O.` ( / ^ ! ! U K K ! ! / / K V 9 4 ; ",
"> > = # $ # 3 > # > @ 3 4 4 # # 3 5 3 $ O # # > # X O > > O + o $ > X + = 3 # O # - T c.v.K.Q e.n.y.b.W Q Q m.8.G.t.e.b.x.e.c.N.v.e.N.n.e.M.6.m.v.n.D.R t t t t t t t t t t : : p a a p t h k Q Q S S f f 1 @ O @ @ @ @ @ @ @ @ . @ 1 ; @ : s 6 d I Q x.7.t.M.t.D.n.v.v.N.b.m.K.G.G.K.G.v.7.v.M.] e.L.G.3.W y.n.t.K.t.M.t.n.G.n.D.t.H.t.n.H.W 5.e.b.b.L.|.G.G.L.b.e.t.M.W W v.v.5.b.G.m.E e.W : ; d C.{ A x.E k x.v.D e.c.5.x.Q G.W A ] N.V.T x.s @ 6 - - 3 4 d N K 6 9 H B B n V V B ! $.` ` O.{ ` ` ! / ! ! Z B N N H H K K H ",
"O > > # $ O O 2 7 O $ > 4 # $ # 3 3 $ X ; 3 # O O # # # $ . O # # X X O 3 $ O $ 3 3 = V [ O.O.C.v.r.6.b.M.W v.e.] 6.i.N.t.e.5.5.t.n.e.x.5.3.e.M.n.9.8.n.1.a t t t : 1 @ @ @ @ @ : t : : s A h f p p p ; @ .     . @ . . . @ 6 H V Y Y W v.x.6.6.G.n.7.5.n.M.b.m.M.7.v.t.m.t.M.L.oXn.] m.6.n.7.m.M.M.H.3.n.D.e.r.3.M.M.N.n.n.K.G.}.G.|.n.e.t.7.}.7.m.G.t.N.G.m.{ ' t.H.3.[ x.3.R ] t.W x.R ] t.5.] W 5.m.M.s 6 A v.m.Q m.v.} 7.v.5.W m.e.7.] ' C.s @ 6 - - - = 1 - #   $ 7 5 N K / K N V V n H K / ` O.O.` ` ` ^ ! ! H H N n H N ",
"X X + 3 # O $ # # # $ $ $ # # # # O $ $ > # X X $ 3 # X X O # # X X ; # O X # 3 = O # 3 n s m H [ I M 6.6.v.n.n.e.t.e.t.G.G.e.y.e.v.e.b.H.6.n.m.v.v.t.3.e.] f 1 @ @           .   @ O X @ @ ; 6 S ' C.l.Q { A f V A A E 5.7.t.e.7.^ 5.b.n.m.b.I.6.W n.7.r.t.t.N.e.L.|.M.G.K.6.n.v.t.t.H.M.P.b.6.t.L.G.e.L.n.N.N.7.D.G.n.b.r.6.Q 8.y.N.e.G.N.t.7.6.m.L.e.5.5.R R x.Q b.6.] b.e.6.r.7.] x.n.G.G.G.G.Q 7.m.3.( x.t.] 6.e.P.Q Q x.v.e.] 7.3.Y { W ] d - - - - - - - ; #   O ; 1 = - 3 s N L K H m V d c V K ` ^ ` ' / ` / / ! H H n ",
"$ X X o # 3 $ X X = # O X = 3 $ X X # > O . $ # > $ . . $ > O . X # # O . O ; # O $ 3 5 d B m c N { x.6.b.t.W n.G.6.3.7.G.t.e.t.v.N.x.v.n.3.t.y.2.G.t.Q f : ; @ 1 : 1 s s 6 d f s f M I ' ( c.N.l.Y W 3.e.t.7.n.t.e.x.K.H.n.n.3.5.M.G.m.b.P.G.t.n.}.t.t.t.m.G.t.G.n.b.b.N.G.r.n.7.6.G.G.y.6.[ t.e.t.m.m.n.m.5.7.G.G.H.y.t.5.N.G.}.C.6.8.r.n.R R m.t.t.D 3.5.m.G.t.W m.' A g { W 7.t.3.m.t.Q y.e.6.M.Q x.x.Q R W v.b.x.T l.x.' T 3.e.t.] e.c.I s 3 = - - - - - - @ #   X = - - - - 1 1 - 7 6 n H L H n c d n N H / ` / / / / H ! ",
"# > $ X O 3 # X $ $ # + $ $ $ O X # # $ . X $ # X . O o o O X O # # X X X > $ X $ 3 3 4 c m H N c ' G.v.5.t.6.6.3.e.5.b.M.e.v.7.7.G.n.e.t.t.6.r.M.r.W T p s p f Q 3.W 6.3.5.6.2.3.3.e.] x.x.e.t.6.6.m.v.e.3.y.E r.6.6.R W t.e.L.G.2.8.n.Q v.M.D.m.G.t.L.m.3.3.e.G.m.M.L.7.D D.t.L.t.P.e.D.W r.L.L.e.3.e.P.6.G.}.v.W [ 3.9.K.x.g ] N.m.n.t.H.}.n.M.D.6.m.m.e.t.e.n.n.N.x.} ] x.6.e.3.v.W g ] m.W ] K.n.A.] 3.K.x.e.7.v.' 5.6.] b.3.m.m.] W e.E Y s @ - 6 3 - - - @ #   X # - - - - - - - 1 ; = = 3 c N H K N V n c d N N K / / / ",
"X # $ X X . $ > # X . # = X   $ # + X X $ # O X   . # #   . O $ $ X . $ # O X O > # = 2 5 c n c 5 M x.e.3.M.r.5.e.e.5.b.6.x.n.e.8.7.7.3.e.L.7.5.e.7.e.] b.x.b.6.v.6.L.5.5.t.2.W v.x.b.e.b.m.M.W 7.e.H.n.M.M.N.e.b.b.b.v.7.y.m.M.y.5.m.G.n.L.n.n.7.G.m.t.e.n.7.I.M.3.L.L.D.8.2.3.M.e.m.x.m.}.M.v.7.t.G.b.e.M.e.7.t.Q g Q L.m.E 6 I G.H.n.b.6.N.n.e.t.} A.] W 3.W e.3.e.3.R Y m { E { [ E [ [ T n.m.G.7.e.t.6.b.3.D n.M.5.N.5.T T ] e.7.m.7.m.m.] - = , 6 4 - - - - #   . # - 6 - 6 - - - 1 - 1 ; ; = @ - , 5 F H N B n d 9 d n m ",
"X X O > + . X $ $ X X $ o . . $ # X . X # o   X # $ X O . $ # O . o $ $ $ . $ $ > $ > 9 n N n L c ^ 3.x.x.v.m.v.e.b.v.e.] b.r.5.t.r.e.N.t.7.n.}.e.M.b.W m.3.R R 6.8.n.6.3.e.m.W 6.f R G.t.W 6.G.b.b.M.y.G.G.t.e.3.Q ] m.5.e.K.e.N.oXP.7.t.x.b.K.H.7.] 7.G.oXv.3.t.G.t.x.K.|.K.m.e.v.t.k 6.|.n.3.P.G.x.t.|.L.M.m.}.b.v.N.y.n.P.K.G.H.3.W N.e.n.e.5.M.Q x.E e.e.m.n.G.t.y.t.c.U m c.t.e.b.e.Y E 5.W E r.N.N.6.[ e.5.M.r.W E x.M R 5.] E { e.7.e.A.s ; , : : - - 7 - #     @ ; - - - , - - - - - - 1 1 - ; = @ # # , 5 n N K N c d ",
"$ . . O + + X . X # # X . O $ X X + X X X . . O # .   o # $ $ X . $ $ . X O > # X > 9 5 4 x v v s l.5.b.c.t.y.E W m.b.x.b.W ] e.7.v.e.m.6.W K.K.3.v.x.5.t.x.] b.N.R Q G.t.y.H.e.' R 6.e.e.}.b.x.] n.e.E b.oXb.G.n.b.m.7.6.N.] 3.{ m.t.7.7.3.e.] m.7.t.H.6.] g 3.K.G.7.t.N.G.f R A ] G.n.y.7.t.t.6.v.] R t.n.t.6.3.5.P.Q 2.Q E 3.n.t.6.N.7.G.H.t.b.n.v.e.b.m.{ e.G.G.7.n.R Q m.{ N.G.n.t.c.b.7.E M I v.x.R 3.K.6.] W W v.x.g ^ c.7.b.r.C.x.) ] e.6 # 6 - - - 1 : , +   X O ; , , 7 - - : - - ; - ; = ; ; ; ; ; = # # # = , 4 c N ",
"$ + O . X # + . . O o . . $ + . X O # X   O o X .   X + X O ; $ $ X X . + # O $ $ 2 5 5 N L v v n 5.x.e.6.v.b.v.t.e.[ ] e.3.5.N.M.M.m.e.e.7.3.6.7.r.8.3.b.W b.wXL.e.b.b.e.R 7.v.Y c.b.e.m.M.5.x.e.b.x.( v.W Q m.v.L.}.v.] e.P.3.3.n.n.L.i.H.b.e.n.n.5.n.G.N.b.N.6.x.H.7.M.m.[ c.8.v.] t.n.6.n.H.8.G.}.m.n.m.D.t.Q b.}.t.A.b.] m.n.7.e.3.t.y.G.}.}.e.l n.6.5.{ I ] Q ] N.e.7.7.e.e.R r.m.{ x.K.x.( ' b.m.3.6.N.[ ' x.3.y.b.' R c.[ [ 7.m.x.x.E E 6 @ - 6 6 - 1 7 - @     O # # O # > - - , - - - - - - ; ; > ; = ; ; # # # $ # # ",
". $ # . . X X X X . . X + X . . X X X X X O O . o $ $   X + # O O   X # $ $ X $ 9 9 4 c N 9 n s g ] 6.5.5.e.C.b.v.W x.c.' b.7.7.G.5.6.K.m.t.m.6.5.e.I Y U A W W 3.E U d f x.m.t.G.b.b.7.e.m.3.t.M.Q e.b.e.6.x.N.M.y.8.H.m.5.t.e.e.7.3.N.x.6.W Q m.t.] r.m.I.H.t.m.e.6.c.e.W H.L.m.6.t.t.m.G.m.L.|.t.n.L.N.v.t.8.m.}.5.] T 6.y.3.t.G.H.M.m.] N.W E n.t.M.m.3.M { [ e.v.e.M.7.R Y Y E 3.v.] { 6.] 5.R E { 7.6.N.6.T 6.x.3.Q 6.Q E n.t.n.e.] 6.6.x.- O 6 7 6 - - : : #     $ ; O O O O # # = - - 7 - - - ; ; ; # ; ; # = # = = # # ",
". . o o O X . O O . . + +   . $ O . X X o X .   X $ .   X # o . X X $ # X X - > , 4 N N b v c ; 6 H k ] v.] ] e.Q 3.K.] ] [ e.m.x.b.5.v.b.N.N.e.b.N.N.5.E ] 3.R Y ' ' f E N.n.N.G.b.m.oX7.m.G.t.b.m.e.m.5.d 3.v.3.n.H.7.7.r.e.G.m.7.] [ S.b.] R e.}.N.] x.9.1.D.G.5.5.N.|.y.L.L.L.I.6.m.P.N.Y g t.6.7.y.t.r.v.t.7.8.7.r.6.v.r.m.R m.m.] I E v.[ Y e.b.3.M.t.3.[ ^ ^ } T x.N.e.N.{ b.7.5.A 5.3.b.m.W 6.b.6.6.e.N.c.{ [ c.v.r.c.5.] ] r.3.5.t.e.{ d - - : : - - 6 - +   . $ - # O > $ # # O X o = # ; - - - - ; ; ; ; = = = # = # ",
"O O   X $ .   X X X X . X X X O . . X O .   . $ X   X X + X .   o # X X $ # 3 4 8 x b b b Z = @ # 6 g W e.r.x.5.W e.v.e.m.6.e.6.] t.6.3.7.e.t.t.e.2.e.7.e.n.L.M.] t.3.b.W ] L.5.6.W 3.v.b.m.e.6.G.e.R G.x.] 5.H.L.D.N.7.N.K.b.m.m.n.n.t.3.K.m.K.G.t.y.m.P.v.t.e.M.b.6.e.5.g g R g W Q r.b.E I x.5.} m.G.Q k b.x.E v.G.6.6.v.' N.e.b.G.e.d I 6.e.5.W 3.6.U R E ] ] h ^ [ ] e.7.t.x.c.b.m.6.W Q 3.E Y 6.7.6.e.7.x.W T e.A.` T ] 6.6.x.m.Q r.x.U ' 6 - - - - - - 6 - @     @ = - + O $ $ # X $ $ X X X $ # # - - = - = > = ; = = = ",
"X + X . . X @ .   X @     O O   . O . .   X X X .   + $ . X o o o $ X O 3 3 > 4 b Z b 9 v , . X @ ; s f I ] 3.5.3.2.] W k ] b.Q r.3.6.m.N.v.5.3.r.v.e.m.t.t.G.y.t.e.n.G.e.3.n.e.K.G.t.W 6.B 6 T m.W n.oXL.m.v.3.m.G.b.N.H.m.b.N.L.n.n.G.}.m.3.e.H.3.L.G.7.}.e.e.oXe.G.L.W E 5.R Y L.L.b.n.x.d x.6.v.[ R R ] 5.x.5.m.m.m.D.k g T R 6.e.E T ^ Y E T 5.b.' f ^ ^ [ e.R A.R 5.5.7.e.x.f E 5.t.x.x.' R O.W h x.C.5.E N.6.5.6.E x.7.3.x.m.e.x.5.U ( ^ - = 6 6 7 ; ; : - O   . + = $ $ $ X $ # o X O O + $ X . $ - $ $ # # = = ; = = = ",
". . X +     O X . X X . . X X   . + .   X $ X   X X X X   X # $ . O > > # 4 9 c c x N N % . @ X O ; 6 g g R W E k I 7.r.7.v.x.5.e.7.] W e.6.W 5.e.t.G.n.x.v.M.t.m.t.r.6.v.b.e.m.r.n.L.7.' c p ' e.e.m.t.3.v.t.] x.n.m.G.K.P.m.K.t.6.t.E b.n.b.e.oXoXL.N.m.t.] 3.] 3.m.m.v.N.y.n.G.7.3.9.y.3.T ( 5.E h ] K.3.e.r.x.t.R ] 7.Q 6.] 5.e.R 5.e.E ( %.T 5.g T 6.E } [ 5.r.W Q R g 5.e.{ 6.] 5.P.c.O.l.V.N.x.x.] { ' 5.e.] x.x.( 5.6.{ e.R ' x.4.] e.x.6 @ : - - - - - = O .   $ # # O O $ O $ o O $ # X X X X # - X X . X $ # $ # = = ",
"X   . @ X X . X O X   X X . . X X X X   X X     + O   X + $ X X O # 3 3 4 0 v H b b 9 # X   X @ @ ; 6 s f g R U ' [ Q ] n.3.3.t.] ] W 2.3.] ' 7.G.] t.9.W k v.3.Q 7.] g W W 3.3.e.M.H.t.E { b.m.n.3.e.7.g 3.t.W x.N.b.D.G.m.r.7.e.M.e.k ] m.G.N.L.}.v.v.L.t.L.t.6.N.e.Q ] E t.L.K.K.t.3.2.] G.b.] h 6.6.W 7.3.b.6.3.R ' E 6.r.W e.Y T 3.3.e.e.R T e.N.t.] v.N.7.3.7.m.t.b.' E e.v.G.W ] N.c ; s d Y 5.] e.b.' 5.t.v.x.6.6.e.x.E b.T ' b.t.] I [ - = 6 3 - = - ; # O   X + # ; - > - $ X $ O > 3 X $ # O $ - $ X O # # X o + = = ",
"X X X . X O     X X   X X   X O X   X X     X X X X   X # X X # 3 # = 9 L L 9 c N 9 O . X . O X O ; : d M R I ' W 5.T x.] g ' 5.R ] e.] E x.6.5.e.] 6.Q R ] ] 6.r.e.t.n.e.} m.6.] 3.n.m.t.G.n.5.x.[ e.x.( m.G.e.m.m.m.m.2.t.G.K.b.M.G.m.m.t.6.v.3.7.b.e.W n.n.Q m.t.] k x.t.t.e.3.m.m.m.v.m.W W v.] [ ] k t.e.m.E g R 5.' ] t.e.Y ( e.D Q 5.b.m.e.] I p { 6.] g W m.b.6.] 5.e.Y m s c 5 N H R 3.M A n.] E 7.( ] ] R R W W ] b.5.5.[ T ' k U Y Y d - - ; 1 = 1 ; @ O   . O # ; - - - - - - $ - - X = 7 X $ - O O . O # o $ $ # # ",
"X   X X   X X X X . X . X X . X X   X X     $ X   X $ $ $ O O ; 4 9 J v n b N 9 = . . . X . . X $ 1 6 A U Y ' E k 6.[ [ E { e.] 3.f f 5.] b.8.G.e.m.K.e.4.b.3.6.b.7.W W I R 8.v.W 6.b.e.G.5.' 5.g { N.] 3.v.W 3.M.7.r.c.r.n.v.7.6.6.6.e.W 3.6.6.n.G.N.v.6.x.6.t.t.5.3.x.m.}.t.W } W t.G.7.G.m.M.7.M.e.n.b.e.7.n.m.K.e.Q M.n.t.t.' b.e.V.5.Q e.3.Q ' ' T e.e.L.] W 5.v.v.W C.` 4 8 w 8 + @ U M.5.N.b.c.5.r.6.e.T [ { ] ] { [ x.I k ( { I Y E ] ' s 1 - 1 ; = ; ; # @   X O # # = ; ; - - - - ; > $ - - o . # X O X # > $ X $ ; # ",
"X   . X X     X X   X X   X O   X O X . X X X X   + # X X > 4 3 3 b ` J v 5 3 o . . X X X O . X @ 1 6 d I g R ( R } E 3.7.r.r.' 5.[ U k ] 6.n.3.E b.b.r.E 7.W E [ W 2.] 5.n.6.5.b.] T U ] 3.5.n.] ' v.N.D.e.b.m.v.5.M [ }.y.7.x.G.G.] 3.5.] M.n.t.3.e.v.x.x.K.x.n.e.3.R W 2.e.G.m.b.m.y.e.3.6.W W b.e.5.m.e.5.t.7.7.3.W n.3.W 5.W M.R H 3.} 3.] Y x.e.x.b.7.t.b.6.3.v.x.U N 9 q q & X X . = Y 5.x.3.Y 5.6.3.] I [ 3.3.W c.x.] l.l.] 5.] x.] r.Y H Y R T m = = # = O     X @ # = # ; - - - = = ; - ; - = $ $ O $ X $ # # o o = = ",
"X X X   O X   X X   X .   . X   . X     O O   X $ O @ $ # 2 9 v L v c C 0 O .   . . . X X X @ # ; ; f E R R 5.] 5.5.E 3.v.7.2.] ] { E h R T ] ] 3.7.d E x.3.3.6.b.n.m.x.c.n.6.6.b.3.Y R 5.6.G.L.M.L.r.v.n.n.W 6.6.b.5.R Q k A 3.t.G.b.v.6.' 5.v.r.Y e.3.] x.b.3.R e.M.] ] v.r.7.5.b.7.] t.W 6.5.b.7.] e.5.t.3.5.e.5.m.m.M.b.b.] R 6.v.T ' x.N.t.t.G.e.{ ] W e.5.6.x.^ c 2 0 w > X   X X X   s x.] m.b.v.e.] c.c.' ] 6.5.x.5.E ' Y I 3.r.b.] 3.] [ [ T ] ] s 1 6 1 X @ # # ; 1 7 - # # # = = = ; = # = = - # # # O X X X X X = = ",
"  . X   X X X X X X X   X X   X X   X . X X . $ # X # 4 9 2 9 X.+.C 3 #     . X . . . X O X @ - d f I R Q W 5.] { ` ( { 6.Q k R Y ' e.e.r.5.k } l R M l.b.e.x.' R 6.t.x.6.e.3.7.e.M.v.6.W 6.e.6.t.n.7.7.m.m.t.y.r.6.M.6.( ] [ N.b.7.M.m.M.b.b.b.c.m.m.3.6.v.b.Q W e.e.b.x.m.3.E 5.e.3.e.6.x.N.v.e.e.7.e.t.e.7.7.W r.x.e.5.b.b.N.b.x.m.D.E Y L.e.6.3.T 5.x.b.! n n q 0 3 8 q < O o o + X X . , ] W 3.6.3.[ { 5.Y R 5.T Y 3.W { ] ] l.{ ] { ' R W T R ] T E ] ' ] E M I I M R U ( H H 6 - = # # = = = = = ; # = ; > # # # X $ # # ",
"    . X X   . @ O X X   X X   O X   X X X X X O # & > 5 v J v n 5 =             . X O   O # - s M Y E I ] r.3.' s 1 - E ] ( g h R ] R 5.3.l.v.b.x.5.v.l.] 3.} m T v.N.n.t.n.b.R R 6.M.v.3.G.m.e.y.2.t.t.m.] e.m.K.7.6.3.] M.5.b.y.1.t.v.v.t.3.' R ' Y R r.7.v.6.K.m.6.n.e.M.v.e.t.W 6.m.W 6.e.M.v.N.t.M.L.n.3.M.b.Y k 3.b.K.3.R 7.M.t.W 5.5.v.e.W 3.] W ^ ` 5 0 0 2 & 8 q 8 > % + X O X . X X g 7.] 5.W ] e.5.Y g ' c.5.T ' x.5.5.] ( 5.' ' Y e.5.[ W ' / f ' E ' 5.A M T ' [ E E T E H U d : = # = = = ; ; = = = = = # # # # # ",
"- # X X X     . . . X X . X . X X   X @ X X = O = 9 4 4 v L 0 $ .     .     . X O + @ = - 6 f H U R E { [ ] Q R : @ @ d T I ] [ m.3.T e.6.5.W v.v.3.r.3.W 7.m.x.6.5.e.v.m.G.e.7.Q W b.5.7.3.b.e.5.m.G.7.v.5.7.e.5.3.7.6.t.v.3.3.2.7.t.r.x.e.v.x.] T I 5.{ ] 6.b.5.t.n.3.] 3.t.v.6.e.] 6.3.t.r.7.] G.v.6.5.7.M.e.x.5.x.6.W M.7.] 5.6.b.6.e.b.[ 3.W 6.x.5.T 4 2 r & # % # % .     . .     . . X 6 Y U { R I ] E g m T [ x.} ( l.E ' 5.Y Q k g ^ } Y ] T I f f ' ( R U Y ' I Y g I ( I A A ^ Y k H p = = # # # = # # = = # # # # # ",
"M g d 5 - @ . . . . . X X   X X X X X X O $ # > 3 q 9 2 # o             O ; - 6 d f d ^ T U T ' ' { ' R T ] W [ { V s 6 U 5.] T 5.] W 7.v.4.5.t.] 3.6.] t.t.y.] 5.] Q W r.3.] 7.R R 5.I ] g Y W Q t.Q 3.v.m.r.7.3.e.N.v.b.b.N.m.t.x.b.[ v.x.7.t.6.b.3.W 5.5.l.5.3.e.v.[ ] 3.W W N.7.3.x.v.v.b.v.6.e.b.r.[ [ 6.5.M.6.M.6.Q 6.6.e.x.N.K.v.G.K.m.7.x.x.m.m.v.c # = # $ X       = 9 $ . @ @ . . . $ 3 - V %.x.} { { Y E ] 5.6.x.6.5.[ { O.3.' M { ^ I U I W Q } I T Y I g m s A M I E R g Y ' M ' 5.g H 7 = # # # = = # # # $ # # # ",
"g g M M M d d 4 O X . . X   O X   O O X # # 3 9 3 O X             X # - s g U R Y E R ( E R ] R U ] Y E W ] W ' 3.e.] T ' { E E ] [ e.3.A Y l.6.I R 5.5.6.3.] I 3.3.] Q Q b.t.6.e.3.3.] { l.{ Q 3.b.] T Q e.7.e.b.x.[ ] 3.v.v.t.e.6.x.x.M.6.e.x.] W e.6.t.] x.m.M.e.[ v.m.n.] ] 5.I E r.5.t.m.e.b.t.v.t.N.6.k E ) A r.v.m.b.m.c.5.M.6.3.t.3.6.N.K.b.e.v.m.^ ! ' T / m s 5 c ^ r.^ H Y U V 5 > $ v ` - s { O.5.] I 5.6.' [ e.[ ] ] T [ ' ' T E A T ' { ] R R I R U ' I I ^ T T Q U g k f g Y ^ d s R U H m , @ $ # = = = # $ # # ",
"p s d s m f f g n s 6 - ; @ . . X X X O 3 3 # $             O - s M U Y Y R A R ^ M M E R T ] T R I E ] 2.5.[ 5.] 5.{ Y d I 6.6.Q ' %.] 6.x.E ] ] ' b.7.k ] b.6.3.m.v.} ] m.] I ' ] 3.e.T ] ] 5.x.6.m.] 5.b.e.b.e.3.] 6.W R 3.3.v.m.6.b.5.W 7.5.b.[ v.m.7.5.e.y.t.e.n.b.] ] v.r.[ { N.t.Q 3.v.b.x.6.n.m.x.6.c.W 5.5.b.v.[ e.7.e.r.7.6.b.t.3.5.4.[ 7.6.e.x.e.e.7.6.5.3.v.{ 5.W W 6.5.5.} x.[ ^ U ! { Y I ( 5.6.x.( ' ] ^ H ' R Q E I T ' H T ' R R T ] H Y ( M M I T ' M T g A R ' I I H g f M M Y A Y Y Y Y d 1 ; @ # @ $ # # $ ",
"f U f m ^ g h g f f M M M M s 6 - 6 5 6 ; O X     . @ # 6 s H Y A A A Y U ' R g ( ^ T I I { Y k ' T R R } } { { I Q x.U f ' ] ] ] e.] [ v.7.W } ' ] 5.] ] 3.b.e.] Q W [ [ 3.Q r.[ R e.x.6.b.b.m.6.( l.' 6.6.5.} E 6.5.4.e.[ ] W 6.5.] 6.e.7.3.] ] ( 6.r.3.v.e.E ] ] 7.[ ' ] e.n.t.] v.7.e.e.] b.b.7.m.M.x.3.[ x.v.t.e.e.v.e.t.m.m.t.v.e.v.x.r.5.Y ] e.6.3.r.W ] x.' { 5.Y { 5.7.] ] ] Y ( ' U T ' c.x.( Y W E ^ O.E M p ; f E ] Y f U ( T Y T ' E T T T ] Q I R E T T A H Y ' M f f I T f f g g g g H g d I R f M s 6 3 ; = $ $ ",
"f g f M M I g M g n M g M M Y H m ^ ^ m d d f s s m B I U I f f g M g U I I Y I M M T T T ( g H c.( f ' 5.Q R T h g ] [ { E ] 5.3.3.5.3.E Y R A Y E c.{ E ] ' { R h [ b.5.3.3.5.5.l.b.6.6.e.3.} { x.5.3.3.e.Q ] 6.b.' ] l.r.] 3.v.5.( } t.] [ e.] ' 5.E e.[ f U e.e.7.e.x.[ 5.e.7.] 5.5.v.3.7.v.] W E 6.e.b.6.x.e.m.N.[ e.] e.t.6.e.e.v.7.3.7.v.] ] 3.x.e.n.] ] 6.E ] W ] ( ] 7.Q [ x.] W ' c.' R I I f Y 5.[ f I : = @ @ = d T H s g I I g I ( E Y H f k g d f R I d A g T I d U R g U f H g I R R s f f M Y g H R R R d d 7 ; ",
"f g f g H M f g A d d f g M A U A g f I I R T Y R T g g H M f M H ( T R Y R E T E ' T ' { Y E E ' f g g g R } W I Y I E I g ' ] 3.Y [ 7.[ r.( U [ 5.} ] x.] U { [ E 5.] R A ] e.5.Y ] 5.l.l.E ] 3.7.E ] v.5.Q 3.7.] 3.] [ ' 5.[ ] E ' ( 3.k A D e.5.{ { b.5.U Y ] v.e.7.] c.x.5.e.m.t.c.v.5.' 5.[ e.r.3.6.b.] ] 6.6.5.3.W 5.6.6.e.r.5.E ] 6.] } E [ b.] Q 7.e.3.W I [ { ' g Y Y g Y ^ Y [ Y I T Y R R d R { c.M 1 @ @ @   @ s m T Y Y } Y Y ' T Y ^ Y U R H T Y M M R g I I I A U k g I g H Y Y I I f f s h I I U g g Y I g E f ",
"f d d f p s f d g M f d m A A H g s g A g I I H g Y g H R Y R f g { ^ I M f g k D T ' ] g f ] E g s Y { I g } A I ( g f H E f k { k R R W T ( ( ] W W 5.6.5.x.6.e.7.W 5.{ R [ 7.6.] l.6.] r.7.e.5.3.] ' x.W W 3.5.x.e.W m.Q g g A I { T ^ ' e.3.T R c.x.6.Q ' ] x.] x.6.3.6.x.[ x.3.W 6.v.e.6.b.] [ 5.] l.v.6.v.5.W 6.b.M.b.x.x.7.e.b.' ) v.' M f Y 5.T T ] 3.3.( { r.R g I [ 5.' f f ' ( k d E ] [ 5.I T T T E d 6 c 6 = : U ~ T U T { ] ( ( I 5.{ I I M R Y E f M Y Y Y I Y H d f R A g I I Y g g H g d I R M f U M H Y I H g ",
"f d f d 6 d H f d h f M m f s d U H g g Y T g m f H I g I Y g g M U I g g M g E R g { E g R U I T g ' c.Y I T I ' E I ] ] R M ` ( M T ] R U 5.} Y ] 5.5.E 5.6.] ] W 3.W } [ ] 5.b.x.5.3.3.5.6.x.] I [ e.{ ] 5.b.e.E ' 6.t.} ' { ' { T Y } ] 6.] k T 3.E 5.T E [ x.6.W R 6.e.e.W 5.3.5.6.[ W t.6.5.3.3.] x.6.v.b.t.x.v.5.7.W 3.6.3.3.] 6.e.6.T ( ' E ( ( { 6.] E ' 6.7.] [ 5.] [ ^ ' ] Y I } Y R Q T M I ] [ T Y R T ` ! ^ ' ^ Y Y ' Y R T Y R I T T H g M H g Y ' { R M d M ' Y U U U H g T I m f I g H R ( T M m H U g Q { H g ",
"f d m g s s s d m f g M m s d f ^ U H I R I U Y R R g A f H T M g I I R U I f M H d M M I ' Y _ ' H g g h s U Y R E R ] R h s s M U g Y M R 6.] [ 5.( E E I Y ( 3.] Q ] e.v.6.6.W ] 6.5.e.5.{ Y ' R T ] ( 6.e.e.e.E T { 6.c.x.e.l.x.] { 4.] Y ( 5.e.e.{ { c.6.6.5.g f Y } W 6.3.5.e.b.5.] ] 3.W v.b.e.e.v.} 3.e.b.m.e.e.e.] 3.x.3.] ] 5.3.] x.e.6.x.6.( E [ ] H Q R ] [ Q Q R A f T Y m I U E E E U g T ] { T Y ] ( ^ A U T ( I g ' ' T T ' T f M Y Y ' R M Y Y T T U I g g f ^ Y d d d f I T k f Y ' I M U I g R R A h M ` M s ",
": 6 d s s 6 s f g s s s M B U A U g R I k H g g g I U m d U ' g g } I H I h f g s s s h H ' g p : h Y I d f R ' Y T g s g M 6 s g E I I ] } Q g I ^ M g ' { { ( E R E ' W 3.3.] E ( ' ] ] e.x.' 6.] W x.T { 6.] ] l.{ l.x.6.] E ] ] ] ' ' ' 5.5.e.x.b.x.Y ] r.6.( d A [ R { e.3.7.[ e.e.v.b.r.4.v.3.) 5.7.3.3.6.] 7.6.6.b.O.3.6.W ] [ 5.W E E } 3.c.c.{ 7.3.' R ] T x.{ T ] W I H f h I f h E T R Y I E T H g R ' Y Y g : s R I g I R g s g T g ' { H R I I E Y I H g E R g f M ! M g M I g U H I I Y k g H A I M g M f g M d f ",
"s d f 6 p 6 s d 6 @ O ; V U K f f g R U H M d g g g I d s I R I U U g R { T f 7 h M g g g g 7 s s R [ Y R Y H R } R k f R T f R H g d h A g R Y H f g Y E T ' m s g ' R } ] W ' x.T I W W ] g E 3.R [ l.] x.x.E ] [ b.b.3.5.[ ] Q W 3.] ] ] e.E ' 5.7.6.6.3.3.] 5.5.] 4.( { ] 5.b.x.] 6.e.v.5.] 6.] 3.6.t.3.] e.] W 5.] ] 5.5.E ( { ] ' k A ' 7.5.] Y ' e.[ ] x.[ E ] T [ c.' } Y d d I U f H M I Y f d d h g I H M R g R m f M ' ] I H I I T Y R I R Y R R M m T Y I Y f I T M m H T M g I T M U g g k R I H m g U H m I f f M ",
"s f f : @ ; s s = @ = s n s 6 h g h s f I I M U U g g M I I A g g g g H U Y I g I g g T A h d U I Y H h g g h p g I Q g f M I T A f f Y Y ' [ } E ( E W f d ^ I ' ' R } e.[ R A R E ' I Y ' Y E } [ 6.] l.5.E 3.3.x.b.Q Q ] 6.6.6.3.6.e.] ] 6.3.{ 3.7.3.[ c.6.W 7.5.3.x.e.E ] 3.W ' 6.] W ] { x.v.5.3.E ] E W 3.' } 6.6.] 6.e.] 5.5.5.3.E E { 5.W 5.Y Y T T E ] 5.{ T E { T k T T U E g U Y d g ' T d f d s g M g M s s } I I I I A g I T } Y T Y I ' Y m I M U ' I g H H I M I K d g U Y H M Y ( Y R H H H s s m m V m m M I g ",
"h h H f s d d s 6 p d f s @ @ : g g s d g g f g f H R I M I g g R ( R : s I T g H I h s p 6 : : m d : s U Y ! H T T Y Y E ' ] I h f ' 5.{ 5.Q A ( { x.( f d M A ' ( ] 3.] R ' [ ] [ E Y [ [ ] ] ] ] 3.Q E ] ] t.6.x.` k } ] ] W } ] 5.e.5.3.6.3.5.] } [ T I ] W ] { x.] ] 3.] W T } e.Q ] E Y 7.3.} T A ' E Y E R Q ] ] ] ] E ] { ) 5.t.r.5.7.] W R g Y T { ' ] [ ' Y ' { T ( ] ] Q R A ' 6.E I T Y ^ ! g m g M m g f f U k I d : 6 g I I ( { Y g I T I I H I Y Y g h g T I g g f h s d R g f f U H M f f f g I I I I I U m f s ",
"f f M g M U I d m A I H g s 6 f R Y M f M f H I g A I f h g Y ' T U g f H A g s f M 6 @ @ @ @ = : 1 # m ^ f H I T Y T ' { U T ^ d g E Q E ] ] 3.5.' { [ R T Y ( { ] ] ] ) ( [ 3.3.] g g ( ] ( ] ] r.e.] [ t.7.R M I Y R E Q k s g I I } ^ ' ' T [ ] D ( U I } E E ( { ] ] 3.T Y { 5.E W 4.5.[ ] E g p 6 f d : h R Q E A ( 3.Q I g I ( ] ] ] ' [ 6.E ' 3.E ( [ T R E ] Y Y Y ( R g R E E Q E R g g f g I M Y ^ ] ( R ' r.U A H Y U H T ( T I T M d g g M R Y I R I M H U Y Y U g M Y I I H M I U H d f H I k A U I M g g M s 6 6 ",
"f d h h V d f f g M m m M g I Y ^ U I f d g ( ( M g g d m f f U g H T Y I s 7 p ; ; t s : s N s 7 : 6 f f f k I H g Y T ' R T ] { { ] ] T ' E g I g Y { E Q ^ ' ' [ ] ` [ ] ( E R ] } T ' l.e.x.5.7.5.] E Y H : d I g s I ] I h I e.5.E M f R ' } E Y { 5.5.l.x.e.T 6.e.3.5.E [ e.] ] 3.] ' T ^ ] g s : @ X X 1 s T { T ' W ] T g } R T { ) k ' 6.5.6.5.R ' x.Y d Y [ ' E U Y g f I W R T ( H I Y M g H U ] { T T Y ' [ T Y U ^ { T ` H g I g f f g g M I I A A Y M M H A ( ^ M I I T U m f M H f f R Y T H g Y I M I M g m f f ",
"V m d s s s s g M f g f h s f I M g d s f f h f f d p d Y g f ( g f I k f d s : = s g s : s N V f g ^ T R H g Y T Y E T ' 5.E R ( Y Q [ ( g f f f R ' ( E } E Y Y ] 5.] ' ' ( 5.^ E E ( { e.x.[ W ] Y E I p g I Y ^ f m I A H T 3.3.3.[ [ E T { ] ] ] l.x.5.E ' ' 5.c.3.3.] 5.5.W 3.e.W W ] Y T ' ' [ H ; @ = 6 d T 5.' ] W ] ] ' [ E ( ] ^ E ' ' E } 3.] E { [ R ^ ' ( T ^ ' U I T Y I U U Y } T E T T T T ( T T T R T I U g A T ^ Y H f g k Y U A T { ^ I M M U T U I R I I m m M U d f T ( U f k I ! U m m I g g k M g A I g ",
"f g M m f d g M S M M V s d f M g s s d f g g f d s d H U g M ~ R s : 6 I c.T g f H : : f 6 - s M U ' Y g k Y T ( E E g M ' T T } ' [ [ T U ' ' U ' ' ( 5.[ ] W ' ( E ] T T ' ' T ( 5.] ] 7.( T W W I ` f f [ T I E T ! T ' ] 6.W R W T 3.5.] [ ] ] T U { 4.' ] ] 5.{ E } ' { ] ] 5.' ' ] ' { ] 3.] Q T M M H U E T Y R T T A R R Y Y f I Y ( ( I ^ T Y T R ( ' [ r.' ( ] I g T ' T Y Y R Y Y ] { T T T Y R g R ' T Y T R Y Y A k H I I g f H Y ' T I A H I M A H Y ^ T I H Y I M A I H I ^ ( U I Y I I H g m T H f f M Y H g f ",
"s s g m f M f m A d s d g A M M g m U m M H g g d m M f g M g f A f 6 d ^ O.A g E H 6 g Y 6 @ @ - 6 A Y A Y ' T ( ' } g g Y E ' Y Y ' [ { ' ' } T [ [ [ { ] W } R T ' E R R E T T [ r.{ ] ] T g I k f H d A ] ] E 3.3.5.{ 6.' T R 5.5.R R Y R ' I E ( ' 5.} E 3.W ] 5.5.E Q Y I ] ( g ' ( Y ( 3.e.[ I ' ' ' ( Y } T ' ] T Y R g g E E T ] ] ' ] I A T ^ ( T I R ( ] ' ' { ' ( ' ' T ' { ' ^ Y ' E Y ( ' T ( R H Y I g T ^ T T R Y Y T Y T ^ U I U R I I g I R T ^ R A A R R Y T Y I Y Y I I M m H g H T U M M U H f g g H f p d ",
"s d s d f f m f f d s f M H B M I T Y g g I M M I I U f m U d d I A g g B g f I T g g H g f 6 - ; : I { ^ Y ( T I ^ ' T ' ^ ' ' Y E ' T ( U k T Y T [ { ] ] Q T ' { ' ( } Q ] 5.[ [ ' ] I s p d f g H E E Y E ' E A R [ 6.' R I ^ ' T R W ' 6.5.3.5.c.5.Q D ' { ] ] O.' R Y ( E { T M ] l.3.} 3.' Y T r.{ E Q ] 5.T ' ' { 3.] E ( ] ] ] ( Y T ' Y H f m H I M T T d g R Y Y ' T R T E { ' Y } T Y T T ' R I ( Y ' ( g R T I Y ' ' ^ Y Y T ( T Y T U H T Y Y R H I M g H H U I Y U g M M f m U M g g g g A I g M A f M g g d s d ",
"d d d ^ U s M H f M s h f M g d M U M f g H f g I g m f g f s s ! U g f f g k H g g I I U ' ^ ! m I R ^ H U Y g M U ^ ( T ^ ' R Y { ] ( T E I R R U [ [ [ ] Y ^ { ' Y ' ] T ( T T R E [ A p f I A U E E E ' ( Y Y k g [ E R ( ' 5.' R ^ ( ' { ' W ' ] ] E ( [ T H E ' 3.( ' l.] ' ' E ] 5.' ^ [ ' T ' z.' R E ] ] U I T ] ] E E ] ' } Q g I ] ' H R m 6 6 s s U U : 6 g I H R ( ^ ' _ ( Y A R T T Y Y } I g T T ^ T g H I M ^ ` ( I g H T T I U Y ( I M Y T A f M I M Y T U g g f g I g s d d d d M M f f g f f M d s 6 s 6 - s ",
"f g g M m f V m M g f d f I f h f m d s f g I M M f 6 s M M d g M M M f A R H M g U Y Y E ` / T Y Y Y Y f H U I R g g H g U Y R ( ' ' ' E ` ( ( ' Y ( } R I R Y T A R T T { ' I I g g U I Y ' E T [ E g I { ' } [ T T { ' T Y ^ { ] ' ' I R ( R T E ' ] [ { ] R g R [ b.6.[ ] E ] { ] T _ I I ' ] T T ' ' T Y R E ( T E E T { { ' ' E ] T T [ { A Y E g 6 : - 6 s d U E T I U } E ^ R E ` U I Y T Y T ^ T H Y Y R ^ U Y U M M M M R U U U R Y U I T Y M M H I H R U M I T M g H f m U A f s p 6 s d f f f h s d n s 7 = 1 1 1 s "
};
