/* XPM */
static char *Futuristic_256[] = {
/* columns rows colors chars-per-pixel */
"256 256 256 2 ",
"   c #010303",
".  c #010709",
"X  c #020B0C",
"o  c #090B0A",
"O  c #050F11",
"+  c #0A0E10",
"@  c #031213",
"#  c #0A1314",
"$  c #051619",
"%  c #0C1719",
"&  c #031A1C",
"*  c #0B1A1C",
"=  c #031916",
"-  c #131A1C",
";  c #191C1E",
":  c #131515",
">  c #07100E",
",  c #091D21",
"<  c #141E21",
"1  c #191E21",
"2  c #042528",
"3  c #152123",
"4  c #1C2325",
"5  c #1D262A",
"6  c #1D292C",
"7  c #14272C",
"8  c #072C33",
"9  c #182C33",
"0  c #053639",
"q  c #1C343B",
"w  c #16343A",
"e  c #08322D",
"r  c #222629",
"t  c #232A2D",
"y  c #25282A",
"u  c #242E32",
"i  c #292E31",
"p  c #253135",
"a  c #2A3234",
"s  c #24343B",
"d  c #2B363A",
"f  c #2C393E",
"g  c #24383F",
"h  c #323A3D",
"j  c #363738",
"k  c #31302D",
"l  c #05221E",
"z  c #0D433E",
"x  c #073B43",
"c  c #193C43",
"v  c #033A50",
"b  c #233C44",
"n  c #2C3C43",
"m  c #263E48",
"M  c #333D43",
"N  c #383F44",
"B  c #064549",
"V  c #18444B",
"C  c #084C54",
"Z  c #184B53",
"A  c #055559",
"S  c #18545A",
"D  c #01554D",
"F  c #24424C",
"G  c #2C434C",
"H  c #2A4349",
"J  c #344146",
"K  c #3C4245",
"L  c #34444B",
"P  c #39464D",
"I  c #38494E",
"U  c #2C4A53",
"Y  c #284952",
"T  c #344A53",
"R  c #3B4A52",
"E  c #374A54",
"W  c #28545B",
"Q  c #38535B",
"!  c #2B514E",
"~  c #065B64",
"^  c #175B64",
"/  c #174D63",
"(  c #285B64",
")  c #395A65",
"_  c #335B6E",
"`  c #06666A",
"'  c #15636A",
"]  c #086B74",
"[  c #067679",
"{  c #147075",
"}  c #27656A",
"|  c #39656B",
" . c #276C74",
".. c #3A6976",
"X. c #2C7378",
"o. c #026459",
"O. c #46484A",
"+. c #424E55",
"@. c #494E53",
"#. c #4B5355",
"$. c #44525B",
"%. c #4C565B",
"&. c #48575A",
"*. c #535A5C",
"=. c #565657",
"-. c #51504D",
";. c #64625E",
":. c #485B64",
">. c #545E63",
",. c #445F70",
"<. c #48636B",
"1. c #586369",
"2. c #486975",
"3. c #596A75",
"4. c #59727C",
"5. c #48747A",
"6. c #656464",
"7. c #6C6B6A",
"8. c #686867",
"9. c #736E6C",
"0. c #746C68",
"q. c #75706E",
"w. c #636D75",
"e. c #67737B",
"r. c #757879",
"t. c #6F706E",
"y. c #605E5B",
"u. c #42403E",
"i. c #857975",
"p. c #39817D",
"a. c #077C83",
"s. c #167985",
"d. c #327785",
"f. c #467787",
"g. c #547887",
"h. c #697A85",
"j. c #747D84",
"k. c #058589",
"l. c #058B93",
"z. c #049499",
"x. c #178B94",
"c. c #308A93",
"v. c #069AA4",
"b. c #1797A5",
"n. c #3097A7",
"m. c #04A5AB",
"M. c #04ABB4",
"N. c #04B6BA",
"B. c #16AAB4",
"V. c #2FA9B3",
"C. c #00A09E",
"Z. c #478697",
"A. c #538893",
"S. c #78838A",
"D. c #788995",
"F. c #7B929C",
"G. c #6A8693",
"H. c #4E96A9",
"J. c #7A97A5",
"K. c #6B95AA",
"L. c #51A8B7",
"P. c #72A7B7",
"I. c #04BAC5",
"U. c #13B9C5",
"Y. c #30B9C7",
"T. c #52B5C9",
"R. c #72B5CA",
"E. c #6EBDE0",
"W. c #04C5CA",
"Q. c #04CAD5",
"!. c #05D5DA",
"~. c #16CDD5",
"^. c #2FC9D3",
"/. c #06D9E4",
"(. c #16DAE5",
"). c #07D3E8",
"_. c #2FDAE5",
"`. c #13E5EE",
"'. c #33E9F0",
"]. c #07E1DE",
"[. c #59C9D7",
"{. c #4FCBD5",
"}. c #67C9D7",
"|. c #6FCAD7",
" X c #56D6E6",
".X c #6CD4E6",
"XX c #48EBF4",
"oX c #51EEF4",
"OX c #68F5FA",
"+X c #78F6FB",
"@X c #6FEAF3",
"#X c #3AC0BD",
"$X c #86898A",
"%X c #848D94",
"&X c #89939A",
"*X c #969798",
"=X c #948F8C",
"-X c #8799A6",
";X c #949DA5",
":X c #849DB0",
">X c #99A3AA",
",X c #8AA7B6",
"<X c #97AAB6",
"1X c #9CB2BD",
"2X c #8BA3AE",
"3X c #A5A7A9",
"4X c #A4ADB4",
"5X c #A9B4BB",
"6X c #B6B8B9",
"7X c #B2ADAA",
"8X c #A39D9A",
"9X c #9BB6C5",
"0X c #88B5C9",
"qX c #A8BAC6",
"wX c #B5BDC4",
"eX c #A5BCD0",
"rX c #92C8D7",
"tX c #B9C3CA",
"yX c #B7CAD6",
"uX c #B0C9D5",
"iX c #90D3E9",
"pX c #B3D6E8",
"aX c #87F7FB",
"sX c #97F6FB",
"dX c #90E7F1",
"fX c #A8F7FB",
"gX c #B8F9FB",
"hX c #B3E6F2",
"jX c #C4C8CA",
"kX c #C5CDD3",
"lX c #C9D3D9",
"zX c #D6D9DA",
"xX c #D4D0CC",
"cX c #C7DAE5",
"vX c #D6DDE2",
"bX c #C4DDF0",
"nX c #DCE6EC",
"mX c #DEE9EE",
"MX c #D9E2E6",
"NX c #DDEBF2",
"BX c #D7EAF5",
"VX c #C6F8FA",
"CX c #DAF4FB",
"ZX c #C9E5F1",
"AX c #E2E6E9",
"SX c #E2EBEE",
"DX c #E5E7E7",
"FX c #E2EDF1",
"GX c #E8EEF3",
"HX c #E4F4FC",
"JX c #E8F6FA",
"KX c #F5F9FA",
"LX c #F3F0ED",
"PX c #E2DEDB",
"IX c #C3BEBB",
"UX c #83807D",
/* pixels */
"R R Q R +.R R +.R +.R R R R R R +.R R +.R R R R R R R R R R P R P P P R P P R P P P P P P P P P P P P P P P M P N P P M P P N P E N N N E N N M N M M N M N M N M M M M N M M M M j M j M d j h h j h d j d d j d a j d d d a a a d a a a d k a d a a a a a a a a k i i i i i u t i u t i i t i i i t k i i i i i t i y i i y y i y y y y t t r r y y r r r r r ; y ; y y y y y y 1 y y 1 y y 1 y ; 1 y y ; ; 4 4 ; ; ; ; ; 4 ; 1 1 ; ; 1 ; 1 1 ; ; ; ; ; ; ; ; 1 ; ; ; - - - ; - ; - ; : ; : ; : - - ; - ; ; ; - - - - - - - % ",
"R R Q R Q R R Q R E $.R R R R +.R R R R R R R R +.R P R E P P P P P P E P E P R E P R P P P P E P P P P P P P N M P L P P N P N N N N N N N M N N E M M N M P M M N M M M M M M M d M d M j d h d d d d d j d d j d a d a j a d d a j a a k d a a a a a a a a a p i p i p i i u p t k u i t u k i i p t t i i y y i y i y y y i y y u t y y y y r y r y r r r r y y y y y ; y ; 1 r y 1 y 1 1 1 1 y 1 ; ; y y ; ; y y 4 4 ; 4 ; ; ; ; ; ; ; 1 ; ; ; ; ; ; ; ; ; ; ; - ; ; - ; ; ; - ; - ; - ; ; - ; ; : - ; - - - - ; - : - % : ",
"R R R R R Q Q R R E $.R R +.R R R R R +.R R R R P R R P P E E P R P E P P P R P E P P P R P P P P P P P P M P M P M P P L N N N M E E N N N N M M E N M P M M M M M M M M M M d d M M j d j h d h h j h d d d j d a j d j a d a a a a j a a a a a a a a a p i a i a i p u i p t p k k p u k t i i i k t y k i i i i i y i y u y y y y u y t r r y y r r 4 y r r y y y y ; y y ; 1 y y 1 1 y 1 y y ; y ; ; ; y ; 4 ; y ; y ; ; ; ; ; ; ; ; 1 1 1 ; ; ; ; ; 1 ; ; ; ; ; ; ; - ; ; 1 1 1 : - - ; ; - - - ; - ; ; - ; - - - % - - - ",
"R R Q R R R R R +.E R R R R R R R R R R R R R R R R P R P P P P P P P P E E P P P P P P P P P P P P P P L P P P P P P M L P P N N N N N m N E M M M M N M N M N M N M M M M M M M M M M M d h h h j d d d j d d d d d j d d d a d i d i d a a a a a a a a a i a p a p k p u k p t u u t i p u u u i i i i i i y i y y i i y u y u y y y i y r y y 4 r r r r r r ; y y ; y y y y y 4 y y y 1 y 1 ; y ; y y ; ; ; ; y ; 4 ; ; ; y 1 ; ; ; ; 1 1 ; 1 1 1 1 ; 1 ; ; ; ; 1 ; ; ; ; ; : 1 1 1 ; - ; - ; - - ; ; < ; < ; ; - - - - - % ",
"R R R R Q R R +.E +.+.+.R R R R R R R R R R R R R P P R P E P E P P P P P P P P P P P E P P E P M E P P P L L L L L P M M L P N N N T N L N M N M N M M M M M M M N M M j M M M M M d d M d M j f h d d h j h d d j j d d a d k j i d d a d d i a a a a a a a a a a p k i i p i k u u u p i i i i i i t k i i i i i t i y u y y y i y y t y y y r y r y r r r r ; r r r y y y ; y 4 y 1 y 1 y 1 y ; y ; y ; ; y ; ; 4 ; ; 4 ; 4 ; ; 1 r 1 1 1 1 1 1 1 1 1 1 1 1 1 1 ; ; ; ; ; ; ; ; ; ; ; ; ; ; ; ; ; < ; ; ; ; ; - < ; ; - - % ",
"R $.E R R R Q R E R E E R +.R +.R R R R P R R P R P P E P P P E P E P P R P R P P E P P P P P P P P L P P L P P L L P L P L M P N T m N N N L L N N M E M N P M N M N M M M M M M M M M h M h d h d M j h d j d h d d d j a d d a d d i a a a j j a a a a a a a p k p p i a k p p i p k k u i i k t i i i t t i y i y i i y y i t y y y y t t y y y r y r y r r y r r r y y y y y 4 4 r 1 y 1 r ; y ; y ; y ; y y y ; y y ; y ; ; r 1 1 1 1 1 1 1 1 1 1 1 1 1 1 1 1 1 1 ; ; ; ; ; ; ; ; ; ; ; ; ; ; ; ; < ; ; ; ; ; ; ; - - - - ",
"R R R R R R R R R R E +.+.R R +.R R R R R R R R P P P R P E P P E P P E P P P P P P E P P P P L P P P P L L P M P L P L L L P P N N M P N N N M E M N N P N P N N N M M M j M M M j M h M d d M h d M d d j h d d h d d j d d j d d d a d a a a a a a a a k a a p k a p p u p i u p i p u i p i p i t i i u t i i y i y y i y y y i y t y y y y r r y y y y r y y y r y y r y y y y ; y y y y 1 y ; y ; y ; 4 4 ; y y ; ; ; ; 4 1 1 ; r r ; 1 1 1 1 1 1 1 1 1 1 1 1 1 1 1 ; ; ; ; ; ; 1 ; ; ; ; ; ; ; ; ; < 1 ; ; ; ; - - ; - ; ",
"R R R R R R R R R +.E +.E E +.R R R R R R R R P R R R P R P P P P P P P E P E P P P P P P P P P P P P P L P L P P L P M L P M M M E N N N L L M M M N M M M M M M M M M M M M M M M h M h M M d h h d h h d h d h d h h a d a a i j d a j a d a a a a a a h a a a a a k p k p p k p p i i i i i i i i i t k t i i i y i i y y i y i y y t i t y y y y r y y y y y y y k ; r y r y y y y y ; 4 4 ; y ; y ; y y ; y ; ; ; y y 4 4 ; r 1 1 1 1 1 1 1 1 1 1 r ; 1 1 1 1 1 1 1 ; ; ; ; ; ; 1 ; ; 1 1 ; ; ; ; ; ; 1 ; ; ; ; ; ; - ; - ",
"R R R R R R R R R R R R +.+.E R +.E R R R R R R +.E N R R E +.E P P E P P E P P P P P P P P P P P P P P P P P L M P P P L M L M L J L N M P J J N M N M N N N J N M M M M M N M M M M M h h n M d M d d h h M d h d h d d d j d d j a a d j j a d a a a a a a a a a a p p p k i p p i i p k u i i i y i i i y u i y i y y i y y t r y y t t t t y y y y y 6 y r y y y r r r r r r r r r y 4 y 4 y ; y ; ; y ; y ; y ; y ; ; y ; 1 1 r 4 ; r r ; ; 4 4 ; 1 1 1 4 1 1 1 1 ; 1 ; ; ; ; ; ; ; ; ; ; 1 ; ; ; 1 ; 1 1 < ; 1 ; ; < ; < ",
"R R R R R R R R R R R +.+.R E +.R R R R R R R P N E E +.N E N E E P P P P P P E P P P E P P E L P P P P L P M P P L M P L L L L J L N L L M J J N L N N M N M M M M N N M M M M M M M M M h h h M j M M M j d d h d d d d j d a d a a a a i a a a a a d a a a a a a k p a a a a p k p i u u k t i i i i u i i i i i i i i y t i k t y y t y y t y t t y y y y r y y r r r r r r r r r r 4 y 4 y y y ; y y ; y 4 y ; y ; 4 y ; y r ; ; 1 1 ; 1 1 4 ; ; 4 1 1 1 1 1 1 1 1 ; 1 1 1 ; ; ; 1 ; 1 ; 1 ; ; 1 1 ; 1 1 1 1 < < ; ; ; ; - ",
"R R R R R R R +.+.R R R R R R R R R R R R R P R E E N E E E N E P E P E P E P E P P P P P P P P P P P P P P L L M L L P P L L M J L L L L J J J L M M L L N J N M N M M N M N M j n M M f h h M h h M d d d d M h d d d j d d a d a a a a a a a a a a a a a a a a a a a k a a k k p i p p k u k i i i i y i y i i i i y i t y i t y y y t y r r t t t y y y y y y y y r r r r r r r r r r 4 r 4 4 y y ; ; y y ; ; y ; 4 y ; y ; 4 r 1 r 4 ; 1 ; 4 ; ; ; 1 4 1 1 1 1 1 1 1 ; 1 ; ; ; ; ; ; ; ; 1 ; 1 1 ; 1 1 1 1 1 1 1 ; ; < ; - ",
"R R R R R R R R R R +.R R R +.R R R R N P R E P N R E E N +.+.E P P P P P E P P R E P P L P E P E L P P P L P L P P P M L L L P J L K J M L L N J L N L M M J J N M M M M M M N M M M M M M h f d M j M d M M j h f h h d d d j a j d a a a d a a d a a a a a a a a a a p p a p a p u k u i i p i i i i i i i i i y i t y y i y y t t t i y t t t r y 6 y y y 6 y y y r r r r r r r r r r r 4 r y ; 4 y y ; y ; y ; y 4 ; y ; y 1 y 1 1 ; r r ; r 4 4 ; 4 ; ; 1 1 1 1 1 1 1 1 1 1 ; 1 ; ; 1 ; ; ; 1 ; 1 1 1 1 1 1 1 ; ; ; ; ; ; ",
"R R R R R +.R R R R R R +.R R R R R R R E $.R R +.E N R E N R N P E P E L P E P P P E P P P P P P P L P L L L P L P L P P L L L J K L L J L J J J J J N K J J K N N M N M N N m M M M h M M h M M d M d d M d d h h d h d h d d j i d d a d a d a a j a a a a a a a k a a a a p p p k u u k p t i a i i i t i i i i i i i y i t t t t t t t t y t t r r 6 y r r r r t r r r 5 r r r r 4 r r r r y y ; y 4 y ; y ; y ; y y ; y ; 1 r 1 ; ; r 1 4 ; 4 r ; ; ; 1 1 1 ; 1 1 1 1 1 1 ; 1 1 1 ; 1 1 ; ; 1 1 1 1 1 1 1 1 1 1 1 ; ; < ; ",
"R +.R R R R R R +.+.R +.R R +.R R R R R R N R R N Q E E E N E E P P P P P E P P E P P P P L L P P L L P E P P L P L P M M P P M L L L J J J J J L J J J J J J J M M N M N M N N M M M M M M h h h M M d M j d M d d h d d j d a d a a a a a a a a a a a a a a a a a p p a u u a u k p p u p u k p i p i i i i t i t y i y i i y k t t t t t t 6 t 5 r t y 6 y 6 r r r r r 5 r r r r r r r r r 4 4 y y y 4 y y ; y ; y ; 4 y ; y y 1 1 r ; ; r 1 ; ; ; ; 4 ; 1 ; ; ; 1 1 ; ; 1 1 ; 1 1 1 1 ; ; 1 1 1 1 1 1 1 1 1 1 1 1 < < ; ; < ",
"R R R R R R R +.R +.R R R R R R R R R R N E E E N R R N E R E N E E L L P P E E P P E P E P P P P E E P P L L L L L L P L P L P L K L L L K J J L J J J J J J J M E M M M N N N M M M M h M h M n M j M M d M d M d h d j d h d d j a d d a a a a a a a a a a a a a a a a p i k p p k i p p p p i p t p i u i y t u t u t t i t t t t t y t t t y 6 r t y y r y r r r r r 5 r r 5 r r r r 4 r r y 4 4 4 4 4 y ; 4 r 4 y y ; r 4 r 1 4 1 y 1 1 4 4 1 1 1 ; 1 ; ; 1 ; 1 1 1 1 1 1 ; 1 1 1 1 ; 1 ; ; ; ; ; 1 1 1 1 1 1 1 ; ; ; - ; ",
"P R R R R R R R R E R +.R R R R E N R R R E N E $.R E E R N E R P E P E E L P L P P P P P L L E P L L P P P P P L P L P L L L L L L L L J L L J L L J L J J J J N N M M N m N m M M M M M n M f h h h n d M d M d d d f h d d d d d d a j a a a a a a a a a a a a a a a i a p p i p i p k u k u i i a t i y u u t u u i t i u t t t t t t t y t 6 t y 5 6 6 4 6 r 5 5 r 5 r 5 5 4 r 5 5 4 r r r 4 y 4 y r r r 4 y ; 4 y ; y 4 4 4 1 r r 1 r r 1 4 1 4 1 ; 4 1 1 1 ; 1 1 1 1 1 1 1 1 1 1 1 1 ; 1 ; 1 ; ; 1 1 1 1 1 1 < ; ; < ; - ",
"P +.R R R R R R R R +.R R R R R R P R P R P R P R R N R E N E E N E N E E N E N L P E E P T P E L L L P E M E E L L L L L L L L L L J L L L L L L L L J J L J J J J J J J J J J J h J f h J J n n f f f h f f f f f d d d d d d d d d a d a d a a a n a a a i i a p p k k p p i p k i p i u i p i i i p t t t t p t p t t k 6 t t 6 t t t t t t 5 5 t 5 y r r 6 4 6 6 t y 4 6 y 6 4 4 r 5 r 5 5 y 4 4 r 4 r 4 5 4 4 5 4 4 4 4 4 4 r 4 4 4 4 4 ; 4 1 1 1 1 ; 1 1 1 ; 1 ; 1 1 1 1 1 1 1 ; ; 1 1 ; 1 1 ; 1 1 1 1 1 1 1 1 1 ; ; < - ",
"R R R P P R R R R R R R R R P R R R P R P R R R R E E E E E E N E E E E E E E R E T P N T L P P E E E E L E E M E L L L L L L L L L L L L L L L L L L L L L L H L J J J H J J J J n H J J f n n n M n M f J f f f f d h d h f d d d d a a s d a a a u a a a i u a a p a p p i i p t p u u k p p p i i t p t a t t k t p p t p t t u t t u 6 t 6 t 5 r 5 6 4 4 5 y y 4 4 6 6 4 4 r r 5 r 5 4 5 6 y 4 r 5 5 4 r 4 4 4 5 4 4 r 4 4 4 4 4 4 4 4 4 4 1 3 1 1 1 1 1 ; 1 1 1 1 ; ; 1 1 1 1 1 1 1 ; ; 1 ; ; 1 1 1 1 1 1 1 1 1 1 ; ; - ; ",
"R R R R P R R R R R R R R R R R R P R P E P R E N E E E E E R E E E N E E E E E E E E E L T E E L E L E m E E m L L L L L L E m L L L L L L L L G L L L L J L J L H J H J H H J J J n J H f J n n M n n n f n f f g f f d d d d d d d d d d d a a s d a n i n n p a p p p p k p p k p k p p i u i p p t t p p t t t p t 6 k t t r t u t r u r r 5 r 5 r 5 y 5 5 6 4 y 6 6 4 4 6 4 4 6 4 4 4 5 4 4 4 r 5 4 5 4 4 4 4 4 4 4 4 4 4 4 4 4 4 4 4 ; 4 4 1 3 1 1 1 1 3 1 1 3 1 1 1 ; 1 1 1 ; 1 1 1 ; 1 1 ; 1 1 1 1 1 1 1 1 1 ; ; < - < ",
"R R P R +.P R R R R R R R R P R P R P R P R P E E R E E E E R E E E E E E E E E E E E T T T E E E E L E E E E E E L E L E L L E L T L L L T G L I I J J L H I J J L L J H J J J H H J H n J n n n n n n n n n f f f f f f f f f d d d d d d d d a n i a u u u i i a k p p k p p p u p p k t p i u i p i t k t u t p t t t t t 6 u t r r r 6 6 r r 5 r 5 5 r 6 5 6 y 4 6 y 4 y 4 r 6 4 r 4 5 4 5 4 4 4 4 4 4 5 4 6 4 4 6 4 4 4 4 4 4 4 ; 4 1 4 4 3 1 3 1 3 1 1 ; 1 1 - 1 1 1 1 3 1 1 1 1 1 ; 1 1 1 1 ; 1 1 1 1 1 1 1 1 1 ; ; - - ",
"P R R R R R P R R R R R P R R P P R P R R E P R E N E E E R E R E E E E E $.E E E E E E E E E E E E E E E E E E E E E L L E E L L L L ! L L L G G L L G L L L G H L H L G H J H J J H n m H n n H n H g n n f f n n d g f b n d g f s f s s d d d d a a a s p a p p a a a p p i i k u p i i p i u i t p t t t t t u t p p t t 6 t 6 t 6 r t 6 r 6 r 5 r 5 r 4 6 y 4 y 6 4 6 4 6 4 4 4 6 4 5 4 4 4 6 4 4 5 4 4 4 4 4 4 4 4 5 4 4 4 4 4 3 ; 3 ; 4 4 1 1 3 1 < < 1 < 3 - 3 3 ; - - < 1 < ; 1 - 1 1 1 1 1 1 1 1 1 r 1 1 1 1 ; ; - - ",
"R R R P R R R R R R R R R R R R R P E P E P E E R E E R E Q E E E E E E E E E E E E R E E E E E E E E E E E E E E G E E E m E L T L T L T T L L I I L T G I L H L L L G L L G L H H n H M n n H n n J H H n n H n m n n n d n d f f f g f f s d s d d s s a d a a d a p p a a i p p p i p i i p u u u u u i u t t t u 6 6 t t t t t r t t 6 t t r 6 r 6 r 6 t r 6 6 y 4 6 y 4 y 4 6 4 4 4 4 4 4 4 4 4 4 4 4 4 6 5 4 4 4 4 l 4 4 3 3 4 ; 3 4 4 3 3 3 3 1 < < < < < - 3 - 3 - 3 ; < 1 1 1 1 1 1 ; 1 1 1 1 1 1 1 1 1 1 1 1 < < - < ",
"R P R R P R R R R P R P R P R P R P P R P E P E E R E E R Q R R E E $.R E Q R E E Q Q Q R Q E E E E E E E E E E E E E E L E E L I T T T T L L T ! I T I T I I L L J L L G G L H H H H H m H H m H H J J J b H n n n n n n b n n f f f f f f f f i s s d d d s a s a a p a p p k p a i p a i i i i k u i i t u t u t t u t t t 6 t t t r r 6 6 5 6 6 6 6 t r r 6 y 4 6 4 6 4 y 4 4 6 4 6 4 4 4 4 4 4 4 4 4 4 4 4 4 4 4 4 4 4 4 3 4 ; 3 4 3 4 ; 3 < 1 1 < 1 - 1 < 1 - ; - - - 1 - < 1 < - < 1 1 1 1 1 1 1 1 1 1 1 1 1 1 < < ; - < ",
"R R P R R R R P R R R R R R R R R R E E P R P P E E R Q R $.Q $.$.$.) $.Q $.) ) $.Q $.Q Q $.Q Q E E E _ E E E E E E E E E E E E T T I T E T T T I T T E T R T T T T T T L T L L L L J H M L H M H H H H H J H J H M n n n n n m n n n n n n f f n n d s d d d d a a a d a p p p p p p k a a p i p p p i u i u i t p p p t t t p t t t u t t t u t t r i u u t u t k e y y 4 6 4 6 4 r 4 5 4 5 4 4 4 4 4 4 5 4 4 5 4 4 4 4 4 4 4 3 4 4 4 ; 3 ; 4 1 1 < 1 1 < 1 1 1 3 ; 3 3 3 - 3 - - < 1 1 1 1 1 ; ; 1 1 1 1 1 1 1 1 1 1 ; 1 - - ",
"R R R P R P R R R R P R P R R P P P E P P R P E E E $.$.) $.R Q Q Q Q Q Q Q Q Q Q T Q Q Q Q T U E Q E T U E E N G E N E T G L L P T T T L L T T T T T L T T T T T L T I G H H L L n G M m M m n n n n n H H f n b f s s n n b d g g s d d n d h f d d d d d d a f a s a a d a a a a a p a i i i i t t t t y t y 6 6 e r r 6 t r r 5 5 1 1 5 1 1 < u r 7 7 4 3 4 4 t e y 4 4 4 4 4 3 4 4 4 3 3 3 l 4 3 3 l 4 4 3 4 4 4 3 3 4 3 3 3 ; 4 ; ; 3 ; 3 l 3 ; 3 ; ; : 1 - - ; - # : 1 1 - 1 < < 1 - 1 1 1 1 1 1 1 1 1 1 1 1 1 1 < < - - ",
"P R R R R R R P P R R R R R R R R R P R R E E P R E D.yXwXuXeXtXeXeXtXwXeXwXeXwXtXtXqX5X6XwX6X7X2.Q 3.qXeXeXuXeXeXeXqXqXqXqXqXqXeXwXwXuXtXuXwXwXtXqXtXtXtXtXtXtXtXtXtXtXtXtXtXtXtXjXjXyXtXyXjXwXtXtXtXtX5X*X8X7X7X7X7X=XE E j.5X4X6X5X6XwX4X4X6X6X6X6X6XIXwXjXIXIXjXIXjXjXIXIXjXIXjXjXIXIX6XIX6X6X7X3X3X8X*X*X*X=X=X$XUXr.t.t.t.8.=.=.q.q.7.7.9.@.u $.3X>X&X$XS.t.;.1.;.7.t.t.t.t.0.t.7.8.;.y.y.y.=.-.-.#.#.-.O.O.O.O.O.I K u.u.K K K K J J u.h j j a j a n N O.O.#.@.*.j.N # 1 < < - 1 1 1 1 1 1 1 5 1 1 1 1 1 1 1 1 ; < < < ; ",
"R E P R E P R P R P P R R R P R R R R R P P P E +.E eXLXJXKXKXKXKXKXKXKXKXKXKXKXKXpXg.3.h.G.0XiXU g.h.BXJXcXkXcXBXKXKXHXHXHXHXHXHXHXGXHXHXHXHXHXCXNXHXCXCXCXNXNXBXnXnXMXZXbXZXvXcXcXcXcXyXyXuXuXuXuX9X<Xe.) H.P.P.T.|.2XL 2.:XhXeXqXtXuXcXBXeX%X$X$X$X$X$X$X$X=X=X&X=X=X$X=X=X=X=X=X=X$X$X$XUXS.UXr.r.q.t.7.6.1.;.;.1.y.*.*.&.&.r.8XeXuXeXeXpXrX>.b 3.yX3X*X*XS.4.r.8X6X6X7X6XIX6X6X6X6X6X6X6XIXIXIXIXjXjXIXjXIXtXIXjXjXIXjXjXIXIXtXtXIXIXtXwXIXIXtXIXtXjX6X>X<XqXeXyXuXg.y 1 < < % 1 1 < 1 1 1 1 1 1 1 1 1 1 1 1 1 1 ; ; < - < ",
"P P P P P R P R R R R R R R R R P R P R E E E R E E <XLXHXHXHXHXGXGXJXHXHXHXKXcXG.w e 2 x z.U.A , 2.d._ 9XlXqXh.g.j.yXHXHXBXBXBXBXBXBXBXBXZXZXBXZXZXZXcXcXcXcXpXpXpXpXyXyXuXuXuXrXeX9X0X9X9X0X,XJ.G.1.F ` v.I.I.Q.Q.z.e 8 f.m s.T.d.W V ) h.9X9Xh.>.>.*.*.*.>.*.*.*.*.*.*.1.y.*.=.*.=.=.=.=.#.#.#.#.@.@.O.P O.L K I K K K J #.=XeXiX.X.X@X@XY.v @ b b x ' V t d &.&.>.*XIXxXjXjXxXxXxXxXxXxXxXzXzXzXzXzXPXzXzXPXzXPXMXzXMXPXMXMXMXPXMXMXMXMXDXmXDXDXLXDXeXeXpXpXhXhXR./ o k # < 1 % < < - 1 - 1 1 1 1 1 1 1 1 < 1 1 < ; ; < - ; ",
"R P P P E P E P P E P R R R R R R R P E R E E E E E 4XKXGXHXJXJXJXJXJXHXJXJX9X} B 0 z { B.l.0 2 Q %XG./ / f.pXbX&X:.:.J.bXHXCXBXBXBXBXBXBXBXBXBXBXBXZXZXZXvXcXZXpXcXlXpXyXpXyXuXuXuXeXeXeX9X9X0XG.+.S z.W.I.W.Q.M.^ l 2 W G.:.8 C B.T.d.M n E h.9X-X3.>.>.1.;.>.>.6.;.6.6.1.6.y.1.;.*.1.y.*.*.*.#.=.#.#.@.O.O.O.O.@.O.P #.UX5XrX.XiXiXiX[.{ e > 2 &.P , 2 C ' Y O.O.K ! 1.8XjXxXjXjXxXkXkXxXxXxXzXxXxXzXPXzXzXzXzXPXzXzXPXzXzXzXzXzXzXzXMXzXvXPXSXMXkX9XrXpXpXhX0X) $   : -.+ : 1 1 1 < < 1 ; 1 1 1 1 1 1 1 1 1 < ; 1 < < - - 1 ",
"P P E P P E E P R P R R R P P E P E E E P R E E E E 9XKXHXHXHXHXJXHXJXKXyXZ.] s.e.5.z.b.~ e V A.rXiXuX*X_ v / K.yX4X>.M :.2XBXHXBXBXBXBXBXBXBXBXnXZXZXvXZXbXbXcXcXcXcXlXpXyXyXuXuXrXeXeX9X9X:X3.( l.N.I.I.W.N.] 8 2 w c.{.^.L.4.c x s.V.n.) M m U h.,XD.6.*.1.>.;.>.>.>.1.y.y.1.y.*.y.*.*.*.=.=.#.#.#.@.@.O.O.R O.O.P 7.>XrX.X@X@XdX.Xb.B = = H =XP.n.2.s e B ` ' ! k f g h 1.3XxXxXjXxXxXzXlXxXzXzXzXzXzXzXzXzXzXzXMXzXzXMXMXzXPXMXPXMXPXMXMXMXzXqXrXiXiXpXiXg.9     t 8.&X:   + ; : 1 ; 1 ; 1 1 1 1 1 1 1 1 1 1 1 < 1 - < < - ",
"E P P L P P P P P P R P P R E R R R P E E E E P E E <XKXHXHXHXHXHXKXFX:Xs.k.H.;XK.b.] 0 0 5.R.@XgXgXdXiXwXh./ v s.K.<Xw.M m <.qXGXHXBXBXBXBXBXBXBXBXBXZXMXZXZXcXcXhXpXpXlXpXyXpXuXuXuXuX9XD.) a.I.W.I.I.I.k.B 2 0 } L.XX+XsXXX^.K._ x B s.n.d.E n g Q D.:Xh.*.1.1.;.>.;.6.*.*.1.y.1.*.*.*.=.=.#.#.#.@.+.+.O.O.O.N *.&X9X.X X.XdX@XV.D l = 9 t.6XPX_.XX^.n.<.w 0 C ] } f p g z K e.6XzXxXxXlXxXzXzXzXzXxXzXPXzXPXMXMXPXPXPXzXMXzXvXvXzXzXDXDXPXtXrXiXpXhXiXK.n     # 6.IX4X&X:   o + : < < ; ; ; 1 1 1 1 1 < 1 1 1 1 1 - 1 - - - ",
"P P P E L E E P P R P R R P P P P E E P E E E R $.E 9XLXGXHXHXJXJXuXc.l.V.,X<XH.a.B 0 | L..XdXgXCXVXfXsXGXDX4X,.v v d.K.j.P s n 3.eXFXNXBXBXnXBXZXnXZXnXZXMXcXZXcXcXcXcXcXyXpXuXuXuX9X-X2.s.I.Q.I.W.Q.B.A 8 2 S n.XXOXsXVXVXVX+X_.T.A.U x v s.B.d.m m m ,.J.-Xe.*.>.6.*.>.1.y.=.y.*.=.*.=.*.*.#.#.#.#.O.+.+.N O.j.<XE. X X X@X{.] l X l *.3XPXLXPX.XhXgXXX^.c.W e 0 o.[ S p p p s I $XjXzXzXzXzXzXzXzXPXPXzXPXzXPXzXzXMXMXPXPXMXMXPXDXSXMXtXrXrXiXiXdX0X,.+     M *X6X-XG.*X:   o + + : : : < 1 1 1 1 1 1 ; < 1 < 1 1 ; < 1 - < ",
"M E N E E E E N T R R P R I P R P T T P P E E E Q E 1XKXHXHXKXlXH.a.V.P.<XH.s.A 0 ! H.}.@XfXCXVXdXdXfXgXKXKXKXPXS.Z 8 v d.g.@.d u d h.pXHXNXBXBXBXnXZXZXZXnXbXcXbXcXcXpXcXcXyXpXuX1X4.s.M.)./.W.W.N.{ e 2 C c._.XXaXVXgX@XXXfXVXgXOX'.L.5.z e o.b.b.( n f H 4.J.%X8.>.>.1.*.*.*.1.=.*.*.*.*.%.#.#.#.@.@.O.K 7.;X0XT. X XoX{.x.e O @ J *XxXLXDXDXPXoXaXVXVX+X'.#Xc.! e B [ [ S t 9 q s *.>XxXPXzXzXPXPXzXvXPXPXzXPXvXPXvXPXvXPXvXPXAXDXyX0XrXiXiXiXiXA.-     l r.7X4X2XF.4.>X: .   o o : : : : : ; ; ; ; ; ; ; ; ; ; ; 1 ; ; ; ; ",
"E N E E N N E E P P I R P R P P E P T T T E P E R U 9XJXKXCX,Xx.b.P.7XP.c.C x Z A.[.OXsXVXVXdX(.W.{.iXCXKXKXKXKXKX6X3.w x / f.:.i r 5 M %XcXHXBXZXBXBXnXbXnXnXbXvXbXcXcXpXyXpXuXD. .v.`.`.).).W.k.B 8 z p.L.oX+XgXgXaX_.).(.).@XgXCXfXOX{.H.| z x ] b.n.W n b L g.J.j.6.*.1.y.*.*.*.*.*.=.*.=.#.#.#.@.I 6.%XP.T.Y.{. X_.b.z > . u j.jXDXDXDXPXLXxXV.].'.sXVXgXOX_.#Xp.z 0 A k.s.Z p 9 w H t.6XzXMXzXvXPXPXMXPXDXPXvXAXvXAXvXAXAXDXlXeXE.iXiXiXiXJ.k     # <.7X6X>X<X2XS.S.3X:     o o : o : : : ; ; ; ; y ; ; ; ; ; ; ; ; 1 - ; ",
"E M E N E N N E P P R P I P P T P P T P P T E E R T tXKXpXV.B.P.6X,Xn.` 0 z X.|.@XaXVXVXfX_.W. XVXSXuXuXSXKXKXKXKXKXPX;XE 8 x / ,.M 1 5 6 +.2XBXNXBXnXZXZXnXbXnXbXbXcXcXcXyX;X5.b./.`.(.(.!.v.A 0 x X.^.XX+XgXVXsX'./._.rXuX X).`.aXVXVXsXoX#XA.Z 8 v k.B.d.T n n Q h.J.e.*.*.*.*.*.*.*.=.%.%.%.#.+.=.$X2XL.V.Y.^._.B.v = . l ;.7XPXPXPXPXLXDX3X;.UXP.W.].oXfXVXgXoX_.V.| z 0 ` x.{ V 6 w w I S.IXDXvXzXvXMXMXPXAXPXAXAXAXvXGXMXeX0XE.iXiXiXP.+.o   X I *XIX3X<X2XS.S.jXtX8X:       o o : : : : : ; ; ; ; ; ; ; y ; ; ; - ; - ; ",
"N E N E N E E E P P I I P T P P P T P T P E E T Q U 5XuXb.V.4XqXL.] B e } L..XdXVXCXgXoX!._.fXLXLXJXJXZXuXyXKXKXKXLXKXLXjXh.b 8 v _ E 6 5 6 u :.9XBXBXBXZXBXnXZXMXbXZXbXuXG.s.I.`.`.`.`.I.] x x ( n. XOXgXVXgXoX/.(..XtX-XF.<XrX X].'.sXVXgX+X XL...B 0 C x.B. .G G Y ) G.S.1.*.*.*.*.=.%.=.%.#.#.r.F.Z.x.b.B.Y.B.~ $ X = K *XIXxXPXPXPXDXIXe.*.$X8X7X3XL.N.].aXVXVXsX'.~.Z.S 0 0 ] x.{ g e w g &.%XxXDXDXPXPXMXAXAXPXAXDXDXwXR.E.iXiXiXE.f.-   . t UX6X5X<X1X&XS.5XMXSXtX>X:       o o o : : : : : ; : ; ; ; ; ; ; ; ; 1 - - - ",
"E E N E L E N N E E P P P P P T P T L T T T P T E U >.h.&XIXP.z.D e V H.|.aXfXCXVX@X].~.dXJXJXJXFXJXJXJXJXyX1XlXKXKXGXLXGXLX6X1.x 8 m _ M 5 5 4 i h.yXGXBXBXMXZXcXBXpX-XX.M./.`.`.`.~.k.B 0 B c.^.oXfXVXVX+X`.(.@XyX5XJ.J.J.j.J.>XrX'.].oXfXVXfXOX^.L.| z e o.b.b. .G F F <.G.e.>.=.*.*.*.#.#.8.D.Z.s.[ x.z.B.[ 7 . X p q.7XxXxXxXPXPXxXF.*.t.&X*X*X>X7XIX1XV.W.'.sXVXVX+X'.V.p.Z 8 z a.x.S w w z F &.*XzXFXDXDXAXPXAXGXxX0XR.E.E.E.E.h.p     l 6.7X6X>X4X>XS.3XzXSXvXnXtX>X:     o   o o : : : : ; : ; ; ; ; ; 1 ; < 1 - - 1 - ",
"M E E N P L E E P P R P T P P P P P E P P T T T U T +.i.9XV.[ 0 w X.}.@XsXVXVXsX_.!.@XVXJXJXFXJXGXJXFXCXCXJXBXuXwXDXKXKXGXKXKXPX>X) x 8 / ) d r 5 1 m j.cXBXNXZXBX5XA.v./.`.`.`./.m.C 8 B X.V.XXsXgXVXsX'./.oXpXjX2XJ.F.j.J.j.j.G.S.2X.X`.`.OXgXVXsXoX{.H.} 0 x ] B.b.( Y Y ! 4.j.w.*.*.#.*.w.A.{ ] ] { k.[ e   . , %.=X7X6XIXjXxXxX8X<.>.UX$X*X*X>X3X3X7XIXIX,XB.!.oXfXVXgXOX_.V...z e C l.l.S z ! } | 8.4XDXGXAXGXvXqXR.E.E.iXiXK.m $   = R 8X7X>X>X4X%X&XlXDXMXPXMXSXjX3X:         o : o : : : : ; : : ; : ; - ; ; - 1 - < - ",
"N E N E E P P P L P T P T P P T P P L T T T E U E U O.f.k.B 0 ) L.@XaXgXCXfXXX!.'.gXJXGXFXJXJXFXJXJXJXJXJXCXGXJXcXqXwXLXKXLXLXKXLXzX&Xm 8 v / U r 1 5 5 M -XbXbXJ.x.W.`.(.(.`.U.` 8 e ' V._.aXgXCXfXXX/._.dXkX1X:XJ.-XF.J.j.j.J.G.h.G.S.,X X]._.aXVXgXaXXX#XA.Z 0 B l.B.x.( W S _ h.j.;.3.g.X.` ` ] ] ` 0 o   > M j.*X*X8X3X6XxX6X7.&.t.S.$X$X&X*X3X8X3X7X7XIXjXIXL.W.].@XgXVXfXoX_.H.X.x e ` l.{ } | p.2.&.e.jXDXwXP.E.E..X.XP.:.+ O . h $X3X*X&X3X>X%X6XAXDXMXnXMXMXDXtX3X:   o o o o o : : : : ; : ; ; : ; ; ; ; ; ; - - - - ",
"E N m E L L L P P T P P L P P L L T L P T E E T T U c x 8 F H. X@XfXCXVXOX!.!.dXJXJXGXJXJXFXFXJXFXFXFXFXFXJXJXNXHXFXcXqXlXLXKXLXKXKXLXIXw.x 8 Z _ n 6 5 9 i UXg.M.!.]./.(.Q.k.x e B x.^.oXfXVXgXOX!.(.@XcXqX,X2X-X-X-X&XJ.J.j.j.S.S.G.e.e.F.0XXX].XXdXVXfXOX{.L...B 8 C x.b.s.( ^ ^ d.g. .A ` ] ] [ C $   . d e.%X$X=X=X*X6XIX$X&.y.r.r.UX$X=X*X*X8X3X3X4X6X6X6XjXxXtX#XW.'.aXgXVXaX'.#XZ.( 0 B [ x.x.X...| C s.h.R.E.E.E.R.5.1   . < e.3X*XF.*X2XF.3XMXGXSXAXMXDXMXMXSXjX3X:   o o o o o o o : : : ; : : ; ; ; - ; ; - 1 1 - - ",
"N E M E E M E E P P P T L P P P E P L E L T T T U Q ( T g.}.@XsXVXVXdX(.!..XCXKXGXFXJXJXFXFXJXFXJXFXFXJXNXJXFXFXFXFXHXBXeXwXDXKXKXLXKXKXLX3XQ 8 x / ) M 4 k i.p.].!./.~.m.A 8 B X.Y.oXaXgXVXaX(.!. XhXkX1X,X<X2X:X;X-X-XF.j.J.j.G.h.e.S.e.4.h.&XE._.).oXhXVXfXoX^.n.S e 8 ~ m.B.X.| ' 5.! D ` a.o.e     3 3.F.UXUX$XUX3XtX3X;.&.6.h.j.i.$X$X$X*X*X>X3X3X7X7X6XwXwXjXxXxX9XY.!.'.sXVXgX+X'.V.c.Z 8 B a.b.{ S ` z.d.E.E.R.g.q     O #.*X>X$X&X>X&X>XxXGXSXAXAXAXDXMXMXDXSXyX3X:       . o o o : : : ; : : ; : : ; ; ; ; ; : : ; ; ",
"E m E M M E E N P P L P P P L P P L E L T T m U U ) _ L.@X@XgXCXfX'.!._.gXKXJXGXJXGXGXFXJXFXFXGXSXFXFXFXNXFXFXFXNXHXFXCXHXbXwXkXLXKXKXKXKXKXPX*XZ 8 x / Q u.i.c.]./.U.[ 0 e ' V.XX+XfXVXsX'.!._.hXlXqX1X<X<X>X:X:X-X-X%XJ.F.j.K.S.S.G.h.h.h.e.g.h.:XE.'.'.+XVXVXsX X{.c.V 2 e [ B.,X4.e.( D ~ 0 X   = $.S.S.r.S.r.=XtXtXr.&.>.t.9.j.i.j.S.$X=X*X*X8X3X3X3X6X6X6XIXjXtXjXzXxX0XU.!.oXfXVXgXOX_.L.X.0 e o.z.x.o.x.G.|.H.U X . . h $X*XUXS.&X-X*XtXDXSXMXAXAXAXAXDXDXnXMXSXjX3X:       o   o o o : : : : ; : ; ; ; ; : ; : ; ; - - ",
"N E M E E M M E L P L L L T P P L L L T m T E E U Q A.+XsXVXgXoX!.(.fXLXJXFXFXJXJXFXFXJXGXFXSXSXFXFXFXFXFXFXNXCXFXCXHXFXNXHXHXlXqXzXLXKXLXKXKXKXxXh.c 8 B ^ h.V.].l.B e Z n. XOXfXVXgX@X].~.iXpXuX9X1X1X<X<X,X2X:X-X:X%X-X-Xj.j.G.G.e.h.h.h.e.h.3.h.h.:X{.`.'.aXVXVXaXoXL.X.z l 0 a.n.S. .v $   > ! S.S.r.r.r.UX5XjX*X*.&.6.8.4.h.q.i.j.$X$X%X*X*X8X3X3X7X6X6XIXtXIXjXjXkXzXPXkXL.W.~.@XgXBXdXoX_.H.( z 0 [ m.B.A...l   . p r.=Xr.w.S.&X&X5XMXFXAXAXDXAXAXAXAXnXDXMXMXLXjX>X:         o o : o : : : : : ; : ; : : ; ; ; : ; - - ",
"E M E N M E E N P T P T P L P L L T T L E U E E U Y K.VXVXdX(./.@XJXJXJXJXJXGXGXGXJXGXFXFXGXGXSXNXJXFXFXSXFXFXFXNXFXNXFXNXNXNXHXnXyXtXAXKXKXKXKXKXKX6X) 8 8 C k.A 2 z s.^.OXaXVXVXaX(.!. XhXlXuX9XqX9X1X<X<X<X2X:X-X-X-XF.j.J.j.S.h.S.h.e.4.h.e.h.h.g.h.G.R.(.`.oXsXVXfXOX XH.W e , v  .e     w e.F.r.r.r.r.;XtX7X5.&.*.1.8.t.4.9.j.j.i.$X$X=X*X;X3X3X3X4X7X6XwXIXIXjXjXxXkXxXvXPXyX#XW.(.aXVXVXsXXX^.p.S 0 C k.z     3 8.=Xr.<.3.$X&X>XlXGXDXSXAXAXSXAXAXnXAXAXmXDXMXSXjX8X:   o   o   : o o o : : : : : ; ; : ; ; : ; ; - ; - ",
"N E E E E M E N P L P L P E N E E m N E E E E E T U H.fX'.!. XVXKXGXFXJXFXJXJXGXFXJXFXGXFXFXSXFXSXFXSXSXFXFXFXFXNXNXNXFXFXHXNXNXHXNXcXuXtXLXKXKXKXLXKXPX$XV 0 8 0 } L.oXaXgXVXsX'.!._.pXMXyXuXqXqX9X9X1X<X<X,X2X:X-X-X-X&XF.D.D.S.G.j.h.G.e.e.h.3.3.h.3.3.w.D.E.(.`.+XgXVXsXoX{.g.V , @ . 7 4.%Xj.t.r.r.F.jXtXUX&.*.y.1.6.8.w.t.h.q.j.i.$X$X=X*X*X3X3X4X7X7XwX6XwXjXjXxXkXxXxXlXzXPXPXrXY.I.'.fXZXgX+X_.V.X.B 2 = l Q $Xr.*.:.r.$X*XwXFXDXDXDXDXAXDXAXSXAXAXAXAXMXDXDXDXkX3X:         o o o : : : : : : : ; : ; : ; ; : : ; : : ",
"E m N M N E N E E L L P L N E E E T E E E m E U U Y G.OX!.hXKXGXJXGXJXGXJXFXFXFXGXFXGXFXFXFXFXSXSXSXSXFXFXNXFXNXFXFXFXNXNXNXCXNXNXNXFXCXlXqXkXKXKXKXLXwXt.e.} ! Z. X+XgXVXfXoX!.(.iXBXcXuXuXuXqXqXqXqX9X9X<X<X,X<X-X-X-XJ.D.D.D.G.S.h.h.e.h.e.4.h.3.3.3.3.3.,.h.J.{.`.'.aXgXgXsX_.H.T , Q qX2XG.j.r.F.yXxX&X&.-.=.*.*.1.1.3.8.t.9.j.UXj.$X=X&X*X*X8X3X3X5X6X6XIXIXIXjXjXxXkXzXxXzXzXzXDXcX0XU.).OXgXVXsXoX_.H.A ! P.nX4Xj.e.&X*X5XMXLXDXDXSXDXDXSXDXAXAXAXAXPXAXDXMXDXSXjX3X:     o o   o o o : : : : : : : ; : ; ; : ; ; - - ; ",
"N E M E N E E N L P L L L P P N N E T m E m U E Q Y A.hXCXKXSXJXGXGXJXCXFXJXFXJXFXFXGXFXFXFXFXFXSXFXSXSXSXSXSXFXFXSXFXNXNXNXFXNXNXFXNXNXNXBXuX5XPXxXr.+.1.P.' ! U.+XVXgX@X`.!. XZXMXpXuXuXuXuXtXqXqXqX<X9X<X<X2X:X-X:XJ.&XF.D.D.S.j.G.h.h.h.h.4.3.h.h.3.3.3.3.3.3.h.P._.].oXfX@XV.K.w.2 G.KXZXuX,XrXvX3X1.! #.&.&.*.;.1.1.8.t.4.9.j.j.UX$X$X%X*X8X>X3X3X7X7X6XwXwXjXjXjXkXxXzXzXzXzXzXvXAXPXyXT.W.(.@XgXgXOXN.} ..iXKXJXCXyX3XxXLXSXMXDXDXDXDXSXDXAXDXAXAXAXAXMXDXDXMXSXjX>X:       o o o o : : : : : : : ; : ; : ; ; ; ; : : - ",
"m N E N E N m E L L P P L L R m T N E N E U E m U F S.uXiXKXJXJXJXJXJXFXJXFXFXFXFXFXFXFXFXFXFXFXSXFXFXFXSXmXSXFXSXNXNXNXFXNXFXNXNXNXNXBXnXBXCXcX1X*.w.5XDXR.D W W.aXVXoX/._.hXnXlXyXyXyXyXuXuXeXqXeXqX9X1X<X<X<X>X:X-X-X&XF.D.D.S.G.j.h.h.h.e.h.h.w.3.w.3.3.3.3.1.5.3.S.R.(.^.}.uXzX*., g.JXCXCXCXZXe.#.#.=.&.&.*.*.y.1.8.1.8.t.h.j.i.S.$X%X=X;X8X8X3X7X5X6X6X6XIXjXjXjXxXlXxXzXzXzXzXzXvXvXAXAXrX^.Q.oXfXOXN.'  .[.HXJXJXtXtXLXMXnXDXmXDXmXDXDXAXDXAXAXMXDXAXAXnXMXDXSXkX3X:     o   o o : o : : : : : : : ; : ; : : ; - ; : ; ",
"N E N E M E M T N T E P L L L L E E N L U m T U E m K.bXV.rXCXGXFXJXJXFXFXJXFXJXSXFXFXFXSXFXFXFXSXSXSXmXSXSXSXFXFXmXmXCXSXmXVXSXNXNXNXNXNXBXBXHXeXw.AXSXDX|.B W I.+XVXXX(.NXBXyXbXyXpXyXyXeXyXeXeXqX9X9X4X9X<X<X-X:X-X-X-X-XD.j.D.h.h.h.h.h.h.w.w.w.3.w.3.3.1.1.3.1.1.<.1.G.cXLXJXzX&.= 4.HXCXCXJXqX+.#.#.#.&.%.&.y.>.1.;.8.w.t.9.j.j.UX$X=X=X*X8X>X3X4X7X6X6XwXIXjXjXxXxXkXzXxXzXzXzXzXvXvXvXAXDXMXW._.gXOXW.' ' [.HXCXJXqXjXDXAXSXDXAXAXDXDXAXAXDXDXAXAXAXDXDXAXAXMXGXjX3X:     o o   o o o : : : : : : ; : ; : k ; : ; ; : ; ",
"E N N m T N T N M P L L P L L L m T E L E E E m U m D.KXNX}.[.VXJXJXFXJXGXFXGXFXFXFXSXFXSXSXFXFXSXSXSXSXSXmXmXmXmXFXmXmXSXSXSXSXNXNXNXNXNXNXNXBXqXUXGXvXPX|.C Z I.aXVX'.(.BXbXcXyXlXyXyXyXyXyXeXuXqXqXqX9X<X<X2X:X>X-X-X-Xj.F.J.D.j.D.h.j.h.h.h.h.w.w.3.3.w.3.1.1.1.1.<.&.S.GXSXFXzX#.= 4.HXHXCXCXtX#.@.#.#.%.=.*.1.y.1.;.5.8.t.j.q.j.UX$X%X&X*X;X8X3X7X7X5X6XIXIXwXjXjXkXxXlXzXzXzXzXvXvXPXvXPXMXDX~._.fX+XW.` ' [.HXCXKXqXjXGXAXDXAXDXAXAXAXDXDXnXDXAXAXMXAXMXAXAXAXDXjX3X:         o o o : o : : : : : : ; : : : : ; ; : : : ",
"N E E N N E m E T L P P L L L T E N m T M m E T U F D.CXHXJXpXL.pXKXJXFXJXFXFXFXFXFXFXSXSXFXSXSXFXFXmXSXmXFXFXFXFXmXFXmXmXmXmXmXBXNXNXNXNXnXBXBXqXS.GXAXDXrXA D I.+XVX'.(.BXvXcXbXyXyXcXyXpXyXyXuXqXqX9X4X9X<X2X<X:X>X-X-X:XF.j.D.h.h.h.h.h.h.w.w.3.w.3.3.1.w.1.1.1.1.1.&.S.FXSXGXvX#.@ 4.HXCXCXHXtXR +.#.#.%.*.*.*.>.1.8.8.w.4.9.j.j.S.$X%X*X*X8X>X3X7X4X6X6X6XwXjXjXjXxXkXxXzXzXzXzXvXvXPXvXvXDXPX#X].gX+XW.` S [.HXHXKX5XjXDXAXAXDXSXDXAXAXAXDXDXMXDXAXDXDXMXAXAXAXSXjX;X:       o o o o : : : : : : : ; : ; : k : : : ; ; : ",
"m N E M E N E N P L L L L P L L N E E N T U m E T V F.JXCXCXKXyX1XKXJXJXFXGXJXGXFXFXFXSXSXFXSXSXSXFXmXmXSXFXmXFXmXmXmXmXmXmXmXmXNXNXNXNXNXBXnXHXwX$XGXvXLX|.D Z I.aXCX'.(.BXbXcXbXlXyXcXyXyXyXeXuXqXqX9X9X1X9X<X>X:X:X-X-Xj.-XF.D.D.D.D.j.h.w.h.h.h.w.3.3.w.1.3.1.<.<.1.&.$XSXFXGXlX+.@ g.CXCXCXHXuX#.#.#.&.#.*.*.*.1.;.6.w.t.t.h.q.i.j.$X=X%X*X;X8X3X4X7X6X6XwXIXjXjXjXkXxXkXzXzXzXzXvXvXPXPXvXMXPX~._.gX+XW.` A  XCXHXJX5XjXGXAXDXAXAXAXAXAXDXDXMXDXDXDXMXDXDXDXvXAXAXjX3X:     o o o o : o : : : : : : : ; : : : : : ; : ; ; ",
"N E N E N E N E L P L L P L P L N E E E E E E m U F D.HXCXCXHXpXuXKXJXJXFXJXFXFXGXFXFXFXSXFXSXSXSXmXmXSXSXmXmXmXmXmXmXmXmXmXVXSXNXNXnXNXBXnXBXCXeX$XGXMXLX|.A Z I.+XVXXX(.BXbXcXlXlXyXyXyXyXyXyXqXeXqX9X9X1X<X<X<X:X:X-X-X-Xj.j.D.h.D.h.j.h.h.h.w.w.w.w.3.3.3.>.1.1.<.1.&.S.FXFXJXlX#.O g.HXHXCXCXuX#.#.#.#.%.*.*.>.1.1.6.4.w.t.j.r.i.S.$X$X=X*X;X8X3X3X7X6X6X6XIXwXjXxXxXxXzXzXzXzXzXvXvXvXPXvXMXPXY.].gX+XW.A A [.HXHXKX5XtXGXAXDXAXAXAXAXAXDXMXDXDXMXDXDXMXDXAXAXvXDXxX;X:     o   o o o : : : : : : : : : ; ; ; : ; ; ; : : ",
"E N m E m N E N L L L L L L L L E m m E M m U E U m F.HXCXCXHXcX9XJXJXFXJXFXFXGXFXFXFXFXFXSXFXSXFXmXFXFXFXmXmXmXmXmXFXmXmXmXSXSXNXNXNXNXNXNXnXHXqXS.GXnXLX|.A D I.aXZX'.(.BXnXcXyXbXyXcXyXyXyXeXqXuXqXeXqX1X<X<X>X;X:X-XJ.D.:XJ.D.D.h.j.h.h.h.w.h.w.w.3.3.3.3.>.1.1.*.>.&.UXFXFXGXzX+.O 3.HXBXHXJXtX&.#.#.#.%.*.*.*.1.;.1.8.8.e.9.j.j.S.$X%X&X*X8X>X3X4X4X6X6XwXwXIXjXjXkXkXkXzXlXzXvXzXPXvXvXvXMXSX^.(.gX+XW.` A [.JXCXJXqXtXLXAXAXDXAXAXDXMXAXMXDXDXnXDXMXDXDXAXAXAXGXkX>X:         o o : : o : : : : : : : ; : : ; ; : ; ; ; ",
"M m N N E N E E L L L L P L L P N E E m E E m E U m J.HXCXBXHXpXuXKXFXJXJXFXGXFXFXFXFXSXFXFXFXFXFXFXFXmXFXmXmXFXCXSXmXmXmXmXmXmXNXNXNXBXNXNXBXBXuX%XGXnXLX0XD A I.aXVXXX(.nXbXlXyXcXcXyXyXpXyXyXuXqXqXqX1X9X<X<X<X:X;X-X-XJ.j.-XD.h.D.h.j.w.h.h.w.w.3.w.3.3.3.3.1.1.>.1.&.$XGXFXHXlX+.O 3.HXCXCXJXuX#.#.&.#.=.*.*.y.1.1.1.7.7.t.j.j.j.$X$X%X%X*X8X>X3X7X7X5X6XIXjXIXjXjXxXkXxXzXzXzXvXvXvXvXvXAXMXDX^.(.gX+XW.` A }.HXHXJX5XtXLXAXDXAXAXAXAXPXMXDXnXDXDXDXAXDXAXDXMXAXDXkX8X:         o o o o : : : : : : : : : ; : ; : ; : : ; ",
"N E M E N E N m L L L L L L L L E E N E E m U E E m F.HXHXCXHXyXrXJXFXFXFXSXJXGXSXFXGXSXFXFXFXFXFXmXFXFXSXmXmXFXSXSXmXmXCXmXNXmXNXNXNXNXNXNXnXHXwXS.GXMXDX|.A A I.aXZX'.(.nXbXcXbXkXbXyXyXyXyXeXuXqXqXqXqX<X1X,X<X>X:X-XJ.J.:Xj.D.D.j.j.j.h.w.h.h.3.w.3.w.3.3.>.1.<.<.>.&.S.GXFXFXzX+.@ 4.HXHXNXJXqX%.#.#.#.%.*.*.*.1.;.1.w.4.t.h.9.i.j.$X=X%X*X*X*X3X3X4X6X6X6XIXwXjXkXkXxXkXzXzXzXzXPXvXvXvXAXMXDX^.].gX+XW.` A }.JXCXKX6XtXGXAXAXDXAXAXAXAXAXDXPXMXDXMXDXMXAXAXAXAXDXjX8X:   o     o o o : : : : : : : ; ; ; : k ; : ; ; ; : ",
"M L L L M L L L L L L L L L L L T M T T U T m E T F J.JXCXCXHXyX1XKXCXFXGXFXFXFXSXFXFXFXFXFXFXFXNXSXFXFXFXmXFXFXNXSXFXmXCXmXmXmXNXNXNXNXNXNXBXHXtXD.GXAXDX|.~ A I.aXVXXX(.BXcXlXlXyXbXyXyXyXyXyXyXeXeX5XeX4X9X<X<X:X:X:X-X-XD.D.D.h.D.h.h.h.h.w.w.w.w.w.w.3.3.1.1.1.>.>.%.S.GXnXGXvX+.X 2.HXHXHXJXqX#.#.#.%.*.*.*.*.>.6.6.8.4.e.9.j.r.UXj.=X&X*X*X*X3X3X3X5X6XwXwXwXjXkXxXkXzXzXzXzXzXzXvXvXPXvXPXDX^.(.gXaXW.` A }.HXHXKX5XtXGXDXSXDXAXAXAXAXAXDXMXMXDXnXDXAXAXAXAXAXDXkX3X:     o   o o o o : : : : : : ; ; ; : : ; : ; ; : ; ",
"L L M L L L L L L L L L K L L L M T T M E m E E T m F.HXCXCXHXpX9XKXFXFXFXGXFXJXJXFXFXFXSXFXFXFXSXSXFXFXFXFXFXNXFXNXmXmXSXmXmXmXFXNXNXNXNXNXBXFXtX$XGXMXLX|.` A I.aXZXXX).BXcXcXbXyXyXlXyXcXyXyXeXwXeXeX<XeX<X<X<X:X;X:X-X&X-XD.D.D.h.D.h.h.h.w.w.w.3.3.3.3.1.3.3.>.<.>.%.S.GXGXGXvX$.O 4.HXCXCXHXuX&.#.#.%.#.*.*.>.>.1.1.w.7.t.h.q.i.S.$X$X%X*X;X;X>X3X7X4X6X6XIXjXjXjXkXkXkXzXkXzXzXzXvXvXvXvXMXDX^.(.fX+XW.] A }.JXJXJXqXtXLXDXSXAXAXAXAXAXAXMXDXDXDXDXAXAXnXAXAXAXSXjX>X:       o o o o : o : : : : : : : : : ; ; : ; : ; : ",
"M L L M L M L M L J L L J L L L M T M P E U m m U m J.JXFXCXHXyXrXKXFXJXFXFXFXGXFXGXFXFXGXFXFXFXFXSXSXmXmXFXFXmXSXNXFXmXSXSXmXVXNXNXNXNXNXNXNXHXtXG.GXnXDX|.A ~ I.dXVXXX].BXZXcXbXlXcXyXyXyXyXeXyXwXqXqXeX4X1X<X>X>X:X:X-XJ.%Xj.D.D.D.h.j.j.h.h.h.w.w.3.3.>.1.1.1.1.1.>.%.S.GXGXFXvX+.X 3.HXHXCXJXqX&.#.#.*.*.*.*.1.1.y.1.8.w.w.9.r.j.S.$X%X=X*X*X8X3X3X4X6X6X6XwXwXjXjXkXxXzXkXkXzXzXzXvXPXPXvXMXMX^.(.gXaXN.` A }.HXCXJX5XtXLXDXAXAXAXAXAXAXAXDXDXMXAXMXDXDXDXAXAXMXAXjX>X:     o   o o o : : : : : : : ; ; ; ; ; ; ; : ; ; : ",
"M n M M H L H L L L L L L L L L P G T E M T E T U m J.HXNXHXJXpX1XJXJXSXJXJXFXFXFXFXFXSXSXFXFXFXSXFXFXFXFXmXSXFXNXSXSXmXmXSXSXSXNXNXNXNXNXCXNXHXtXS.DXDXPX|.` ~ I.+XVXXX(.BXcXcXyXcXlXcXbXyXyXyXyXeXeXeXeX<X<X<X<X:X:X;X-X:XD.:XD.D.h.D.h.h.h.h.h.w.3.w.w.w.3.>.3.>.,.1.%.D.FXnXGXcX+.O 4.HXNXHXJXtX%.#.#.#.%.%.*.y.*.1.6.3.7.t.j.j.j.j.$X$X%X&X;X;X;X3X4X7X5X6XIXIXjXjXxXkXkXzXzXzXzXzXvXvXvXvXMXDX^.].fXaXW.[ ~ }.HXHXKX5XjXGXAXDXSXAXAXAXAXMXDXMXDXMXDXnXMXDXAXMXAXSXjX>X:         o o : + : : : : ; : : : ; ; : : ; ; ; : ; ",
"L N L M G L L L L L L L L L L L L L U m M T T G T m J.HXCXHXHXpX9XJXJXFXFXFXGXFXFXFXSXFXFXFXFXFXFXFXSXFXSXFXmXmXmXSXmXSXSXmXmXCXNXFXNXFXNXNXNXCXtXS.FXMXLXR.A A N.aXVXoX(.BXMXcXlXyXbXyXbXyXyXuXeXyXeXwX5X<X<X<X<X<X>X:X-X-XD.D.D.D.D.h.h.j.h.w.h.h.w.3.w.1.,.w.1.1.1.>.%.D.GXnXNXlX+.X 3.HXHXCXJXuX%.%.#.%.*.*.*.*.y.1.1.8.8.w.w.j.j.j.$X$X%X*X*X;X3X3X3X5X5X6XwXjXjXjXkXxXkXzXzXzXzXzXzXzXvXPXMXDX^.].gX+XW.[ ~ }.JXHXJX5XtXGXAXAXAXSXAXAXAXAXMXMXAXDXDXMXDXDXDXnXMXAXjX>X:   o     o o o : : : : : : ; : ; : ; ; : ; ; : ; ; ",
"M m n L M L M L H J L L L L L L T M M T T E m U U m J.HXCXFXHXyX1XJXFXFXFXFXFXFXFXSXSXFXFXFXFXFXFXFXFXFXmXFXFXmXSXCXSXmXmXmXSXMXNXNXNXNXNXNXNXHX9XS.SXMXPX|.` ~ N.aXVXoX(.MXcXcXcXcXyXcXyXyXyXyXyXeXeXqXeX1XeX<X<X<X:X:X-X-X-XF.D.D.h.D.D.h.h.h.w.w.w.w.3.w.w.>.>.,.,.>.@.%XNXnXFXlXR O 4.JXFXCXCXtX%.%.#.%.*.%.*.>.y.1.1.1.w.t.e.q.j.i.$X$X=X&X*X8X>X3X3X7X5X6XIXwXwXjXkXkXxXkXzXkXzXzXzXzXvXvXzXDX^.(.fXaXW.` ~ }.HXHXJXtXtXFXAXAXAXAXAXAXMXAXDXDXDXMXDXMXMXMXMXMXMXSXjX>X:       o o o o o : : : : : : : : ; : : ; ; : ; ; : ",
"M M M L L M J L L L L J L M L J m P M E m T U L U m F.HXNXCXJXpX1XJXFXFXFXFXFXGXFXSXFXSXmXFXFXFXSXSXFXSXmXmXCXmXmXSXmXmXmXmXSXmXNXNXNXNXNXNXmXCXqXS.mXMXDX}.A ~ W.aXZXoX(.BXZXcXyXcXcXyXyXpXyXyXyXwXwXeX5X9X9X4X<X:X:X;X-X-XJ.%XD.D.D.h.h.h.h.h.h.w.w.3.3.1.w.>.1.1.,.>.%.D.NXnXNXlXR . 4.JXHXHXJXtX$.%.%.*.*.*.*.*.1.1.8.1.w.w.q.r.j.j.j.%X%X*X;X*X>X3X4X5X6X6XwXwXjXjXjXkXkXzXzXzXzXzXvXvXvXvXMXDX^.(.fX+XW.] ~ }.HXCXJX5XjXGXAXAXAXDXAXAXMXAXAXAXMXMXMXDXMXMXMXPXMXAXjX3X:   o   o o : : : : : : : ; : ; ; : ; : : : : ; : : ",
"m N m M M H M J L M L L L L L L T M T m M U G U L F J.JXCXCXJXuX1XJXNXJXFXJXFXFXFXFXFXmXFXmXmXSXFXFXFXFXSXSXmXFXmXmXCXmXmXmXmXmXFXNXNXNXNXNXBXCXqXS.nXMXDX[.~ ` I.aXVXXX(.BXMXcXcXcXcXcXyXkXyXyXyXeXwXeXeX9X4X<X<X<X;X:X:X-X:XD.D.D.D.D.D.h.h.h.h.h.w.w.w.3.3.3.1.1.1.>.$.%XNXnXFXlXR X g.HXHXCXJXuX&.&.%.%.%.*.*.1.*.1.1.8.8.e.e.j.j.j.$X$X$X&X*X;X;X3X4X7X6X6XwXIXjXjXjXxXxXkXkXzXkXzXvXvXvXvXMXDX^.~.fX+XW.[ ~ }.JXCXKX5XjXDXAXSXMXMXAXMXAXMXPXAXMXAXMXMXMXMXMXMXzXAXtX;X:     o o o o o : : : : : : : : : ; : ; ; : ; ; ; ; ",
"N m M N m m E M M T m L L M M L G L L m m E m E E m F.HXCXBXHXyX<XJXFXHXFXFXFXFXFXFXSXSXSXSXSXSXSXFXFXFXFXNXSXSXNXnXFXFXNXnXnXNXmXNXNXNXNXNXNXCXqXj.MXcXDX}.~ ` I.aXVXXX(.FXZXcXpXlXcXyXyXyXyXyXyXuXeXwXeXqX<X<X<X<X:X:X-X-X-XD.D.D.:Xj.h.h.h.h.w.h.3.w.3.3.3.>.1.1.>.>.:.D.NXnXFXlXE X g.JXFXCXLXeX%.%.%.>.%.%.>.>.6.1.1.w.w.w.e.r.r.S.S.$X$X&X*X*X;X3X7X4X6X6X6XtXtXjXjXxXkXxXxXlXlXzXlXvXzXMXzXMX^.].gX+XW.[ o.}.HXCXKX5XtXFXAXAXnXAXAXnXAXAXvXvXnXAXvXvXvXvXvXvXvXnXwX;X1   . . o o o + : : : : : : ; : - : ; - ; : - - ; : ",
"M N m M N N m N M T P N M T L L L G L L T N E m m c J.JXBXHXHXuX1XKXFXHXSXJXFXFXFXFXFXmXmXSXmXFXmXFXFXFXSXSXFXmXGXNXnXFXFXnXNXnXmXNXNXNXNXNXnXCXwXh.bXcXAXT.A ` W.aXZXXX~.NXMXlXcXcXyXlXcXyXyXyXyXwXeXeXqX9XqX<X<X<X>X:X-X-XD.-XD.D.K.j.j.h.h.h.h.h.w.w.3.3.1.w.1.>.,.>.%.j.NXBXNXlXP . 3.JXHXHXKXeX%.>.%.%.%.>.>.>.>.1.1.6.8.7.e.e.r.r.$XS.$X%X;X*X>X3X>X4X5X5X6XIXtXIXjXjXkXlXlXlXzXzXvXzXzXvXMXMX#X(.gX+XW.[ ` }.HXHXJXqXtXFXvXnXnXvXMXMXvXAXAXvXvXvXvXvXvXvXvXvXcXvXwX>X;       . o o + o + : : : : : : : ; ; : : ; ; : : ; ",
"m M m M m N E M M M E N L M L L M G G L E m m T E c J.HXCXCXJXuX<XJXFXFXNXNXFXSXNXFXSXmXSXmXmXSXSXFXFXNXSXSXSXFXnXFXGXnXnXnXnXFXmXmXNXNXNXNXNXCXeXh.cXcXvX[.~ ` W.aXVXXX~.CXcXcXyXyXcXpXpXyXyXyXyXeXeXwXqXqX<X<X<X<X<X:X-X-X-XF.-XD.D.j.j.h.h.h.h.w.h.w.w.w.3.,.1.,.,.>.$.S.nXnXFXcXP . 4.HXHXCXGXwX%.%.%.%.%.>.>.>.>.1.1.8.w.w.t.e.j.S.$XS.%X*X&X*X>X>X3X5X6X6XwXtXtXjXjXkXkXxXxXlXzXcXcXzXzXMXzXMX~.(.gX+XQ.[ ~ }.HXHXJX5XIXFXAXAXvXAXvXMXvXnXMXvXvXvXvXvXvXvXvXvXcXvXwX;X:   o . . o o + : : : : : : : ; - : : - - - : ; - - ",
"M M M M N N m N T M M m m P L n L L L m m E m m U m J.HXNXBXHXpX9XJXFXGXJXSXFXCXFXFXSXSXSXmXSXSXSXmXmXSXmXmXSXNXFXFXnXFXFXNXFXAXmXNXNXNXNXNXNXFXwXh.yXpXvX[.` ~ W.aXBXXX~.VXMXlXcXlXyXlXyXyXyXyXyXeXwXeXqX<X9X4X<X4X:X;X:X-XJ.-XD.D.j.j.h.h.j.h.w.h.w.3.3.3.3.3.1.1.>.>.$.%XBXnXNXlXP X 5.JXHXHXKXeX%.%.%.>.%.>.>.>.>.6.1.w.7.w.e.r.r.r.$XS.$X%X*X;X*X>X3X4X5X5X6X6XtXtXjXtXjXkXlXlXlXlXzXzXzXcXvXzX^.~.gXaXQ.[ ~ }.HXCXKX5XtXSXvXAXnXvXvXAXPXvXvXvXvXvXvXvXzXvXcXzXlXvXwX;X:     . . o + + + : : : ; : : ; - ; ; : ; : 1 : - : ",
"m M M N m m E M m E N T N E M E G M L n G G m E L c J.HXBXHXHXuX9XJXFXFXFXFXFXNXSXSXAXNXSXmXAXNXSXFXmXFXNXNXAXNXnXFXFXnXNXAXnXNXNXNXNXNXNXNXBXFXwXh.uXuXlX{.` ` W.aXVXXX~.mXcXcXpXlXcXyXlXyXyXyXyXeXeXeXqX9X9X1X<X<X:X>X:X-X-XD.:XD.:Xj.j.h.h.h.h.w.h.3.w.3.3.1.1.>.>.>.$.j.FXBXNXkXT . 3.JXHXCXJXqX:.>.%.>.%.%.>.>.1.6.w.w.w.w.e.r.r.r.UXS.%X%X&X*X;X>X3X4X4X6X6X6XtXtXtXjXjXkXkXkXlXzXzXlXzXvXMXMX~.(.gXaXW.[ ~ |.HXHXJXqXtXSXAXvXnXAXnXvXvXvXvXvXvXlXzXcXlXcXlXlXlXcXwX;X-       o . o + + : : : : - - - : : - : : ; : - : - ",
"M M m m N N N m M M M M m N m m L G L m M U m U U c F.HXCXBXHXyX9XJXFXGXFXFXFXFXmXFXFXSXSXmXmXSXnXnXSXmXnXSXnXFXNXnXnXNXFXNXSXnXNXNXnXNXNXNXBXHXwXh.uXuXkX{.` ` W.aXZXXX~.VXvXpXlXcXyXcXyXyXyXyXyXyXwXeXqXeX4X1X<X:X<X:X-X-X-X%XD.K.j.j.K.j.h.h.h.w.3.w.3.3.3.3.g.>.,.>.:.%XBXNXBXkXE . 2.JXHXHXJXwX%.%.%.>.>.>.>.>.>.>.1.6.1.w.e.e.e.S.S.S.$X&X&X*X*X;X>X4X4X7X6XqX6XtXtXjXjXjXxXkXlXxXlXzXzXvXzXvX#X~.gXaX!.[ ~ |.HXCXJX5XwXnXvXAXvXvXvXvXvXvXvXzXvXzXzXlXlXcXcXcXkXcXwX;X:   . . . o o + + : : : : : - : ; - ; ; - - 1 : - - ",
"M m M M N m N T M T N M N E E M n L n L m m T m Y c F.HXBXCXHXuX9XGXFXFXFXFXFXFXFXFXNXNXmXnXSXmXmXmXNXAXnXSXnXNXFXNXnXFXnXnXnXNXnXNXNXnXNXBXnXHXuXh.uXuXyX[.` ~ N.aXVX'.(.VXvXcXcXyXlXyXlXyXyXyXyXeXeXeX5X9X4X<X<X<X<X>X-X-X-XJ.D.D.:Xh.j.h.h.h.w.h.w.w.w.3.3.1.g.1.>.>.$.j.nXnXNXkXN O 2.JXFXHXKXqX%.%.%.%.%.>.>.>.1.1.1.w.w.w.t.h.r.j.S.UXD.$X&X&X2X;X>X3X4X4X5X6X6XtXtXtXjXjXkXkXkXlXlXzXzXzXvXMXU.(.VXaXW.a.~ |.CXCXJX5XwXDXvXvXvXvXvXvXvXlXzXlXzXlXcXlXlXlXkXkXkXlXqX;X:   .   . o + + + : : : : : : - : : ; : : - - - - : ",
"M M M m M M m M N P m E m M N m L G G G T m m T m b F.HXCXCXHXuX9XGXFXFXFXFXFXFXFXSXSXSXmXSXmXmXAXmXnXAXNXnXNXAXnXFXnXnXFXNXNXNXnXNXNXnXNXNXNXNXwXg.9XeXyX{.` ~ N.aXVXXX~.mXvXcXlXcXyXcXyXpXyXyXwXeXwXeXqXqX9X9X<X<X:X:X:X-X%XJ.:XD.j.K.j.j.h.h.h.h.w.3.w.w.1.3.>.1.>.,.:.j.FXZXNXpXT . 2.HXHXHXJXqX:.%.%.%.>.>.>.>.1.1.1.3.6.w.e.e.e.j.S.S.$XF.&X*X*X;X>X3X4X5X5X6X6XwXjXtXtXjXtXkXkXxXlXlXlXcXvXMX^.].gXaXW.[ A }.HXCXJX5XwXDXvXvXvXvXvXvXvXvXcXzXlXcXlXkXkXkXkXyXyXlXqX;X:   . . . o o : + : : : : - - : - ; : ; ; ; - - : - ",
"n n M n m M m M E M M E E m N M T M E m m m m U U m J.HXBXBXJXuX<XGXFXFXFXNXSXSXGXNXGXAXAXNXNXNXNXNXnXnXFXnXnXNXNXnXNXAXnXnXFXnXBXnXNXNXnXNXmXHXeXh.9X9XuX{.` ` N.aXVX X(.BXcXcXcXyXcXyXpXyXyXyXyXeXeXeXeXqX4X<X<X<X<X:X:X-X-X:XD.D.D.j.h.h.h.h.h.h.h.3.w.3.3.3.>.>.>.>.+.D.nXnXnXyXN O f.GXHXCXKXqX%.%.:.>.%.>.>.>.>.1.3.w.3.w.e.e.e.j.S.UXS.F.&X&X*X;X>X>X<X4X1X6X6XwXtXtXtXjXjXkXkXkXlXxXlXzXvXvX#X(.gXaXW.[ ~ }.HXCXJX5XwXMXvXvXvXvXvXlXvXlXcXlXlXlXlXkXkXyXyXkXyXlX9X;X;     . . + + + : : : : : ; : ; ; : ; : ; : ; ; : - ",
"n n n M M M N M M m N m N m N U m m M N E m T m m c -XNXBXJXHXyX9XGXFXFXFXFXNXSXnXnXNXNXNXAXNXnXAXNXAXnXnXnXnXnXAXNXnXNXnXNXNXnXvXFXNXNXBXNXNXFXwXg.0X9XqXT.~ ~ N.aXVX'.~.BXcXlXlXcXyXlXlXyXyXyXyXyXeXwXqXqX9X4X<X<X>X>X-X-XJ.j.D.D.j.j.j.h.h.h.h.h.3.h.w.3.3.3.>.g.,.>.+.D.AXbXBXcXm O 2.HXHXHXJXqX%.%.%.%.%.>.:.>.>.1.1.1.w.w.e.e.e.j.S.S.S.$X%X&X&X;X>X>X3X4X5X5X5XwX6XtXtXtXyXjXkXkXlXlXlXvXlXlX^.].gXaXW.[ o.}.JXCXJXuXtXMXvXvXcXzXvXlXlXlXlXlXlXkXyXkXyXkXyXwXeXyX9X>X:   .   . o + + # : : - : : : - : - ; - - - ; : - - ",
"n n n m m M M M E N M N M N m N M M U m n U G Y U c :XcXJ.yXKXpX9XGXNXAXFXnXmXNXNXnXAXNXNXAXnXnXAXnXnXnXnXnXnXnXNXAXnXnXFXNXnXnXmXnXnXnXmXNXmXHXeXh.0X,X9X{.` ~ I.+XVXXX~.BXcXcXcXcXpXyXyXlXyXyXeXwXwXeXqX9X4X9X<X<X:X:X-X-X:X-X:Xj.K.D.j.K.h.h.h.3.h.3.w.3.w.3.>.>.>.>.$.j.nXnXNXyXm X ,.HXHXCXJX9X&.:.:.%.%.%.>.>.>.3.1.3.w.w.w.e.e.j.j.S.S.%X%X&X*X-X;X>X3X4X3X1X6X5XwXtXtXtXtXjXyXkXkXlXlXlXcXzX^.~.gXaXW.[ A }.HXCXJX5X6XMXcXzXcXvXlXlXlXlXkXkXkXyXwXyXwXyXkXeXeXkX4X<X;   .   . + + : # : - : - - - ; : ; ; ; - - - - - - ",
"n n n M M M m M m m N m E m N m M U N m M m G Y U m ,XKXbXJ.-XqXqXGXNXNXNXNXAXNXAXNXNXAXnXNXNXnXNXNXnXnXnXnXnXnXnXnXNXNXnXnXnXnXnXmXnXNXmXNXNXHXwXg.iX,X<X^.` ~ W.aXBXXX(.BXcXcXlXyXlXlXcXyXyXyXyXwXeXeXqX9X9X<X<X<X;X:X:X-X:Xj.j.:Xj.j.h.h.h.h.h.h.h.3.3.w.3.3.h.%.,.>.+.j.GXbXNXyXm . 3.HXHXHXKXtX$.&.%.%.%.:.:.>.>.>.1.w.1.w.e.e.e.j.j.S.S.%XF.&X&X*X;X>X>X>X1X7X5X6X6X6XtXtXjXyXkXkXlXlXlXlXvXvX^.`.gX+XW.[ A }.HXCXKXwXqXMXvXzXlXcXcXlXlXlXkXyXyXlXwXyXkXeXeXkXeXeX1X>X;   . . . o + + + # - : : : - : ; - : : - - - - < % ",
"M n n M n M n n M M N m N m M N m M m M G F G F G c F.JXKXKXyXJ.eXGXNXNXNXnXNXnXNXnXNXAXnXnXnXnXnXnXnXnXnXNXnXnXNXnXnXNXNXnXnXNXNXNXNXNXnXFXHXtXh._ 0XdXeXT.~ ~ I.aXCXoX~.vXZXcXlXpXcXyXyXyXyXyXyXeXwXwXeX5XqX9X<X<X<X:X-X-X&X:X:Xj.j.j.j.h.h.h.w.h.3.w.w.3.3.3.1.3.,.$.$.g.eXnXBXyXH @ 5.JXHXHXuXj.+.$.%.%.:.:.>.>.>.1.1.3.1.w.w.e.h.r.r.S.S.S.D.&X&X&X*X>X>X3X3X4X7X5XqXwXtXtXjXyXkXkXkXlXlXzXuXL.N._.gXaXW.` A |.JXJXCXD.-XMXvXlXlXlXlXlXkXkXyXyXyXtXeXwXeXkXwXeXqXeX<X<X;     o . X + + : : : : - : ; : - : - - ; - - - - - ",
"n n n M n n M M m M N m M N m M M m M m M F F F G F G G.pXJXKXHXnXNXNXNXNXnXGXnXAXNXnXNXnXnXnXnXnXnXnXnXnXnXnXnXnXnXnXnXnXNXNXNXNXnXnXBXGXcX%XQ +.N U K.pX^.~ ~ U.sXJXXXx.w.<XcXcXlXcXlXlXyXyXyXyXwXeXeXqXeX<X<X<X:X>X:X:X&X-Xj.:XK.J.j.j.K.h.h.h.w.h.3.h.3.3.3.3.1.%.,.g.Y.n.K.yXuXm @ 5.JXcXF.$.>.t.$.E %.%.>.>.:.:.1.1.1.3.w.w.e.e.h.j.S.S.S.D.&X&X*X;X2X>X>X4X1X5X5X5XwXwXtXtXtXjXkXkXlXtX2Xb.M.!.oXgXaXW.` o. XCXrXf.y.8.D.tXlXlXkXlXkXyXyXyXyXeXtXwXwXwXeXeXwXqXeX9X4X;   .   o X + + # : % : : - : - - ; - - - - - - - - ",
"n n n n M M n M M N M M E M m m M m U m H m F F F V ! o.' J.cXHXGXNXNXNXGXnXGXnXAXNXAXnXnXnXnXnXnXnXnXnXnXnXnXnXnXnXNXNXnXNXNXNXNXnXFXvX<X,.+.&.$.:.+.h ,.Y.~ A U.fXoXN.Z.8.%.h.qXcXcXlXlXyXyXyXyXeXeXqX5X9X5X<X<X<X:X>X:X-X:X:XD.D.j.K.j.K.h.h.h.h.3.h.3.3.3.3.>.$.d.n.v.Q.`.`.Y.K.G @ ..1X1.$.1.3.e.i.8.+.$.:.:.>.1.1.1.3.3.3.w.e.e.e.h.S.S.S.$X%X&X&X;X;X>X>X<X3X1X5X6XqXqXtXtXtXyXlXyX<XV.N.W.'.sXVXgXoXN.A A {.L.&.6.r.6.y.h.&XyXlXyXkXyXjXkXeXyXwXqXeXqXqXwXqXqXqX<X<X;     . o o + + : # : : - - : - - ; - ; - ; - - - - ",
"n n n n n n n M M m m N m M M M m M m M H H F F F Z ] ~.N.a.X.<XnXGXNXNXNXnXnXNXnXnXnXNXnXnXnXnXnXnXnXnXnXnXnXnXnXnXnXNXBXNXnXnXNXNXwXh.+.$.:.$.$.$.@.<.s.a.x ~ x._.m.A.i.UXr.>.+.j.eXbXlXcXyXyXyXwXqXeXqXqX1X<X<X<X<X:X-X-X-Xj.D.D.j.j.h.h.h.h.h.3.h.3.3.3.3.,.,.d.a.a.l.M.I.).'.H.8 , 0  .2.7.7.3.1.3.j.UX1.E $.1.<.1.1.1.1.w.4.w.e.h.r.h.S.S.S.F.&XF.*X-X>X>X>X1X5X1X5X5XwXtXtXyXjX1XL.N.!.(.+XVXVXfXXXN.[ C B [ 4.=XUXy.#.#.-.=.h.4XyXyXyXyXtXtXwXeXqXqXqXqXqXqX9XqX,X<X;   . . o o + + : : - : - : ; : - - - ; ; ; - - % - ",
"n n n n n M n M M n n M n M n n M n n M m F m F Z Z l.+XsX'.N.[ f.qXmXNXNXNXmXmXmXnXSXnXnXnXnXnXBXMXMXnXMXnXnXmXnXmXnXmXmXBXSXGXlX&X! &.<.&.&.Q @.*.c.b.` l z A S ' c.r.UXr.UXUXr.=.&.F.yXcXyXyXyXeXwXwXqXqXqX<X<X<X:X;X:X-X&X:X:XJ.j.j.j.h.h.h.h.h.h.g.3.>.$. .s.a.l.l.k.C.N.n.| e l e e x [ c.e.t.3.4.4.4.UXr.&.W <.1.1.1.3.w.w.e.e.h.r.h.S.S.D.%X%X&X-X-X;X;X>X4X4X5X5XqX5XtXyX5XL.B.Q.].oXfXVXgXOX(.m.] D A x @ 2 Q r.t.#.O.O.O.-.y.D.9XtXuXtXqXqXqXqXqXqX9XqX9X4XqX,X1X:   . . X X + + # : % : - : - : ; - ; ; - - - - - - ",
"n n n a n n n n n M n n n M n n m m m m m F F m F V l.+XVXfXOX(.m.{ G.uXNXFXnXmXmXnXnXnXnXnXnXnXMXnXnXnXnXnXnXnXnXnXnXnXmXNXMX>X*.! &.| Q Q Q +.p.b.[ 0 l z Z.P.} 0 x ( 4.$XUX$XUX=Xq.-.>.2XkXyXkXeXyXeXqX9X9X<X<X>X<X:X-X-X-Xj.j.j.J.K.K.h.h.h.h.h.3.1.%._ s.l.a.a.a.l.z.x.| 5 = 2 ^ n.[ 0 e A s.c.e.w.4.5.5.g.UX8.&.:.1.3.3.3.w.e.e.e.h.j.h.S.S.D.F.&X&X-X;X>X>X<X1X4X5X5XtX6XJ.V.W.`.'.sXVXVXaX'.W.k.o.A { 1XS.e .   * Q w.*.I J J K -.4.J.1XqXqXqXqX9XqX4X9X4X<X9X9X<X4X;   . . o o + + : # : - - - - : - ; ; - ; - - - - % ",
"i n n n a n d M n n n n n M n n n n n m m m m F Z V ' (.OXsXgXsXXXQ.l. .:XcXFXmXnXFXNXnXnXnXnXvXnXMXnXMXnXMXnXnXnXnXnXNXmXqXw.! | ) Q &.&.Q 2.V.x.D e z [ V.fXtX-X..0 2 0 ) r.$X=XUX=X=X0.@.4.1XkXeXeXwXqXqX9X9X<X<X:X;X-X-X:Xj.:Xj.j.j.j.h.h.h.h.1.%.) s.a.l.l.l.k.l.a.^ 6 > = x c..XfX_.v.` z B ] x.Z.4.1.p.5.5.A.r.*.Q <.1.4.3.e.e.h.h.h.h.G.S.%XD.&X&X-X;X;X>X>X4X5XqX5X-XV.I.].'.+XgXVXsXXXW.C.[ o.[ H.F.7X8X<.G @     3 &.>.u.h d h K *.h.2X9X9X1X9X5X9X9X9X<X9X<X2X9X;   . . X o + # : : : % : - - ; - - - ; - ; < - - - ",
"n n n n n n n n n n M n n n n n n n m n m m m m m V Z ` Q.'.+XfXgX+X'.I.k.f.1XnXNXnXnXnXnXnXnXnXMXnXnXnXmXmXnXnXnXmXSXyXS.Q Q <.| &.Q #.| n.B.[ 0 x ] B.oXfXCX1XF.jXD.V 2 l w ) UX=X=X=X=X=X6.+.h.qXwXeXqXqX9X4X<X<X<X:X:X-X:X-X:Xj.J.K.j.j.h.h.>.R  .a.z.v.l.l.k.a.^ 9 > > 2 } {.@XhXFXfXOX~.z.o.B D k.n.Z.4.5.5.X.p.A.w.*.&.1.e.3.w.e.r.h.j.S.D.D.%X%X&X-X-X;X>X>X<X4X-XH.N.!.`.OXfXgXfXOX].N.[ o.` n.rX&X<.3X8Xh R Q 9 .   . c <.&.h h g j I <.G.<XtX4X9X<X<X<X<X<X<X,X5X;   . . . X + + # # : : - - - : ; ; - - - - - - % - ",
"i i n n n n a n n n M n n n n n n m b m m m m F c Y v ( d.v.).XXsXVXgXOX`.m.s.A.eXnXnXMXMXBXNXnXnXnXnXnXMXBXmXmXNXcX-X:.Q ..| | | Q Q c.B.k.B 0 ` V.XX+XVXCXJX,X>XLXDX6X1.e l & q >.$X*X=X=X8X$X>.@.j.eXqXqX9X4X<X<X<X:X:X-XF.F.J.:Xj.j.j.h.g.+._ s.a.v.z.z.l.k.~ c # . $ V H..XdXsX@XsXVXVXsXXXQ.k.D D o.l.n.f.p.Z.d.c.x.Z.w.#.:.3.e.e.h.h.S.S.S.D.F.F.-X-X-X;X>X<X>XH.B.!.].oXfXgXgXaX'.N.k.o.[ x.|.DXxX$X<.8X7XJ J h E U <     @ F ) ! a p p a ! 4.J.9X9X<X1X9X<X<X9X,X1X-     . o > @ # # : % : - - - - - - - < - < - - - % ",
"n n i n n d n n d n d n n n n n n n n n n m c m Y c D.uXH.s.s.I.`.+XgXgXsXoX!.v.d.-XlXvXnXvXAXvXvXnXMXBXmXmXmXBX5X3.Q | | | | | &.p.V.z.A x A b._.+XfXZXVX@XdX5X6XLXDXLXxX&X! e @ , b 3.=X8X=X=X8Xi.%.>.%XqXqX9X<X<X>X:X-X-X-X-X:Xj.K.j.h.:.) d.a.v.z.z.z.l.[ z $ . . 8 5.|.iXdXdX{.].].XXfXVXgXaX'.I.[ D D ` m.n.p.c.x.z.m.N.Z.1.$.2.e.j.h.h.S.S.D.%X%X&X-X;X2X2XG.b.W.].XXaXVXVXsX'.W.C.[ [ k.}.zXLXLXxX=X4.*X7X1.J n f M Q M $     , ! ! a u u 6 p ! g.,X9X<X<X<X<X,X,X5X;   . . X o o + + : : - : - - - - - - - - - - - - - ",
"n u n n n n n d d n n n n n n n m n n n n m m m m m qXKXpXR.d.] a.I.'.sXgXgXaX'.I.a.f.<XcXvXnXnXnXnXnXZXmXmXyXS.Q |  .| | | ) f.V.m.o.0 D k.^.OXfXVXVXdX_.Q.dXAXxXLXDXPXDXPX7Xj.c & @ , G r.8X8X=X8X8Xq.@.3.-XqX9X<X:X<X;X-X-X-X-XD.j.h.,. .a.l.z.l.z.l.[ C 2 .   $ ( P.|.iX.X{.#X{.0XP.'.`.OXgXCXgXOX`.m.o.B D k.m.b.b.m.I.W.W.U.A.*.:.4.G.h.G.S.D.D.F.&X-X-XD.n.W./.'.+XgXVXfXoX!.m.k.[ k.L.pXPXLXDXLXDX3XF.3XvXkXD.O.M h d L R q .     e S ! r 5 6 5 b 2.P.0X9X9X<X9X<X4X:   . . X X O # # : % % - - - - : - - - - - - - - - ",
"n n n i d d n d n d n n n n n n n n n m m n m m m Y <XKXNXbXrXH.s.' v.~.oXfXZXfXOX`.M.s.g.qXbXvXvXvXvXBXcX&X:.(  .} } } Q ..n.U.[ 0 B [ B.@XsXhXBXfX'.!.XXZXAXlXkXlXPXLXPXPXxXIX*X,.8 @ $ 7 +.UX8X8X8X8X*X8.%.h.<X<X>X:X:X:X-X&Xj.h.,.d.s.a.l.l.l.z.a.~ 7 .   X V K.rX.X.X}.#X{.|.;X5.<.J.}.`.`.+XVXVXfXoX~.z.o.0 A x.B.N.W.!.!.!.!.V.p.$.<.h.S.D.D.F.F.-XF.Z.B.!.`.oXfXVXfX+X].N.k.[ k.B.rXDXLXLXLXLXLXIX*XqXvXcXMXSXtXr.K d d f T U 3     X D ' V 4 5 5 6 L A.P.0X9X,X,X5X:   . X X o o + # # % : : - - - - - - - - < - - - - ",
"u n n a n n n a n s n n n n n s n n n n b n m m Y m <XKXJXJXJXbXR.n./ s.v.(.OXhXVXfXoX).v.X.D.yXBXnXvX5X3.) }  .} } ( | c.B.l.C B ` b.XXaXgXVXhXoX/._.dXGXvXlXcXlXuXtXxXDXzXxXIX*X$Xr.R , O @ 9 >.*X8X8X8X8X$X>.:.D.2X<X-X-XJ.S.h._ s.a.a.l.l.l.a.] w O   . 8 A.rXiXiX|.T.Y.|.1Xr.Q Q ) ) 4.0XXX`.'.sXVXVXsXXXW.[ D 0 ` z.I.W.!.~.].].].V.5.:.5.G.D.D.D.A.V.Q.].XXsXgXVXaX'.N.z.[ [ B.|.nXKXLXLXLXLXPX*X>XyXlXkXyXkXkXmXFX5X>.j f d M E M $     , ~ ^ q 5 5 7 6 _ H.E.eX<X4X: . . . . . + # # % % % - : - - - - - - - < - - - - ",
"n u u n s a s n d d n d s n n n n n b n n b m n m c ,XKXJXJXJXJXmXpXT.s./ a.I.'.+XhXgXaX'.I.k.g.>X9XS.<.x.k.{ } } W c.B.z.` B ~ b._.+XhXBXgX@X]./.dXBXMXlXzXcXlXlXlXuX1X6XxXxX7X=Xr.1.7.w.g @ O $ c w.8X8X8X8X8Xi.*.3.F.2XJ.e.&.s.s.x.x.l.l.a.a.x , .   , ..rXiXiX|.T.V.|.uX&X&.Q &.&.Q ) ) | S.|.'.`.oXfXVXgXaX'.M.[ D B a.M.W.!.!.].].].~.n.X.} A.A.V.W.].'.+XgXVXsX'.!.m.[ [ k.#XZXLXLXDXLXKXPX7X$X5XyXyXtXkXyXtXtXtXkXAXAX*X@.d n d M R b .     x [ / 1 3 5 1 c x.T.rXwX: . o . O O O O # # % % % - - - - - - - - - - - - - ",
"u u n n n i s n d n s n n n s d s n n s n b b b m c F.KXNXNXJXJXJXHXnXpXn.s.~ a.I.'.sXhXfXOX`.M.X.2.x.N.N.m.x. .X.B.M.` B C k.Y.@XfXVXVXaX_.!. XBXAXvXlXlXlXlXcXlXyXlXlXuX<X6X6X=X8.>.+.@.1.:.7 X X , L UX8X8X8X8X*Xr.>.4.3.| x.s.b.a.l.l.a.~ 7 . . $ Y P.pXiXrX}.L.|.uX>X1.T &.&.Q &.Q Q ) | | <.J..X`.`.OXgXVXfXOX(.m.` D A l.N.W.].`.`.'.`.`.c.s.N.].`.OXfXVXfXOX].m.k.[ k.V.dXLXLXLXLXLXKXIX$X2XtXtXtXtXtXuXtXtXtXtXqXwXlXGXzX$XL d n s P T 7     . A a.c 1 1 5 9 ] Y.,X+ . . X X X O # # % : % - % - - - - - < % - - - - < ",
"u n a a s n d a d d n n d n n n a b b n n b b b m c G.BXZXBXBXHXHXJXHXGXBX0Xs.a.~ v.~.OXfXhXsXoX~.I.Q.Q.W.N.B.B.U.a.B v [ Y.oXsXgXZXfX'.!.'.hXLXvXlXlXcXlXlXlXlXlXlXlXyXlXyX5X<X6X*X1.@.K M @.>.R , X O , $.=X8X8X8X8X=X6. .x.x.s.b.b.l.' 8 O . X m K.pXpXiXrXL.P.rX1Xw.R R &.+.R &.Q &.&.) &.Q | | 4.,X X`.'.+XgXVXfXoXQ.z.o.D o.z.W.`.'.`.'.'.`.!.`.oXfXVXgX+X(.N.z.[ [ v.|.JXLXLXLXLXKXxX=XS.4XtXwXtXtXwXtXtXqXtXqX9XqXqX9XqXcXGXtX8.s b n n E U %     , ] { c r t 6 v.$.o . . . X X + O # # : : % - - % - - < < - - - < - - ",
"d a s s s d n d d n s d n n b n n n n b s n b b b w D.cXeXcXBXNXBXHXJXJXGXFXpXT.s.] a.I.(.aXgXgXsXXX!.~.~.(.~.x.B e o.V. XsXgXVXgXOX/._.dXNXvXlXlXzXlXzXlXlXlXlXlXlXyXlXyXlXlXuX1X>X3Xr.I J J f %.1.M @ X O w 3.*X8X8X3X=XX.x.x.x.x.{ c % . . 9 g.iXpXpX0XR.R.pXyXS.&.Q $.$.+.$.$.$.Q &.&.Q &.) :.| | | G.rX'.`.XXfXgXVXsX'.W.l.o.D ` M.].'.OX+XOXoXaXVXgXaX'.Q.C.[ [ C.[.MXLXLXLXLXKXDX8Xj.&XqX6XqX5XqX6XqXwXtXqXqXqX5XqX1X5X9X5XeXMXnX&X+.s g n M Q m .     0 a.^ q 5 b.-.o   . X X O O + % + % % : - < % < - - < < - - - - % ",
"d s a a d s a d d d d d u u n u n n b u b n b n m w G.ZXqXeXuXcXNXNXBXHXKXKXLXNXiXn.s.] l.I.XXdXVXsX].`.`.m.A 0 C b._.+XgXZXVX+X`.(.@XNXDXzXlXzXlXzXlXlXlXlXkXlXlXlXlXyXkXkXyXyXyXqX>X>X=X*.H f s M *.1.9 O . $ L j.8X7X=X..c.x.s.Z < .   , f.rXpXpXpXE.T.eXpX;X<.&.$.&.$.+.$.$.$.+.$.+.Q &.Q &.Q :.&.| | 5.F.|.`.`.OXhXVXgX+X`.N.[ o.A l.Q.'.sXfXfXgXsXoX/.m.a.o.z.^.hXLXLXLXJXLXLX6Xr.S.<X5X4X5X1X5X5X5XqX5X5XqX5XqX5X5X1X9X9X1X<X1XuXMXkXr.M n b b T ) 9 . . . v a.C x.R   . . . X X O # + % % - - % % - - - - - - - - - - - ",
"a d d s d s d d s s a n a n n n n n n n n s b n b 9 G.cXqXuXeXeXlXZXNXBXNXJXKXHXGXbXR.n.] ] z.W.oX+X'.~.] 0 B [ ^.oXfXZXVXaX_.!. XVXGXzXlXlXzXlXlXlXlXlXlXlXlXkXlXyXkXkXkXyXkXyXyXtXuX<X>X3XUXP s f p P 1.R , . . 2 Q *X=X5.c.W 5 + . O _ 0XZXZXpXiX0X0XbXeXh.R +.$.$.+.$.$.+.$.+.&.$.$.$.Q &.&.&.) ) &.| ) | 5.2X X`.`.aXgXVXfXoX!.m.` D [ M.(.OXaXoX].M.[ o.a.B.|.DXLXLXDXLXLXtXUXe.&X<X<X<X<X4X1X4X5X1X5X1X1X1X5X1X1X<X9X<X<X<X<X<X,X,XyXBX6X%.d n p n E E ,     , ] b.9     . . X O + + + % % : % - - - - - - - - - < % - % ",
"d u a s s d d d n a n a u n n n u n b u s b s b b 9 D.cXqXeXeXwXeXeXyXZXBXMXFXJXKXGXNXpXT.s.` [ m.W.a.B x ` B.XXsXVXVXgX'.!.(.hXGXzXlXzXlXzXlXlXlXlXxXlXlXlXlXkXlXlXkXkXjXkXyXtXyXuXtXuX5X2X;X*X8.M s d d @.>.n @ . O c 4...w + . X b P.VXCXbXhXrXrXpXyXD.$.$.%.$.&.+.$.+.$.$.$.$.$.$.$.$.$.&.Q Q &.&.Q | &.<.| | j.P.XX`.'.sXVXVXsXXX!.z.o.A k.W.`.W.k.o.[ C.{.vXLXLXLXLXLXzX$Xw.S.2X;X;X;X;X>X>X<X<X<X1X<X<X4X<X<X<X<X<X<X<X<X<X<X,X,X,X,X,XpXlX%XP n n s M :.G %   . 2 X   . . X X O O O # % # % % - - % < - - < < - - - - - ",
"p p s d d d d d d d d g d d g d n d n n s n s m s 9 h.bXqXeXeXeXwXeXwXeXlXBXBXnXGXGXKXKXNXiXH.a.A v x ^ b._.+XgXVXgX@X/.(.dXAXDXlXlXlXlXlXlXxXlXxXlXlXlXxXlXkXkXkXkXkXkXkXtXkXtXtXjXeXwXeXwX4X-X%X%X>.j d i M @.>.u % + $ , . X 8 h.pXCXCXZXhXpXpXcX-X>.$.%.$.$.$.$.$.$.$.$.$.$.$.$.$.$.$.$.$.$.$.$.,.$.,.$.,.$.g.$.,.F.|.'.`.XXsXVXfX+X'.M.[ D A [ o.o.l.^.iXLXLXPXLXLXDX8X3.e.J.-X&X-X-X;X;X;X;X<X>X>X<X>X<X<X<X<X<X,X<X<X<X,X,X<X<X,X,X,X,XP.9XpXwXt.M s n u P ,.m 7 < o . . X X X X @ > # % : % - - - - - < - - - - < - - * ",
"p p u s d d p s d d d g d d d f s n s s n s m s n 9 h.bX5XeXqXqXeXqXeXwXqXyXcXBXnXGXGXGXJXKXGXL.s.^ c.^.oXfXVXVXdX(.!. XBXDXlXlXlXxXzXlXlXlXlXlXxXlXlXkXkXkXkXkXkXkXkXwXkXtXeXkXtXeXeXwXwX4XeX4X;X%X;Xi.@.d i i N >.>.r + O c g.yXHXHXBXZXhXZXBXqXh.$.:.%.%.$.$.$.$.$.@.$.@.+.$.$.$.$.+.$.$.$.$.$.$.$.$.$.$.$.,.$.,.,._ 3.-X.X'.`.OXfXVXfXOX_.v.` o.[ V.iXAXLXPXLXLXDX6X7.<.S.D.D.D.D.&X&X-X-X-X:X;X2X:X2X2X2X2X;X<X2X,X2X2X2X,X,X,X,X,X,X,X1X,X,X0XrXyX;X>.s b p d %.g.g.@.. . X X X @ @ # # # % : - % - - - - - - ; - - - - - ",
"p p s a s d s d d d d d d d g f n s n s s s s s m 9 h.bX9XeX5XeXwXeXeXwXwXqXeXyXbXNXNXGXKXBX,Xn.a.s.Y.OXhXVXsX'./._.gXDXlXkXkXkXlXlXkXlXlXkXxXkXlXkXkXlXkXkXkXjXtXkXkXjXtXkXeXwXwXwXwXwX4XeX4XeXeX<X%X%X;Xi.O.i i i *X5X7 8 -XKXKXHXNXbXCXCXyXj.:.$.:.%.%.$.%.$.#.#.$.$.@.$.$.@.$.+.+.$.+.$.$.$.$.$.$.$.$.,.@.,.,.,.,.,.| | g.,X}.].`.+XgXgXfX'.m.] V.CXKXLXGXLXLXjXr.&.4.S.G.S.D.D.%XD.D.-XF.-X-X;X:X;X-X2X2X2X:X2X2X2X2X,X,X,X,X,X,X,X,X,X,X0X0X0X0XR.uXuX%X@.n n 3.4Xf.F.+ O X > O O @ > % % % - : * - - - - < - - - - - - * ",
"s p p s p s p d d d d g f d g d d s d n m s n s s 9 h.bX<X5XeXqXqXqXqXeXeXeXwXeXeXcXBXMX2Xc.' s.] ] I.sXgX@X(.(.dXGXvXkXlXxXkXkXkXkXlXxXkXlXlXlXkXlXxXkXkXkXkXkXkXkXtXtXtXwXjXwXwXeXwXwXeXeX4X4X4X4XeX:XD.%X*X0.h.5XnX9X7 7 -XeXZXKXGXGXcX&X>.:.%.%.%.$.%.$.$.%.$.+.$.$.$.$.$.$.+.$.$.+.$.+.+.$.$.$.$.$.$.$.%.$.$.$.$.:.<.<.<.2.G.0XXX].XXsXVXoXm.] x.fXBXHXKXGX8X>.<.h.h.h.G.S.j.S.D.D.D.&X&XF.-X-X-X-X-X;X-X2X-X:X-X:X2X:X:X,X,X,X,XP.0X,X,X0X0X,X0X0X0XE.iXuXj.-XyX9X .Z.O O O O O > > % % % % % - - - - - - - - l ; - - - - ",
"a p p p p s p d d d d d g f g d d s n s s s s m s 9 h.pX9XeXqX9XqXqXqXeXqXqXqXwXeXtXyXyXh.W 9 s.] ` N.aXfX'.~.cXPXkXkXkXkXkXkXkXkXxXkXkXkXlXkXxXkXxXkXjXkXkXkXkXjXwXjXjXjXwXwXwXwXeX5XeX4X4X4X4X4X<X<X<X>X%Xh.4XNXpX0XJ.5 , h.K.G.eXnXwX3.%.>.>.:.%.%.:.$.$.@.$.%.$.$.$.$.$.$.$.+.$.$.$.$.$.$.$.$.$.$.$.$.,.$.,.:.&.Q :.&.) <.<.| 3.&XrX].oXVXoXm.` k.dXbXbXCXeX:.4.e.e.e.h.h.S.G.D.j.D.D.D.D.F.F.-XF.-XJ.-XJ.-X-XJ.2XJ.,XP.:X:XP.,X,X,X,X0X,X,X0X,XR.0X0X0XE.0XpXpX0Xb.b.A.= @ @ @ @ = = % % - - % - * - - - - - - - - - - - - ",
"p p s p a s d s g d d g d d g d n s s d m s s s s 9 h.pX<X<X<XeX1X1X9XqXqXqXqXqXwXeXyXwXh.c 9 s.` A M.aXgX'.~.uXkXkXyXkXjXkXkXkXkXkXkXxXkXkXkXkXkXkXkXkXjXkXkXkXjXjXtXtXwXwXwXwXwXwXwXeXwX4XeX4X4X<X4X<X:X<Xh.3.eXP.P.J.7 $ g.h.,.g.bX-X@.,.$.$.%.$.%.$.$.$.%.$.$.@.$.@.$.@.$.$.$.+.+.+.$.R $.$.$.$.$.$.$.@.$.%.$.:.&.:.:.<.<.<.<.2.2.P.!.@XVXoXz.` a.dXyXpXbX<X:.e.4.4.4.h.h.h.h.D.G.D.D.D.D.D.D.F.F.F.J.F.J.-XJ.:XJ.,X:X:X,XP.,XP.,XR.P.0XR.0XR.0XR.0X0XR.rXrX|.H.B.`.^.Z.& = @ @ = $ % % % % % - * * - - - - - < - < - - - - ",
"p p s s a a d d a d g d d d d d d d s n s s s s s 9 h.uX<XeX<X9X1X9X5XqX5XqXqXqXeXwXyXwXg.m 7 a.` A M.aXgX'.I.uXjXjXkXkXyXkXkXkXkXkXkXkXjXkXkXkXkXkXkXkXjXkXjXjXwXjXjXwXwXwXwXeXwXeX4X4X4X4X4X<X>X<X>X<X4X<Xj.3.R.P.P.K.< $ h.g.,.,.bX-X$.%.%.%.$.%.$.$.%.$.$.$.@.$.$.$.+.$.$.+.+.$.R $.R +.+.$.$.$.$.$.$.$.$.$.:.$.:.:.) :.:.<.<.<.4.L.Q.OXVXoXm.o.k.iXeXeXhX0X&.3.w.e.e.h.e.h.h.h.h.D.j.D.D.D.G.F.D.J.J.J.J.J.J.J.P.J.:XP.,XP.P.,XP.R.,XR.,XR.R.0X0X0XR.rXrXP.c.W.'.'._.c.l @ @ @ $ % = % % * - - * - - - 3 - < - - - ; - - l ",
"p p u s s s s d g a a a g d d d s d s s s s m s s 9 h.pX:X<X<X<X<X9X<X9X<XeX9XqXqXeXeXqXh.c w s.` A m.aXgX'.W.tXjXyXtXjXjXtXjXyXjXjXjXyXjXjXjXjXjXjXjXuXjXjXkXtXjXjXwXjXwXwXwXwX4X5X6X4X4X4X<X4X4X>X<X;X:X>Xj.,.R.K.K.K.< # g.K.,.,.lX%X@.,.@.,.%.$.%.$.$.@.@.$.@.$.@.+.$.+.$.+.$.+.+.$.+.+.+.$.@.$.$.$.$.$.$.,.$.:.&.&.:.:.:.:.<.<.<.L.Q.@XVXoXv.A a.iX0X0XpX9X$.3.4.4.4.4.4.h.h.h.h.h.G.h.D.G.G.F.G.D.F.F.J.J.J.J.:XP.J.P.P.,X,XP.R.,X0XR.R.R.rX0XE.R.0X|.R.b.(.OXOXXXn.A l = $ @ = = = % * * - * - - - - l - < - < - - - - - ",
"p p p p p p p d a d g d a a g d d d s d s s s s m 9 h.yX:X<X<X<X<X<X<X<X4X9X<XqXqXqXwXqXh.m 8 l.[ D M.+XgX'.W.qXjXtXtXyXtXjXyXjXjXkXjXyXjXjXjXjXjXjXtXjXjXtXjXtXIXwXwXwXwXwXwX4X4X4X4X4X4X4X:X4X>X<X>X>X;X:Xr.,.R.:XK.K.7 $ g.h.,.Z.yX%X$.,.%.$.$.$.$.$.$.$.$.+.$.$.+.+.$.+.+.+.+.+.+.+.+.+.+.$.+.$.$.$.$.$.$.$.Q :.:.:.:.:.:.:.<.2.2.T.Q.@XVXoXv.A a.E.:XP.rX<X$.3.3.4.3.h.g.h.h.h.h.h.G.h.G.S.G.D.K.D.K.K.J.K.J.K.P.J.P.P.P.P.R.P.P.R.R.R.rXP.0X|.|.rXR.|.R.B.'.aXoXx.D 8 2 & = = = & & * * - * * - - - - - 1 - - - - - - - - ",
"p p p p p d g p a g a a g d f a d d d s s s s s q 9 h.eX:X<X:X<X<X<X<X<X<X1X1XqXqXqXqXqXg.m 8 s.` D M.+XgX'.I.qXtXtXtXtXtXtXtXtXwXwXjXjXyXyXtXtXtXtXjXjXuXjXtXtXwXIXwXwXwXwXwXeX4X4X4X4X:X4X4X4X>X>X:X>X;X;Xj.g.E.P.K.K.7 $ g.g.f.g.pX%X@.$.%.%.$.$.@.$.@.$.@.$.$.@.$.@.+.+.+.+.$.+.$.E +.+.$.+.$.+.$.$.$.$.$.$.$.$.$.$.Q :.:.,.) <.2.L.Q.OXgX Xv.C a.R.j.h.0X<XQ 3.3.4.3.h.w.h.3.h.h.g.g.G.G.h.G.G.G.G.D.D.K.J.J.P.J.P.P.P.P.P.R.R.0XP.0XR.R.|.R.0X0X|.rX|.R.U.'.fX{.o.0 e l & & & & & & * * * - - l - - < - l l - < ; < l - - ",
"q p g p p g p d d g p g a a a z d s d s n s s s s 7 h.eX-X:X:X;X:X<X<X<X<X<X<X9X<XqXqX4Xg.m 9 a.` D I.+XgX'.Q.qXwXwXwXwXtXtXwXtXyXwXjXtXwXjXtXtXtXtXtXtXtXtXtXtXwXwXwXwXwXwXwX4X4X4X4X4X4X4X;X;X>X>X>X;X;X:Xh.1.:XK.E.K., O g.P.g.Z.yX:X$.,.@.$.$.$.$.+.$.+.$.@.$.+.$.+.+.$.$.+.+.R +.+.$.E +.+.+.+.$.$.$.$.$.$.$.Q $.:.$.:.:.) :.<.2.T.).oXgXXXv.A s.E.h.K.0X,XE 3.3.3.g.3.g.3.3.h.h.h.h.h.G.G.h.G.G.G.G.K.D.K.K.K.K.P.P.P.P.P.P.R.P.R.|.,X|.R.|.|.|.|.|.iXR.U.'.fX{.` z 0 2 2 l & & & & , l * * - l - l ; - - ; - < ; - - - l ",
"p p p p p p d g p d d a d d d j d s s d s s s s s 7 h.eX-X;X:X-X:X:X:X<X<X<X<X<X<X9XqX<Xg.m 8 x.[ D M.+XgX'.W.qXwXwXwXwXwXwXwXwXwXwXwXtXwXwXwXtXtXtXtXtXtXwXtXwXwXwX4XwX4X4X4X4X4XeX4X4X;X;X4X:X:X;X;X:X;X;Xj.,.E.:XK.K., $ g.P.Z.Z.bXD.@.$.$.$.$.@.$.+.$.$.$.+.+.+.$.+.R $.R +.+.$.+.R +.R $.+.+.$.Q $.$.$.$.$.&.:.$.:.:.) &.:.:.| <.T.).@XVXXXv.A s.P.g.f.J.,XQ 3.3.3.3.3.w.h.g.h.g.g.g.h.h.g.G.G.G.K.F.G.K.K.K.K.P.P.P.P.P.R.R.R.R.|.R.|.R.|.0X|.|.iX|..X|.B.oXfX{.o.B 0 2 , l & l & & * * * - * - - - - - < ; < - l < - - - ",
"p p p 9 g p p p a a a a g a g a s s s s s s s s s 7 g.eX:X:X-X:X:X:X;X<X<X>X<X<X<X<X9X<Xg.Y 8 s.` D N.OXgX'.U.9XwXqX5XwXwXwXwXwXwXwXwXwXtXwXwXwXtXwXtXwX6XwXwX6XwX6X4XwX4X4X4X4X4X4X4X;X4X;X;X;X;X;X:X;X;X-Xh.g.R.P.P.K., X g.T.H.H.eXD.$.$.$.$.$.$.@.$.+.+.$.$.+.+.+.+.+.+.+.+.R $.+.+.+.E $.+.$.$.$.+.$.$.$.$.Q $.$.Q $.:.) :.<.| <.T.!.@XgXXXv.A k.L.3.f.K.<X$.3.3.3.2.3.g.3.3.g.g.h.g.h.h.G.G.G.G.K.G.A.K.K.K.P.L.K.P.R.P.}.P.R.R.R.|.|.R.|.iX|.|.|.|.iX|.N.oXfX{.` D 0 e 2 2 & & & 2 & , * - - - - l ; - < - < < - - - l ; ",
"p p p p p p p p g a g g a g z a s s s s s s s s q 7 g.0XD.D.%X:X-X-X-X:X:X;X:X<X<X<X<X<Xg./ c l.` A M.+XgX'.I.<X5X5X5X5X5XwX4XwXwXwXwXwXwXwXwXwXwXwXwXwXwXwXwX5XwX4X4X4X4X4X4X4X4X8X;X4X;X:X;X;X;X;X-X;X-X-Xh.1.E.R.R.H., O f.R.Y.H.eXh.@.$.$.$.$.@.+.+.+.+.+.+.$.+.+.+.$.E E +.+.R +.+.+.+.R $.+.R $.R $.Q R $.$.$.:.:.:.Q ) :.:.) <.T.).@XgXXXv.A s.H.,.,.h.9X+.,.3.<.2.3.2.3.3.3.3.g.3.g.g.h.g.A.G.G.K.K.K.K.K.K.P.P.P.L.P.P.}.R.}.R.R.|.|.|.|.|.|.|..X|.|.B.oXgX^.` D 0 e 2 , 2 l & & & * < l * - - - < - - < < - 1 < - < - ",
"p p p p p p p p a a a g a g k d s s s s s s s s s 7 3.<XD.:XD.:XJ.-X-X-X-X:X;X:X:X>X<X>Xg.Z 8 s.] D M.+XgX'.U.0X4X4X4X5XqX4X4XqX5X5XqXwXtX5X6XqX6XwXwXqX6X6X5X5X4XeX4X4X4X4X4X;X;X4X;X;X;X;X;X;X;X-X-X;X-X-Xh.,.0XP.P.H.* . f.E.T.H.eXj.+.$.$.+.+.$.+.+.+.+.+.+.+.+.+.+.+.+.+.+.R +.R +.+.R +.R $.$.R $.R $.$.Q $.$.:.Q :.:.$.:.:.| _ T.!.OXgXoXm.A a.H.,.,.h.,XR 1.3.3.3.3.3.3.3.3.g.3.g.h.g.g.G.A.G.A.G.A.K.K.K.P.L.P.L.R.R.R.R.R.}.}.R.|.|.|.|.|.|..X|..X|.N.oXfX{.[ D 0 e 2 2 2 & & 2 , * * l < l < - - < - < < - l < - - - ",
"u p 9 u p p p p d p a a p d a d s s s s s s s s s 9 3.0XD.:XD.D.%XJ.%X-X-X-X:X:X;X:X<X>Xg./ c l.` A M.+XgX'.I.<X4X<X4X4X4X4X4XqX5X5X5X5X5X5X5X6X5X5X6X5X5X5X5X5X4X4X4X4X4X4X4X;X4X:X4X;X;X;X;X%X&X-X&X&X%X%Xh.g.0XE.R.H.* . f.T.H.E.yXj.+.$.+.$.+.+.+.+.+.R +.@.+.+.+.+.E +.E +.+.R +.R E $.R $.R R $.Q $.R $.$.$.Q $.$.Q Q :.) ,.) | T.!.@XgXXXz.D a.n._ _ h.<XR ,.,.,.,.2.,.2.2.g.3.g.4.g.g.h.G.g.A.A.K.K.G.H.L.P.P.P.L.P.L.}.P.[.R.}.}.}.|.}.|..X|.|..X.X|.N.oXgX{.[ A B e 2 2 & & 2 & l 2 * - - l - l - < - ; l < - < ; l - ",
"u u 9 p p t u s s d i d i s n u n u s s s b u s s 7 g.0XD.D.:XD.D.J.j.:X:X:XJ.:X-X:X:X-Xg./ w l.] A M.OXgX'.~.2X<X<X>X4X<X4X4X4X4X4XqX4X4X4X4XqX4X4XwX4X4X4X4X4X4X4X4X3X;X;X>X;X;X;X;X;X;X%X;X;X&X&X-X%X:X-Xw.g.rXE.R.H., X f.T.T.L.pXh.R +.+.+.@.+.+.R +.R R R +.+.+.+.E +.+.R +.E +.+.$.R R +.R R $.R E $.$.$.Q $.$.$.Q ,.$.,.:.) | T.Q.OXgXoXv.D a.n.) W g.<X+.,.,.<.<.3.2.<.2.2.4.3.4.g.g.g.g.A.G.A.A.K.K.H.K.P.P.L.P.L.R.R.[.|.}.|.}.}. X|.|.}.|.|..X.X|.N.oXgX{.] D x e 2 2 2 2 & & 2 * , l * < < < - < < < - - - < - - - ",
"u u u u a n u s i d s s s s u n b u s s s u s 9 s 7 ,.:XD.D.D.D.D.D.:Xj.j.:X-XD.-X:X-X-Xg./ c l.` D N.+XfX'.W.2X>X>X>X<X>X>X>X<X4X4X4X4X4X4X4X3X4X4X4X4X4X4X4X4X4X>X4X;X4X;X>X;X;X;X;X:X%X;X%X:X&X&X%X%X%X%Xw.,.|.0XR.f.$ . f.E.L.Y.eXh.R @.+.+.R @.R +.@.R R @.E +.E $.+.+.E +.+.R R N R +.R +.R $.$.E $.$.Q $.Q $.$.$.,.E $.Q ,.| <.T.!.@XVXXXv.D a.n.E U g.:X+.>.,.2.,.,.2.2.3.4.2.g.g.g.g.g.g.A.g.A.A.K.H.K.K.L.P.T.T.R.R.T.P.}.T.|.}.|.|.}.|.@X X.X.X.X|.N.oXgX^.[ A B 8 2 l 2 l 2 2 & 2 < * < * l - * - l - < < 1 - l - * ",
"u u u u t n a s s i i s i s d i u u b u s s s 9 9 9 ,.:Xh.K.D.K.j.j.K.:X:Xj.j.:Xj.:X-X-Xg.( c l.` D M.OXgX'.W.2X>X;X>X>X>X;X>X>X>X>X<X>X4X4X4X3X4X4X4X4X4X4X4X4X;X4X;X4X;X;X;X;X;X%X;X%X;X;X%X%X%X%X%X-X%X%X1.g.E.E.E.H.$ . f.T.H.T.iXh.R +.+.+.@.R R R R R R R +.E +.N +.N +.N N R R +.R R R R R $.E $.$.E Q $.$.$._ _ ) $.) ) ) ) | T.!.@XVXXXz.D s.n.U Y 2.:XR ,.,.<.<.<.2.2.2.2.3.5.4.g.g.g.g.A.G.A.G.H.H.K.H.L.P.P.R.L.[.T.T.|.{.}.}.}.}.}.|.|.|.@X.X.X}.U.oXgX^.[ D B 8 e 2 2 2 & 2 & 2 * l * - < < < < < l < - l - * * - ",
"u u u s u u u u s i d d d i s s n u u b 9 s s s s 7 g.:Xh.j.j.j.j.j.j.J.h.:Xj.j.-Xj.J.&Xg./ c v.` A M.OXgX'.N.-X-X-X-X-X;X;X:X>X;X>X>X>X>X>X>X>X;X4X;X4X4X;X;X;X;X;X;X;X;X;X;X;X;X;X%X;X%X%X%X%X%X%X%X%XD.D.>.g.E.E.E.f.$ O ,.L.H.H.eXg.R +.+.+.R P @.R R R R R R R +.E +.E R R +.E R R R R R R R E R R E $.E $.Q $.+.$.$.$._ $.) | | V.).@XVXXXv.D a.n.Y Y 2.:XR ,.<.>.,.2.<.2.2.3.2.2.g.5.g.g.g.g.A.A.A.H.K.H.L.P.L.L.L.R.L.}.}.[.|.}.[.|.}.}. X X|.}. X.X}.N.oXgX{.] D B 8 2 2 2 2 2 & 2 , , < < l - * l < < 1 < < - < 3 * - ",
"u u u u u n u u s s i s s i s u s u s u s s s 9 s 7 ,.:Xh.G.h.h.j.h.K.j.j.K.j.:XD.D.J.-Xf.' V b.` D N.OXfX'.N.2X-X-X&X-X-X;X-X-X;X;X;X;X;X;X;X>X;X;X4X;X;X;X;X;X;X;X;X;X;X;X;X%X%X:X%X%X%X%X%X%X%X%XD.D.S.%X>.g..XE.E.n.$ . f.L.Z.f.9Xh.R +.R R @.P R R P R P E R R R R R R N R N R N R E P E R R E $.E E $.$.E Q $.Q $.) Q $._ ) | | T.!.@XVX Xz.D s.n.F V 2.J.Q :.,.,.<.<.<.<.2.2.2.g.2.g.g.g.g.H.g.H.A.K.H.K.L.L.L.P.}.T.T.}.{.|.}.}.}.|. X|..X}. X|.@X X}.N.oXgX{.[ A B e e 2 2 2 l 2 2 & < , < * < < < 3 * < < < < < * - - ",
"9 u u u u u u u i s s i s s i s i s s s s s s s s 9 ,.:Xh.h.h.h.h.h.h.h.h.j.h.h.D.D.F.j.Z.{ V v.` D N.+XfX'.N.J.-X&X-X%X&X&X-X-X-X-X-X;X-X;X;X;X;X;X;X;X;X;X;X;X;X;X;X;X%X%X;X%X%X%X%X%X%XD.%X%XS.%XS.%XS.S.%.g..X.XE.H.$ . ,.g.f.f.9Xh.P R R R R P P R R P R P R R R P R E R E E R E E P E E E E E E E E E E Q Q Q $.Q $.) ) $.) ) ) L./.+XVXXXv.D k.n.m F ,.F.Q ,.,.:.,.<.<.2.2.2.2.2.2.g.g.g.g.g.g.K.A.H.K.L.K.P.L.T.L.R.T.}.|.{.{.|.{. X|.|.}.@X.X|. X}.}.N.XXgX{.[ A B 0 8 2 2 2 2 & 2 2 * 2 * 3 * - l - < - l - - * < * < ",
"u u u 9 u u u u s i i i i s s u s u s s u s q q s 9 ,.D.g.h.h.h.h.h.h.h.h.h.h.K.j.G.D.D.n.s.V v.` D N.OXfX'.W.F.&XF.%X&X%X&X&X&X%X&X&X&X&X-X-X*X;X-X;X;X;X;X;X%X%X%X;X%X%X%X%X%X%X%X%Xj.%XD.%X%X%Xj.S.S.D.j.>.g..XE.E.H.$ . :.f.f.f.eXh.P +.+.P P R P R P P E P R P P P E N E E E N N E E E E E E E E $.Q E E $.$.E $.) $.Q ) ) Q | | T./.+XVXoXz.D k.b.m c _ K.Q <.) <.<.,.,.<.2.2.2.4.f.g.g.g.g.A.A.A.H.H.H.H.L.L.P.L.L.R.T.}.}.}.|.{.|. X|. X[. X|. X|. X}.N.oXgX{.[ A B 8 e 2 2 2 l 2 & 2 , < * 3 - < < < * < < - < < < * - ",
"i 9 u u u r n u u i s s i i u u u s 9 s s s s 9 m s ,.K.h.3.3.h.h.g.h.h.h.h.h.h.h.h.D.j.c.x.V B.] D m.OXfX'.W.J.%XD.D.D.%XD.%X%X%X%X&X%X&X&X&X&X;X%X%X%X;X%X-X%X%X;X%X%X%X%X%X%X%X%X%X%X%Xj.j.%X%XS.D.j.j.j.$.f..X}..Xn.$ O ) f._ _ <Xh.N R R R R R P R P P P P N R P P E E N N E E N E T N E E R R E E E $.R Q Q Q Q Q Q ) Q ) ) ( | V./.+XVXXXz.C l.c.m c ,.D.E ) ) :.) ,.<.,.2.2.2.2.2.2.f.g.g.Z.g.H.g.K.H.K.K.L.#XP.T.L.[.T.{.|.{.|. X|. X|.|. X@X}.@X|.}.N.oXfX{.[ A B e 8 2 2 2 , , 2 , , , < * 2 l - l < l - < < * * - * ",
"u 9 u u u u u u u s i s i u u s s i s u b u 9 u s 7 ,.j.3.w.w.h.h.3.h.h.h.h.h.h.h.h.h.h.n.z.Z v.` D M.OXfX'.W.F.D.D.S.S.D.D.D.%X%X%X%X%X%X%X%X%X%X%X%X%X%X%X%X%X%X%X%X%X%X%Xj.%Xj.%Xj.%X%Xj.%Xj.j.j.S.j.j.j.=.f.E.E. Xn.$ O Q 2._ _ :Xh.P R P P R P P P P P L E R N R E N E E N E T m N E E T E E E E E E E E Q E Q Q Q Q Q Q _ ) | | T./.+XVXXXv.C s.b.m c d.h.R ) ) ,.,.,.,.<.<.2.2.f.2.f.g.f.Z.A.A.A.A.K.H.H.L.L.#XP.T.[.T.}.#X|.|.}.{.|.|. X X}..X}. X.X}.U.oXfX{.k.o.B e 2 2 2 l l 2 & & < 2 < * , * 3 < < < - < < * - * - ",
"u u u u u 9 u u u u u i s u s u u s s 9 u u b 9 9 9 f.h.3.3.3.3.g.g.3.3.3.h.3.h.h.h.D.h.n.I.C B.] D N.OXgX'.U.F.S.G.S.S.S.S.S.S.D.D.D.D.%X%X%X%XD.%X%X%X%X%X%XD.%X%X%X%X%Xj.j.%X%Xj.j.j.j.j.j.j.j.j.j.j.e.h.%.g. X X XH.$ O Y _ _ _ :Xh.P R P P P P P P P P P L E E E N E M M E N T E E L E N E E E E E E Q E E E Q Q Q _ Q ) Q ( ) | V.!.+XVX Xz.a.s.b.c b _ h.Q ) :.) ) :.,.| ,.2.2.2.2.f.f.f.f.A.A.A.H.A.H.K.K.L.P.L.T.T.|.#X}.[.{.}.}. X X}.}..X X.X.X.X}.U.oXgX{.[ D B 8 e 2 2 2 2 2 , 2 , * , 3 3 3 * l * < < - - < * < * ",
"9 r u u u u u u i s u u u u s u s u s u b 9 b 9 9 7 ,.h.3.w.3.3.3.3.3.w.h.3.3.h.w.h.h.h.B.I./ M.] D N.OXfX'.W.F.S.j.G.j.G.j.j.j.j.D.S.S.D.D.%XS.S.S.D.D.%X%Xj.%Xj.%Xj.j.j.%Xj.j.j.j.j.j.j.j.j.j.j.j.j.j.h.j.,.d.XX X Xn.$ O m ) E E :Xh.N R P P P P P P L L L L N E N E M E E E E N T N L m E E T E E E E Q Q E E E E Q Q Q Q Q ) ( | Y./.+XVXoXv.C v.s.q c Q g.Q ) ) :.) :.:.| 2...2.d.2.2.f.g.A.A.A.A.A.H.H.L.L.L.L.L.L.T.T.[.{.[.}.{.{. X|. X X}..X X X.X}.N.oXfX Xa.D B e 8 2 2 2 , , 2 & * < , l - < < * 3 - < < l - < * - ",
"u u 9 5 r u u u i u s u u i i u u u u s u u 9 u u < f.h.,.3.3.3.,.3.3.3.3.3.3.w.3.3.h.h.V.Q.] b.` D N.OXgX'.N.F.G.G.h.h.j.h.h.j.j.j.j.j.j.j.j.j.D.D.j.j.j.j.D.j.j.j.%Xj.j.j.j.j.j.j.j.j.w.j.j.j.h.w.j.h.h.h.$.d.XX'. Xn.$ $ E ) E E :Xh.P P E P P P P P L L L E E M E m E E N m E m T E T T T E T T U E E E U E E _ Q Q Q Q Q _ ) _ | Y./.@XVXoXv.~ s.s.q c E h.E :.,.) ) ,.| <.<.,.2.2.f.f.f.f.f.5.A.A.A.H.H.H.L.L.P.L.[.T.R.#X}.{.{.|. X|. X}. X.X X.X X.X}.N.OXgX{.a.A B 8 e 2 2 2 , 2 & , 2 , , < < * l < 3 l 1 < - < * - * ",
"r u u 9 u u u u u u u u u u u s u n u 9 b t b 9 9 9 ,.h.,.,.3.,.3.3.w.3.3.3.,.w.3.h.h.w.H.U.a.v.` D N.OXgX'.N.G.h.h.h.h.e.h.h.e.j.h.j.j.j.j.r.j.j.j.j.j.j.j.j.j.j.j.j.j.j.j.j.j.j.j.w.i.j.w.j.w.w.e.e.e.e.j.+.f.'.XXXXn.# $ Y Q / E :Xg.N P P P P M M P L L E M E N T N m m E N T M U E M E m T m T T T E Q U Q U Q E Q Q E Q _ | ( | Y.).@XVXXXv.A a.b.c 9 m g.T ) :.) ,.) <.| | <.2.2.2.2.f.f.Z.f.A.A.A.L.H.K.L.L.P.#XL.{.T.[.{.}.{.{.{.}. X|. X.X X.X X.X[.N.OXgX{.k.A B 0 2 2 & 2 2 , 2 , 2 2 , < * - 3 < - < - 3 - - * - * ",
"r 9 u r r u 9 u u u u u u s s u u r u t b u u 9 9 9 E g.,.1.1.,.3.,.,.3.3.,.3.3.3.,.h.w.n.).a.B.` D M.+XgX'.U.G.G.e.h.e.e.h.h.h.h.h.h.h.h.h.h.j.j.j.j.j.j.e.e.j.j.j.w.j.j.h.j.w.w.j.j.j.w.j.w.j.e.w.w.w.w.w.,.d.XX'.XXn.$ = Y Q E E j.h.N P P P L E E m L L m L M E m E N E m E T M T m U E E U E T T U E U E U Q U Q W Q _ E W W _ ..Y./.+XVXXXv.C a.x.c c Y g.P ) ) ) ) :.) <.,.....2.f.f.2.f.5.Z.A.Z.A.H.H.L.L.L.L.R.T.T.L.{.[.[.[.}. X[. X X}. X.X X[.@X[.N.OXfXoXW.[ 0 e e 2 2 l , , , , , < < , < l < l - < 3 * * < l - * ",
"u r 9 9 u u u u u s i u u u u u u u u b 9 u b u u 7 $.h.>.>.,.>.,.>.,.1.>.3.,.3.3.3.3.w.Y.).s.I.` D M.OXgX'.W.G.4.G.e.e.e.e.h.e.h.h.1.6.h.h.h.h.e.j.e.h.w.j.w.j.j.j.w.j.w.j.w.j.j.w.j.w.w.j.w.w.w.w.w.w.w.w.@.f.'.XX'.n.$ = G Q E E J.3.M P L P L L L L m M m L m E E m M E N E L U m T T U T T U T U T U E U Q U Q E Q W Q _ W ( ( ..Y./.+XVX Xv.A l.b.x 9 m g.U ) ) :.) ,.) <.<.2...2.2.2.f.f.f.f.Z.Z.H.H.H.H.H.L.L.L.L.T.[.{.[.{.{.}.[. X}. X X.X X X X.X[.M.oXgX XW.~.[ 0 e 2 , 2 & , , , , * 2 , * * < * l < l * 3 < * * - ",
"9 r r u 9 u u u u u u u u u s u b r 9 u t 9 9 9 9 7 E g.>.,.>.,.>.,.>.,.,.>.>.3.,.3.3.3.Y.).a.U.` o.M.OXgX'.U.G.e.4.4.4.4.4.4.w.h.h.h.h.h.6.h.6.w.e.w.h.e.e.e.w.w.w.j.w.w.w.w.j.w.w.w.w.w.w.w.w.w.w.w.w.w.w.@.f.'.'.'.L.$ = G U m / j.g.L L L L M L L L L L L L T M m E E m m E G L E E m T E E m T U U U Q U U E W Q W Q U W _ ) (  .^./.@XVX'.v.A s.b.c c m 3.M ) ) :.) ) | ) _ <._ ,.2.d.f.f.f.Z.g.A.A.A.H.H.K.L.L.L.{.R.#XT.{.{. X{.{.|. X}. X X X.X X@X[.B.OXfX@XW.N.B.e 2 l 2 & 2 & , , , , , < 3 3 * 3 < < - 3 - l < * * ",
"t r r 5 u t 9 u u u u u u u b u u u s u u u 9 u 9 7 R 3.%.,.>.,.,.>.,.:.:.>.,.>.,.>.3.1.^.'.C.B.` D N.+XgX'.B.G.h.e.h.4.e.w.4.w.w.w.1.h.h.1.h.3.h.1.h.6.w.w.w.w.w.w.w.w.h.6.h.6.h.w.w.w.w.w.w.w.3.w.3.1.w.3.K c.'.'.'.n.$ & F T G G G.<.J L L L L G L L L L L G m E L G L G G L G T G G T ! L U T T U U U T U U Q W T ( W W ( ) ( } ..^.!.+XVX'.v.C k.b.c w c ,.T ) ) ) :.) :.) | <...2...2.f.2.f.f.f.Z.H.H.H.H.L.L.L.L.T.L.[.{.{.[.[.[.[. X X.X X X X X.X X[.B.'.sXsX+XU.z.e l , , & 2 & & , , , , , < , < * 3 * < l < * * * * ",
"9 5 9 u 5 6 t u u u u u u t t u u u u 9 9 9 s 9 u 5 R g.%.:.$.$.:.%.:.:.:.:.:.:.>.:.Q =.B.`.~.~.` D M.+XgX'.N...2.g.4.3.4.3.3.3.3.w.3.w.>.h.>.h.6.h.1.h.w.w.w.w.w.w.w.w.1.h.>.h.w.1.w.w.1.w.1.3.1.w.>.3.>.+.M 2._.'.'.c.@ , F E F V w.1.n H L J L L G G G G G L E m G L G G G U G T G T T G ! T Y U U T T U W Q W U W Q W ) ( ( _ (  .B./.@XVX'.v.C a.b.9 w m ) b Q ) ) Q ) ) ) ) ..,.....f.f.,.f.f.f.Z.Z.Z.A.H.H.L.L.T.T.{.L.[.[.[.[.[.[. X}. X X.X.X X X@X Xb.m.(.+XaX~.C.e l , , , & & , , , , , , * < - 3 * - l < * < * * % ",
"5 r 5 r r u u u u u u u u u u u s 9 u u u 9 s 9 9 7 P ,.$.,.$.,.%.$.:.:.:.:.:.:.Q R ;.q.h.~.`.`.A D M.aXVXOX).N.d.2.4.g.4.3.3.3.3.3.3.1.3.1.>.1.h.>.3.w.w.1.3.w.w.1.w.w.6.h.h.>.1.1.w.3.6.3.1.1.1.1.>.:.O.) B.B.c.c._.c.@ 2 V V E t.r.S.w.I J G L G G L L G L G m m L G G G G G U G U G Y U U U T U U U U W U U W W W W ( ( ( ( } x.N.Q.!.+XgXXXz.C x.b.B ( e.UX>.b G ) ) ) ) <.) <._ 2.2.f.2.f.f.f.Z.H.Z.H.H.H.H.L.L.L.L.T.{.[.[.{.[.[.[.}. X X X.X X.X XV.{ o.' k.W.'.W.z.2 l , & $ , , , & , , & < < < l * < * * 3 3 - * * * ",
"9 5 5 5 9 u u u u u u u 9 u u u u u u u 9 s u 9 9 9 M g.$.$.+.,.$.:.%.$.:.$.Q I %.t.$X3X7X$XL._.C D N.+XVXfX@X'.Q.m.X.<.4.3.2.3.1.,.3.1.3.1.h.>.1.1.1.1.h.1.1.3.w.1.1.3.1.>.1.>.3.1.1.1.1.1.1.1.1.%.O.P c.~.`./.Q.B.c.X.= 2 ! 8.UX3.Q W G.S.>.J G L L G L G G G L U Y G G G Y G G U G ! U G G U ! U U U U U W W W W W ( ( _ } s.m.)./.'.+XfXgX'.l.C a.V.4.UXUXr.$Xi.O.m ) ) ) ) ,._ ........d.f.f.f.f.f.Z.H.Z.H.H.L.L.L.{.L.{.T.{.[. X X X X X.X.X XoX{.x.C B o.k.l.[ N.B.z.2 l & = $ , & & , & , < , , < * 3 * 3 < * * < * % * ",
"5 5 5 5 6 u u t t u 9 u t u t u u u 9 u u 9 s 9 9 5 E ,.$.$.$.$.$.$.$.$.$.T O.6.j.D.3XIXIX7X=XG.0 B k./.OXgXgXfXoX`.I.x.| <.5.3.3.1.,.h.1.1.1.>.g.1.1.h.1.3.1.3.1.1.1.3.1.h.>.h.1.w.>.1.1.1.1.1.@.@...U.`.`./.(.`.~.x.c l e ! K.4.*.) } ^ { A.e.%.L G G G U G Y Y G F G Y Y F Y G G U G Y ! Y Y U U Y W Y W W S W W ( ( ( { b.Q.`.`.OXfXgXsXXXN.` C A c.S.t.e.t.w.t.UX;.n F ) ) ) | ..2.,.d.f.2.f.f.f.H.f.H.H.H.H.V.L.L.L.T.{.T.{.[.[.[. X X X[. X Xn.o.o.[ m._.OX~.` [ o.B & = $ = = $ & & $ , , < * < * , < l < * * l * < & * ",
"5 5 9 t 6 6 6 t u t t t u t u u u u u 9 9 u u 9 9 5 P ,.+.$.$.$.$.$.$.E J =.w.A.G.&X7X6X6X*X+.$ l x A k.W.'.sXgXgXsX'.!.M.X.:.<.,.3.>.,.%.g.,.h.>.>.>.%.1.1.1.>.>.1.1.>.1.1.>.>.1.>.1.>.>.<.$.O.:.n.).(.].(.`.(.B.A 2 = e z 0 B x.c...} { ] [ b.H.<.R G G G G U G Y Y Y G G G G Y Y Y Y Y Y Y Y Y Y Y W Y ! W W S ( ^ } x.N./.`.oXsXVXgX+X(.M.[ A B 0 8 ~ f.e.7.1.<.<.e.r.#.m Y ) ,._ 2...2...f.f.f.d.H.f.H.H.H.H.L.L.L.L.{.L.{.[.[.[.[.[.}. X XV.[ o.k.N._.aXaX_.z.l.` z l $ = $ = $ = $ $ , , & , , < * < * 3 l < < < * * * % ",
"5 5 5 5 r r t 6 t u u u u 9 u t u u u u u 9 u 9 9 7 L ,.R $.$.$.+.+.L @.7.Z.x.c.G.$X*X*X>.# . X c A.x.A ` v.).OXfXVXgX+X`.!.b. .,.,.,.h.>.>.>.%.>.%.>.,.1.1.>.>.,.>.>.,.,.1.,.1.>.,.1.>.&.O.=.c.W.`.(.(.(.(.N.[ 0 l 2 B G.A.C 0 x ] v.b.k.[ l.N.Q.~.Z.<.I G Y Y Y Y F Y F Y F Y ! F Y Y Y Y ! Y W Y ! ! S S W W ^ ' k.M.!./.'.sXgXVXaX'.W.k.o.D [ A.B 2 & 0 { ..<.*.<.) <.e.7.@.m ( ) ,.2...5.d.d.f.Z.f.Z.n.H.H.H.H.V.L.L.L.{.{.[.{.[.[. X X{.k.` [ N._.aXgX+X~.N.z.` 0 C e O @ O @ $ $ $ & & * , , < < , * 3 * - * - - - * * * ",
"5 5 5 r 9 t 9 u 6 6 u 6 u u u t u u 9 u 9 u 9 u 9 7 L $.$.E $.N M N =.g.b.m.b.c.4.j.<.3 . . . E rXKXVXV.[ ` a.M._.aXgXVXsXXX].I.s.,.,.%.,.g.>.g.>.g.>.>.>.,.>.>.>.>.>.>.>.>.>.>.>.>.$.R *.g.B.].`.!.`.`.Q.z.D e e z ..R.iX{.L.X.B x C l.M.m.W.!.(.`.`.^.c.Q W ! Y F Z Y Y Y F Y F Z Y Y Y Y Z ! Y S S Z S W ^ ^ { m.W.].(.+XgXgXfXoXQ.C.[ o.` v.rX&XA.W 2 = & C { | &.) | | X.A.<.M G _ ,.d...f.f.f.f.Z.f.H.f.H.H.L.L.L.T.{.L.T.[.{.[. X{.n.{ [ m.(.+XgXsX_.W.m.a.D z ' P.r.= O O $ $ $ $ $ & * * , * * < , * < < - * l - * * * ",
"9 r r 9 r r u u 5 u t t 9 u u 9 9 u u u 9 9 9 u 9 7 n $.E +.M N @.1.d.I.M.M.s.f.,.9 .     6 h.E.pXKXDXcX[.b.[ o.l.Q.'.sXVXgXaX'.).B.s.<.<.<.<.1.>.<.>.,.>.>.:.:.>.,.@.>.>.>.,.>.&.Q =.8.n.!.].]././.!.m.` 8 2 0 } L.|.dXgXXXoXoXB.] D 0 A z.!.`.'.'.'.XX'.V.p.Q ! W Z Y F Y Z Y Y Y Z ! S ! ! ! S ! S S W S ' l.I.!.].OXfXVXgXOX(.m.k.o.[ z.{.hXzX4.P.,Xd.0 & $ 2 D { } ( } X.x.x.c.Q J U ....d.d.f.d.Z.Z.Z.Z.H.H.n.L.V.L.{.T.{.{.{. XV.x.{ C.W.oXfXfXXXQ.I.v.` D ] L.2X1.=X3 . @ @ @ = $ & & & & * * l * - < < l * - * < * * * ",
"r 9 5 5 r 9 u 5 u u u t t t r u u 5 9 i u 9 9 9 9 9 m $.M m O.1.f.s.M.v.b.d.g.E O .   - 4.0XK.K.nXKXDXPXxXiX^.z.[ [ m.(.oXfXZXfX@X(.!.b. .:.<.<.<.:.,.>.>.,.:.:.>.@.,.%.,.@.@.+.=.;.c.W.!.].].].!.N.a.B e 0 o.H.|.dXgXJXgXoXfXfX+X_.v.o.D B ` I.`.oXOXOXOX'._.B.X.W W S S F ! Z Z Y ! Z ! ! S S S S S S ^ { N.!.!.XXsXgXVXaX'.W.z.[ ` z.~.dXvXMXxXh.P.1X<XK.' 8 = = 0 ` s. .X.z.N.W.U.p.T ! | ..f.f.f.f.c.Z.Z.Z.H.H.H.L.L.L.{.L.{.L.x.[ z.W.'.sXVXdX(.Q.m.a.A ] n.P.S.I K &X< X O @ $ $ $ $ * * , * < * < l * * < - * l * * * * ",
"5 9 r r r 9 5 u u 5 t t 9 t 9 9 9 9 i 9 5 u 9 9 9 < b G N *.g.b.M.M.s.b.f.R % . X O f.0XP.g.K.P.CXKXPXzXxXPXlX.XU.a.[ a.M.(.+XgXZXfXXX).N.x.| ,.<.<.<.:.:.:.:.:.,.,.$.,.$.R @.w.p.B.!.W.W.].].W.v.A 0 0 D c.}.@XfXVXVXfX'.`.aXVXVXfXOX~.k.` B C k.Q.'.OXOXOXOX'.~.x. .W W S W S Y Z Z ! S S S S S ( ^ { m.!.].`.+XgXVXfXoX!.m.k.[ l.U..XcXMXMXZXvX5.P.9X0X9X0XZ.C 2 X = C a.z.M.W.W.].].B.p.G U ..d.f.Z.Z.Z.Z.H.H.n.L.L.V.L.L.Y.c.k.z.W.].+XgXsX'./.I.z.] ` b.T.A.#.h J R 3X< . O O O $ = & & * * * < < * < l - l < * * < * * * ",
"9 r r 9 u 5 u 5 5 u 9 t t t r u r 9 u 9 9 9 u 9 9 7 u -.w.c.v.v.b.b.d.f.1 . . . E J.,Xg.h.K.K.pXJXKXDXxXPXxXPXPXpX{.v.a.[ l.W.XXsXgXgXdX'./.N.d.) :.<.:.,.:.:.:.@.$.$.R $.>.g.d.N.W.W.W.W.W.m.[ B 0 B X.|.@XsXVXVXgX@X].~._.].XXsXVXgXaX'.N.a.A D ` M.(.oXOX+X+XOX(.M.x. .S S S S S S S ! S S ^ ' ` l.W.].(.OXfXgXfXoX(.M.k.[ [ M. XhXnXMXMXMXBXkXG.K.,X9X9X9XeX0Xd.v $ X 2 ] M.!.!.!.!.].~.B.| T _ d.Z.c.Z.Z.n.Z.H.L.V.L.L.n.s.z.N.`.OXgXgX@X`.W.m.[ ` l.^.R.,.I I H 1.6XeX, . O O @ $ $ = * & * * * * * l < - - * < < < * * * ",
"5 u 5 9 5 5 5 u u 5 5 u r 9 r 9 u 9 5 9 9 9 9 9 9 < O.g.b.v.v.b.c.>.n X     9 G.P.K.h.h.K.9XZXtXh.&XvXSXPXzXzXPXPXxXuXY.a.a.a.a.~.oXfXgXgX+X'.Q.b.5.<.| ) :.) :.$.E E >.h.d.a.a.N.I.W.W.N.l.D B D ' L..XdXfXVXVX+X(.].@X9XF.L.(.].oXfXgXgXaX_.N.[ D D [ W.'.OXaXaXaXXX~.m.p.} W S S S S S ^ ' ' k.N.W.].XXsXVXgX+X(.M.l.[ ` z._.dXnXvXZXvXBXZX5X3.<.,XrXR.9X9X9XeXuXR.d.v @ @ 0 k.W./.!.!.].(.W.x.W W ..c.Z.Z.H.H.n.H.L.n.X.k.M./.XXsXgX+X(.Q.M.k.` a.B.E.h.N E H R $XlXpXL.@ . X O @ @ $ $ $ * , * * < < < * * * 3 * < * * * * ",
"5 5 5 5 5 u u 5 u 5 u 5 u u r u 5 5 u u u 9 u 9 9 , =.d.v.b.b.5.K o   . * f.:XK.K.h.K.0XZXcXD.+.E I 3.<XPXDXxXPXPXPXPXzX.XB.a.s.[ m._.+XfXgXfXoX).N.c.| :.:.) ) _ :.j.g.d.a.a.v.m.M.N.C.] B B ' H.}.aXfXVXVXaX_.!.XXrX$X| Q 1.A.T.~.].OXfXhXfX+X_.C.o.o.o.l.!.oX+XsXaX+X'.W.B.d.} ' ^ S } o.{ m.W.].'.aXgXgXaX'.W.z.[ ] l.~.+XZXmXnXnXMXBXlXD.Q Y F T e.9X0XR.eXuXrXuXiXR.] 8 @ = D z.W.].!.!.!./.U.{ W ) p.c.Z.n.H.n.p.s.C.W.'.aXgXsX'.Q.N.k.` ] m.{.P.:.L U m 1.7XpX.XE.V.$ . X O O $ @ $ % $ * * * * * * - l * * < < < & * * ",
"5 5 5 5 u 5 5 u 5 u u 5 5 5 9 r u 5 9 9 9 9 9 7 9 7 =.c.b.c.$.1 .   O E K.P.G.G.G.P.pXZX-X:.P +.E R +.+.G.uXDXPXPXPXPXPXxXcXE.b.[ ` k.I.'.sXgXVXsX'.!.M.d.) Q ) w.j.d.~ ~ ~ a.a.m.m.a.C x ~ c.}.@XsXgXVXfXXX!._.iX>X5.Q Q ) Q W <.A.^.!._.+XhXVXfXoX~.C.` o.[ N.(.OXaXsXaXOX`.W.n.X. .^ ' k.W.].`.+XgXVXfXoX!.m.k.[ l.U.oXZXAXmXmXZXBXcX,X<.F F H Y ! m ) -XeXR.0XuXrXuXuXrXn./ e = 2 A m.W.!.!./.].`.N.{ W | c.Z.c.s.C.W.].OXfXfXoX!.W.z.[ ` C.^.L.3.J P G $.-XuXiX X.XE.L.$ . . X X @ = $ % * * * * * * - * < < l * * * , * * ",
"5 5 5 5 r 9 5 5 u 5 5 u 5 u r 5 u 9 5 5 u 9 5 9 7 < y.Z.2.i . .   b K.0Xj.g.K.K.uXZX1X>.L T R I R R I +.I &.F.cXDXPXPXPXzXxXxXeX^.z.] [ z.~.oXsXVXgX+X'.W.b.4.S.A.s.a.~ ~ a.a.M.l.C x D X.T..XaXgXVXgXOX!.~.iX1X4.| Q Q Q ! T Q W Q 5.L.~.].XXsXgXgXaXXXW.k.o.o.k.I.'.aXaXsXaXoX].N.n.x.N.].].oXfXgXgXOX(.N.k.[ k.N._.fXFXNXBXBXBXBXqX4.F F G F F H F Y F m 3.9XrX|.rXyXrXpXpXE.x.D l $ 8 [ I.!.!.(.`.`.(.N.{ } X.x.W.].XXsXgXOX(.Q.m.k.` k.V.}.G.I T F +.j.qXE. X}.E.[.T.L.$ . X X X @ = # = # * * * * l * < * - * , < * < * * ",
"5 5 5 5 r r 9 9 r r 5 u 5 5 5 5 5 6 7 6 9 7 7 9 9 7 M G $ . . 7 h.0XK.h.h.K.eXBXyXg.N E R E N E P R R R R R P ,.<XzXPXzXxXxXjXIX6X|.Y.l.[ [ m.(.+XfXgXfXOX).V.Y.m.[ ` o.` C.z.o.0 B ' L..XdXfXVXgX+X].!..XuXG.| Q Q Q T ! T ! T ! Q Y Q A.T.`.`.OXfXgXfX+X'.N.k.o.[ z.!.oXaXsXsXaX'.!.Q.].'.aXgXgXaX'.N.z.[ [ z.^.sXNXHXBXBXBXHXlXG.! F F Y F H F F F F U G m T j.0XiXrXrXpXpXyXpX}.l.B l l C z.W./.`.`.'.`.`.z.B.].'.aXgXaX'./.N.k.[ [ B.[.F.! L m E 1.3XeXE. X[.E.E.[.T.L.$   X X X O @ # # = * * * * * - - * - < * - * * * * ",
"9 5 9 5 9 r r r 9 u u 5 r u 5 u 6 6 6 6 6 9 9 9 7 7 2 @ $ 7 g.,XP.h.g.K.:XbXbXj.E N E N N E N R E P P R R R R P R 3.eXvXzXxXIX6X7X7XeX}.B.a.[ k.N.'.aXfXgXsXoX'.!.k.` k.C.[ B 0 o.c.{.@XsXVXVXsX_.]. XuX-X| W &.Q ! Q R R T T T T T U W W Q A.^.).(.@XhXhXfXOX(.m.[ ` [ M.(.OXsXfXfX+X'.+XgXgXsXXXW.C.[ ] k.~.+XCXHXCXBXBXHXMX,X) F Y G F F F H F H F H m Y U m m :.J.0X|.rXpXpXpXbXiX{.k.x & 8 ` M.).`.`.'.'.`.`.oXsXaXXX(.W.z.[ ] z.{.P.1.f ! m E D.eXE.E.T.E.[.[.[.[.E.V.$ . . X X O > $ = % % * % * * - l * l * * - * * * * ",
"5 r 5 5 r 5 r 5 r r r u u 5 9 r 6 6 6 6 9 9 9 6 9 9 q M g.:X0XK.K.g.P.pXBX>X,.M N E N R N E R R E P P P P R P R P P @.h.eXzXIX3X;X*X=X*X0X{.z.[ [ l.I.XXaXfXgX+X(.M.m.k.D B D c.[. XaXgXVXgXXX]._.dX2X5.Q Q Q Q Q R R ! T L T T T U ! U Y W W <.H.^.!.'.dXgXgXsX'.!.l.[ [ l.W.'.+XsXgXfXgXfXOX].m.k.[ [ M.oXVXJXBXBXBXHXCXeX4.m F Y b F F H F F H F H H L G T m U Y Y g.9X0XE.pXpXpXpXbX.XY.] 0 2 B k.W.`.`.`.OXfXsXoX(.Q.m.[ o.a.#X[.4.L F V F g.:XE.T.T.T.E.E.E.[.[.E.T.V.$ . X X X O @ = $ % % = % * - l * - * < * * * * * * ",
"5 9 5 5 9 r 9 r 5 9 r 9 5 u 5 5 6 5 9 6 6 7 9 9 9 q 2.yX0XK.K.h.K.eXBXeX,.m M E N N E m E N E N P P P P P P P P P P P P @.:XkXeX8X$XS.S.r.%XrXY.k.` ] v.!.OXsXOX`.B.` B C { L.@X@XfXVXfXoX/.(.@X1X4.| Q Q Q T T R ! I I L L ! L G L P G ! G Y ! ! 5.L.~./.oXsXgXgXaX'.N.k.[ [ C.Q.'.aXfX+X(.N.l.[ ` z._.fXJXJXCXCXHXJXbXG.W m F F F H F F H F F H F H H m U m U m Y U m Q h.0XiXiXpXpXpXpXhX XB.` e 0 ~ N.`.'.aXaX`./.M.a.o.] B.[.K.I H Y V *.=X:XH.T.T.T.E.T.T.E.T.T.E.E.V.$ . . . X O o @ # = = % % * % * l - - * l * * * * * ",
"5 5 5 5 9 5 r 9 u 5 5 5 5 9 r r 6 9 6 7 5 9 9 9 9 9 g.,Xh.h.h.rXZXyXh.m M N M M P M M E N M E N P P P P P P P P P P P P P E ,.eXyX>Xr.e.e.7.t.F.}.B.[ ` [ v.Q.N.a.C D ` n.}.@XsXVXgX+X(.!. XuXD.| Q Q Q T Q T T T I L I L L G L L L G L G G ! ! ! Z W A.T.(.`.OXfXgXhXOX_.C.[ ` a.v.!._.W.z.[ [ k.~.aXCXKXCXHXHXJXCX<XQ m Y F c b F F F F F m m F m F H G G G G U Y U U U m _ F.rXiXiXhXpXpXZXhX Xb.~ x B a.I.(.!.M.k.` ~ b.[.R.1.m Y m E r.>XL.T.T.T.T.T.T.E.T.{.E.[.T.R.n.$ . X X X X O @ = % % - * % - * * l - , , * * * * * ",
"9 5 5 5 9 5 5 r 5 5 u 5 9 r r 9 6 6 6 9 9 5 7 7 9 7 b K.P.0XpXcXj.E m M E M E M M E M M M E N E L P L P L L P P P P P P P R P R h.1X6Xr.1.1.1.8.9.P.T.z.~ A ` A D A n.[.@XdXgXVXsX'.!.'.iX>X<.) ) ! Q ! T T ! I I I I I L L L J L G L H T G G G ! ! ! Z | K.{.].'.+XhXgXsXoXQ.z.] ` [ k.[ ` a.N.@XVXKXJXCXHXJXJXyXg.F F F F F F F F b F m m m m m H n F m G G m m E m U U E E Y ) ,XiXiXpXhXhXhXhXdX^.s.D 0 A a.a.A A a.^.R.h.N M m Y h.*XP.L.T.T.H.T.T.T.T.T.T.T.T.T.E.T.n.$ . . X X X O @ @ # % = = % * * - * * * - - * * * * ",
"r 5 5 5 r 5 9 9 5 5 r u 5 r 9 r 6 6 9 5 7 9 9 9 7 7 m J.pXpXj.,.M M m M m M M m L M N E E N E M L P L P P L P L P P P P P P R P J $.D.qX*X1.>.1.1.1.r.P.n.[ A ` x.{.oXdXgXVXgXoX!.(.iX1X4.W Q Q ! ! T T I T I T L I L L L J J L L J J G H L L G F G G F ! ! 5.L._.].XXsXgXhXaXXXI.a.` A ` z. XgXKXJXJXCXHXJXZXF.Q V F F c F m m F F F b m m b m m F F H m G m G m U U U U U U U Y Y g.0XiXiXhXhXpXbXhX@XU.a.D x D ~ b.|.-X@.N E Y ,.:XJ.H.L.T.L.T.T.T.T.T.T.T.T.T.T.T.{.T.n.=   . X X X @ @ = # = = % % = = - * * < * * * % % * ",
"5 5 5 5 5 5 r r 5 u 9 5 5 5 5 5 6 6 5 5 9 7 9 6 7 7 m J.:X,.m N M E M M M M M L m L m M M M E M L M P M P L L L P P N P P P P P I L L ,.2X5XS.*.%.<.<.q.6XT.o.` ~.oXhXgXgXaX`.]. XrXj.Q Q Q Q ! Q R R R I I L L T J L L L L L H J H J J J H H J H H G ! ! F Z W A.T.(.].OXfXVXgXsX'.[ A b.gXJXJXJXJXCXKXHX<X| F Y Y F m F m m V q F g H b m b n m n n m G m G G T m U m U m U U W Q U ) K.0XiXiXhXbXhXhXhX{.z.D o.T.BXj.L G m N j.&Xg.n.L.L.H.L.H.T.H.T.H.T.T.T.T.E.T.T.T.V.=   . X X > o @ > = % % % * - * * * * * * * , , , % ",
"5 5 5 5 5 5 5 t 5 5 r 5 5 5 5 5 6 6 6 6 6 7 9 7 9 < T M N n M M M m M m L m M m M M L M L L M L L L M L M P M P P L L P P L P P N R R M N g.<X<Xw.*.r.rX XI.A ` Q.+XVXdX'.).XXrXF.| Q Q ! T ! T T T I T L P L P J L J L J J L J J J J J J H H H H J H H Y F Y Y ! ( A.^.`.`.sXJXCX{.` 0 b.rXBXKXJXJXKXyX4.! V ! F F V b b F b b b b b b b b b b H m b m M m m m m m Y G Y U U U E W W Q / g.0XiXiXdXbXZXhX_.M.D A Y.4XyX;X3.h.%Xh.f.V.L.H.H.H.H.T.T.H.T.Y.T.T.H.T.T.T.T.T.n.v $ . X X X O @ @ # # = * = % % * * * * * , * * , % ",
"5 5 5 5 5 9 r 5 5 u 9 5 u 5 9 t 6 9 7 9 7 9 7 9 7 7 U v M R M n m M M M M M M M L M M M M M M M M L L L M L L P M M L P M P N P P N R E N N R h.3X-X@X`.I.I.D ` I.+XgX'.Q.dX<X5.} Q Q U E T I T L L T I L P L L L J J J J J J K J J J H J J H J J H H n H H G F ! V ! <.P.XXaXrXs.v.A 8 l.s.H.uXJXBXF.U V F ! b F q b c b b b c b b b b b b b b b b n m m m G G m U m G G Y m U M / E W _ U _ h.rXiXiX@XXX'.M.B A v.c 4.yXbX%Xf.f.H.f.H.H.H.T.H.n.H.H.H.H.T.H.T.Y.T.T.T.H.n.$ O . . X O O @ @ # $ % # % % * * * * * * * , , % , ",
"< 7 5 1 5 5 5 5 5 5 5 r 5 9 5 r 6 7 6 9 9 9 7 7 9 , E s.] m +.n M M M M M M n M m M M M m M M L L M M M P L L M L P M P P P P P P P R N N E M E R ~.~.l.a.W.o.o.Q.+XVX_.N.A.( ) Q Q ! T T T I L L I L L L P K J J J K J J J J J J f h J J J J J H M H H H H H H H F F V G P.L.` v a.B , ` } W _ K.4.F F F F b b b b g b b c b b b b b b b n b b g b b n m m H m m m T Y U m U U U Q E W Y _ _ ( 2.0X_.).sX'.M.D C b.8 2 Y h._ f.f.n.H.H.H.H.H.H.H.H.H.T.T.H.T.H.T.H.T.T.L.n.$ X . X X O @ @ @ = % = * % % % % % * * < , < , , , ",
"5 5 7 5 5 5 5 9 5 u 9 5 5 r 5 9 6 6 6 7 6 9 9 7 9 7 b ,.s.a.m @.M m m M M m M M M M m M M M M n M L M M M M M P M M M L M L M P M P N E N M E N T b.a.~ a.W.o.` W.+XgX'.m. .Q W Q ! T T I T T L L L L L L L L J J J L J J h J J M J J J n n n J J n J f H J n H H b F F b c.{ x c a.x @ A ( m U <.<.g F F q b c b c b b g g g b b s b b b b b b b b b m m m m m m m Y m m U m U U Y Y W W U U _ _ n.I.'.sX'.M.D C x.8 7 9 R / f.f.f.H.f.Z.H.n.H.H.H.n.H.H.H.H.H.H.T.T.H.L.V.$ . . . X X O @ @ = # % $ % * & % , * < , * $ % , % ",
"1 5 5 5 5 5 5 5 6 5 5 5 5 9 5 9 6 7 6 6 9 7 9 9 8 8 8 c 3.f.a.m P L M n M n n M M n M n M M n M M M M M M M L L P L M L M P L L P L L N M N E M N b.] ~ ] U.o.` I.+XgX_.m. .W Q T T T ! I I ! L L I L J L L L L L M L M J J J M M M M M H h J n n J f H n n m n m m b b s c. .c c ~ x X B Y F m <.$.c b c b g c g b z g g g g g b b b b b b b b b b b b b m m n m Y m Y U m U U U U U U U ( W W ( n.W.'.sX'.N.D A v.9 2 9 N Q d.Z.f.d.Z.Z.Z.H.Z.H.H.H.n.H.H.n.H.n.T.H.T.H.n., O . . X O X @ = # $ = * % % , % % * < , % , , % * ",
"7 1 1 7 1 7 5 5 9 t 1 9 5 r 5 5 6 6 7 9 9 9 7 w 9 8 e v a.P.g./ / m M n n n n n n M n M M M M n M M m M L M M M M M L M P M M N M L P P E N M E N b.' A ] U.o.` W.+XgX'.m. .Q W ! T T I I L L L L J J L N L N M N M N N N h M M M M M M h J h J n M f f n n n n n n m b s d.' 9 c ] 8 . x Y m m Q Q q g g c g g g g s g g g d z s b q b b s b b b g b b m m m m m m m m m Y U m U Y W Y U U W _ ( n.Q.'.sXoXN.A C v.8 2 c N N d.d.Z.Z.Z.Z.Z.Z.Z.Z.n.Z.H.H.H.H.H.H.H.H.n.f.Y.& O . X X O @ > @ $ % % = % % , % , % , % , % % , * ",
"7 5 5 5 5 5 5 t 5 5 5 5 r 9 9 5 6 7 6 9 7 9 9 e 8 0 x A U.@XT.d./ m m n n n M n n n M n M M M n m M m M M m M M M L M L L L M M L M M M N E E N T x.` A [ U.D o.I.aXgX'.M. .Q Q ! I T L L I I I L L L K N N N M M M M M N M M M M M h J J h h n h h n f d n n n n n b n b d.' q 9 ~ 8 . 0 m b c Q Q q g g q g q q g g g q g g g c s s c q b b s b g b n m b m m m m m Y m Y m U U Y Y W W W W W W n.W._.sXoXW.A C b.x , 7 M E f.f.f.d.f.d.Z.Z.d.Z.Z.Z.Z.Z.n.H.H.H.H.H.H.f.b.& X . . X O O @ = # = % * % , % % , , % , - , % $ , ",
"1 1 1 7 5 5 5 1 5 5 5 5 5 5 5 5 6 9 7 7 9 9 9 9 0 0 B ` Y.hXI./ / E M m n s n d n n d M d n M n M M M M M M M M M M M M M M N M M P M M N m N m E s.^ A ] W.D [ W.aXgX_.M. .! W T T L T L P L J P J K J L N N P M N N M N M M M M M M J J h J h n n h n n d n n n n n b s d.^ 9 w ~ 2 . 8 m b b Q R q q w g q g q q q w g q g q s q b s b q c s b b b b b m m m m m m m Y m Y m Y m Y Y U U W W ( b.Q.'.fXoXN.A C v.8 , 8 M U d.d.f.f.f.f.d.f.Z.Z.d.Z.Z.Z.Z.Z.Z.H.Z.H.L.f.V.& . . . X X O @ # = # = * * % , % % % , % , % , % $ ",
"7 1 5 5 5 5 5 5 4 r 5 5 5 5 5 6 6 6 7 e 9 9 e w 0 0 B ~ ^.fX~.' x.! n n n f f n f f f n j n d d M d d M M M M f M M M M M M M M M L M N M M L L L x.~ ~ ] I.D o.Q.+XgX_.N.} ! Q ! R ! J I I I K L K J J N N M J N M M M h J h h J J M M M M M f f h n f n f d n n n s n 9 d./ 8 9 / 2 . 8 m c c E E b 9 b 9 9 b 9 b 9 b b q s s c s c s b 9 b b b b b b b b b b F b F H F F F F F Y Y ! Y W / ( W b.W.'.fXoXN.A A b.0 , 7 M T .._ f._ f.f.f.d.f.f.f.f.f.f.f.f.f.Z.Z.Z.Z.Z.b.v $ X . X X @ @ > $ # * % % % * * * * * * * * , $ , ",
"1 7 5 1 7 1 7 5 r e 5 5 5 5 5 5 6 7 6 9 7 8 w 0 w B D ` Y.gXW.' b.S F g b g n f f f f f n n j n M M M d f M f M d M M M M n M M M M M M M N M M Y s./ C ` U.o.` W.aXVX'.m. .W ! R ! I I K J I J K J K L N J N M M N M J K h h J h h J h h M M M M f h h f h j n a b n n 5 d./ 9 8 / 2   7 c b c E E 9 b 9 b b u 9 b s 9 9 b q q s q q b q b b b b 9 b b b b b b b F c F b F F H F G Y F Y Y W W W b.W.'.sXoXW.A A B.x < 7 M U ...._ f.d._ _ f.f.f.d.f.d.f.f.f.f.Z.d.f.Z.f.b., $ . . X X X @ = # = # * $ * * * * - = * * , % , $ ",
"1 5 7 1 7 5 1 1 5 4 4 5 7 4 5 r 7 6 9 9 9 9 w 0 0 B D ` ^.gX^.` B.W H b n b f g f f f f n j M M d M d M d M M f M M n j n M M M M M M N M M M N L s.A C ~ U.A ` N.aXgX_.N.} Q ! ! I I I I J K P K K J J J N M N J h h K h J J h J J h h h M M f M M h f M n d d n d s n n d./ 7 8 / , . , b b c E N 9 q u 9 b b b 9 u b q q q q q s q s q s q b b b b b b b b b F g c m F F F F Y F F Y F W W / W b.Q.'.fXOXW.A A B.x , 8 M U _ _ ,.d.,._ f.f.d.d.f.f.f.d.f.f.f.d.Z.f.Z.f.V., O . X X X @ O @ $ = % % & * % * * l * * & , % $ % ",
"7 1 1 7 1 5 7 5 5 4 5 4 e 4 6 e 9 6 7 9 9 8 9 0 0 B C ` V.gX~.] B.^ F b g f f n d d f f n n a a M d M d M M d M f j n M M d M M M M M M M M M P H s.Z C ` U.D ` W.aXVX_.m. .Q Q R I I J I K J K P J K K K N J K K K M M K h h J h h h J M h h M h n h h f h M d a n d s i s./ 2 , / 2 . 2 b b 9 m N q u b 9 9 9 9 9 b 9 9 b q b q c u c b q b s b c b c c c b c q F b F b F b F F F F Y Y Z W W ( x.Q.'.fXoXW.` C B.x , 7 M T _ _ _ ,._ _ _ ,._ d.d.d.f.d.f.d.f.f.f.d.f.f.B.$ . . . . O O @ @ = % = % * * * * * * * * * % $ , , ",
"7 1 7 1 7 5 5 5 7 4 4 5 5 4 7 6 7 6 9 9 9 e 0 w 0 B C ` ^.gX~.] B.^ ! b H g f f n s d f f d d M d M M d d d M d M M M j j M n j M M M M M M M N G { Z V o.U.D [ W.aXVX'.m.} Q ! ! I I K K K K K J K J J J K J h M M N N h N K h h h N h h h h M h h n h f h h d n a M n y d./ 7 2 / , . 7 b q w U N c q q s 9 q s 9 b 9 s q b 9 q b b 9 c b b c 9 b c q b b c b b b b b m m m F F F Y F Y Z S W W b.W.'.fXOXW.~ ~ B.v , 8 M m ) _ _ _ ) _ ,._ d._ _ f._ ..f...f.f.f.d.f.f.n., X . . X X o @ = $ = # = * * * * * , % , $ $ % * * ",
"1 1 < 7 1 1 5 1 4 5 e 4 e 7 5 5 7 6 6 7 e 9 w 0 x B A ` {.gXU.[ B.( F b g b f g f d d h d M n d M d d M M d i M i M j n n M M M M M j M M M M N M { C B o.N.o.` W.aXVX_.M.X.! Q I I I K K I K J J J K K K K K K N N h N K h h K N N h h h M h h h h h h h f h d n M i n r d./ 7 2 C 2 . 7 b q 9 M P 9 s 9 9 s q 9 b 9 q q 9 9 b b 9 q q q q q s b c b b c b b c c m c F c F c F F F F V Y Y Y S S x.W.'.gXoXW.A C v.x 7 7 M m _ _ ) ) ) Q _ _ ,._ f._ ,.,.f._ f._ _ ,.f.d.n.$ . . . X O @ @ > # = % % $ * * * * - , % , , % $ * ",
"< < 7 1 1 7 7 1 5 4 4 e 4 4 5 7 9 6 7 6 9 w 8 w B B A ` #XgX~.` B.' ! b f g f d f d d f d d n M d d M d M d M M M n n j j n M M M j M M N N M N J } B z S U.o.o.W.sXgX'.N.X.! ! ! I K I K I I K K K K N K K K N N N N N h K h h h N h N h N h h h h h j h f h h a i n i r d.v , 2 v 2 . , m 9 9 L T 9 p q 9 s 9 9 9 9 s q q q 9 9 q c q q q q c c c b c b c b c m c c m F c F m F F F Y Z Y Z W S b.!.'.fXoXI.~ ~ b.x , 9 M m Q U _ ) ) _ _ _ _ _ _ _ d.,._ _ ,.,.d.f._ d.n.$ . . X . @ O @ @ # # % * % $ * * * % , * $ $ * , $ ",
"7 < < 1 1 1 7 5 4 r 4 4 5 5 5 7 6 e 9 e 9 8 0 0 0 B D o.{.VX~.[ b.' V H b f g f f d d f d M a d d M d d M d M i i j M n j M M M d M M M M N M N L } B V o.U.o.o.W.sXVX'.M.} Q Q I I I I K K I K K K K N N J N N K N N N K h K h h N N N N h h M N h h h h h h h M n M n i d./ < , / 2 . 7 m 9 q N P w q 9 s 9 w 9 b q 9 q 9 q q q q 9 c q c c q 9 b c c q b c b c m c m c m m c V F V Y Y Z S S ! x.W.'.fXoXN.~ ~ b.x 7 8 N m W Q Q ( U E _ +._ E ,.E _ _ _ ,._ _ $.,._ _ n.& . . . X X X @ @ = = # = * * * $ * , % * * , * * * ",
"< < 7 1 5 1 < 1 7 5 7 5 3 7 4 6 7 9 7 9 8 w w 0 x B A ` ^.gX^.[ b.( V b b d g d a n a n d d d d d M d d d j f d j M j d M i N j M M M M N N N N P / v c A W.D ` W.aXVX'.N.X.Q I R I I K K K K K K K K L K K K N O.N N N N N N N N K h K h h K h N j h h h h h h j d d n s ../ 7 7 v ,   7 s 9 9 L R q 9 q 9 9 p 9 q q 9 q q w w q q 9 c q c c 9 c b q c c s c c c b c b c m c F V F F F Z Y Z W S x.W.'.fXoXW.o.A B.x 7 8 M F Q U ( Q W _ _ U Q U Q _ _ _ Q _ ) _ _ ,._ _ n.$ . . . X O @ @ @ $ % $ $ % * % % , % * % * * * $ * ",
"1 < < < 7 < 5 5 5 1 5 5 5 5 6 7 7 7 9 7 9 w 0 0 0 B D ] T.gX~.[ z.W F H b d d g n i n a d n d d M i d M M d M j M d M M M j M M M j N N N N N P N Q V v ' B.D ` W.sXVX_.m.} Q ! R I K I I O.O.I K K K K K K K K N K N N N N N u.N h K h K K N N h N h h h h h h M M j d d _ v 8 7 C ,   , b 9 9 M P 9 9 w u q 9 q 9 w w 9 w q w w 9 c w w 9 b c c c b c b c c b b c m c m c m V F F V V F Z Z S S x.!.XXfXoXN.o.~ v.x 7 9 N G T U E W E E E Q W _ E E Q _ Q _ Q ,.Q ,._ _ n.$ . . . . O X @ @ @ $ $ % % * $ * % * * , % $ * , $ ",
"< 1 < 1 1 < 1 1 5 7 1 7 5 7 7 6 7 9 8 9 e 9 w 0 B B D ] {.VXU.] l.W F b g d d d a a i n d d d d i M M i j d M d d j j d M M j N j N N j N N N N M W x v o.~.o.` ~.sXVX'.N.} Q Q ! I O.O.K O.K K K K K N K K K K N O.K K u.N N N K h K u.j K K K h h N h h h h h d M M n d _ / 2 7 v ,   < 9 9 9 M R 9 p 9 9 q q q 9 9 q w w 9 w w w q w w c w c q s c q c c q b m c c m c c c m V F V Y Z Z Z S S x.!.'.fXoXI.` ~ B.c 8 8 K H U U U E U E U E Q E _ E E E Q _ _ _ $.E _ ) s.$ . . . X O O @ $ O # $ $ $ $ $ $ % $ * * $ $ , $ $ ",
"< < < 7 5 1 7 7 1 5 1 5 5 7 4 7 9 7 9 9 9 8 8 0 0 B D ] ^.gXU.[ x.W b b g d d d i n j d d d a j i M i M M d j j M M j N N N N N N N N N N N O.P M Y V V o.U.D ` W.sXVX'.N.} R Q O.I K I K O.I K P K O.P P O.O.K K N K u.N O.K N K u.K N K N K j K u.N N h h N h M j j M a _ m 2 8 v %   < b 9 9 N P w 9 9 q 9 9 9 q q w q w w w w w w w w q c c c c c c c c b c c c c c V m F V V V V F F Z Z S S x.!.'.fXoXN.A ~ B.x 7 9 L m Y U U U W Y _ U Y E Y _ _ E Q Q Q E _ Q E E b.$ . . . X X O O O $ O % % $ % $ , % % * * $ % , % $ ",
"7 < < < < 1 1 7 7 5 1 6 7 5 7 5 7 9 9 e 9 8 0 0 0 B C ] #XgXU.[ x.W c b s n d i a a n a d d d d M M j d M j d M j M j N N j N N N N N N O.N N O.L Y V x ~ ~.D o.W.aXgX_.m.} ! I ! O.I O.! K O.K O.P O.O.O.K N O.O.N O.N N K O.K K K K K K K N N K u.N h u.N N h M M j M a _ m 8 7 x , . < b 9 7 M P w 9 w q w 9 w 9 q w w w w w w w c w c 9 c 9 c c c c c b c c c c m c b V V F F F V V V Z Z S S x.W.XXfXoXW.` ~ B.v 9 9 R m E Y Y Y E U E Y U E U U U Q E U _ Q Q E E _ s.$ . . . X O @ @ O $ % # $ # - $ % % % % % , $ $ $ $ ",
"< < 1 7 1 7 7 1 7 1 6 1 5 7 5 7 7 7 7 7 9 8 w 0 0 x D ] {.gXN.] k.Y b d s s d M n a n a a j a j M i d j M j j N j M N N N N N N N N N N N O.O.P L F x x ^ U.o.` W.aXgX'.N.| &.! I I O.! O.O.O.I N O.O.N K O.O.K K O.N O.O.K u.K u.K K O.O.K K O.K K N u.N N N N j N M h d ) Z 2 7 v $ . 7 b 9 7 N P 9 w 9 9 9 w w w w w 9 w w w w w w w c 9 c c c c c c c c c c V q c V V b V V V V F V V Z Z S S k.W.XXgXoXN.A ~ B.c 8 9 E m Y Y G Y Y Y Y Y Y Y E U E Y U E Q _ E _ E d.s.$ . . X . O O O $ O $ $ * $ $ % , $ , , $ % % , % $ ",
"< < 7 < < 7 1 1 1 5 1 7 1 4 7 5 7 7 7 9 9 8 e 8 0 B D ] {.gXB.] s.Y b s a a d a a i i a d d j d j M j M d j M j N j N N N N N u.N N u.N O.N O.O.L F x c ^ U.D ` W.aXVX_.N.} ! #.O.O.O.O.O.I O.K K O.O.K O.O.K O.K O.O.K K O.P u.K K O.K u.K K j K K O.K N K K u.N M N h j ( v 8 7 v $ . 1 m u 9 J +.w 9 9 w 9 w w w w 9 w w w w w 9 c w c c 9 c c b c c c c v m V V V b z V V V V V Z Z Z Z Z C A k.!.'.fXoXI.o.~ U.v 9 q E m Y Y G Y m G Y G Y Y Y E Y Y U Q U Y U E U E b., X . . O X O O @ $ = % $ # $ $ $ % $ , , $ , $ % $ ",
"< < 1 < 7 1 1 7 5 1 7 1 4 7 5 7 7 7 7 7 9 8 8 0 0 B B ` {.VXN.] s.G s n d s a i n n a j d j d j i M M j M N N N N N N N u.u.O.N u.O.O.O.O.O.O.@.L F c x ~ ~.D ] W.sXVX'.M.X.&.! &.! O.I O.O.O.I +.O.O.O.+.O.O.O.O.K O.O.K O.O.u.O.O.O.K K O.O.O.K u.O.K u.K K K K K K N M _ m 7 7 x $ X < s q 9 K @.9 9 9 w w 9 w w w w w w w w c c w w 9 x c c c c c m v c c c z V c V V V V V V V V V Z Z C S S k.Q.XXfXoXI.A / U.F 9 q +.m m Y G Y m Y G Y G m Y Y Y Y U U U Y E U U E s.$ O . . . @ @ @ @ O = = % $ , $ % $ , % % $ % $ , $ ",
"< < < 3 3 3 3 3 3 3 4 3 3 3 3 7 6 7 7 e 7 8 8 8 0 x D ` ^.fXB.S  .F s s d u d a a d a d d d j d M j j N N N N N N N u.K O.u.O.u.O.O.O.O.O.O.O.-.T m x c S ~.D [ W.aXgX'.N.| ! &.! @.O.O.O.! -.O.O.O.O.I O.O.I O.O.O.I O.O.O.O.O.O.O.O.O.O.O.O.O.O.O.u.O.O.u.O.u.O.N K K u.W Z 8 8 c ,   < n 9 9 K @.8 9 c 9 c 9 w w w w c w w 0 8 c x w w w c x w V V z c V V z c V w V V V V V V Z V Z C Z Z S S k.W.XXgXoXW.A ` B.Z 9 w @.F F Y m Z Y m Y m Y m / m U Y Y U U E Y Y Y W s.@ . . . X X > @ @ = # = # = $ * $ * $ * , $ $ $ $ , ",
"< < < < 3 3 3 3 3 5 3 4 4 3 7 5 7 7 7 9 9 8 8 8 0 0 B [ .XL.] { s.n d d p d a d a a j d d j j M j j N j j N u.N O.N O.u.O.O.O.O.O.O.O.O.O.@.@.@.R m c x ~ W.o.` !.aXgXXXm.X.&.Q ! @.I #.&.O.-.I O.I -.@.-.O.-.O.O.O.O.O.O.O.O.O.O.O.O.O.O.O.O.O.O.O.O.O.O.O.O.! O.K I K N W V 9 9 c , . < n b 9 P @.9 9 9 9 c 8 w 8 w w w w w c x w w w c c c c x c w V V x V w V V V V V V V V B Z V Z Z C C A D s.W.XXfXoXW.o.` U.V w w #.m F m Z m m m m m Y Y m U m m Y m U Y G Y Y U s.@ . . X X X X @ > # $ % = % * $ * $ $ * % $ , $ $ $ ",
"< < 1 < 3 3 < < 4 5 3 3 3 4 3 7 7 7 7 7 2 7 7 8 0 8 A P.A.Z x.n.) m s a a a a a d a d j d j N j N j u.N u.N N O.O.u.O.O.O.O.O.@.O.O.O.-.@.-.@.=.R m x c ^ W.A [ !.aXVX'.N.| &.Q #.I #.O.#.I I -.O.@.@.O.O.I -.O.O.@.O.O.O.@.-.O.O.O.O.O.O.O.O.O.O.-.O.O.-.O.O.O.K O.K K M Q Z 8 w x $   7 n u 9 O.@.9 9 c 8 9 w w w c w w w x w w c w c c c x c V c V c w w V V V V V B V V B V Z V Z C D C S S D k.W.'.fXoXW.A ` V.S w q #.F V m m m Z m m m m / m m m m Y Y m m Y Y m U s.@ . . . X X @ @ @ @ # = % % & % % & * % * % $ , $ $ ",
"< < 1 3 ; 3 1 4 3 3 3 ; 4 e 7 3 3 3 7 7 7 7 8 8 8 8 | <.z ] n.T f.Q i s a a a a k a j d j j j N N N N u.N u.u.O.O.O.O.O.O.O.O.@.@.@.@.-.@.@.@.#.+.m x w ^ ~.A ` ~.aXVX_.m.| &.&.#.#.I #.O.-.I #.@.O.@.O.@.-.O.#.-.O.O.@.@.O.O.O.O.@.O.-.O.-.-.O.-.O.@.-.-.O.#.O.O.+.O.I N ( Z w w B ,   6 M s u @.@.9 c 9 9 w w w w w w x w w c x q x w 0 c 0 c w B c z V B V B z B V V V B Z Z Z C V Z Z S S A S k.W.XXfXOXN.o.~ U.S q b =.F m Z c m m Z m c Z m m Y m m Y m Y m Y Y m Y s.O . . . X X > @ @ % = = % = % $ * % * & $ , $ $ $ , ",
"< < < < 3 3 3 3 3 3 3 3 4 e 4 5 7 7 7 7 7 2 8 8 2 7 w w { s.P Z.f.u i i n i i n a h h h j j N j N u.N u.u.O.O.u.O.O.O.O.O.@.-.@.-.-.@.=.-.@.=.=.+.G x c ^ U.A [ !.aXVX'.v...| &.-.! &.-.#.O.#.I -.#.O.@.#.O.O.-.@.@.@.O.@.-.O.@.-.-.@.O.-.O.-.@.-.-.+.-.! -.-.O.@.O.@.O.K W C c c Z $ . 9 N s p @.@.9 9 w 8 c w w w w w w w c w 0 V V 0 c c x V c B c c V z V V V V B V D C Z Z Z Z C S S S S A o.k.Q.'.gXOXW.A ~ U.W q H *.F F m m c c Z c c m m m Z m m Y Y m Y m / m m s.+ . . . X X @ @ @ @ # * % = % $ & * , $ * $ $ $ , @ ",
"< < < < < 3 3 3 3 3 4 3 3 3 3 3 3 2 2 7 7 7 7 7 7 2 0 s.c.T A.5.u i i i i i i i a j j j j N N u.u.N u.u.u.O.O.O.O.O.O.@.@.-.@.-.-.@.@.=.#.=.=.@.O.m x x ^ W.A [ !.aXVX_.C.| <.&.&.&.&.#.#.#.#.#.I #.#.-.-.#.#.#.#.O.-.O.@.O.O.-.@.O.-.-.@.-.#.-.-.#.@.@.-.#.&.#.#.+.#.$.O.W ~ x v Z , . u N d s %.+.w w w 9 9 c w 0 x w x w B x c w 0 w c x B c z V V B B V B B B B Z Z Z V V C C C S C C A A A S k.W.XXgXoXN.D ` Y.W b G 6.F V / c Z m m m Z m m F c m m m m m m m G G m ' O . . . X X X @ @ = # = * = $ * % * $ * $ , , $ $ $ ",
"< < < < ; 3 3 3 3 3 3 3 3 3 4 4 3 7 7 2 < 7 7 2 2 < q { ( Z.5.y i i i a i i i M j j j j j N j u.N O.O.O.u.O.O.O.O.-.@.-.-.@.-.#.=.=.=.-.-.%.=.*.@.@.c x ' U.D [ ~.aXVX'.B.S.1.:.&.&.&.&.#.#.#.#.O.#.O.#.#.O.-.#.#.-.#.@.@.@.@.@.-.@.-.-.#.-.-.-.#.#.#.#.-.&.&.-.&.&.&.%.:. .{ / / C , X b N h d =.%.9 w 9 9 8 c c w w w w c V w c 0 c V 0 z w V B V V B V B V Z V Z Z C C Z D S C S S A A / ~ ^ o.a.W.oXVXoXN.D ~ Y.( T Q 8.F Z m m v c c Z c Z Z Z m m m m Z Z m / m Y Y s.X   . . X X X @ > = = * = * % $ * $ * $ $ $ , $ $ $ ",
"< < < < ; 3 3 3 3 4 3 3 3 ; e l 3 3 3 3 7 , , 7 2 , s Z c.3.y a u i i i i a i j d j j h N u.u.K u.u.O.O.-.O.O.-.-.-.@.-.-.-.=.=.@.@.=.=.=.=.7.q.R $X8X:.^ N.D ` !.sXVXoXW.V.D.w.<.*.&.&.&.#.#.#.#.#.&.#.#.#.&.-.-.#.#.@.-.#.-.#.@.@.@.@.#.#.#.#.#.#.#.#.-.&.&.&.&.&.<...B.I.Y.c.' ^ 2 O b O.d -.*Xt.c 8 c c 8 c w 0 c x w x 0 V B V 0 V V V V B V B V V B V B C Z D C Z C C S C S C A A A ~ A o.a.N.].oXgXOXN.D o.Y.1.:.X.e.U c Y Z Y m Z c m Z m c m Z Z m m m m F F F F  .X   . . X X > @ @ @ # $ # $ $ * $ * $ , $ , $ $ $ , ",
"< < < < < < < 1 4 3 3 3 3 3 3 3 , 7 7 < 7 < 7 , < , s U :.a i i t i i i i n j i j j j j u.u.u.O.O.O.O.O.-.O.-.-.-.#.-.-.-.-.-.%.=.=.=.=.6.0.7.d.M.x.S.;XA.N.B ` W.aXVXgX+X(.W.H.S.6.>.&.&.&.#.#.-.&.-.-.&.#.#.-.#.#.-.#.-.-.#.-.@.=.#.#.#.#.#.#.=.#.&.&.&.&.&.| :.5.c.W./.'.sXdXL.k.8 , F >.=X6X3X=Xr.+.w w w c 0 w c 0 0 c B w w w B V B V z V B V B Z C V C Z Z Z C C A S C A A A A ^ A ' [ M.W.].XXfXgXXXm.B A L.c.V.|.G...} V Z V m V V Z c Z m m Z m c c m m / m Z m _ X . . . X X O @ @ @ # $ $ % % , $ % % $ * $ $ $ , $ ",
", < < < < 7 7 < 3 3 3 ; 3 3 3 3 7 < < 7 < 7 , 7 7 , s m d k u u t i u i i i i j j j u.N u.u.u.u.O.O.O.O.-.-.-.-.-.-.-.=.=.=.=.=.=.=.>.7.9.f.v.).`.W.[ { H.[ e D z.~.@XgXVXfXoXW.#XA.r.;.*.<.&.*.&.&.&.#.#.#.#.#.#.#.#.#.R #.#.#.@.@.#.#.#.#.#.%.&.&.#.&.&.&.*.1.c.C.W.(.+XgXCXgX'.z.8 2 ' 6X7X=X=X*X=X$X7.H 0 w w x x c c 0 c x V B w B V B V B Z C V D Z C Z C A C A S C A / ~ A ^ ~ ~ ] z.W.].'.aXgXgXOXQ.[ B D ~..XyX7X=Xw.5...Y V V V V c m c Z c c Z Z Z Z m c / m Y s.O . . . . X X @ @ = $ # $ $ $ $ % , % , $ * , $ $ $ ",
"< < < < < 5 1 < 3 3 3 3 3 3 3 3 < < < < , 7 7 , , , n / a.( k i i i i i n i M N j N N u.N O.u.-.O.O.-.-.-.-.-.-.=.=.=.=.-.=.=.=.=.0.0.h.b.Q.`.'.~.W.n.3.s 2 0 D D [ W.'.dXgXgXaX`.W.V.$Xt.<.*.*.&.&.&.&.#.#.&.#.#.#.#.#.&.#.#.#.@.#.#.#.#.#.%.%.&.&.&.&.&.1.p.C.I.].oXfXVXgXOX(.l.x 8 2 0 Y e.*X*X*X*X*X*Xj.<.V 0 x w c w V B w z V V B B Z V B C V C Z Z C C A A S A A A ^ A ~ ~ ~ ` l.W.!.(.OXgXVXsXXXW.[ D 0 8 ~ V.&X=Xr.#.J W  .( Z V Z m Z / m m Z m Z Z m m m m m m s.O .   . X X @ @ @ @ $ = $ % % $ $ $ $ % * $ $ , $ , ",
"< < < < < < < < ; 3 3 3 3 3 3 3 3 3 < , < < < , , , d M / a.s.J i i i s i j k j j N u.u.u.O.O.O.-.-.-.-.-.=.-.=.-.=.=.=.*.=.=.8.i.h.d.I.).'.Y.B.n.G.O., = 2 C Z.k.o.` C.~.oXfXVXgXOX].N.H.j.8.*.*.*.*.*.&.*.=.&.#.#.#.&.&.-.#.#.%.#.#.%.%.%.%.%.&.&.<.<.p.b.N.W.XXaXgXgX+X'.N.[ D B ' S $ @ 2 Q $X*X=X*X*X*X$Xe.Q c w x x z c B B B V B V B C Z Z C C A A C / S A A A ^ ~ ~ ~ ` ` a.N.!.].oXsXVXgXOX(.m.[ D A o.e X 2 A } &.J F ` [ [ { ( Z Z m Z c Z c Z c m Z / c / c m ' X   . . X O > @ @ @ = # % $ % % % $ % $ $ * $ $ $ $ ",
"< < < < < < < 5 3 ; 3 3 < 3 3 < 3 3 , 3 < < , , , , 2 c U P s.M.s.n i i i j j j j N u.u.u.-.O.u.-.-.-.-.=.=.=.=.=.*.=.=.=.6.q.0...m.!._.T.V.n.A.*.3 O @ 2 A.ZXvX}.U.[ o.k.N.`.+XgXVXfXXX].B.A.UX1.<.*.&.*.&.&.*.#.*.#.#.#.*.-.&.#.#.&.&.#.&.*.&.>.>.5.c.m.W._.aXgXgXsXXXW.k.` D ] V.hX&X1.2 . X , :.%X*X=X*X*X=XD.4.! B w B V z w B B V D Z Z C C D C S A A C A ^ ~ ~ ~ ` ~ ` ] m.Q./.'.aXVXVXsX'.N.k.o.o.k.U.rXZ.8 O . l D S k.m.m.v.[ ] { ( c Z Z V Z c Z m c m Z Z m m s.X .   . X X X > > @ # # % $ $ $ $ $ $ $ $ , $ $ $ $ ",
"< < < < < < < < 3 3 3 ; 3 3 < 3 < 3 2 3 , 7 < 7 < < < 7 C ^ Q s.I.M._ j j j j j N u.u.u.O.u.-.-.-.-.-.-.=.=.=.=.=.=.y.;.q.i.4.x.Q.`. XL.n.n.2.u O X $ Y 0XJXKX6X*.H._.m.` ` z.Q.XXsXgXgX+X_.W.#X$Xq.*.*.*.*.*.&.*.&.*.&.&.&.&.&.&.&.&.&.&.:.<.<.<.c.B.W.].+XfXgXfXOX].m.a.o.[ B.+XJXGX1.7.3.q X   O w 3.=X*X*X*X=XF.G.2.F V B z B V V B B C C C C S C A A / ~ ^ ~ ~ ~ ~ ~ ] l.I.!.(.+XfXVXfXoX!.C.[ o.k.W.@XZ.7XcXb.v $   > 0 [ m.M.m.m.a.` a.{ / c V F Z m Z Z Z m Z Z Y / . . . . X X @ @ @ = = @ % = % % % * $ $ $ $ $ , $ & ",
"< < < < < < < < ; 3 ; 3 3 < < < 3 3 - 3 , < , < , 9 b c , 0 ~  .s.b.).b.P j u.N u.u.O.O.u.-.-.-.-.=.-.y.-.=.=.y.=.;.9.r.w.p.N.`._.L.A.c.d.s o   . 0 K.ZXKXHXKX1X! H X.Y.^.k.o.[ m.].OXgXgXfXoX].W.H.S.8.&.*.*.*.*.&.&.&.&.&.&.&.&.&.&.&.:.:.<.c.B.W.].oXfXVXgX+X(.m.k.` [ z. XVXKXKXZX8.=.K &.F ,     $ Y G.=X=X*X*X&XG.A.| Z V V V B Z Z C C C A S A ^ ~ ~ ~ ~ ^ ~ ` ` k.N.!.!.oXsXgXfX+X(.m.k.o.[ N.XXgXDXG.D.vXT.Y.~ &     @ B k.M.m.v.l.[ ] s.^ Z V Z Z c Z Z Z Z m Y / O . . . X X O O @ @ = $ = % % $ $ , - $ , $ , & $ & ",
"< < < < < < < 1 3 3 3 3 3 3 3 < < - 3 < < < < , < 7 5XuX/ , , v / d.s.I.M.d.N u.u.u.O.O.-.-.-.-.=.-.=.-.y.y.-.y.t.i.q...v./.`.Y.Z.c.x.Z >     , g.hXJXHXHXCXKX;XF F H J c._.I.[ o.k.N.'.aXgXgXsX'.].#XK.r.3.<.*.&.*.&.*.*.*.&.&.&.*.<.&.<.5.V.U.!.'.aXgXVXsX'.N.k.[ o.C.^.sXJXJXHXKXnX3.*.I g L / 0 X   . 2 ) D.=X=X*X=XD.A.c.) Z C C C C A S A A A ~ A ^ ~ ~ ` ` ` a.m.!./.'.aXgXgXaX_.N.l.[ ` z._.fXJXGXLXF.S.zXT.{.Y.x.0 .     = A l.m.l.l.k.` ] s.( V Z Z Z m Z Z Z Z / X . . . X X O @ @ > = $ # = $ % $ % $ % $ $ $ $ $ $ ",
", < < - < < < < < 1 7 < < 3 < 3 < < < < < < , < < 7 qXGXyXf.v @ 8 ~ {  .x.I.v.( u.-.-.-.-.-.-.-.y.=.=.y.*.=.8.q.i.3.x.Q.`.^.A.f.s.] , .   O _ eXCXCXCXCXHXKXBXS.! c F b g W V.(.v.` ` C.!.oXsXgXgX@X(.W.V.D.t.1.>.&.*.&.&.&.<.&.:.:.<.5.c.B.W.(.@XgXgXsXoXQ.C.k.] a.U.+XCXKXJXJXJXKXMXe.UX+.L H m Q Z 2     . x 2.D.=X$X=X*XA.n.p.W Z A C A S A A ^ ~ ~ ` ` ` ' { z.W.!.(.+XfXgXsXXXW.C.[ ` k.W.+XHXKXGXGXJX6Xe.6XR.Y.{.^.V.a.$ .   . 2 ` z.z.z.C.a.[ [ ] S F Z Z Z Z Z Y ^ X . X . X X X @ @ = @ = > % = # $ * $ * % $ $ $ $ $ ",
"< < , - < < < 1 < < 1 < < < 1 1 < < < < < , < < 7 7 tXcX<XpX0X/ , $ x ~ ' X.B.I.a.L -.y.-.-.=.-.=.=.=.=.y.9.i.7.c.W.]._.L.A.x.a.0 . . . c P.VXHXCXBXHXJXBX-X$.P %.R V q b g d X.Y.~.z.o.[ M.].OXfXhXfXoX/.U.H.S.w.<.1.<.<.*.&.<.&.<.c.B.W.].oXfXVXfXOX].m.[ ` [ M.oXVXKXJXHXHXJXKXuX4.T D.;X>.n N N m ( C $     & Z G.&X&X&X*XF.n.n.X.W ^ A A A ~ ~ ~ ~ ` ` ` k.N.!.].oXfXgXfXOX(.m.[ o.[ m.oXVXKXGXFXGXJXGX>XY ( P.R.T.^._.^.v.C ,     X B [ M.W.N.m.[ ] s.{ Y Z Z Z Z Z / X     . X X X @ @ @ = = % = * $ * = = $ & % , $ $ $ ",
"- - ; < < < < 1 < < < < 3 < < < < < < , < - < < < 7 jXnX:Xh.<XiXH.0 X & v ~ _ s.I.v.^ O.y.y.-.y.=.y.y.0.q.t.Q m.!.(.L.A.c.a.v o . . x A.pXCXCXCXCXJXCX9X:.O.=.=.O.O.$.J q q q q b c.^.U.[ o.k.N.'.aXgXhXdX'.!.B.A.q.1.<.<.<.<.1.f.V.I.!.XXsXgXgX+X_.N.l.[ [ m._.fXKXJXHXHXJXKXMXF.T H d 9 1.>XS.Q m L m T / v X   X 0 } G.=X%X&X=XH.b.b. .^ ~ ` ~ ~ ` ` ` [ m.W.].'.aXgXgX+X'.N.k.o.` C.^.sXJXKXHXFXJXKXzXG.Z A C C f.,XE.Y.)._.U.a.8 .     & A m.!.Q.W.m.[ [ k.( V Z S Z ^ X .   X X X @ @ @ @ @ # = % $ * = * % $ $ $ $ $ $ $ ",
"< - < < - < < < < < 1 1 - 3 < < ; < < < < < < , < < >XKXeX:Xh.h.0XR.{ , . 8 / ' } c.I.z.! y.;.y.y.6.q.0.5.' ~ z.V.A.c.x.~ =     O _ eXBXBXCXBXCXJXuX3.K -.6.;.>.1.=.I R R V w b c w Z n.~.m.[ [ C.!.XXsXgXgX+X_.!.V.G.e.5.8.p.c.I.Q.'.aXgXgXsXXXN.C.[ [ l.^.sXHXJXCXHXHXKXCX>X<.G I J J H 9 g e.>Xh.M M L N _ / 0 X . & C f.F.&X%X$XG.n.m.c.{ ` ] ] ` { l.N.!.(.@XfXgXsXXXW.C.[ [ k.U.+XCXJXCXJXJXKXNX<X( C ^ ^ ^ S B S h.R.E.~.(.(.M.~ =     . e a.W.!.!.W.z.] a.s./ Y Y / X . X   X X X @ @ @ = @ = = # $ * $ $ * % $ , $ $ $ ",
"% - < - < < - < 3 < < < 3 < < - < < < < , - < < , < M -XBXeXj.h.3.g.R.L.B X O x ~ W X.B.I.a.+.6.0.i.w.n.M.l. .:.g.s.a.,     . c P.pXZXbXBXHXGXbXD.P @.6.;.;.;.;.;.;.y.@.I +.T q c w w q  .Y.~.l.o.[ m.(.OXfXhXfX@X].W.H.S.G.B.W.].OXfXgXfXOX~.C.[ [ k.U.@XCXKXHXHXHXHXJXtX4.! I I L J J H M s 7 M &X:X>.M N N E ( / 8 . O 8 s.g.F.=XF.F.V.W.B.p.{ { s.m.W.].oXsXgXfXOX!.C.[ [ [ N.oXVXLXKXJXFXJXKXuX5.C A ' ' ~ ^ ^ ^ / v _ :XE.^.)./.Q.v.C O     O D M./././.I.k.[ s.] Z W X . . X X X > @ @ @ @ % $ = * % * $ O , $ $ $ $ $ $ ",
"- - - - - < < < - < < < - 3 < 3 < < < < < - < , % < u r *.qXcX:Xg.:.:.G.R.c.2 . 2 v ^ _ c.U.m.{ >.f.I.!.b.d.5.s.a.x . .   , f.iXpXbXhXBXBXbX-X@.O.6.6.;.;.;.;.6.6.1.;.6.y.+.I &.n 9 9 c c m d.~.N.o.o.k.W.'.aXgXgXsXoX!.N.N.].oXsXgXgX+X(.m.k.[ [ m.XXVXKXJXHXCXJXKXcXF.Q I +.I P L L H J H H J b 7 1.;Xj.R m E P ) s.~ 2 O O v s.H.J.J.2X}.`.~.b.b.N.!.'.aXgXgXaX'.N.k.] [ C._.fXJXKXJXJXJXKXmXF.S ~ ' ' ' ' ^ ' ~ ' ~ ' / S g.0XE.~.).).I.a.2     . 2 [ Q./.`./.N.k.l.x.^ X .   X X X > @ @ @ = @ # = = $ $ $ , $ $ $ $ $ $ $ ",
"% - % < < - < 1 ; l < ; - < - < - , < < < < < < < < u i r i h.yXeXg.) R ) K.L.~ . o 2 C W ..V.W.M.).Q.c.g.c.a.x .   O $ d.P.iXeXiXpXbXZX9X:.u.=.6.;.;.;.;.;.;.>.6.;.6.;.;.6.=.P P R b c x c q S V.~.z.` o.l.Q.oXsXgXgXaX]._.aXgXVXsX'.W.k.[ ] z.~.sXJXJXJXHXHXKXSX<X<.E R &.I I I J J J J H H J M m 9 b h.-Xh.N N Q $.f.s./ $ $ e o.V.P.0X.XOXoX`.!._.+XfXgXaXXXW.C.` o.k.~.aXHXKXJXJXJXKXJXqX..~ ] ] { ] ' ' ~ ' ` ~ ^ ^ ' ^ C ( D.0XY.)./.(.I.` ,     o 0 m.`.`.`.(.v.k.[ . . . X X > > @ @ = @ = # # $ = % $ $ $ , $ $ $ $ $ ",
"- - < - - < < - ; ; < - < < - < - < < ; , - < < , < u i y i r N ;XcX-X) L L ) P.n.0 . O 2 C ) Z.B.V.A.c.l.A $     . v K.:XR.0XrXpXhXuXh.K =.6.;.*.6.6.;.6.6.6.;.6.6.;.1.6.6.;.y.@.N +.N 9 9 q q q  .Y.U.k.o.` m.~.+XfXgXfXfXVXsXoXW.C.[ o.k.U.@XJXKXJXJXJXJXKXuXe.Q R $.R I I I L I L H H J H H m m m b c E j.-Xg.E $.:.f.n.b./ = l o.C._.OX+X+XOXOXsXgXsXoX~.m.[ o.k.W.oXVXKXKXJXJXJXKXlXA.' { [ [ ] ] ' ] ] ' ' ' ' ' ` ~ ' ' ^ v d.J.R.^.).`.~.v.B X     = ] ~.`.`.`.z.~   .   X X X > @ @ @ = # = $ $ % $ $ $ $ $ $ $ , $ $ ",
"% - % - - - - < 3 - < - < l ; ; - < < < < - , < 1 1 i y k y i i y >.wXuXg.M M M g.T.d., . O x ^ f.Z.x.[ 8 . . O w f.K.K.K.P.E.pXyXh.+.@.6.6.;.;.;.6.6.;.6.6.6.6.;.6.;.6.;.8.1.;.6.*.O.I +.L 9 w c q b c.~.M.` o.[ N.'.aXgXfX+X(.m.[ ` [ m. XVXKXHXJXJXJXJXvXF.&.Q R I R I O.I I I H J J G H H ! G G H H F q w 1.2XD.<.,.2.h.K.T.C.z , v a.Q.'.+XsXsXfXOX'.N.k.[ [ C.'.fXKXGXJXJXGXKXmX2X} ` [ a.[ { [ ] ] { ] ' ` ' ' ' ] ' ` ' ] ^ A C g.:XE.U.).).I.s.x . . X x v.`.`.M.~ .   . . X X X @ @ @ @ $ $ % $ % % $ $ , , $ $ $ $ @ ",
"% % - - - - < - 3 - < ; - ; < ; - - - - % , - < < 1 i i y y y i i i a S.kX:XQ M M E L.L.C .   , ~ a.C O   . x f.H.g.g.g.h.0XiXj.@.u.6.8.;.6.6.;.6.6.6.6.6.6.6.6.6.6.6.6.8.;.8.;.;.6.;.*.K R +.b 9 9 s 9 U V.~.l.o.o.l.Q.'._.N.k.` ` C.XXgXKXKXJXHXJXKXmX2X<.! &.&.Q &.I #.! I I L I I H ! J J H G Y Y G Y Y F w s G.,XG.f.g.h.P.}.^.l.v 8 A v.(.oX+X'.!.z.] ` l.~.+XCXLXJXHXJXKXSX6XX.o.a.k.k.{ { [ [ { ] ] ] { ' ] ] ' ' ] ] ] ' ' ] ~ C / h.0XE.^.).~.v.] , X   $ a.~.m.~   . . X X O @ @ @ = = $ $ $ $ $ $ $ $ $ $ % $ $ $ $ ",
"% - - - - - - - - ; l ; < ; < - - < - - < < < < < < i i y k y i i i a y O.;XeXh.m n b f.L.d.,   O $ . . , ..g.f.,.g.g.h.0X:X,.N y.0.6.;.6.;.0.;.0.6.;.6.6.6.6.6.6.6.8.;.;.8.8.;.6.6.6.1.;.@.P +.R u 9 q s b X.Y.~.[ D ` k.a.` A a.~.sXJXKXHXJXJXKXHX1X3.+.#.&.I R +.I I O.I I I L J L L J G G G G G Y ! Y Y F W V w T F.0Xh.K.:X0XrX@X~.a.x B ` M.W.z.` A [ N.oXVXKXJXHXHXHXKXlXS.o.o.k.k.a.a.a.a.[ [ [ [ { { [ ] ] { { ] ' ' ] ] ] ] ' ~ / C ( j.0XT.).~.B.s.v O   . x a.A     . X X X @ @ @ @ @ # $ $ $ % $ % $ $ $ $ $ $ @ $ ",
"% % % - - < - ; - - ; ; - - < - - < % - - % - , $ < i y k y y k i k k k i i 8.eX:XE s 5 n f.n./ $ @ , _ f.f.$.,.,.g.K.:Xh.N =.0.;.;.;.;.6.6.;.0.;.0.0.6.6.0.6.6.8.6.8.8.8.;.8.;.6.6.6.;.6.6.>.+.+.:.P 9 9 q s Y A.}.b.D B D A m.@XCXKXJXHXHXKXJXtXG.Q &.&.&.#.I +.R O.R R I I I I L G L L ! L G T Y G U Y Y ! Y W ! F z 1.,X0XR.0XrXbXpXoXU.` x B ~ D A z.'.fXJXJXJXJXJXKXnXJ.} o.k.C.[ a.k.a.a.a.a.a.{ [ [ [ { [ { ] ] { ] ] ] ' ] ] ] ] ] ` ~ v f.:XE.Y.Y.V.d.' x .   O O . . . . X O O @ = @ $ $ % % $ $ $ $ % , $ $ $ $ $ @ ",
": % - - - - - - < - ; l - < - - - - % - < , - < < , i i i k y k k i k i j j k N -XeXg.n s < %.0X2 = Z K.f.m $.,.h.:Xj.O.O.6.6.;.;.;.0.;.6.6.6.6.6.0.6.6.6.8.0.0.8.8.;.8.8.;.8.8.6.6.6.6.8.6.1.6.%.N >.>.J 7 q q p Q qXL.0 B V.VXJXGXJXJXJXKXcXF.&.$.%.#.#.&.I &.#.I #.! R I I I I I ! ! G L G T ! U U U W Y W Y W W S ! w F G.rXiXeXpXbXZXfXoXb.D x ` ^.sXHXKXJXCXJXJXJX1X..` k.k.[ k.k.k.k.k.k.a.a.[ s.{ [ s.[ a.{ a.{ ] ] ] ] { [ ] ] ] ] ] ] s./ / f.0XT.n.f... .C 8 , . . . . X X O @ @ @ = $ $ $ # $ $ % % , $ & $ $ $ $ $ ",
"% - - % - - l ; - ; ; - < - < - - - < - % - - , - - i i i i k i i k a k k i i j k >.eXj.N h.K.n.2 = C s.h.g.f.K.h.@.O.;.6.;.y.0.;.0.;.0.0.6.0.6.0.6.6.0.7.8.6.6.8.8.8.0.8.8.8.;.7.6.6.6.6.8.8.6.6.6.@.+.e.1.f 9 g w.<XZ.l B H.MXKXJXJXKXNX>X>.+.&.%.&.#.R #.#.I I #.I I I I I I I I L L T T ! U T U U U ! W W W ! S W S S ! z ! K.pXpXhXbXBXCXiXo.2 [ hXKXJXCXJXJXKXyXh.' [ k.k.k.k.k.k.k.k.[ k.k.a.a.k.k.[ a.[ a.a.{ { s.] [ s.] ] ] ] ] ] ] ] a.~ ] ~ / G.:Xg.,.2._ C ) o . . . . X @ O @ @ @ $ = $ = % $ $ $ $ $ $ $ $ $ $ $ ",
"% % % - - - - - - - < - < - - - - - - % - < - - - 1 i i i k i k k a k k j j i k j i u.>.h.H.M.b.2 $ ~ ).M.g.%X>.,.6.6.;.6.;.0.;.;.6.;.0.6.0.6.0.6.0.0.6.0.6.8.0.8.8.0.6.8.;.8.8.6.6.8.6.8.6.8.6.6.6.8.>.I 1.S.t.&XP. .B @ 8 A X.0XCXJX5X1.&.#.*.&.&.#.&.#.#.#.I #.I R #.@.I R Q I I L T I ! U ! U ! U W U W W ! ! ( S ( ( ( S ! m f.0XVXCXpXK.( x l 0 X.2XZXJXKXmXJ.} { k.k.k.k.k.k.k.k.k.k.p.k.k.k.k.k.k.s.a.a.a.s.a.[ a.[ [ a.[ [ [ ] [ ] ] ] ] ` a.] ` A ..J.g.,._ v C T . . . X X X @ @ @ $ = $ @ $ % $ * $ $ $ $ $ $ $ $ @ ",
"- : % - - - < - < - - - - - < - < - - - < % < < % 1 i j i k k i k k a k k j j j j j j u._ s.H.f.2 & ` `.XXM.F =.8.6.;.;.0.6.0.;.0.6.0.6.6.0.0.8.0.0.6.0.8.8.0.8.0.;.6.8.8.8.0.8.7.6.6.7.6.6.1.8.8.6.6.6.;.&.&.S.Z.C Z V X 2 B c Z 5.j.I #.*.*.*.#.#.#.#.&.R #.#.R #.I #.I Q I I T T T T T ! T U Q U ! W W W W S S W ( W ( ^ } S W / Y K.,X| c ~ 0 X 8 W W | 2X1X| ` { k.a.a.a.k.k.k.k.k.k.k.k.k.k.k.k.k.k.k.k.a.k.a.a.[ a.a.[ s.[ a.a.[ [ a.] a.a.a.] a.[ ] ~ Z g.d.C 8  .4X+ . X X X @ O @ $ @ $ $ # $ $ $ $ % $ $ $ $ $ @ $ $ ",
"% - - - - - - - - - - - - - - - * - - * - - < - % ; n i k k k k j k k k k j j j j h j O.X.A.j.c.2 l [ '.OX!.' ;.0.;.0.;.0.0.8.8.8.0.8.0.8.7.0.7.7.7.0.7.7.7.7.7.8.0.7.8.8.6.8.8.8.8.8.8.6.8.8.1.1.8.6.1.8.1.6.m C ! S w X l z u 9 q #.*.&.#.*.#.*.#.#.#.#.#.#.&.&.O.R &.R &.I ! R Q R ! Q T ! Q Q ! W W W W ! } ! W } S S } S } _ } ^ / S c Z A 0 . 2 &.*.Q T W [ k.[ [ k.a.k.k.k.k.k.k.k.x.k.k.x.k.x.k.k.k.l.x.k.k.k.k.a.a.a.a.k.[ [ a.[ a.[ a.a.a.a.[ [ a.^ d.s.~ , Z f.;XO     X X @ @ @ @ = @ $ $ $ = * $ $ * = $ * $ $ $ $ ",
": % % - % - - - - - - - - - - < - - - - - * - , % < i j k i k j a k j j j j j j u.j j -...h.S.p.2 l [ '.+X~.{ ;.8.8.;.8.8.;.;.0.0.7.0.8.0.7.7.7.0.7.0.7.9.7.7.0.0.7.8.8.8.0.8.8.8.8.8.8.8.6.8.8.8.8.6.6.1.8.>._ S ! S w . $ w 6 6 p #.*.#.*.#.*.#.#.*.&.#.&.#.I #.Q #.! +.Q R R R R R Q ! Q ! T ! W W W W Q ( W } S W } } W } } ^  . . .^ B B ~ 8   l ) &.:.*.} [ { [ s.a.a.{ k.k.k.s.k.k.k.k.C.x.k.l.k.l.k.k.k.x.k.k.k.k.k.k.k.k.k.k.k.k.a.k.a.a.a.a.a.a.~ s.x.~ , Z ^ g.>XO   X X X > @ @ @ @ $ $ = = # $ $ # $ % $ $ $ $ $ $ ",
"% % : % - - - - - - - - * - - - - - - - - - - < % < j j k k k i j k j k j j j j j u.j O...S.S.p.2 l a.'.+X(.{ ;.0.;.0.6.8.8.0.8.7.7.7.9.7.0.7.0.7.7.7.0.0.7.0.7.8.8.0.6.0.6.8.8.8.8.8.8.8.6.8.8.8.1.7.6.8.1.6.( S Z S w   @ 9 r 6 p =.*.&.*.*.#.*.&.*.#.&.#.#.#.#.#.#.I R R +.Q Q ! Q ! Q Q Q Q Q W ! ( W ( W W } ! } } } } } } } } { ' ^ Z B ~ e   & Q &.&.>.} [ [ [ [ [ [ k.k.k.k.k.x.k.x.k.k.k.k.z.l.l.l.z.l.k.l.k.l.k.k.k.k.k.k.k.k.k.a.k.a.a.k.a.k.] s.b.A , v / A.,XD.O     X X @ O @ @ = $ @ @ # * $ $ % $ $ % $ $ $ @ @ ",
"% - % - % % - - - * - - - - - - - - * - * - - , % - j k j k j k k j j k j j h u.u.h u.-.5.F.=X..2 e k.oX+X~.} 6.;.0.8.0.0.0.8.0.0.7.7.7.0.7.0.7.0.9.0.7.7.0.7.7.0.7.8.0.8.7.7.7.7.w.8.8.8.8.3.8.8.8.8.w.8.8.1.Q S S S w   @ p 6 4 p *.=.*.*.#.*.#.*.#.&.&.#.&.&.#.Q &.&.&.+.Q R Q R R Q Q ! Q W W ! | W } Q } W S } S } } } o.} ' '  . .^ C C A 2   & Q &.&.*.| [ [ [ [ [ s.{ k.s.[ k.k.k.k.k.x.k.l.x.l.l.x.z.z.l.z.l.k.x.l.l.l.k.l.l.k.k.k.k.k.a.a.k.' a.x.~ & c S f.0X5X...       X X X @ @ @ @ $ $ $ $ $ $ $ * $ $ $ $ $ $ $ ",
"% : % - - % - - - * - - - - - - - % 1 % : - , % % ; M j k k k j j j j k j h u.j K u.K -.5.&X*XX.2 e a.'.aX(. .;.0.8.0.0.0.8.0.8.7.9.9.9.9.9.9.9.9.9.9.7.9.0.0.7.7.7.7.0.7.7.7.7.7.7.8.7.8.8.8.8.w.8.8.w.7.6.8.( S S ^ B . > 6 r t a >.*.*.*.*.#.*.#.*.&.&.-.&.&.Q #.&.Q &.Q Q Q Q Q Q Q Q W Q W ! | W Q ! } } ! } } } ^ } ' } {  . . .' ' C C ~ e   l Q &.&.&.X.[ ] { { { k.[ [ [ k.k.k.{ k.k.k.k.x.k.l.z.z.l.z.l.z.l.l.l.l.l.l.l.l.l.l.l.l.l.a.k.l.` s.l.~ $ c Z d.0X4X| ~ X     . X X > @ @ @ = $ $ $ $ # $ * * $ $ $ $ @ $ @ ",
"% % % % % - % - - - - - - - - * - 1 % - - - % < % - N k j j j k j j j j j j u.N u.K K =.5.&X;Xp.2 e k.XXaX~.{ 8.8.0.8.7.8.0.0.0.7.9.7.9.9.7.9.q.9.9.9.7.9.7.7.0.7.7.7.7.7.7.7.7.7.7.7.8.7.8.8.8.6.8.8.8.8.w.6._ ^ W ( c   > 6 u t d y.&.*.#.*.*.*.#.#.*.&.*.&.-.&.&.&.Q &.&.&.Q &.Q Q Q Q Q Q Q | ! ( ( } ! } } } } } } } } } }  . . .' ' A C / 2   = Q &.&.*.| ] ] [ ] [ { { [ k.{ k.[ k.k.k.k.k.k.z.x.z.x.z.z.l.z.z.z.z.l.z.z.z.l.z.l.l.l.l.l.l.] a.z./ , c v d.R.>X_ ~ ` .     . . X X > @ @ @ @ $ $ # = $ $ $ $ $ $ $ $ @ $ ",
"% # % : % : - - % - - - - - - - - - : , : , 1 < : - u.j k j k u.j j j j j u.u.u.u.O.O.*.5.-X*XX.2 e [ XXaX(.{ 8.0.7.7.7.9.0.8.0.9.9.0.w.9.9.0.0.9.0.0.0.9.0.0.7.0.7.7.7.7.7.0.7.w.7.8.8.7.8.7.8.8.8.w.6.8.w.6._ ^ ^ ' V   > 6 i u j ;.*.*.&.*.*.*.&.#.*.*.&.&.&.&.&.&.&.Q Q &.Q Q Q Q ) Q W | W ! ( ! | | } } } } } } } } } { X.{  . . .' C C ~ 2   l Q &.&.*.| ] ] ] { { [ [ [ { { k.k.[ k.k.k.k.z.l.z.l.z.l.z.l.z.z.l.z.z.z.z.z.z.z.z.z.l.l.z.[ s.b.' 2 v v _ R.4Xf.~ ] ` .     . . X X @ @ @ @ @ # # $ # * % $ $ $ $ $ $ $ @ ",
"% : % % - % - % - - - * - - - - < % < : < : < % : : u.j k j j j j j j u.j u.K O.O.O.-.y.5.&X*XX.8 e a.'.aX(.{ 8.7.0.9.9.9.9.9.0.9.0.0.9.9.9.7.7.9.h.7.0.h.0.8.7.9.7.7.7.7.7.7.7.7.7.8.7.7.8.8.8.w.8.8.8.8.7.6.( ' } ' B   X 6 i a u.;.*.*.*.*.*.*.*.*.*.&.*.*.&.&.&.&.&.&.&.Q :.) &.) Q ) | Q | | | } ! } } } } } } ' } { } } {  .{ { ' { / A ~ 2   l &.*.&.*...' ] ' ] ] { { { [ [ [ [ [ k.[ k.k.k.k.k.l.l.z.l.z.z.z.z.z.z.z.z.l.v.z.z.z.z.z.s.[ b.' 2 x Z d.P.9Xf.] a.] ` .   .   . X X > X @ @ = = @ $ = $ = $ $ $ $ $ @ $ $ ",
"% # % : - % - % - % - - - - - - - % 1 % % - - % % < N j k j j j j j j u.u.K u.O.-.-.=.y.5.J.*XX.e e k.XXaX~.{ 7.0.0.0.t.t.0.t.9.9.9.9.9.q.q.9.j.q.q.9.9.t.9.9.7.7.7.7.t.7.t.7.7.7.7.8.8.7.8.w.8.8.8.8.w.8.w.6. .' ' { c   . t j j u.;.*.1.*.*.*.*.*.*.*.*.&.*.<.*.&.&.&.&.&.&.&.&.) Q ) | ) | W ! | } ! } | } } } } } }  . . .{ {  .{  .] S S A 2   & &.*.&.>.5.` ` ' ] ` ' ] ] { ] { [ [ [ [ k.k.k.k.k.l.l.l.l.z.z.z.z.z.z.z.z.v.z.z.v.z.v.[ a.b.' 2 B / _ R.eXg.] a.a.] ] . .   . . X X O O @ @ = @ @ # $ $ + % $ $ $ $ $ @ $ ",
"% : % % % % - - - - - - * - - - - - - - - - - , % ; u.j j j u.k j u.u.u.K u.O.-.-.=.=.;.5.J.F.X.e e a.XXaX(.[ 0.0.t.0.t.9.q.0.q.9.9.q.9.q.q.q.q.9.t.q.q.9.9.9.9.7.9.7.9.7.7.7.7.w.8.7.7.7.8.8.8.8.8.8.8.8.8.6._ s.{ s.v   X i j K -.8.*.*.*.*.*.*.*.*.*.*.<.*.&.<.&.<.&.| &.| | &.| | &.) ) | | | } | } } } } }  . . .{  . .{ X. .s. .{ { S A ~ 2   & :.>.>.6.| ' ' ' ' ' ' ' ` ] ] ] [ [ [ a.a.k.[ k.k.k.l.l.l.z.z.l.z.z.z.z.v.v.v.v.z.v.k.[ b.' 8 B V / R.5Xg.a.a.a.a.a.~ .       . . X X O O > @ # $ $ # $ $ $ $ $ $ $ @ $ $ ",
"% : % : - : % - % - - % - - - - - % % - % - - % % 1 u.j j j j j j u.u.u.u.O.-.-.=.y.6.;.5.J.F.X.e e k.XXaX~.{ q.t.0.t.t.0.9.t.9.q.q.q.q.q.q.q.q.9.q.9.t.t.q.9.t.9.7.7.7.7.0.7.7.7.8.7.7.8.8.w.8.8.8.8.w.8.w.1._ k.{ s.B   X k u.O.-.8.<.*.>.*.*.*.1.*.<.*.*.<.*.*.&.<.&.&.&.| &.| &.| ) ( | | Q } | } } } } | }  . . . .{  .X.{ { s. .{ { S S ` 2   $ &.y.1.6...' A S ` ` ' ` ' ' ' ] ] { [ [ [ [ k.k.k.k.k.k.l.l.l.z.z.z.z.z.v.v.v.v.v.k.] z.{ 0 v C Y R.eXg.a.a.a.a.a.a.' .   . . . . X @ O @ @ @ $ @ $ $ $ $ $ $ $ * $ $ $ O ",
"% % % % % % - - - - - - - % - - - - - - - - - - % 1 u.j j j j j u.u.u.u.-.-.=.y.;.8.0.7.5.K.F.X.e e k.oXaX~.[ 7.0.t.0.0.0.t.q.0.0.q.q.0.q.q.q.q.q.t.q.q.q.t.9.7.7.9.9.7.t.7.7.7.7.8.7.7.7.8.8.8.8.8.8.8.8.w.8. .l.a.s.C   X a O.-.=.8.*.*.>.>.*.*.*.*.*.*.*.*.*.*.<.&.<.&.<.&.<.&.| ) | | | | | | | | | p.} } X. . . . .X.{ { X.{  .s.{  .W S ^ 2   $ :.1.1.8.5.' A ' ' ' ' A ' ' ` ' ' ] { { ] { { [ [ a.a.k.k.k.x.l.l.z.z.v.z.v.v.v.a.] b.{ w B C c P.pXg.a.a.a.a.a.l.a.'     . . . . X X O O O @ O $ $ O $ $ $ * $ $ $ $ $ $ ",
"# % : % - % : % - - - - - - - - - - - - % - % < % < O.j j u.u.u.u.u.u.-.-.=.y.;.0.9.9.7.X.K.D.d.e e [ oXaX].{ 0.0.t.0.0.t.0.q.0.q.0.q.q.q.q.q.q.q.q.q.t.9.9.t.t.7.t.t.7.7.7.7.7.7.8.w.7.8.w.8.8.8.w.8.8.w.8.6. .z.x.l.C   . j -.-.y.8.*.>.*.*.y.*.*.*.>.>.*.*.<.:.<.&.<.<.&.<.&.<.&.| | | | | | } | } } } } X.}  . .{ X.{ X.{ s.s.{ s. .{ W } S 2   l *.6.5.t.<.^ S ' ^ S ` S ' ^ A ' ' ` ' ] { [ [ [ [ [ a.k.k.k.l.l.x.z.z.z.v.z.v.x.] z.s.w C B c L.eXh.a.z.a.k.k.k.a.a.' O     . . X X X > @ O @ @ @ O $ $ $ $ $ $ $ $ $ $ $ ",
": # # % % - - % - % % - - % - % - % - % % - < % % - u.u.u.j u.u.u.-.-.-.y.;.0.0.q.q.q.0.5.H.G.s.e e k.XXaX~.s.0.t.t.q.t.0.t.t.q.q.0.q.q.q.q.q.9.q.q.q.9.9.9.9.t.9.9.7.t.t.7.7.7.7.8.8.7.8.7.7.w.8.8.8.w.6.w.6. .v.z.v.C   . j y.y.;.t.*.y.1.1.*.*.1.>.*.>.<.*.<.*.>.*.:.&.<.| <.<.| <.<.| | | | | | | X.X.X. . .X. .{ X.X.X.X.{ X.s.s.{ X.| Q ^ l   = <.8.8.t.5.S o.A S ^ S ^ o.^ ` ` ' ' ' ] ] { { { [ [ [ a.a.k.k.k.x.l.l.z.z.v.l.] l.{ x x C w R.pXh.a.z.a.z.l.l.l.l.a.] .     . . . X > X X O @ @ = O $ $ $ $ $ $ $ $ $ $ O ",
"% % # % % - - - - % - - - - * - - - - - - - - - % < u.j j u.u.u.-.-.=.y.;.0.0.0.q.q.q.0...H.G. .0 e a.XXaX~.[ t.0.0.t.0.t.0.0.q.q.q.0.q.q.q.q.q.q.q.9.9.9.0.t.t.t.7.7.9.7.7.7.7.7.8.8.7.7.8.8.7.8.7.w.8.8.w.6.d.m.m.M.C   . j =.y.;.t.*.>.>.>.>.*.>.>.>.>.*.<.*.*.<.<.*.| *.<.<.| <.| | | | | } | X.} X.| X.X. .X.{ X.{ { s.X.s.s.{ s.{ X.2.<.( &   = >.w.t.t.5.^ S S ^ S A ^ S S ^ S ' ' ` ' ` ` { ] { [ [ { a.a.k.k.k.k.l.z.z.k.] x.{ x x B 0 K.pXh.a.a.z.a.a.l.l.l.l.k.' .     . . X X O O @ > @ @ @ $ $ $ $ $ $ $ $ $ $ $ $ ",
"# # % : : % % - - - - - - - - - - % % - - % % 1 % < O.u.u.u.O.-.-.y.;.;.0.0.q.q.q.q.q.0.5.V.G.s.e e a.oXaX~.s.0.0.t.q.0.0.t.q.0.0.q.0.q.q.9.q.q.t.q.t.q.t.9.0.0.7.t.t.7.9.7.7.7.7.7.8.7.8.8.8.8.w.6.8.8.w.8.;.d.I.M.M.A     u.;.;.0.t.y.1.y.>.y.;.>.>.>.>.y.>.*.*.<.*.<.*.<.<.&.<.| <.| 5.| | | | X.| | X.X.X.X.X.X.X.X.X.{ s.X.s.d.s.{ d.3.2.( &   = <.t.t.q.<.S S S S S S S ^ A ^ S A ^ ~ ' ' ' ` { ` { [ [ a.a.a.k.k.k.l.l.k.' k.{ x 0 x 8 K.pXG.a.z.v.a.v.l.l.l.z.l.k.] .       . X X X > > > @ @ @ O $ O , $ $ $ $ $ $ $ O ",
"% + % : % % - % - - - - - - - % - % - * - - - * # - -.u.u.u.-.=.y.;.0.0.0.q.i.0.q.q.r.0.5.n.A.d.2 2 [ XXaX(.s.0.q.0.t.0.0.t.0.q.q.0.q.0.q.q.q.q.9.9.9.9.9.7.9.t.7.9.t.7.7.7.7.7.7.8.w.8.8.8.8.w.w.8.w.7.8.w.;.X.W.N.W.A     u.;.;.q.q.*.1.y.>.;.y.>.>.>.>.>.>.<.<.1.<.1.:.<.<.<.<.| 5.| | | | | X.| X.X.X.X.X.X.X.X.s.X.s.X.s.s.s.s.X.{ d.e.e.| l   = 1.r.r.i.<.o.S S S S S S D S S A S ^ ' ' ' ` ' ' ] ] ] [ [ [ s.a.a.a.k.a.' { ' B x x 2 Z.yXG.[ l.l.z.l.l.l.l.l.l.l.l.] .     . . . X X O O O @ @ @ = @ # $ $ $ $ $ $ @ $ @ ",
"# % # # : : % - % - % - % - - - - - - : % - * - - ; O.u.O.-.y.;.0.0.0.q.q.q.q.q.q.q.q.0...n.A.s.2 l a.XXaX(.{ q.q.0.0.0.t.0.9.t.q.0.q.q.q.q.q.q.q.9.t.9.9.7.9.7.t.7.9.7.7.7.7.7.8.7.6.8.8.7.8.7.8.7.7.7.8.7.6.c.Q.W.W.A   o u.8.0.q.t.1.1.1.>.>.1.>.1.>.<.>.>.*.*.<.*.<.<.<.<.<.<.<.| 5.5...5.X.| p.X.| X.X.X.X.{ X.X.{ X.s.s.X.X.k.x.{ c.e.e.<.l   = 1.r.UXUX<.S ! S ! S S S ! S S S ' S S S ' S ' ' ' ' ] { { [ [ a.a.a.a.' } ' C 0 0 l ..uXG.[ z.k.k.k.l.l.l.l.l.l.z.l.' .       . . X O X @ @ @ @ @ @ # $ $ $ $ $ $ $ $ @ $ ",
"# # % % % % : % - - % - - - - - - % - - - - - % # 1 u.u.-.y.0.0.0.0.0.0.q.q.q.q.q.q.0.0.X.n.A. .& l ` '.aX~.{ 0.9.0.0.9.0.0.9.q.0.q.0.0.0.q.q.q.9.9.9.9.t.0.7.0.7.7.7.7.8.w.7.7.7.7.8.8.7.7.7.7.7.7.7.7.7.w.6.c.Q.W.Q.A     -.0.t.i.t.1.1.;.1.>.1.>.>.1.>.>.*.1.<.*.<.<.<.<.1.<.2.2.2.2.| | p.| p.| p.| X.X.X.X.c.X.{ X.X.{ p.k.X.{ x.{ c.r.r.5.l   = 3.UXUX=X<.S S ! S S S S S S S S S S S ' S ' ^ ' ' ' ] ' ] ] { s.[ a.^ ^ ] A x x $ f.9Xj.` k.k.k.z.k.z.l.l.l.l.l.z.l.{ .     . . . X X O X > @ @ @ @ = = # $ $ $ = $ $ $ @ ",
"+ % + % % : - % - % - - - % % - - - % - - % - % % 1 -.-.;.0.0.0.0.0.i.0.0.q.q.0.q.0.q.0.r.n.c. .= @ ~ XXsX~.{ 0.q.9.t.q.t.q.q.q.q.q.q.q.q.q.q.q.q.q.9.9.9.0.9.0.9.t.t.7.7.7.7.7.7.7.7.7.w.7.w.7.7.w.7.w.7.8.6.c.!.Q.!.A   . -.q.q.UXt.1.6.1.;.1.;.1.;.1.>.1.<.1.1.<.1.1.1.1.<.2.<.5...2.p.<.| p.| X.X.p.X.p.X.X.X.X.x.X.x.x.p.s.x.s.s.{ x.G.e.5.&   @ w.UXUX=X<.Z Z Z Z ! Z ! Z Z ! S ! S S S S S S S S ' ^ ' ' ' { ] [ ^ ^ ~ ~ C v $ ..uXS.' l.k.k.l.k.l.l.l.l.l.l.z.z.l.{ o   . . . . . X O @ > @ @ = = # @ = $ $ $ @ $ $ @ @ ",
"% # # % # % % - : % - - % - - - % - % - : % - - % - -.;.0.0.0.0.0.;.;.0.0.;.0.0.0.0.8.8.i.8XG.} = . D ~._.m.' 0.0.0.0.8.7.;.0.8.0.;.8.;.;.0.0.;.7.7.;.8.8.0.8.8.7.7.8.8.6.6.6.6.6.6.6.6.8.8.6.6.6.8.1.8.6.1.6.<.c.B.~.A   . y.=X=X=Xt.y.1.y.1.1.1.<.1.>.1.*.<.<.<.<.<.<.<.<.<.<.2.<.| <.| | ..| | X.X.....X.X.X.X.X. . .|  . . .X.X.X.} d.B.B.c.2   = r.=X=X$X5.' } } ' ' ' } ' ' } { '  .' { { { { { { { { { { s.{ s.^ Z ` ` A 0 o <.qXUXQ { { a.{ s.[ { [ s.{ [ a.a.[ d.g.    . . . . X X > X @ @ @ @ @ = @ = $ $ $ $ @ @ $ @ ",
"+ % # # % : - % % - - % - - % - - - - % - % - % - @ j 0.;.;.y.;.;.0.;.;.0.0.0.;.;.0.0.8.8.0.UX-.    6 s.[ ` ( 0.0.8.8.0.8.0.0.;.0.;.;.0.0.;.;.0.;.0.0.0.0.8.0.;.;.;.;.;.6.;.y.6.y.y.6.;.y.;.;.y.>.y.y.1.>.1.1.| W ! 5.O.    ;.i.t.8.;.;.8.6.;.6.6.6.1.6.8.7.7.8.7.1.8.8.3.1.8.5.2...X.X.X.X. . . . . .{ X.{ { { { ' { ' ' ' ^ ^ ^ ^ ^ ^ ^ } k.x.&   - UXw.} [ a.k.k.k.k.k.k.a.k.[ k.k.k.k.k.k.k.k.l.k.k.k.k.k.k.k.k.k.` ` ` ~ 2   1 >XA.a.l.x.k.k.k.k.k.k.a.a.k.a.s.a.a.X.V   X . .   . X X X @ X @ > @ @ = = % $ O $ $ $ @ $ @ ",
"# % # % # % - % % % - % - % % 1 - * : * - - - % % % + o o o   . o o o o o   o o . o o o o o o o       + X . X o o o o o o o > o o o o o o o o o o o + + o o o . o o o . o o o o o o o o o o o o o . o X . o . . + o o o     .   o o = > o o o o o o > > o + + o o o o o o > > > o o > o @ @ X O > > X > X > X O X X X X X X X X . . . . . .   .       o X X X . . . . . X   o       X     X .   . . o     .     .   . . . . .       . X O O X X X X > o . X X X O X . X X     X .   . . X X X @ @ > @ @ @ # = @ $ $ $ $ $ $ $ O ",
"# + # # % # : % - : - - - % - % - : - - % - % : % : % .                                                                                                                                                                                                                                                                                                                                                                                                                   . .   . . . X X X X O > @ @ @ @ @ = @ $ O $ O $ $ $ O ",
"# # # % % : % % % - - - : % % - * : % - : % % - % % % O .                                                                                         o                                                                                                                                                                                                                                                                                                                     . . . . . . . . X X X O O @ > @ @ @ @ @ O $ $ @ $ O $ $ ",
"# # # : + % % : % - % - % - : - * - - * * % % : - % % # O                                                                                                                                                                     .                                         .     .   . X       X       X   . . . . .   .     .   .     X   X   .   X   . . X                     .   . X     X   X .       . . X   . . .   . . . .                                       . . .   . . . . . X X X O O o @ @ @ # @ $ @ $ @ $ @ $ $ O ",
"# # # # % % % % % % - % - - % - : % : : - % - % * % % % # X                           o   o                                               o                 o     .     .       .                   .               .         . . .           . .     .     .   .   o . X   X .   X   X X   X . X   . . X   . . .   . X   X X X   X X     X X   . .   X X .         X   . . . X X     X     . . . . . .   X   X . . . . . .     . . .                           . . . . . . . . . . . . X X O O O O > @ = @ $ $ @ @ $ @ $ O O $ ",
"+ % # % + % % : : - % - - % - % * - * - % : - % : % % % # O X             o     o             o         . o .                     o                       o .   .     .     .     .     .   .         . . .       .           . . X .   .   .     . . . . . . .   . . .   X   . X   X     X       X . .   X . . . . . . X   X   X   X . X     X .   . . X X X X X X   X X   .   . X . . X . . X . . . X X . . . X . . . . . . . .   . . .                   X . . . . . . . . . . . . . X X O O @ @ @ @ @ @ O $ @ $ @ $ $ $ $ O ",
"+ % + % % : % % - : % - % - - % % % % % % - % % % % # % % O X .             o             o             . o . o           o           o           o         . .           .   .   .   .   .   .   .           .   .   .     . . X O X . .     .   . .   . . . . X . . . . .   .     X   . . . . X . . . . . . . . X . . . X .   . X   . . . . . . . . X X > X X X .   X   X   X   X   X . . . . . . X . . X . . . . . . . . . . . . . . . . . .   .   .     X . . . X . . . . . . . . X X O O O O O @ @ O $ O $ @ @ $ O O $ $ O ",
"# + % # % # % : % - - % - - % % - : - % : % % % - % % % % # + X .                     o                 o X X X o .             o .     .       .                 . .         .     .   .   .       .   .       .       . . . X X o @ X X . X   .     . . . . . .     . .   . .   X .     X . .   . . . . . . . . . . . X   . X . . X . . . . . . . . X X X > X X X . X X   X . . . . . X . . . . . . . X   X . . . . . . . . . . . X . . X . . .   X   X X     . . . . . . . . . . . . . O X @ @ @ > @ O $ $ O $ O $ $ $ $ O $ ",
"# # % # % % % - % % % - : % - : : % - : % % % : # % % % % # O O o .             o   o               o   . X O o o X . .   .   o           .   o o   o     .   . .   . . .       .   .       . . . . . .   . . . .     .   . . o O O > O X X . . . . . . . . . X X   . . X . . . X . . . X . . . . . X . . . X . . X . X X X X X . X X . . . . X . X X X X @ > > X X X X X X . . X . X X . X X . X . . . . X . X X X . . . . . . . . . X X X X X X X . . X . . X X . X . X . . . . . O X O O X O > @ @ @ $ @ @ $ @ $ $ $ $ $ $ $ ",
"# # + % + + % % % : - % - % % % % % % % % : % - % % % # % # # O + . . .     o             o   o o     o X X O X O o o o . o       o   o . o   o .   o   . . o . o   o   o . o . o . . o . o o . . o . o . . . . o . . . . . . X O O > > @ X X X X . X . . . . . . X X X . X . X X X X X X X X X X X X X X X X X X X X X X X X X X X X X X X X X X X X X > X @ > @ > > > X X X X X X X X X X X X X X X X X X X X X X X X X X X . X X X X X @ X O X X X X . X X X X . . X . X X X O . X X X O @ O > @ > @ @ @ $ @ @ $ O $ O $ $ O ",
"# # # # % : % : % < % % % % % : % : % : % % % % % # % % # % # + O X . o o . . .   o o .   . o .   o   o X o O O + O X X X + . . . + . . o . . o o . X X + . o X O . o . o . + . X . o X o X o X o X X X o . X X X X o . X X X O O @ o o @ o o O X X X X X X X X X X X X X X X X X X X X X X X X X X X X X > X X X > > X @ X @ > X O X O X O X X @ X > > > > @ > @ X > > @ > > > X O O O O O O X O X @ X X X @ X > X X X X X > X O X X X O @ O X @ X X X X X X X X X X X X X X X X X X X O X X @ @ @ @ @ @ @ = = @ > @ $ @ $ @ @ ",
"# # # # + % % % # % % : - : : , % % % % % : % % % : : % % # # + O O O . . . o . o . . . o o . . o . o o X O O O X O O O X X + X X X + o X X X X X X X X X X X X X . O o o X o X X X X X X X X X o X X X X X X X X X X X X X X O @ o $ # @ @ @ X @ X X X X X X O @ X X O X @ X X X X @ X @ X @ O O O @ @ @ X @ > > @ X > > @ > > @ X @ O O O > > X @ X @ @ > @ @ @ @ @ @ > X @ > @ X O O O O O X O X @ > > X X @ @ > > > @ X X @ O O O O @ X @ O > @ @ > O > X @ X X X X X O X O X @ X O O @ @ X @ @ > @ = = @ @ = = $ @ @ @ $ @ ",
"# O # # + % % % % % : < < % : % # % % % % % % # # % # # # % # # + O O o . o o . . o . X . o X X . o o o + o O O + O O O O O X X X X O O + X X O O o + X X X O X O X o X O X X X O X X + X O X X O o o X O X X X X X O X O X O X > @ + @ @ + @ O @ X O X X O X X X X X X > O X > @ > X @ O O O O > @ > @ @ > > > @ @ > @ > @ @ @ O @ O O O O X > X @ @ @ > @ > @ @ > @ > @ > @ > O O O @ O O O @ > > X @ > @ @ > X X @ X @ X @ > O O O O @ O O O @ X @ X > X > X @ X X > @ X > X > X O X O O @ @ > @ @ @ @ @ = @ @ = @ @ @ @ @ $ ",
"# + # # % + % : : < % % % : % % : % % % % : % : % % % % % # # # # + O + O X X o o o X o o o o X X O . O X O O + + O + O O o O + O O X o X + o O O X O o O X + X X O O O X O O X O + X O O X X O O X O O X O O O + O + O O O O + + @ > # # @ # > > O @ @ @ > @ O > @ @ X @ > @ X > > O @ O O O @ @ X @ > @ X @ @ X @ @ X @ X @ > @ @ @ @ @ > @ @ @ > @ @ @ @ @ @ @ @ @ @ @ @ > @ @ @ O @ O O @ O @ @ O @ > @ > > @ @ > @ @ @ X @ O O O O O @ @ O > @ @ @ @ X @ @ @ > > @ X @ X @ > @ O O O O O O @ @ @ @ @ @ @ > @ @ @ $ @ @ $ @ ",
"# # # # # + # % % - % : % , : % # - # # % % # - % # % % # % # # # # O O O X X X X X O o X X X X O X X O O O + @ O # + O + O O O o O O O O O O o O X O O + X O O + O O X O O O O O O O X O o O O O O O O O o O O o + + O O O X + @ > # @ # > > # @ @ @ > @ o > O @ > @ X @ X @ > @ @ > @ O O O O @ > > @ > @ > @ @ @ @ > @ > @ @ @ @ O O @ @ @ @ @ @ @ @ > = > @ @ @ @ @ @ @ @ @ @ @ X @ @ O @ @ @ O > @ @ > @ @ > @ @ > @ @ > @ X @ @ @ @ @ @ @ @ @ @ > @ > > > > > @ X X > O X X X @ @ O @ O @ @ > > @ @ @ @ = $ @ $ O $ @ @ @ ",
"# O # # % % % : # # % : + : # % # - # - % % % # % : # % % # % # # O O + O O + O X X O X + X + O X O + X O + O O + + @ # O + # + O + O O O O O O O O O O O + + O O + O + + O O + O + + + + O @ O O O O O O O O o @ O O @ O + O O > # @ + @ # @ @ > # > @ @ @ > > > @ @ @ > @ > @ X @ X @ @ @ $ O @ @ @ @ @ @ @ @ > @ @ @ @ @ > @ @ @ $ O @ @ @ @ > @ @ @ @ > = @ @ @ > = @ @ @ @ @ @ @ @ O @ @ @ @ @ @ @ @ @ > @ @ > @ @ @ > > @ @ @ @ O @ X @ @ @ @ @ > @ @ @ X @ X > @ @ > > O @ > @ X O O @ O @ @ @ @ @ @ @ @ @ O $ $ @ $ @ $ ",
"# # # # # % + % : % % % % % : % % # # + : # % % % # % % % # % : # O # O + O + X + X X O O X X O O O X O X + O + @ + # O + # O O + @ O + + O O + O O + O O + O O O + O + + O + O + O O + + O + @ O + O o O O + + @ O o @ @ o @ # > # > # @ # # @ = # > > @ @ @ @ @ > > @ @ X @ > > > @ @ O $ @ @ @ > @ @ @ @ @ @ @ @ > @ @ @ @ @ @ @ @ @ @ @ @ @ @ @ @ @ @ = > @ = @ @ @ @ @ @ @ @ > @ @ @ @ @ @ @ > @ @ @ @ @ @ @ @ > @ > @ @ @ @ O @ @ O @ @ @ @ @ @ @ @ @ > @ @ X @ X @ > @ > @ X X @ O @ O O > @ > @ @ = > @ @ $ $ O $ O $ O ",
"O # # # + % % % # % % # : % % # # # - : % % # % # % # : % # # # # # # + O + O O O O O X + X O + X + + O + O + O O # + + $ O # + + @ + @ + O + O + O O + + O # O # O + O O # O # O O # O O # @ o + @ O # + O O $ O # O # @ # @ + @ # @ @ > # # > # @ @ # @ > > @ > @ > @ @ @ > @ @ @ @ @ O O @ O @ @ @ @ @ > @ @ @ = = @ @ @ = @ @ @ @ @ @ @ @ @ @ @ = > @ @ @ @ @ @ @ @ @ = @ = @ @ @ @ @ $ @ @ @ @ @ @ @ > @ > @ > @ @ @ @ @ @ @ @ @ O @ @ @ @ @ > @ @ @ @ @ @ @ @ @ @ X @ O @ X @ > @ O O $ @ @ @ @ @ @ @ @ = @ @ O $ O $ O $ ",
"# # # # % + + % % # # : % % % # # : % % # : # : # : # $ % % % # # # # O O O + O O O X O X + O X o + O O + O O + # + # # O @ + # + # O + # O # O + O + O + @ + + O # O # O + O # + # O + # O O # + @ @ > $ O O O @ + o $ O o @ # @ # @ # @ # # = # # > # @ @ @ @ @ @ @ @ > @ @ @ O @ @ @ @ O @ @ @ @ @ @ @ @ @ @ @ @ @ @ @ @ @ @ $ O @ @ @ @ $ O @ @ @ O $ O O $ @ @ @ $ @ @ = $ $ O @ @ @ @ @ @ = @ @ @ @ @ > @ @ @ @ @ @ @ @ @ @ @ @ @ @ @ @ @ @ @ @ @ @ @ @ @ @ @ @ > > X @ @ @ @ @ O @ @ @ O @ O @ O O O @ O $ O O $ O O $ $ ",
"O O # # + % % % % % % # # # - # % # # # # % % # # $ : : # + # % # % # + # O + O + X + O O O + X O O O O @ O + O @ # # + # + $ + @ + + @ @ + + @ O # O # # + @ O # O + # # O # O @ + # O O # # O # o # + + O # O > @ # > @ # @ @ > # > @ # @ @ # @ @ @ @ @ @ @ @ @ @ @ @ @ > @ @ @ @ @ @ O $ @ @ @ $ @ @ @ @ @ $ = @ @ @ = @ @ = @ $ @ $ @ @ @ O @ @ @ $ O O $ O @ = @ @ @ @ $ O O $ $ O @ $ O $ @ @ @ @ @ @ @ @ @ O > @ @ @ @ @ @ @ @ @ @ @ @ @ @ O $ @ @ O $ @ @ > @ > @ @ > @ X @ @ O O @ @ O @ O $ O $ $ @ $ @ @ O $ $ $ O O ",
"+ # # # % + % + + : # % % # # # # % : + # # # # % # # # % # % # # % # O O + O O O O O + X O X O O O O O O + O # + # # # O # + + $ + O + + + @ + # O + O O + $ + + # + O O # + O # O # O + @ # # @ O + @ O + O % # @ + @ + @ > # @ + @ @ > # > @ @ @ @ # @ @ @ @ @ @ @ @ @ @ @ > @ @ @ @ @ @ $ @ @ @ @ @ $ @ O @ @ @ @ @ @ @ @ @ @ @ O $ @ @ @ $ @ @ O O $ O O $ @ $ @ @ $ @ $ @ $ O $ $ $ @ $ $ @ @ @ @ @ @ > @ @ @ @ @ @ @ @ @ @ @ O O @ @ @ @ @ @ $ O @ $ O O @ > @ @ @ > @ X O @ O O O @ @ @ O $ $ O O $ $ O @ O $ O $ O $ O ",
"# O + # # % # + % + # # # # # # # # % $ # % # % # # # $ # # # # % O O # + O O + + O O X + O + O O O o + O O + O # O + @ # # + @ + O # # # O + O + O @ + O # + O O O O # + O # O O + O # @ + o @ o # @ O # @ O O O O @ + @ @ @ o @ @ o @ @ @ @ # # @ @ O @ # @ O > @ @ X @ @ @ @ @ @ @ @ @ @ O @ @ @ @ $ @ @ O $ @ @ @ = $ @ @ = @ O $ O @ $ $ O @ $ $ $ O $ $ O @ $ $ @ @ @ $ @ O $ O O @ @ $ O $ @ = @ @ > @ @ > @ @ @ @ @ > @ O O $ $ @ @ @ @ O $ @ O $ O $ @ @ @ > @ @ @ @ @ @ O @ O O O O @ O $ $ O $ O O O @ $ O $ O $ O $ ",
"+ O # + # # # $ # # # $ # # # # # # # # # # # # # # # # O $ + # $ O O # O O O + O O O O O X X O O O O O O O + # @ + + O + # O + + O O O O + + O O @ + # O # O # # O + @ O O @ + O O + + o # + @ @ # O @ O O O # @ O O O o O @ o O O O @ @ @ O @ > @ o @ @ O @ @ O @ O @ @ @ @ @ @ @ @ @ @ @ @ O @ @ $ @ O $ O $ $ @ O $ @ @ @ @ $ O $ $ $ O $ O $ $ $ O $ O $ $ O $ O $ @ @ @ @ $ O $ $ $ @ @ $ @ @ @ @ @ @ @ @ > @ @ @ @ @ @ @ $ O O O O $ O $ O @ @ @ O @ @ O @ @ @ > > X @ @ X @ O O O @ O @ O O $ $ $ O $ $ $ O $ $ $ $ O $ ",
"O # # O # O + # # # + + + # $ + # # O # + # # # # # # # # # # $ $ # # O O + O O + X o O O O + O X + X + + O O O + O # # O O # O O + + O O O O + O + @ o o $ + O o + @ + @ + O O O @ @ O @ O O > @ O @ + O O O O O @ O O @ @ O @ O O O O O O O @ @ @ @ @ @ @ @ @ @ @ @ O > @ @ O @ O O @ @ @ O O O @ @ @ $ O $ O O O $ @ $ @ @ $ O O O O O $ O $ O O $ $ $ O O $ $ $ $ $ $ @ @ @ $ O O $ @ @ $ @ @ @ @ @ @ @ O @ @ @ > @ > @ @ O O O $ O $ O $ O $ @ @ @ @ @ O @ O O O @ > @ X > @ O O O X X O O O O O O O @ O O O O O O O O O O ",
"O # O # # # O # # + # # # # + + # + O # O # # O # # # O # # + $ + # O # O + O O O O + X X + X + + X O O O O O + O O + O O O o O O O + O O O O X O O O O O + O O @ O O O O O o O O o O O O O @ + O @ o @ O O O O O O O O O O O O O O O O O O O @ O @ @ O @ O O @ @ O O $ @ O @ @ O O O O @ O O $ O $ @ @ $ O O $ $ O @ @ @ @ @ @ O $ $ O O $ $ O $ O O $ $ $ $ O O $ O O @ @ @ @ O $ O O @ @ @ @ @ @ @ @ @ O > @ X @ O X O @ @ O $ $ $ O O $ $ $ @ @ @ @ @ @ @ > X @ X @ X > @ X O O O X O X X O X O O O O O O O O O O $ O $ O O ",
"+ O O + O + # # # O # + # + + $ O # # + # O # # O O # # # + $ # # $ # O O O + O + X O O O X O X O O + X o O O O O + O O + # O O + X O O X + O O + O o O O + O O + O O O O O O O O @ o O @ o O O O O + @ @ O @ O O O O O O O O O O O X O O O O O O O O @ @ O @ O @ @ @ @ O @ @ @ $ O O $ @ O O O O O O $ O O $ $ O $ @ $ @ @ @ @ $ O O $ O O O O O $ O O O $ O O $ O $ @ @ @ @ @ O $ $ $ O @ @ $ @ $ O @ @ O @ @ > X O O O O @ O O O O O $ O O @ O O @ @ @ O O X @ X @ X @ @ X @ O X O O O O O O O O O O O O O O O O O O O O O O "
};
