/* XPM */
static char *Futuristic_512[] = {
/* columns rows colors chars-per-pixel */
"512 512 256 2 ",
"   c #010404",
".  c #010609",
"X  c #020B0C",
"o  c #070B0A",
"O  c #050F11",
"+  c #090E12",
"@  c #031213",
"#  c #0A1314",
"$  c #05161A",
"%  c #0C1719",
"&  c #0C1A1C",
"*  c #041A1B",
"=  c #131A1C",
"-  c #191C1E",
";  c #131516",
":  c #06100F",
">  c #091D22",
",  c #141E21",
"<  c #191E21",
"1  c #052528",
"2  c #152123",
"3  c #1C2225",
"4  c #1D262A",
"5  c #1D292C",
"6  c #14272C",
"7  c #082B33",
"8  c #192C33",
"9  c #043639",
"0  c #1C343B",
"q  c #17343A",
"w  c #05332D",
"e  c #232A2D",
"r  c #242729",
"t  c #242E32",
"y  c #292E31",
"u  c #253135",
"i  c #2A3234",
"p  c #24343B",
"a  c #2B363B",
"s  c #2C393D",
"d  c #24383E",
"f  c #323A3D",
"g  c #363738",
"h  c #28312F",
"j  c #09211D",
"k  c #13413E",
"l  c #063B44",
"z  c #183B43",
"x  c #0A3A4F",
"c  c #233C43",
"v  c #2C3C43",
"b  c #263D47",
"n  c #333D43",
"m  c #383E44",
"M  c #2C3E53",
"N  c #054649",
"B  c #18444B",
"V  c #074B54",
"C  c #184A54",
"Z  c #065659",
"A  c #18555A",
"S  c #02544D",
"D  c #24424B",
"F  c #2B444C",
"G  c #2A4349",
"H  c #344146",
"J  c #3B4245",
"K  c #34444B",
"L  c #39464D",
"P  c #38494E",
"I  c #2C4A54",
"U  c #284952",
"Y  c #354A53",
"T  c #3B4A53",
"R  c #374954",
"E  c #28545A",
"W  c #38535B",
"Q  c #22514F",
"!  c #065B64",
"~  c #165B64",
"^  c #0D566D",
"/  c #285B64",
"(  c #395A65",
")  c #325A6E",
"_  c #05666A",
"`  c #15646A",
"'  c #086B74",
"]  c #057679",
"[  c #137074",
"{  c #27656A",
"}  c #38646A",
"|  c #276B74",
" . c #3A6876",
".. c #2B7479",
"X. c #03645C",
"o. c #46484A",
"O. c #424E55",
"+. c #484E53",
"@. c #4B5355",
"#. c #44535B",
"$. c #4C565B",
"%. c #48575A",
"&. c #555959",
"*. c #52504E",
"=. c #65625E",
"-. c #485B64",
";. c #535D63",
":. c #585F64",
">. c #435E72",
",. c #47636A",
"<. c #586369",
"1. c #476975",
"2. c #5A6A74",
"3. c #5A727B",
"4. c #49747B",
"5. c #6B6B6A",
"6. c #666766",
"7. c #726E6C",
"8. c #726C67",
"9. c #75716E",
"0. c #636D75",
"q. c #67737A",
"w. c #767878",
"e. c #6C706E",
"r. c #605E5C",
"t. c #46403C",
"y. c #847B76",
"u. c #01827C",
"i. c #71817E",
"p. c #86837D",
"a. c #067B84",
"s. c #167886",
"d. c #327786",
"f. c #237FA4",
"g. c #467788",
"h. c #587886",
"j. c #4A798E",
"k. c #697A85",
"l. c #747D84",
"z. c #627E92",
"x. c #058689",
"c. c #058B94",
"v. c #049599",
"b. c #158B94",
"n. c #2E8994",
"m. c #0599A5",
"M. c #1197A9",
"N. c #3095A9",
"B. c #04A6AA",
"V. c #05AAB5",
"C. c #04B5B9",
"Z. c #15AEB6",
"A. c #2FACB5",
"S. c #02A29E",
"D. c #478698",
"F. c #558894",
"G. c #77838B",
"H. c #788995",
"J. c #7B939C",
"K. c #698793",
"L. c #4F96A9",
"P. c #7997A6",
"I. c #6B95AA",
"U. c #51A8B8",
"Y. c #71A7B6",
"T. c #61A29E",
"R. c #04BAC5",
"E. c #12B8C8",
"W. c #30B8C7",
"Q. c #52B5C9",
"!. c #72B5CA",
"~. c #72BFE1",
"^. c #03C5CA",
"/. c #04CAD6",
"(. c #06D5DA",
"). c #16CCD3",
"_. c #2ECCD6",
"`. c #09D9E5",
"'. c #15DAE7",
"]. c #0AD4EA",
"[. c #2ED9E6",
"{. c #17E3EB",
"}. c #15E5F1",
"|. c #2FEBF2",
" X c #1BE2DE",
".X c #59C9D7",
"XX c #53CAD5",
"oX c #6BCAD8",
"OX c #57D6E6",
"+X c #6BD3E6",
"@X c #50F0F5",
"#X c #6FF4F8",
"$X c #58E2DB",
"%X c #22C1BD",
"&X c #868889",
"*X c #848D94",
"=X c #88939A",
"-X c #969798",
";X c #938F8B",
":X c #8799A6",
">X c #949DA5",
",X c #839DB4",
"<X c #99A3AB",
"1X c #8AA6B5",
"2X c #97AAB6",
"3X c #93AAB5",
"4X c #A6A8AA",
"5X c #A4ADB4",
"6X c #A9B3BA",
"7X c #B6B8BA",
"8X c #B3B0AC",
"9X c #A39D9A",
"0X c #92B5C8",
"qX c #A7B9C6",
"wX c #B5BDC4",
"eX c #A7BDD2",
"rX c #9FBCE1",
"tX c #91C9D7",
"yX c #B9C3CA",
"uX c #B7CAD6",
"iX c #AFC9D5",
"pX c #90D2E9",
"aX c #B2D6E8",
"sX c #88F7FB",
"dX c #98F7FC",
"fX c #90E9F2",
"gX c #A9F7FB",
"hX c #B6F7FA",
"jX c #B3E7F3",
"kX c #C5C8CA",
"lX c #C5CDD3",
"zX c #C9D3DA",
"xX c #D7D9DA",
"cX c #D4D0CB",
"vX c #C7D9E5",
"bX c #D6DDE2",
"nX c #C4DEF4",
"mX c #DCE6EC",
"MX c #DEEAEE",
"NX c #DAE2E6",
"BX c #DCEBF2",
"VX c #D7E9F5",
"CX c #DCF3FB",
"ZX c #C8EEF6",
"AX c #E2E6E9",
"SX c #E2EBEE",
"DX c #E5E7E7",
"FX c #E2EDF2",
"GX c #E9EEF1",
"HX c #E4F4FC",
"JX c #E7F5F9",
"KX c #F5F9F8",
"LX c #F1F0ED",
"PX c #E2DFDB",
"IX c #C3C0BC",
"UX c #817F82",
/* pixels */
"T T W T #.W O.T #.T #.#.T T #.T T T T T T O.O.T O.M O.O.T T O.M O.M O.O.T O.T O.T O.T O.O.T T L T T O.M +.T L O.O.O.m T L T L T M L O.L L L T L T L L T L O.O.m T L T L L T L L L R M o.L L L M o.L L L L L L L K K K L J J P J H J J K J J L L L m L L m L m L L m m M L m m L m m m m n n m m M m L n m m m L n n L n n n K m m n n n n n n n n n n f n n n f n v n n n g n g a g v g a f f f f g g f a f a f a g a a a a g i a a a a i a a h g a a a h s a h h g i a i g h g i a i i i a i i g i h a h i i i i i i i i h i y i y i i y y y h y y h y y y y h y y h y y t y y y y y r y y y y y y y y y y y y y y y y y r y r y y y r r y y r y r y r y r y r r y r r y r r y r r r r r r r r r r r r r r r r r r - r r r r r r r - r r r r r r r r r r r r r r r r r r < r - r r r - < r r - r - r - r - - r - 3 r r - r - 3 3 r - 3 r - - 3 - - - - 3 - - - r - - 3 - - - - 3 - - - < < - - < - - < = < - < - - - - < - - < - < = - - - = < - = - - = - = - - - - - - ; = = - = - = - = = = = ; - = = = - ; = - = - = - = - ; - = = = ; - = = ; - = = = % = ",
"T W T T R T T W R R R R R #.T T #.R O.#.O.O.R O.T O.M O.T O.O.O.T T O.T O.M O.T T M O.T T T T T T T T T M o.T T M T T L O.M T L o.L L L L T L L L T T T T M T T L R T L O.M T L L L L L L L L R L L L L L L L L P K L L K K H H P J J P K K L n m L m L L L m m L m L m L m m L m n m L L n m m m m n n n m n n m n m m L m n m m n J n m n n m n f n f n f f n g n g v n v v v n g g v g f a f a a a a a g a g f a a g a g a a a g g i g a g a a a g h g i g a a a a h a i a i i i h a i i i i i i a h i i i i i i i i i i i i i i i y i u i i y y h u y y y y y y y e y y y y y y y y y y r y y y y y y y y r y y y y y y y y y r r y y y r y y y r y r y y r r r y r r y r r r y y r r r r r r r r r r r r r r r r r r r r - r r r r r r r - r - - r r r r - - r r - r r r r r - < r r - < r - r < r - r r - r - - - 3 - r - 3 - r - - 3 3 - - r 3 - - 3 - 3 - - - - - - - - - - - 3 < < < < < < < - < = - - = - - - < = < < = < = < - < < = = - - - - = = - ; - - = = - = - = - = - = = - = - - ; = - = = - = = - = - = - = - = = - = - - = = = + = + = = + ",
"T T T T R T T W R #.O.R R R T R R R R O.O.M O.T O.T T T T T T T T T M T T T O.O.M T T T O.T T T T +.L T T T M o.L T m O.m T L L L T L L L L T L L L L L O.M L T L L T L o.L L L T L L L L L L L L L L L L L M L K J L L K J H P J J K K J L K J L m L m o.M L L L m L m m L m M m m M m M m m n n n n m L m n n m m n m n m m m n J n n n n f n n f n m f f n f g v g n g g v g a n a g a f n a f a a g a a a g g a a g a a a g g a a a a a g a g a g a h g i a g i a i h h g a i g a h g h i i i i i i h i i i i i i i i i i h i i i h i h y h t i e e y h y e e y e i e e t t e y y y r y y y y y r y y y y y y y y y y r y r y y y r y r y r r y y r r y r r r y r y r r y y r y r r r r r r r r r r r r < r r r r r r r r r r - r r - r r r r r - r - r r r r - r - < < r - < r r < 3 r - r r r - - - r - r - r - r - 3 r r 3 - - r - 3 3 - 3 - 3 - - - - - - - - - - - - - - - - - < - - - - < - < ; < = < - - - - - < < = < - < - - = - = - - = = - = = - = - - - - - = = - = = - = = = - = ; = - = = - ; = - - = = = = - = - = - = = - ; = = ; = = = = % ",
"T T W T W T T O.R #.R R #.R #.R O.#.R R R O.T T T T O.T T T O.T O.O.O.T T T T T O.T O.T L T T T T M T T M T T T T L R L T L L T L L L T R L L L L T L T L o.O.M T L L T L L L L L L L L R L L L L L L M L L L L P J J K J P H P P H J P K K L L L m m L m m m m J m M m m m m m M m m n m m m m n K m n n m n m n m K n n n m M n n n n m n n n n n m f n v n n n n v v v n n g g g a n g f a g f g a f f g f a a g a a g i a i a a i g g h a a i a i a a a a h i a h g i a i i i i i i i i i i i i i i g i i i h i i i y i i i h i i y y i t t i e i i t t t t i e h e t h h e y h e y y y y y y y y y y y y y y r y y y y y y y r y y r y r y y r r y y r y r r r y r y r r r r r r r r r r r r r r r r r r r r < r r - r r r r r r r r r r - r r r r r r r - r 3 r r r r < r r < r r r - r - - r < r r - r - - r 3 - r - - - 3 r - - 3 - 3 r - 3 - 3 3 r - - - - - - - - - - - - - - - - - - < - < = < = < - - - - - - = - < = = < - = < - - - = - = - = - - - - = = - = - - = - - = - = - = = - - = - - = - = - = - - - - = = = - ; - = = = = = = % = + = = ",
"T O.#.R T T R R R R #.#.T T T T O.M O.R O.R O.T T T O.O.T M O.O.T T T T T R T T O.T +.T T T T T M T T T o.T T M L T L O.L L R L L T L R L L T L L R L R L L O.L L L T L L L T L L L L L L L L L L L L R L m L L K J K J K J H K K H J K K K K K K m m L L L M o.m m L L m M m J J n m n m n n n m m m n n m m m m M m n m n n m n m n n n n n n n n n f n f n n n g n n a n n v n a a g v g a f f a f f g f a g f a a a a a a a i a g i a a g a a a a i a i i a i i a h g i h a i i i i i a i i i i i i i i i i h y i i i h h i i y i t i h i h e i t h y t h t h t e i e i e i e y y y y y h y y y y y y y r y y y y y y y y y y r y r y y y r r y r y r r y r r r r y t r r t t r r r r r r r r r r r r r r < r r < r < r r r r - r r - r r r r r r r r - r r r r - 3 r 3 r - < r - r < r - r r - r - - r - - - - r r - - r - 3 - - - r - 3 - 3 - 3 - - - 3 - - - - - - - - - - - - - - - - < - < - - < < = < - - - - - - - - < - - < - = - = = - = - - = < - < < = = - - = < - = - = - = = - = = = = = - ; - = - = = = - = = - - = = = = = = = = % ; = = + = ",
"R R R R R #.R #.R #.R R R O.W O.O.T R #.O.O.T T T O.T M T O.T T T T O.T T O.T O.T T M O.T T T T +.T T L T T T o.R L R M T L L R L L L L L T L L L L T T L L L L R L L L T L L L L T L L L L L L L L M K L L L L J K K L K K K L H K L K L K J K K L L n m m m m L m m m m L m n L n M m n L L n M m n n m M n n m n m n n n m m n n n n m m n f n f n n n n n v n a v g n n a g g n g n n a a g f g a a a a a a a a g a a a g a a g a a a g a a g i g a h g i h g h i a i h a i i a i i i h i a i i i i i h i i i i i i i u i i u i y h i t e i i e i i t h t h i e i e u e i e t y y y h y t y y y y y y y y y y y y r y y y y y y y y y r r y y r y y y r y r r t r r r r r r r r y r r r r r r r r r < r r r r r r r r r r < r r r r r r r r r r - r r r r r r - r r - r r r r < r r r < r 3 - r - r r - - r r - - - r r - - 3 r r - r - - r r 3 3 3 - 3 - - r - - - - - < < - - - 3 - - < < < - - - < < = < < - - - < - - - < < < = < - < = < - < = = - < = ; < = < < = - = - - - = = - - = - - = = - = - - - = - - - < = - = = - = - = = = % = = % % = % = ",
"O.R R O.R #.R #.#.R W R R #.O.O.T T O.T M R O.O.T O.T O.T O.O.M T T T T T T T T T T T T T T T T L T T T T L M o.L T L L R L L L T L L o.L L L L L T L L T L T L L L L L L L L L L L L o.L L L L L L L L L L L L L L K L L L n L K K K L L K K K L M L K K L L m L n L J K m m m n n n m n m m n n m m n m n n n n m n n n m m M n n n n n n n n f n n f n n a n n n n n g n v n v v a a g g a a a f a g f a g a a g g a i g a g a g a i a a a h i a g i a i a i i a g i i i i i i i i i i i i i h i i i i i i i i i i h y i h i i y i i h t i i h u i e t t y t e i y e h e e h e h h e y e y h y e y r y y y y y y y y y y y r r y r r y y r y r y r r r y r r y r r r r t r r y r t r r r r r < r r r < r r r < r r < r r r r r r - r r - r - r r r - r r - r 3 r r - r r r - r 3 r - - r - r r - r - r r r - - r r - - r - r - - r r - r - - - 3 3 - - - r - < < - - - - < - - - - - < - < - < < < - < = < < < - < - < - < < - < - - < < - < - < < - < = - < - = < - = < = - - - - - - = - - - = = - - = - - = - - < - - < = = - = = - = = = = = = = % = = = ",
"R O.R O.R R R R R R O.T R T M O.T T T T O.O.O.M O.M T T T T O.O.T O.T T T O.T O.O.T T T T T T T T L T L T O.M T R L R L R L L L L R R M T R R L R L L R L T L L T L T T L L T L L L R M T L M o.L L L L L L m L L H L K J K L K P J K K L J J K K J J K n J n L n L n n K J K m J L n m m m M m m n M m m m n L n m K n n n m m m m m m n n n n g n n n f n n n v n n n i n g v n g n g v a n g a f f f a g a f g a a a g a f a a a a g a g a g a a i a i g h a i a i h a a g i g i i i i i i i i i h i i i i i i i i i i i i i i h y u y i i e y h e i y y y h i e i h u y u y i t y t t t y u i e y y y y y y y r y y r y y y y y y y r y y r y r y y r r r y r r y y r r y r r r r r y r r r r r r r r r r r r r r r r r r r r r r r r r r r r - r r r r r r r r r r r 3 3 r - r - r r 3 r - - r - r - - - r - r - r - - r - - r 3 - r - - r r - - r - r - - < < - - r - < - - 3 3 - < < < < < < < < < - < < < - < < < < < < < < - - = < < = < - = - < - < = - < = - < = - - = - - - - - - = - - - = - = - - - < = < = = = - - - - - = - - = = = = = = = % = ",
"R R R O.R O.R R R O.R R W T W T O.T T T M O.T R O.O.O.T O.O.O.R T T T T O.T T T T T T T T T T L T T T M M o.T M O.T M O.L R L R L R R L R L L R L L R L L K L L L L L L L T L L T L R L L L L L L L L L L L L M L L L J L L M L L L K K L n K K K K J K J L K n m m L m m m m K L m L m n n K n L m m m m M m m n L n n m n n n m n m n m g n n n n n n n g n n n n n n n a g n g n v g v v v g f n g a f a f f a g a g a a a a a g g a a g g a g h a h g a i a a h a i a h h a a i a i i i i i i i i i i h i i i i i i i i h i i i i y i i h i y i i i e h t i e i h h y t y t e t e i h y y y h t e y y y y y y y y y y r y y y r y r y r y r r y y r y r y r y r r r r y r r r r e r y r r r r r r r r r r y r r r r r r r < r - r r r r r r r r r r r r r r r r r 3 r r - r - r r r - r r - r r - r r - - r - r - - r - - r r - - r 3 - - r - 3 r - < < < < < < < < < < - - < < < < < < < < < < < < < < < < < < < < < < < < - < < < < < - < = < < - - = < - - - - < - < < - - - - = = - = < - - - = = - - - - = < = = = < - - = = - - = - = = = = = % = = % ",
"O.O.O.R T T R O.O.R #.R T R T T R R O.T O.O.T O.T T T O.M O.R O.O.T T T T T T T T T T T T T T T T L o.T T L M o.O.m L L L L L L L L L L L L L L L R L L R L R L L R L L L L L L L L M L R L L L L L L L L L L L L L L L J L J L K K J J L K L L J K M L L n L J K K m L K K M m n m n n K K m m n n m M m n n n n m m m n n m n n n n m n m n n n n n n n n n n n n g v n n v n v a n v g g f f f s a f a f g a a f a a g a g a a s a a a a a a g a g h i a g h i g g i g a a i i i i i i a i i g i i i a i i i i i i i i i i i e i i h i e i i i u e i i i i e i t y u e i y y i h i t y h y y y y y y y y y y y y y y y y y r y y y y y y r y r y r y r y r y r y y r y r y r r e e r r r r r r r r r r r r r r r r r r r r r r r r r r r r r r r - r r r r r r r r r r 3 r r r r - - r - r r r - r - r - r - r - - r - r r - - r - - - r 3 - r - < 3 3 < < r - r < < < < r < < < < < < < < < < < < < < < < < < < < < < < < < < < < < - - < < < - - - < < - - - - - = - = = - - - - - - - < - - - - - < < < = < - < < < - - = = - < - = < = < , = = = = = = = ",
"T T R O.R R T T R T T R T T O.T T T T O.O.T O.T O.T O.O.O.O.T O.T T T T T T T T O.L T T T T T R T T T L L T T L L T L L L L L R R L R L L L L R L L L R P L L L L L L L L R L L L L L L L L L L L L m R L L L L L L L L K K L L L K L M L n L n K K K J M L n L K m J n M K m L L n n m m n H J n n n J m J m n m m m M n L K n n M m m n n m n n n n n n n n n v n n n g n g g n g n g v n v a a f f f g f f a a f f g g a g f a g g a g a g a a g h a g i i a a i g i i a h g g i a i i a g i i a i i i i i i i i g h h i i i i i u i i h i e h t i y i y y i t i t h i u h y h t u y e y y h y y y y r y y y y y y r y y y r y y r y r y y r y r y r y r y r r r r r r r y r y r y r r r r y r r r r r r r r r r r r 4 r 4 r r r r r r - - r r r r r r r r r r - r r r r - - r - - r r - r - r r - r - r - r r - r - r - - - r - - r r - - r - r - - < < < < < < - r < < < < < < < < < < < < < < < < < < < < < < < < < < < < < < < < - - < < - - - - < = - - - = < = - - - - - = = - - - < = - - - - - = < - - < < - - - = < < - < = < = - = - = = = = = = = ",
"T T T R #.R T T #.R T T T T T T M O.T R O.T T O.T T O.M O.M O.T T T O.T T T T T T T T T T L L T T L T L L T L T L L T L R L L L P L L L L R L L L R T L P L R L R L T L T L L L L L L L L L L L L L L L L L L L K L L m L L M K L K K L K L K L n L n K L m L m L n L L J m K n m m L m n K m H L L n n M m m n m n n m m n m m m m n n n n n n n n m n n n n n g n n n n v n v n v v g n a g v f f f a a a f n f f a a f a a a s s s a g a a a a a a a i a a i i a i a i a a h i a i g i i i i i i i i i i i i i i i i g i i i i i i i y i i y y i h t t y h i y y h i h y y y y y y y y y y y y y y y y y y y y y y y r y y y y r y y r y y r r y r y r y r y y r y y r y r y y r r r y r r r r r r r r r y r r r r r r r r r r r r r r r r r r r r r r r r - r r r r 3 r r r r r r r - r r - - - r - r - r - - r - r - r r r - r r - r - r - 3 - r - r < r < < < < < < < < < < < < < r < < < < < < < 3 < < < < < < < < < < < < < < < < < < < - - - - < < < - - < - - - - < = < < < - - - - < < < = < < < = - - < < = - < < - < - - - - < < = - = = = = = = = ",
"O.T O.T R T T R T R R T T O.O.O.O.T T T R O.R M O.T O.T R M O.T T T O.T T T L O.L T L T T L T L L L L T T L T L R L L L L L R L K L R L L R L R K P R L L R L L R L L L L L L L L L L L L L L L L L L L L L L L L L J L L L K L n L m K n L L J L n K M m m R m L m m m m L L m L n m m m L n H n n n n m m L n m M m m M m n m m n n m n n n n n n n n n n n g n n n v n g n v g n a n n g v g f n a n a f f a f a g a a f a f a f a f a g a g a a a h a h a i h g i i i a i g i i i i a i i a i a i i g i i g i i i i a h i h i i i i i h y u i y i t i i y u y u h t y i y y y y y y y i y y y y y y y y y y r y y y r y r y r y r y y y r y y r r r y y r r y r r r y r r r e y r r r r r r r r r r r r r r r r r r r r r r r r r r r r r r r r r r r r r r r r r r r r r r - - r r r r - r r - - r - r - r r r r - - r r - r r - r - - r - r - < - < < < < < r - < < < < < < r < < < < < < < < < < < < < < < < < < < < - - < < < < < - - - - < - - - - - < - - - - - - = - - < - < - < - = = - = < - < < < - < < = < - - = = < - - = - - - - = - = = = = = ",
"T T T T T T T R T T T T T T M O.O.T O.T T O.O.O.M O.R R O.O.O.O.T T T T T T O.O.T T O.T T L L T T T T L T L L L L T R L L R L L L L P L K L L L R L L P P K L L L L L L L L L R L L L L L L L L L L L L L L M R L M L M L K m L L L K L L L M H M L J L m L m M m L L M M m n M M m m L m n m M m m m M M m m n n J L m m n m M m m n n g n m n n n n n n n n n n g n g n n n g v n v g a n f v f a f f g a g a g f f a a g f a f a a a s g a a a a g g a g i g a a a a a a i i a i i g i i a i i i h a i i i h a i i i i i i i i h h i i i i i t h i t h y i y i t y i i y i i i h y y y y y y y y y h y y y y y y y r r y y y y y y y r y y r r y y y r r y r r y y r r r y y r r e y r e r y r r r y y r r r r r r y r r r r r r r r r r r r r r r r r r r r r r r r r r - r r r r - - r r - r r r r r - r - r - r - r - r - - - 3 - r - - r < < r r < r < r < < < < < < r < < < < < < < < < < < < < < < < < < < r < < < < - < < < < < < < < < < - < - - - < - - - - - - - < < < = < , - < - = < < < < - = < - = < - < - < < < < = < - < < = = - = - = = = = ",
"T O.T T T T O.T T T T T T R T O.T T T T T T O.R O.O.T O.O.M R T T T T O.T M T M T L L T T T T L T L T T T T L T T L T L R L L L L L P P L R L L L L L L P P L T R L L L R L L L L L L L L L L L M L L L L L L L L L m L M K K J n L L M K n n L J K L m m L L m m M L m L m L m L M M m L n n n m m K m m m m n n n m m n L n m M m m n n n n n n m n n n g n n n n n n n a v n a n n g f f f f n n a a n f a g a a f a f a f v f s f s s s s a g a a a a g a a g i g i i g i i i i a i g i i i g i i i i a h a h i i i i i i i i y i i i y i i i h y i i y h t h y y h t h i y i y y y y i y y y y y t r y y r y y y y y r y r y r r y r y r y y r y r y r r y y r r r y r y r r r r r r y r r r r r r r r y r r r r r r r r y r r r r r r r r - r r r r r r - - r r r r r r r r - r - < r r < - r r - - r r r - r - r - r - r r - 3 - < r - r r - - < < < < r < r < - < r r - < < < < - < < < < < < < < < < < < < < < < < < < < < < < < < < < - < < - - - - < - - - - - - - - - < < - < < < - - - - < < < < < - < < - - - - < < = < < - - - < < = - = = = < = ",
"T T T T T T T T T T T T T T #.M T O.T T R O.R O.T O.O.T O.O.O.T T T T L O.O.T T T T T T T L T T M L L T L L T M L T L R L L T R L R L K L L R L L R R L P P P P L L L L L L L L L L L L L K L L L L L L L L L L L L L K J L K K L L J K K K L L n K J M L m L M L m n M L m m m m m n L n K J K K n n m K m n n n L n n m m n m m n n m m n m n n n n n n n n n n n n g n n g n n v g v n a n f a f f n v a n f f f f g a f g a a f a f a g a g a a i g a h a a a a i a a i a g i i a i i i a a i i a h i i i i i g i i i i i i i i i i h u i y i i h i t h i i i i t i u y y y y y y y y y y y y y h y y y y y y r y y y y y y y y y y y y y r y y r y r r y r r r t y r r r r y y r y r y r e r r r r r r r r r r r r r r r r r r r r r r r r r r r r r r r r r r r r r - - r r r r r r r < r r - - r r - - r r - r - r - r - - r - r 3 r - 3 - r r < r r < < < r < r < < < < < < r < r < < < < < < < < < 3 < < 3 < < < < < < < < < < < < < < < - < < - - - < < - - - - - - < - - - = - < - - - < < = = < - - - < - - < - = < < < < - - = < = - < = - - - = - ",
"T T T T T T T T T T T T M O.T R O.O.T T T O.O.O.R O.O.M O.R T O.L T T T T T L O.T T T T T T T T T T T L R L R T T L L R T T L L R L L R L L L L T R L R L R L R L L L L L L L L L P K K L L L K L L L L L L L M L L K L L n K K K J L K L K m L M K m K L H H J m K K n m L n K m n K K H H H n K m n n m n m m n n m n m L M m m m m n n n m m n f n f n n n f n n n f n f n f f n a f a n f v n a a v g a n g a v g v n a a v f a f a a a a a f a a a g a i g h g a i a h a i a g h i a h i i i a i i a i i i i g i i i i y a i i h i i i i i i y i i h y u h y i i h y i e i t y y i y y y y y y y y y y y y y y y y e y r y r y r y y r y y r y r y r r y r e r y y r r r r e y r r e r e r r y e r r r r e r r r r r r r r r r r r r r r r r r r 3 r r r r r r r r r r 3 r < r r r < r < r r - r - r - r r - r r - r - - - r - r - r - r - r - - r - - 3 - r < < < < r - 3 3 - r - < < r < < < < < - r - < - 3 - - - - - 3 < < < < < < < < < < - - < - - - r - - - - - - - - - - < - - - < - < < - < < - - - = < - - - < < - < - < = < = = < - = - = = = < ",
"T T T +.T T T T T T T T O.T T O.M O.T O.T O.O.R R O.R O.O.O.M O.O.O.T T T T L O.L T T L m O.L T L L T L L L L L R L L T L L R L R L L L L R R L L L L L L L L L R L T R L L L L R L L P L L L L L L L L L L L L L K L L L K K L L M K K J K K K K m L n M K n L M K n L M m m K L n m n J H m K M m m L m n L n m n L n n n m m n n n n m n m n n m m n m n J f n f n f f n f n f n n f n f f v f g n g v n a i f g a g a v g g a f a g g v f a g a a g a a a i a a i a i g i i i i a i h a i g i i i i i i i i i i i i i g y y i i i i i i i h h i i i i i i i i y y i i t y h i y i e y y y y y y y y y r y y y y y r y y y y y y r y y r y r y r y r y r r y e r r r r e r y e r r y e r e r r r r e r r h r r r r r r r r r r r r r r r r r r r r r r r 4 r 3 r r r < r 3 r r r < r < r r < r r r r r r - - r - r - - r r r - r - r - r - r - r r - r r r r < r r < < < 3 - - 3 < - < < - < < < 3 < - < < - 3 3 - r - - r - < < < < < < < < - < < < < - - - - - - - - - - - - - - - - < - - - - - - - - < - < < < < - < - - < < - < - < < < < - < = - = - = ",
"T T T T T T T T T T T T T T T T T T T O.M O.R O.O.O.O.O.O.T O.T O.M O.L T T T O.O.M T T M O.T L T R T R L T R L L L T L L L L T L R L L R K L L L R R L R L L R L L L L L R L P K L L L L L L L L L L L L L L L m L L M L L J L J K K m K K L K K L n K J M K K n K K n J M J H H n K m K H H H m m n n m M n n m m M m n n n m m m m m n n n n n n n n f f m n n n n n f n n f n f f f f a n f v g n a g v n n n a g a g v n a f a a a a a a a a a g a g i g i g i i g a a i g g i i i i i g i i i i i i i g i i i i i i i y a i i i i h i i i i i t i u y i y u y y i i y y y t h y t y y y y y y y r y y y y r y y y y y y r y y y y y y y r y y r y r y r y r y r y y e y r r r r y r r r e r r r r r r e r r r r r r r r r r r r r r r r r r r r r r 4 r r r r r 3 r r r r < r r r r < r r - r r - - r r r r - - r r - r - r - r - - - - r r - r r r - 3 - < < < < r r - r < 3 3 < < < < < < < < < < < r - - 3 - - - 3 3 - < < < < < < < < - < < < - - < - - - - - 3 - 3 - - - - - - - - - - - - - - < - < - < < - < < - < < < = < < - < - = - = - < = - = ",
"T O.T T T T T T T T T T T T T T T O.O.M O.R O.O.O.M O.R O.T T O.T T T O.T T T M o.O.O.M T R T T L L T L T L L T L R L T T R R L L L L R L L R P L L L L L L L T L R L L L L L K L L L R L L L R L R L L L L L K L L L K L m M L L K L K J K M L K n L K K L n K K K m L L m L M K K m K J H H H n K L n J n m K M m m m m m m n n m m M H H n n n n H f n H n f n f n f H f n n f n v f f v f f g v v g n a i n n f v n a g a v a f s f g a f a a a a a a a a a a a i a i i i i i h a i i i i i i i i g i i i i i i i i i i a i i i i i i i i i i i i h i h i i i h i y y y y u y t y h y y y y y y y y y y y y y y y y r y y r y y r y r y y y r y y r y r y r r y r r r r r r y y r r y e r r r r r h r e r e r r h 3 h r 5 r r r r r r r r r 3 r r r r r r r r r r r 3 r r r r r r < r r r < - r r r - r - r - r r - r r - r - r - r r - r r - r r - - - 3 r r < r r < < < < 3 < 3 < - r < < < r - r < < < < 3 - - r - - - - < < < < < < < < - - < < < < < < - - - - - - - - - 3 - - - 3 - - - - - - < < - < - < < < - < - < < < < < < < = < < < < = = - - = ",
"T T T T T T M T O.T T T T T T T O.T M O.O.T T O.T O.T O.R R T T O.T T O.T T T T L T T T L R L T T L T L T R L T R L L R T L L T L L L R L L R L R L L R L T L R L L L L L L L L K L L L P P L L L L L L R L L L L L M J L K L L m K L K K n L n J H L n K n J L K H K J K K H K K n H H H H H H K H n H n m K n J L n n n n m n H n H m m n H n n m n H n n f n f n n n f f n f f n a n s f f v n v n a a n g n a g v v v a g g f s f a a f f g a g a g g i g i i g i i i i h a i i i i g i a i g i i i i i i i i i i i i i i i i g i i i i i i y i i i i i u i i i h u y y i h t y t y y y y y y y y y y y y y y r y y y e y y r y y y y r y r r y y r r y r r y r r r y e e e r r r r e t r e y r r y e e r r r r r h 5 r r r r r r r r r r r r r r r r 4 r r r r r r r r 3 r 3 r r r < r < r r - r r - r - - r r - r r 3 - - r - - r r - r - 3 3 r - r - r - < r - < r < < < < r - - < 3 r - < < r < r - - < - - 3 - - - r - - r < < < < < < - - - < - - - - - - - - - - - - - - - - - < - - < < - - < < < - < - < < < < < - = < < < < < < = < < < - < - = - ",
"T T T T T T +.L T T T T T T T O.T T O.T T O.O.O.T T T T T O.T T L O.T M T T T L L T L T L T T T L R L R L L L L L T L T L R T L R R L L L L R P T L L T L L L T L L T T T L L L L L L L K L L L L L L L L L L L L L L L K L M J K L L J L L J M L M L K K K n K J H H K J J K K K K H H K H H H m H H H L n m m n m m m K n n L m H f H n n J n m n J f n n J f n n n n n n n n f f f n n n f n v g g n v g v a g v v g g n v a f f a f f a a a a a a a a a a a a a i a a g i i i i i i i i i i i i i i i i i i i i i i i i i i i i i i i i h i i i i i i h i y h y i i i y y y h i i h y y y y y y y y y y y y y y y y y y y y y y y r y y y y y y r y y r r y r r y r r r e e r y y r r r r r r r r r r r e r h r r r h r r r r r r r r r r r r 4 3 r r r r 3 r 4 r r r r r r r r r < r r r r r r r - r r r r r - r - - r r r - r r - - r - r r 3 3 r r r r - < < r - < < r r - - r - < < < < < < < < < - - < - 3 3 - - 3 - - - - - < < < < < < < < < - < - < - - - - - - - - - - - - < < - - - , < < < < - < < < < < < < < < < < = < < - < < < = = = = < = - ",
"T T T o.O.T T T T T T T T T O.T T T T O.O.R O.M T O.O.T O.T O.M M O.T T T L T T R T T R T L R L T L T L R L L R T L L L L L L L L T L L L L L L L L L L R L L L T L R L T R L L L L L L R L L K L K L K K L R K L L L K m K J K K J L M K K L L L K L K M L L K K H H J K H H H K K n H H H H H H H H H m n n m n n m M m m m n m n n m H n m n n n n n n n f H f n n f f n n n f n v n f f n f v g v n v n v g a v g v n a v g s f a f a f a a a g a a g i i g h g i i i a i i i i i a i i i i i a a i i i i i i i i i i i i i i i i i i i i i i h y i i i i h i y e i i i u y i e t y y y t h y y y y y y y y r y y y y e y e y r y y y y y r y r y r r y y r r y r y r e r e r r r r e e r t r e r r e e r e r r r e r r 3 h r r r r r r r r r r 3 r r r r r r 3 4 4 < r r r 3 r r r r r r 3 - r r r r - r r r r r - r 3 r - r r - r r - r - - r r 3 3 r r - < r < r < r < < 3 r - - r r - 3 < < < r - 3 - - 3 - - - - - - r - - - < < < < < < < < - - - - < - 3 - - - - - - - - < - - - 3 - - < < < - - - - < < < < < < < < < < < < < < < = - < = < < = < - ",
"T T +.M L T T T T T T T T T T T O.T T T T O.R O.O.M O.O.M T O.O.O.T T T T T T L T L T L T T L T R T L R T L L T L T L T T L T L L L R L R L R L L R T T L R R T L T L L L L L L R L L L L L L R L L L R L L L L m L K L L L L K L M L L L m K K L n L J H L n K K H K K K K K H m K H H H H H H H H H H K n L K m L m m H m m H m K H m n n m n H n m H m n H f n n f n n f n n f n n f f n f s n n n a g a n a n g n a g a v v f a n a f a n a a a a g a a a a a a a g a i a i a i i i i i a i i i i i i i i i i i i i i i i i i i i i i i i i i u i i y h i i u i i i h e i y y u y y y y y y y y y y y y y y y y y y y y y y y y y y y r r y r y r y y r y r r y e r r y e e e y r e r e e 4 e e r e r e r 4 e r r r r r r r r r r r r r r r r r r r r 4 r 3 r r r r r r r r r r r r < r 3 r r r r - r r - r - - r r - r - r r - r - - r - r r - 3 3 3 - r r r < r < < < r < 3 - - r < - - < < < - - - - r 3 - - - r - - - - - - < < < < < < - < < - - r < < - - - 3 - - 3 - - - < < - - - - - < < - < < < < < < < < < - < < < < < - < = - < < = < < = - < = ",
"O.T T T T O.T T T T T T T T T T T T T O.O.T T O.O.O.T O.T T T T L O.T L T T T T T L T T T L O.L M O.L T L O.L L L R L L R L L L L L L R R L L M T L L T T R L L L T L L L L L L L L L L P K L K L K K K K L K L L K L L L K L K K L M L K L L K K L m L K L K n K H L H J K H K K J K H H H J H H H H H H n H J J f H H f H n n m n n K f H m n m f H n n n H H H f H f H n n H n n f f s f n f n a g v a v a n g v n v a n a g a f a f a f g a s s a g a g i s a a h i i a i i i i i i i i i i i i i i i i i i i i i i i i i i i i i i i i i i i i y i i i e i i i t i h y y e i y i e h t i h y y i e i y u h y y e y y y e y t e e y e y r y y y y r y y r y e y r r r y y r y e e r r e r e r e t r r e r e r r r 5 r 5 h 3 r r r r r r 4 r r 4 4 r 4 r 4 r r r 4 r r 3 r r r r 3 r r r 3 3 r r 3 r 3 3 r 3 3 r - - r - - r - r r - - r - r 3 r r r - 3 - r < 3 3 3 r < < < r - - - r < < 3 r < - < - - < < - - - - - - - - - r - - - - - < - < - < < - < - - - 3 - - - - < - < < < 3 - - - - < - < < < < < < < < < < < < < < < < < < - < < < - = < < - - = ",
"T T L T T L T T T T T T T T T O.O.T T T O.T T T T T T T T T T T T T T R T T T L T T L T T T L L O.L R L R M L L L R L T T L O.M L L R L L L L R L L L L L L L L R L L L L L R L R L R K L K P P L R L R L R L K L K K L L L K K L L J L L K m L L K L L M J K K H L H L J H K K H H H H H H H H H H H H H H H H J J J H H J J n n m K m H n n H n J n H H n f H n H m n H f f f s n f H n f f n g n n a n g v g a n a g g a n a f a n a s s a f s g a g a a a a a a g a a i g i i i g i i i g i i i i i g i i i i i i i i a a i i i i i i i i u i h i i i y i i h y e i u h u i h t h i i e h t y y i e h t i e y y y y e y y y y y y y y y y y r y r r y r y r r y r y y r r e r e e e e e e r r e 5 e r r r 5 r r 5 r 5 r 3 h r r r r r r r r 4 r r r r r r 4 r 4 3 r r r r 3 4 r 3 r 3 r r r r 3 r 3 r r r r r 3 r r r r r - r r - r r - r 3 r - - r r 3 - r r < 3 3 r < r < - - r r 3 < 3 < < < r < r - < < 3 - 3 - 3 - - - - - - - - - < < r - < < < < < < - - - 3 - - < < - < < - - - - - < - < < < < < < < < < < < < < < < < < < = < < < = < < < = < - < ",
"T T L T O.T T T T T T T T T T T T T O.T T T T O.T T T T O.T T T T T T T M L L T R L T L R M M O.M L T T O.M T L L L L L L L R R L L L R L L R L L R R L L L T M L L L L R L L L L R L K P P P L L L L K K P L P L K K K L L K L K L J L K L n L M K K n L n K n H H K H K K H K K H K H H H K K H H H H H H H J H H H H H H H H n m n n H J H f m n n m n n f H n m m n n f f n f n n n f f s f v n g n g v n i a f g n v a n v n a a n f a a a s a g a g a h g a i a a h i a i a i a i i a i i i i i i a i i i i i y i i i i y i i i i i y i y i u t i u i i i i y i i e i e i y h t y t i i e y i h i i y h t y e y y t y e y y y e y y r y r y y y y y r r y h e e e r r y r r r e r e e e e e r e r e r r r 5 r r 5 r r r 3 r r r r 4 r 4 r r r r 3 r 3 r 4 4 3 r r r r r r 3 r r 3 3 r r r r r r r r r 3 r 3 r r 3 - - r r - r r - r - - r - - r 3 3 3 r - r < < 3 < < r < 3 3 - < < < r < r < < < < < < < - - - - - - - - r - - - < r - < < < < - < < < < - - - - - r < < < - - - - - - - - < < < < < < < < < < < < < < < < < < = < < = < < < < = - - = < ",
"T T T T L L T T T O.T T T O.O.T T O.T O.+.M T O.O.T O.T M T T T T T L T O.O.O.L T T T m O.O.T T o.L L T L T L T T L L L L R L L R L L L R L L R L L L L L L L R R R P L K R L K K L L K L K P L K R K L L L K P K R K L L K L K K K K K L M L K J L K K K L L L L H K K K K H J K H J H H H H H K H H H H H H H H H H H H H J H H n m K H H H J n m J n H H J H H n H n H f n n n n n s n n f n n a v n v v g n n a v a g v a g a a f f a f f a a s a s a a a s g h a i g i i a a i i i i i i i i i g i i i i i i i i a y i a i i i i i i i i i y i y h i y h i h u y h i i i i t h u i y h i i i t t y e t y y h t e h h y e y y e y e y y y y y r r y r y y r e y e e y r r t r y e e e e 5 e e 5 5 r r 5 r e 5 r r r 5 5 5 5 r r r r r 4 r r r 4 r r r 4 r r r r r 4 3 4 4 r r 3 r r r r 3 < - r 3 r - r r - r 3 3 r r r - r - r - r 3 r r 3 r r 3 3 r r - r < r 3 3 3 3 < < r < r < r < < - < < 3 < < - r < 3 - 3 3 3 - - - - - - - < < < < < - < < < < < < 3 - - 3 - < < < < - - - - - 3 - < < < - < < < < < < < < r < < < < < < < < < < < = < - = = = < = ",
"T T T O.T L O.T T T T T T O.T T T T T O.T O.T O.O.T T O.O.T T T T T L L O.O.T L T L L O.T T L L T L T L L T L L L L R L L R L L L L K R L L L K R L R L L R L L L L L L K L L L L L L K L L R L L K R L R L K R K L R L P L P K K K L K K L L K K K m K L K K m K K K H H K K J J H K H H H H H m K H H H J J H H H H H H H H H H H H H n H H H H m H H n J f H n H H f H H f n n n f n v n n s v g n f n g v n a n v a v a a a n f a f a s f f f a a a s a a g a i g a g i a i i i i i i i a i i i i i i i i i i i i y i i i i i i i y i i i u i i u i y i i t t i u h y t i e i y u i h y y u i e t h u t y e e y e i y y y e e y y r t t e t y r r y y y y r e e h e e e e e e e r e e 5 e e t 5 5 r e e r 4 5 h 3 5 r 5 3 5 r r 4 r 4 r r r r r r 4 < e 4 3 r 4 r 4 r 4 r 3 r r r 3 r r r r r 3 r r r - h r r 3 r 3 - r r - r 3 r - - r 3 r r 3 r - - 3 r - < r < < r < < r - r - 3 < < r r < < < < < - < < < 3 - - - 3 - - - - - - < < < < < < < < - < - - - - - 3 - - - < < < - < < - - - < < - - - - - - < < < < < < < < < < < < < = < < < = = < < = < = ",
"T T T L T T T T T T O.T T T T O.T O.T T O.T O.M T T T T O.T T T T T T T L M T T M O.L L L T T T T T L L L T L R R L M T L T L L L R R K K R L L R L K L L M Y L P L R L R L Y L L R R L R K L L L P L K L K L L L K L L K K K L K L K K K L K K L L K L n L L K K K K K J K K H K K K K K H K H H K K H H H K H H H H H H H H H H H H H H n H f H H H H H f J G H n H f n n H H f n n H f n f n n n v n i n n i v g g v a g n n a f v a a g a a a a f a a a s i a g a i i a i i g i i a i i i i i i i i i i i i i i i i i y i i i i i i i i i i i y i y i t y i y h i i h i i e i t y h t i h i i i y i h h e i h u t e e y e y y e y t e t t e y y y y y r y r e e e e e e e e e e 5 e e e e e r r r r r r e 4 r 5 5 r 5 3 h r r r r r 4 r r r r < r r 4 r r 4 4 4 3 r r 3 4 r 3 r r < r 3 3 r 3 r 3 3 r r r 3 3 r 3 r r r - r - r - r r 3 r - - r 3 r r 3 - r r 3 < r < r < < r - r < 3 3 < < r < r < < r < < - < 3 - - - - - - - - - < - - < < < < < - < < - 3 - < < 3 - 3 < 3 - - < 3 - - 3 - - < - - - - < < < < < < < < < < < < < < < < < < < < < = < - < ",
"L T T T T T T T T T T T T O.T T #.O.T O.T T T T T T T T T T T T T L L T L L T T L L T T T L O.M M O.M O.R L T L L R L R R L L K R R R L R L Y L L K Y L L T L L P K R K L L L L K L K L L K R K P K K L L K L K R K L K K L K K L K K L K K L K K K K K K K K K J K K K K K K P H H J H K H m K K K K H H H H K P H H H H H H H H H H H H J H J G n n f H H H f H n H H H H v f n f n f n n f f g n n f g v n a a n v g n v n a v a a f s s a g a a g a a g a a a i a a i a i a i i i i i i i i i i i a i a i i y i i y i i i i i i t i i i i i u y i i i u y t t t i e y i e h e h t i i y i i e i y u y h i e y e e e t y e y t e e e e t y e r y y r y y y r e t h e e e 5 e e e e e 5 e t r 5 r r 5 r r r 4 r r h 3 3 r r 5 3 r 3 r 5 5 r 4 4 4 4 4 4 5 4 4 3 4 3 r r 4 r 3 r 4 r r 3 3 r r r r 3 r r 3 r 3 r 3 3 r r - 3 3 r r r 3 - r 3 3 r - r - - r r 3 3 3 r < r 3 < r r < < r < r 3 < < < 3 < 3 < < - < < < < 3 - < < - - r - < - < - < < < - < < - - - 3 - < < < < - - - 3 - - < - - - - < < - - < < < < < < < < < < < < < < < < < < = < < = < < = - ",
"L T L T L T T T T T T T T T T T R T T T O.T T O.T T T T T T T T T T T L T T L T T O.M T L L L O.L L T T L R L R T L L L L R R L L L L Y L R L Y L Y L R L L L R P P K R L R L L K R R K L L L L K P R K P L L R K K R K P L P L K K L K L K K K L K K K K L K K K K K K K K K H K K K K K H K K H K K K K K K H H H H H H H H H H n H H J f H G H H H H H f H H H v H v f H H f v n v n v s s n a v a v v v g v a n a a v g a n a g a v f a a a a f a a a a a a a a a a a a g i a i a a a i i i i g i i i i i i a i i a t i t i y i i i i t i y i h t i h y i h i i y i i t i i i i i e h t e i i h y h u u e i e t t t t e e t e t t t y e t y y r r y y r r y e e e e e e e e e 5 e e e e r e r 5 r 5 5 5 4 r 3 5 3 5 r 5 5 3 r r r 3 4 r 4 r e 4 r 4 4 r r 4 r 4 r 4 4 3 4 r 3 4 4 r r r r 3 r 3 r r 3 r 3 r 3 3 r r 3 r 3 r - - 3 r r 3 r r - r - r r r - 3 < r < 3 r < r < < < r < < 3 3 3 - r 3 < < < < < < < < < < - < < - - - - < < < < - < < < < < r - - - < < < < < - - < - - < - - - - - < < - - - < < < < < < < < < < < < < < < < < < = = = = = = = ",
"T O.T T T L T T T T T T T T T O.O.T T O.T T T T T O.T T T T T T L T L T L R L L T L O.m T L T L L T T T L R L R L L L T T R R R R R R K P P R P R R Y K M O.M T R K R K K K R K K R R K K L R K R K R K K K R K L K Y L L K L K K K R K K L K K K L K K K K K K K K K K K J K K K K P K J P F K J K K K K K H H H H H K H H H H H H H G H n G H G f H G f H n n H H H H H H n n s H G f f s n s v n f a s s f s s f f s f f s s s s s s f f f h s a a a a a a i a s a a i a a i a a i i i u i i y v y v y y y v y y v y i t a a i t i i i i i u i i i i y i h i e i e i u i i t y h e i u y y h t h h t h e i e e t e u e e e h e i e e t e h h e e h e t h e e e e e e e e 5 e e e e r r 5 r 3 e r r 5 5 r 5 r 5 3 r r r 5 3 h 3 5 3 5 h 3 3 5 3 h r 3 5 r 3 h 5 r r 3 3 r 3 r 5 3 r 3 3 r r 3 3 r 3 r 3 3 h 3 r 3 r 3 3 5 r 3 3 3 3 3 3 r r 3 3 3 3 r 3 3 3 3 3 3 3 r < r < < r < r < 4 3 3 < 3 2 - 3 - < < < < < < - < - - < < < < - - < < < - < < - < - < < < < - - < < - - - < < < < < - - < < - - - - - < < < < < < < < < < < < < < < = < = < < < ; , ; , ",
"O.L T T T L T T T T T T O.T T T T T T T T T T O.T T T T T T T T T T T T T L R T T T O.M R T T T T L L T L L L T R R L R L K K R L K P R R R K P R K L L O.L L T L R K P R R K R K P K R R L L R R P K P R P R P K Y K K K R Y K K K K K K K K K K K K K K K K K K K K K K K K J K K K K K K K K K K K K H K K K K K K K H H K H H H H H H H n H J H H H H H n H f G f H f v n f H H f f f n v f v n v n H s f G f s s f s s s f f s s h a s i s f s f a a a g a s i a a a a a a g i a i a a y a v y y y y v y y y y a y i i y y i i i t i y h i i e i i i y u i i i i t h i e h t u i y h u y t y t i i t y e i h e h e h u e u t e e h e t e t e t e e e e e t h e e e h 5 e e e e h 5 e 5 5 h 5 r 5 r 5 3 3 5 5 r 5 3 3 5 5 r h r r r 3 5 r r 5 3 5 5 3 3 5 3 3 3 5 5 5 3 r 3 3 5 r r r 3 r 3 r 3 3 3 5 3 3 3 3 5 5 3 3 3 3 3 3 3 r 3 3 3 3 r 3 3 3 3 3 r r 3 < r 3 - r < 3 3 r < < < < 3 < 3 < 3 3 < 3 < - 3 < < - < < - < < < < < < < < < - - - < 2 < < < < < < < 3 3 < 3 < < < < - < < - < < - - < - - - < < < < < < < < < < < < < < < < < < < < , , , , , ",
"T T T T T T T L T T T T o.T T T T T T T T L T T T O.T T T T T T T T L T L T T T T T R T L R R L L T R L T R L L R R R R R R R L R L P P K R P R L R L R M o.O.M R R R P K R L K R P R K Y K L K K K K K P K K K K L R K K K K L K Y K Y K F K K K Y K K K K K K P K K J K K K K K F K K K K K K K K K K G K K K K K K K K H H H H H H H H H H H G H H H G H H G H G G H f G H G f s f G G f f G n v v n n s f v H s s s H h s s s s s s s s h s s f a a s a a a a a a i i a a a i i a a a i a a v y y y y t v v i a y i y y y t y i h i y i h y h i i e u h i e i h y i h y e i i e y u h y t i i t i e u i i e e i e e e e h e e e t e h e e u i e h u e u e h 5 e e e e e e e h r r 5 r 5 5 r r 5 5 5 r 5 r 5 3 r r r r 3 3 3 3 5 5 3 5 3 r 5 3 3 3 5 r 3 3 5 5 3 r 3 5 3 3 5 r 3 3 3 5 3 3 5 3 5 r 3 3 r 3 5 3 5 3 3 r 3 r 3 3 5 5 3 3 3 3 3 r 3 3 3 3 3 3 3 3 < 3 < 4 3 3 3 < 4 < r < 3 3 < < < 3 - - < < < < < 3 - < < < < < < < - < < < < < - < - < < < < < 3 < - - - < - < - - - - - < < - - - - < < < - < < < < < < < < < - < < - < < < < = < ; = , = = ",
"T T L T T T T T L T T L T T T T T T O.T T O.T T T T T L T L T T T L T L T T L L L T L T T T L R T L R K R L R R L L R R L R R R R L R K R P L R R K R T R L M R K R K R K R Y R K Y K K R Y Y K R P R Y Y Y P R Y K Y K R Y Y F K K K K K Y K K K K K K K K K K K K F F P F K K K P J K K K K K K K K K J K K J K H K H K K F H K K K H H H K n H H H H H H H H H f f H G f f G s H f v v G v v v v n s v s v v s s G s s G s s s s s s s s f s a i f a s s a a a a a a a a a a a a a i p a i i y t v v v y y t p y i p a t a t u i i i i u i i i t i y u y i e i t t i y t i i h i t i y t y h e i e i e e t h i e i t e y t e i h e u e e h e e e e e e e e e h e e 5 5 e h 5 5 e e 5 h r 5 5 5 r r 3 3 3 r 5 5 5 3 5 3 h 5 5 3 5 3 h 3 5 3 5 r r 3 h 3 5 r 3 3 r 3 5 r 3 3 r 3 5 5 3 5 r r 3 3 3 r 3 5 r 3 3 r 3 3 5 3 r 3 3 3 3 3 3 r 3 3 3 3 - r 3 3 3 3 3 3 r 3 3 < 4 < < 4 < 3 < 3 3 < 3 3 - 3 2 < < < < < < < - 2 < < < < < < - , < < < - 2 - < < - < < < < - - - 3 < < - 3 < - - - - - < - < < < < < - < < < < < < < < < < < < < < < - = < = < = = < = ",
"T L T T L T T T T T T L T T T T T T O.T T O.T O.T T T T T T T L L T T L T L T T T L R T R T R L T R R R R L L R R T R R L R R R R P R R L R R L R K R P O.M R R R R K R R K R K R P Y K T T L R R K Y Y K R K Y K R I Y Y K K I Y K Y K K K Y K K K F K K K K K F K K P K P K K P K F K K K K K K J K J K J K K K K F K K H K H H H H K H K H F G H H F G H v v H H f G H v G n G H s G v G n n v v v v v v n s G s G s s H s s s s s s a s s s s s s i f h f a a a a a a a i a y v y v i a a i y v y y t v y y y a v t y v y v i i u i i y i t i h y i i t i i i h t y i i e e y i t y y t i u e i e u i e i e t e i h t e t e e e t e y e e t u e e e e e e e e e e h e e e e 5 e 5 e e 5 5 r r 5 h 3 r 3 r 5 5 3 5 3 3 r r 3 r r 5 3 3 h 3 r 5 3 h 3 h 3 3 5 5 3 r 3 5 3 5 5 r 3 3 5 3 3 5 5 3 r 5 3 3 5 3 5 3 5 5 3 5 3 3 r 3 3 5 3 3 5 3 3 3 3 3 3 3 3 3 3 r < 3 3 3 3 3 3 3 3 3 < < < 3 < 2 - 2 - 3 - - - < 2 2 - - < < - < , < < , < < < - < - < < < < < - < < < < 3 - - - < < - < < < - < - < < < < < < < < < < < < < < < < < < < < < < = < , = < , = = ",
"O.L T L T T T L T L T T T T T T T T T T T L T L T T T L T L T T T L T T L T T L T T L L R R R T R L R L R R R R R R R L R T T L L Y P P R K R R R R R R R R R R R R R R R R R R R Y R R M R R R R R K K R Y R K Y R L K K K R R K Y K K R F K K K Y P K Y K F K P K K K K K K K K K P K K K K J K F Y G K F F K H K K H K F H K K F F H K H F H H H K H H H K H G H G H G H n v H s f G n v v v v n v H v H v v s s f s G h s s s d s s s s s s s s s s s s d h a a a a a a a a a y v y i i a i y v v t y y v t a t y y t t t v i u u i u h i i h u i t y u e i e i h u e i i i u y y u y h e i i t i i e i t h h e e e e h e h u e e h e u h e e e t t h e e e e e e e e e 5 e e r e r 5 r r r 5 r 3 5 r 5 r 3 3 r 5 r 5 3 5 h 5 3 3 h 5 r 5 3 5 3 3 5 3 3 5 3 3 5 3 5 5 3 3 3 3 5 3 3 5 3 3 3 r 3 3 3 3 3 r 3 3 3 3 3 3 3 3 3 3 3 3 3 3 3 3 3 3 3 3 3 3 3 3 3 r < 3 3 3 3 3 3 3 < 3 < 3 3 3 < 3 - 3 2 2 2 3 3 < < 2 < 2 - - - < < < < < < - < < < < < < < - < < < < < < < - < < - < - < < < < < < < < < - < < < < < < < < < < < < < < < < < - < < = < ; , ; < ",
"T T T T L T L T T L L T T L T T T T O.T T L T T L L T T T P o.L L T P R T T L L R M R T L R R R R R T R L R R L R R T R R R R R Y P Y R R R R L R R R R R R R R K R R R R R K R R R K R R R R T Y K Y Y K R Y Y R K K Y Y Y K K K K K R K K I K K F F P K K K K F K K P K F K K P K K K P F K F K F K K K K K K K K G K K H K H H K H K H F H F F H H H F H F H H G H G s H G G G f G f G v v G v G v v v v v v H s G s G s d G s v v s d s s s s s s s d d s s a a d a h a a a a a y v a a p a v y v y v t y v y v t t y y v y a u i i u i i y u i h y h y e t t i h t y t h t e i u h t t h t t y i e e h e i e t e t i e e e e t e e e e e e e e e e e e e t h 5 e e e e e e 5 r 5 5 e r 5 5 r 5 5 3 3 5 r 5 5 r 3 5 5 3 5 3 5 3 5 3 5 3 3 h r 3 3 r r 5 5 3 3 5 r 3 5 3 3 r 3 5 3 5 3 r 3 r 3 3 3 3 3 3 3 3 5 3 5 3 5 3 5 3 5 3 5 3 3 3 3 3 3 3 3 3 3 3 3 2 < 3 < 3 2 3 < 3 3 , 3 6 < 4 < < 3 2 2 3 - 3 2 = 2 2 - < - < 2 2 < - 2 - - < < - < - < < 2 = < = - 2 , < < = - < - - < < - < < < < < < - < < < - < < < < < < - < < < < < < < < < = < , = , = , , ",
"T T T T T T T T T T T L T T T T T T T T T T T T T T T T P T R T T L T L L R T L o.O.L T R L R T L R R R L R R T R T R R T R R R R R R R R R R R R R R R R R R R T R R R R R R R Y Y R Y R R R T R R R R R K Y Y K Y R K Y Y Y R Y Y Y F Y K K Y Y P K P F K Y K P P F F K P K F G P P F F P K P K K F P K K G K K K K K K F F J F H K F K K F H K K F G G H H G G H G H H G n G f G f G v v v v H v v v G v v v G s s s s s s s s s d s s s s a s d d s s s s a a a a a s d a a y v v a p a a i y y v t v y p y a y y v v t t y y i i u i i i i h i t i i u i i i t y y h u y i i t i t i y t i h u e u y u t e h e u e h e u e e h e u i e u e e h e e t e e 5 e 5 e e e 5 5 e e e r e r 5 r r 5 3 r 5 r r 3 5 3 5 r r 3 h 3 5 r r 5 r r 3 5 3 5 5 3 5 3 5 3 3 r 3 3 5 3 3 5 3 3 3 3 3 3 5 3 3 3 5 3 5 5 3 3 5 3 3 3 3 3 3 3 3 3 3 3 3 3 3 3 3 3 < 3 3 3 3 3 3 3 3 3 2 3 3 3 2 3 3 3 < 3 < 4 < 2 3 - 2 - 2 3 2 2 - - < 2 < - < < 2 , - 2 - , , , , - , < = 2 2 , - 2 , 3 = < < < 3 - < < < < - < < < < < < < < < < < < < < r < < < < < - < - - = < , , ; , < ; ",
"L T T T T T L T T T T T T T T T T T T T T O.T T T T T L T L T T L T T L L R L R L R L T T L R T R T R R R L T R O.M R R R R #.R R R R R R R R R M T T R R #.R R R R T R R R R R R R R R R M R M R R Y Y R R R R R M R R K R R K K Y Y R Y Y K F K Y K F P F P F P P F P F P P Y F P P F F P K G P F K K K F P P K K F K G K K G K H F K G G K G K G K H H G H H H v F v H H G v v G v v H v v v G v G v G v v v s G v v v c s d d s s d v s s v a d v a a a v a a d a s a a a a v y a a a a a a p a a a a y y v t t v y i t y a u a i i i i i i y a t u u y i u y u t i h y t y u y u u y h i e e t y e h e t t e e h e u e e e e t e t e t t e e e e e e e e e 5 e r r e 5 e r r 5 e 4 e 5 r 5 h 5 3 5 r 5 3 r 5 5 3 r 5 3 r 3 5 3 3 r 5 3 5 3 r 5 3 3 5 3 3 h 5 3 5 3 3 3 5 3 3 3 3 5 3 3 3 3 3 3 5 3 3 3 3 5 3 r 3 3 3 3 3 3 3 3 r 3 3 3 5 2 3 3 2 3 3 3 3 3 2 3 3 3 2 3 3 3 2 3 3 < 2 < 2 3 3 2 - 2 - 3 - - < 2 - 2 2 2 = 2 2 - 2 - - 2 - = 2 2 - - - , = 2 2 - 2 - , - < < < - < < - = 3 - - < - < - < < < < < < < < < < < < < , < < < = , < = < = = = = < ",
"T T T T T T T T T L L T L T T L T T T T T L T T T T L T T T L T T T L T T L T T T L T R R R R R L R R L R R R R R #.R R R R R R T T R T R T R R T T T R #.M R R R W R R R R T W W R R R R T R R R Y R R R R R R R R R R Y Y R I R Y K F K K Y Y Y F K Y K P P P F P P F F P F P P F P P P K K Y F P F P K K K F F P F P K K G P F F K K K K K K G K K G H G F H H H G v G v G v v G G v v G G v v v v v v v G v v v v v v v G s c v v v v s d v v v a d c v a a a v a s d d a a v v a a p a p a a a a t y v y v y v t t a a p y y p p i i t i t y y y i i u t y i y h i t h y i y i y y i t i e h t t i t y y e i e e t e e e h t t e t t t e t e t e t 5 e e 5 e e e 5 e e 5 e 5 r e e r r 4 e 3 r r 5 r 3 r 5 3 r r 5 r 3 r 5 3 h 5 r 3 h 5 r 3 5 r 5 h 3 3 5 5 3 3 3 3 r 3 3 3 3 3 3 3 3 3 3 3 3 3 3 5 3 3 3 3 3 3 3 3 3 3 r w 3 3 3 3 3 3 3 3 3 3 3 3 3 2 3 3 3 2 3 - 3 2 2 3 , 3 2 3 2 2 - - 2 3 2 2 2 2 3 2 - 2 3 - < < 2 2 , - 2 , , = 2 = - = 2 2 = , - - < - 2 - 2 , - , < < < - 3 - - < < < < r < < < < < < < < < < < < < < < , < < < < < = < < = , = ",
"T L T L T L T T T L T T T T L O.L T O.M T T T T L T T T T L m T R M L T M O.R L L R L R T R R L L R R R R R R T R R R R R R R R T R T R W R T W R ) R R R T T R T T R R W R R W R R R R W R R R R R R R R I R R R R R R R R I R R I Y Y Y Y Y K Y Y K K Y K F P F P P Y P Y K K K P P F I K F P K K P F K I F K P F P G K F K F K F K K K K F K K F G K F H F F G F H H v G v G v v v G v v G v G v v G v G G v G s G s v v f v v v a v v c d v v v a v v a v d c a d d a d a c p p v a a a p a p a i a v p a y v y v t i y t a i p i i i y i i i p y y t t i t u i u e u i u i i t i i t t u t i t t y t e y e u e e u i e h e e t t e e e e e t t 5 5 e e e e e e e e r 5 e r r e r 5 4 r e 5 r 5 3 5 5 r 5 r r 5 5 r 5 5 5 r 5 3 5 3 5 3 3 r 3 3 r 3 3 3 r 3 3 3 5 5 5 3 3 5 3 3 3 3 3 3 w 3 3 3 j 5 3 3 3 3 3 3 3 r 3 3 3 3 3 3 3 3 3 3 5 3 3 3 3 3 2 3 3 2 3 - 3 2 3 2 - 3 3 2 < < < 3 3 2 2 3 - 2 - - 2 = - 2 2 = = 3 = , - - , 2 - 2 2 - , 2 - - = , - 2 < - 2 - , - , < < < < < < - - 3 < < < < < < < < - - < < r - < < < < < < < < < < < , < = < = = = ",
"T T T L T T o.M T T L T T T T T O.L O.T L T T L T T L R T T O.O.o.O.T L L L L R R L R L R L R R R L T T R T R R R R R R R #.R R R W R R R T R R R R W W R ) O.R R W W W T W T R W M #.R T R W R R R R Y R R I R R R R R R R R R Y Y Y K Y Y Y K K Y F Y Y Y I P P P F F P I Y K K I F P P K P F P I P P K Y P K Y P K P P G P G K K K F F F K K K G P G K F F H F H G G F H F v F v G v G v v G v G H v F v v v s G v G G v v v c v v v v v v s a c v d v v v a v v a v a s v a v a a a a a a p a a a p t p i p y v t v y v i a i i i p i p a t y p i p i t t a e i h u h e u h y u y e y i y u e y u t h u t i e h e e e t e e e e e t e t t e t 5 e e e e 5 e e 5 e 4 5 r r 5 r 5 e 5 e 5 < e 5 r 3 h r 5 r 3 5 5 3 5 r 5 r 5 3 h r 5 3 h 3 5 h 3 5 5 3 5 3 5 3 r 3 3 3 3 3 3 5 3 3 3 3 3 3 3 3 3 3 3 3 3 3 3 3 3 3 w 3 3 5 3 3 3 3 3 3 3 3 3 3 2 2 3 3 3 3 2 2 3 - 2 3 3 2 3 , 2 3 2 2 2 - 3 - 2 3 2 - 2 3 2 3 = < = 2 = - 2 - , , = = - 2 = - 2 = - 2 - , = - , = 2 - 2 , - < - , < < - < - < < < < < < < < < r < < < < < < < < < < < < = , < ; , , = = , = ",
"T T L T T T T T L T T T L T T L L T T T T T T L L T T T L T T M L L T T L L L L R R T L L R L R T T R R M #.R R #.R R W R R R R #.R R #.T W T W O.M #.R M ) T T ) R #.R W T R W W R R #.R W R W W R W R I R W I I R R R R R R R Y K R Y Y P Y Y I P P P K K K P P P F P I P F P P K P F F P P P F P I P P F K Y K F P P F P K P K F P K P K F P F K F K F H H F F F n G F H H v v F v v v G v F n b n G v v G F G v G G v v v G v v v v v v v c v c v a v v d v a a v a a d d s c a a d a d a a t v y p v t v y v t v y p i p p v y a y i a t p i p y i y u u y y u h i y h t i y u i u i y h h i u e i t e t e h e e e e h e t t e e t e t t t 5 t t t t 5 e e e e e e r e r 5 5 5 r 5 r 5 e 5 5 r 5 3 r r 5 5 h 3 5 r 5 r r r r 5 5 r r 5 3 r 3 h 3 3 3 5 3 3 h 3 3 5 5 3 3 3 3 3 3 5 5 3 3 3 3 3 3 3 j 3 3 3 3 5 3 3 3 3 3 3 3 3 5 3 5 3 3 3 3 3 3 3 - 3 3 3 3 3 2 - = 3 2 - 2 3 3 2 3 2 3 - 3 2 - 3 3 = = 3 = = 2 - 2 - , , = - = - 2 , = 2 - = , j = , - 2 2 = = 2 2 2 - 2 - 2 - < < < < < < - < < < < < < < < < r - < - < < < < < < , < < , = = < , , = = ",
"T L T T L T T T T T L T T T T T T T T T T L T T T T T T T T T T R T T L R T T L L T L L R L R R O.M R R R M #.R R R R #.#.R #.W R W R R W R T T T ) #.R O.R #.R T R W W W O.W W R W W R W T T W W R R R W R R W W R R R R R R I Y R R Y T Y Y Y P P Y Y Y Y I P I P Y P P P Y P P I P P P K I K I P P P P P Y Y P P F P Y F P F P P F F P G F K P F K F K F F K K F G G v F H D F b H G G v H b G G G n G H G v v G v f G v G s v v v G v v v v v v v c v a v d c v c a v a s v a a v a a a d a v t v t t v y p t v y v a a i i y p y a a t p i y p y u a t i u u i t u i u t i i y y i t t y u y h i t t i h t t t u e t e e u e t t e e e e 5 t t 5 5 t 5 5 e 5 e 5 e 5 5 e e e r e r 5 r 4 e 5 5 5 h 5 r h 5 h 5 r h 5 5 5 r 5 3 h r 5 r 3 5 5 3 3 5 3 3 5 h 3 3 3 3 3 3 3 5 3 3 3 3 2 3 3 3 3 3 3 3 3 3 3 3 3 j 3 3 5 3 3 3 3 3 3 3 2 3 3 3 3 2 3 2 3 2 2 3 2 3 3 3 3 2 3 2 < < 2 3 - 2 2 < = 3 2 - 2 2 3 = 3 = = 2 - 2 , - 2 2 , 2 = - = - 2 = , - , - = = - - 2 - - - 2 = 2 < < < < < < - < - < < < < < < < < < < < < - - < < < < < < < < < < < = = = < = ",
"L T T T T T T T T L T L T T T T T T T T L T T T L O.T M T L T L O.L T M L T L T L L T L R K K R M T R R W O.R R W R R #.W W O.W #.#.W W W O.W #.W R R R #.R R ) R #.R #.R T #.R R #.R #.W T T T R W R R R W R R R R R R W I R R R R R R Y Y Y Y Y P Y Y Y Y P P P Y Y P P P P Y Y P P I K Y Y Y P P Y Y Y P Y P Y Y Y P P P P P F P K P P F P P F K K K K F K F F H K H F H G v n F G v F v v G F b b F v G H G H G G v v n f G v G H v G v v v v c v v v c d v a v s v v s v s v v a v v a s v y v v t v t a a y a y v i i a i y v a t a y i i y a i u t i u i u i u y u i i i u h h i i i i h t u e h i e u y h e t e e y e e e t e t t t e t t 5 e t 5 e e e e e e e e e 5 e 5 r 5 r e 5 e 5 5 5 h 5 5 r 5 5 r 5 5 5 h 5 h r h 3 5 3 3 h h 3 h 3 h 3 3 h 3 3 3 5 5 3 5 3 3 3 5 2 3 3 3 3 3 3 3 3 5 3 3 3 3 2 3 3 3 3 3 r 3 5 3 5 5 3 3 3 3 2 3 3 3 3 3 3 3 3 2 3 2 3 3 3 2 3 2 < < < < 2 2 3 - 2 3 = = 3 3 = = 3 3 = - = - - - = = , = - j - = , - = 2 - = 2 = 2 2 = - 2 - 2 , < < , < < < - < < < < < - < < < < < < < < < r < < < < < < < , < = < , = = = , ",
"T T T L T L T L T T T T L L T T L T T L T O.T L T L O.O.T T T T L T L O.T T T L R T L R L R L R R R #.R R R #.R #.#.#.W #.R #.W T ) #.R #.W O.( #.W #.) #.W #.#.T ) O.) #.) #.W ( W #.W W W W T W R R W W R W R W W W R R W W R W Y R Y T Y W R Y Y Y T Y Y Y Y Y P Y Y Y Y Y Y Y Y P Y Y Y P Y P Y Y Y Y W Y W Y Y T Y Y Y P I P P I P P P P F P P F F K Y F K F K F H F F F G G n F G H F G H H G n K G H G H H G G H G G G G G v G v G v v v v v v v v v v a v d v v v v v d v v v v v v a v v v v v v v p v a p v y a a a a v y a t a a t a a t a i i u i t h i i u i i i h i i i i u i i h i i i i y i h e e y e i u e u e e e t e e t 8 5 e t 5 e t t 5 e 5 e e 5 e e e r t r 5 t e 5 e e h 3 5 5 5 h h 5 5 h h 5 r 5 5 5 h 5 5 h 5 3 5 5 3 5 3 3 5 3 3 5 3 3 3 3 3 3 5 3 3 3 5 3 3 3 3 3 3 3 5 j 3 3 3 3 3 3 5 3 3 j 3 3 3 3 3 3 3 3 3 3 3 2 3 2 2 3 2 2 3 3 - 2 - 2 3 - 3 2 2 2 3 < < < 2 3 = 2 3 = 2 = 3 = 2 = - - j 2 , , - 2 = - 2 - - 2 = 2 , = = - 2 = - , = - , - - 2 < < < < < < - < < < < r < < < < < < < < < < < < < < < < < , < < = , < , = = ",
"T L T T L T T T T L T L T L T T T L L T T T T T T L T T T L L T T T T L R T L T L L T L R L P R R R T T W W #.#.W -.#.W -.W ( #.#.#.#.) #.-.W #.#.( -.( #.#.#.) #.-.( #.( #.#.) #.W #.( -.W O.W W R W R T W W #.W W W W R ( W W W W R W W W T W T T W T T Y Y W T W T R W T Y W T W Y W T W T T W Y T W T W T W T W T W W T W Y Y Y Y Y Y P Y P P I P Y Y Y Y K K Y F K F K F K F F K F K F K F F K K F K F K K F K K F H K H K G K H F G G G G v v v v v v v G H H v H G v v n s G f n v v f f v v s f s s s s s f s f s f f a a v a a a a a a a a i a a i a i a a h a h g g i i h a a i i i g i a i h i i i i h h h h h h h h t y y t h e t h t t h t e u e e e e e e e e e e e e e e r r r e 5 e t e 5 e t e u e t e e t e t 5 5 h r 5 e e e 5 r 4 4 r r 4 r 4 r 4 4 r 4 r 4 4 4 3 3 r 3 3 3 5 3 5 3 3 3 3 3 3 3 3 4 4 3 4 3 3 4 3 3 3 3 3 5 5 3 2 3 3 3 3 3 2 3 3 3 3 3 3 2 3 3 2 3 2 3 3 2 - 3 3 2 3 < < < < , < , - 2 2 = 2 2 2 - < < < < < , < , , - - = , 2 - = 2 - = 2 - - 2 - - < < < < - < 3 - 3 3 - < < < - 3 - - < 3 < < < < < < < , < , - = = = , ",
"T T L T T L T L T T T T T L T T L T T T T L L T T L T T T T T L T L L T T L T L T T L R L R P R R R T W #.-.-.-.-.-.-.-.-.#.#.-.>.#.#.O.W W W ( #.R W W W W #.W W ( W W W ( W -.>.-.>.#.( #.W W W W W W W R W W W W W W W R T R W Y R T Y Y Y Y Y Y P F Y Y Y P F Y Y K Y Y P W Y Y Y P P R Y Y P Y P I R P W I Y Y T W P P P Y Y P P Y Y I P Y Y K Y I H G F G Y F K F H F F U H G v G v n v G v v G H G v v G G v G v G H H H H G F f H f s v F b F H K G G H G H H G n n f f n n n s v f s s f s s s s s f s s s a a a a f f a i g y f g g i g a f f a g a a a g g a a i a g a a g h g h i i i h i h u t h h e e 5 r 5 5 5 5 r 4 r 5 5 5 4 4 4 4 5 5 4 4 4 4 4 r e 5 e e e h h e e h e r t t t 5 t t t t e t t t t h t e e e 5 h 5 3 4 4 3 2 2 2 2 2 2 = - j , & = = 2 = j 2 - 2 2 - - j 2 - - j - j j - 3 3 - - 2 2 3 2 3 3 3 3 3 3 3 3 - 2 3 2 2 - 2 2 - 2 - 2 2 2 - 2 2 - - 2 2 - j - 2 2 j - = 2 j - 2 = , = - = = = = % ; % ; % ; = % % = , = , - 2 2 = = = = , - j - 2 - 2 , < < < < < 3 3 - < 3 - - 3 3 < < 3 < - 3 < < < < < < < < = = , , = , - , = ",
"L T T T L O.T T T L T T T T R L T T L L L T T T O.T T T T T M L T L T T T L T T R R T L R P R P R R T W >.G.:X:X:X:X:X:X=X=XJ.=XJ.=XP.*X=X:X=X:X:X=X:X*XJ.=X*XP.*XJ.*XH.z.H.l.l.k.l.k.k.w.q.q.6.-.W R R R >.k.z.z.H.H.H.H.J.H.P.J.J.P.J.J.H.G.H.H.H.H.H.H.H.J.J.:X=X:X:X:X:X:X:X:X:X=X:X:X:X=X:X=X=X:X=X=XJ.=X=X=X=X:X=X=X:X:X:X:X:X>X:X:X>X>X=X=X=X:X=X=X:X=X=X>X>X:X>X<X>X>X>X:X>X=X>X:X:X=X:X:X:X=X:X=X=XH.G.G.l.q.q.e.5.6.5.5.5.6.8.6.:.&.o.n n b n G -.k.0.q.0.q.q.q.q.i.q.w.G.G.G.&XG.&X&X&X&X*X;X&X;X;X=X;X;X=X-X-X-X-X-X-X-X-X-X-X-X-X-X-X-X-X9X-X9X-X-X9X-X-X-X-X;X;X;X;X;X;X&X;X&X&Xp.UXUXw.y.w.w.9.9.e.9.8.e.e.8.e.6.5.=.6.6.=.r.:.r.&.*.&.%.@.@.*.+.+.o.o.o.f a h y h h e e r r r 3 4 t y t p b ;.&.#.o.o.L L P O.+.@.*.@.%.&.&.:.=.=.=.6.=.6.r.=.6.6.=.<.6.=.r.r.r.&.&.&.*.*.*.*.*.*.o.o.o.o.J t.J m J m o.J o.t.J m J J J J g m g g g g J g a g i g a a a s s i g s a s a g h a h h h i h h e h h h e y y e r h f g J m J o.J o.J o.g y < = 2 - = 2 - = - - = 2 - - , - - - < < < - - 3 - - < < < - < < - < < 3 < < < < < < < < < < , , - = = = - ",
"T L M O.T M T L T L L R L T T T L T T T T T T T L T T T T T O.O.T T T L T T R L L R P R L T P R R R T -.h.nXKXHXHXJXHXKXHXHXHXHXHXJXGXGXJXJXJXJXHXJXHXJXHXJXGXHXJXHXHXJXKXJXJXKXKXKXKXKXKXKXKXLXl.W >.-.>.l.HXJXHXHXCXCXVXVXFXFXHXHXHXHXHXHXCXHXCXHXCXJXCXJXJXJXJXHXHXJXJXHXJXJXHXKXJXHXJXJXJXHXKXHXJXKXJXKXKXJXKXKXKXKXJXKXKXJXKXKXKXKXKXKXKXKXJXKXKXKXKXKXKXKXKXKXKXKXKXKXKXKXKXKXKXKXKXKXKXKXKXKXKXKXKXKXKXKXKXFXxXkXxXKXKXKXKXKXKXKXKXLXLX7XR R W R k.zXSXMXmXMXDXSXSXGXGXJXGXJXLXFXLXJXKXKXKXLXKXLXKXLXKXKXKXKXKXKXKXKXKXKXKXKXKXKXKXKXKXKXKXKXKXKXKXKXKXKXKXKXKXKXKXKXKXKXKXKXKXKXKXKXKXKXKXLXLXLXLXDXDXPXPXPXPXPXcXcXcXcXkXkXkXIXIX7X8X8X4X4X9X9X9X>X-X9X-X-X-Xw.r.y.8XIXIX8X8X8X8X8X8X8X&Xn a v M 2.GXGXNXxXxXlXIXyXwX5X=Xi.i.e.e.9.w.w.i.p.p.&Xp.;X&X&Xp.;X;X;X;X&X&Xp.p.p.p.y.w.i.e.e.9.e.8.6.6.6.=.=.6.r.r.:.&.&.&.&.@.&.*.@.*.@.&.&.&.@.@.*.*.@.*.@.+.+.*.o.o.o.@.o.o.o.o.o.o.J J o.o.J J J J J J n m f m m H 6.y.e.5.e.e.e.0.7.0.l.w.wX&X; 2 - = 2 , = = 2 - - = 2 , < < < , < < < - 3 - 3 < < - 3 - 3 3 - < < < < < < < < < < < < < = = , 2 2 = - ",
"T L T L L L T L T L L T L T T T T T L T T M O.O.T T L T L T T L L T R T T O.M O.L Y P P T P L R R T W W K.JXJXJXHXHXHXJXHXHXHXJXHXGXJXHXHXJXJXGXJXGXHXGXHXHXHXGXJXHXJXFX6Xq.G.*X-X>X5X5X7X6XeXnX2.b h.H.l.:XKXJXHXHXJXKXLXGXKXJXJXJXCXCXCXHXCXVXVXCXVXCXFXBXBXVXVXVXHXVXHXVXVXVXCXCXVXVXVXCXBXVXVXBXBXVXNXVXVXVXVXMXMXVXVXMXVXNXVXNXNXNXNXvXNXnXbXNXNXvXNXbXvXvXvXvXvXvXaXzXvXuXvXuXzXzXuXuXuXuXiXyXuXuXiXeXqX2X:Xk.;.T 0.:X>X<X5X2X5X5X8X2XcX6XF -.h.h.:XFXHXbXmXmXmXmXFXGXGXHXKXKXVXqX>X:X*X*X&X&X&X&X&X&X&X*X;X*X;X;X;X*X;X-X-X-X-X-X-X-X-X-X-X=X-X-X-X-X-X-X-X-X;X-X-X;X;X;X;X;X&X&X;Xp.&X&Xp.&X&Xw.w.w.w.e.e.5.6.<.6.<.r.=.r.:.<.r.&.&.&.@.@.@.@.@.@.o.O.@.+.*.*.9.4XwX7XqX8X6X0XqXqX2XqXkX8Xg c R -.H.KXPXAXbXxXzXwX5X>XG.i.G.i.&X;X-X-X-X-X-X-X9X-X>X9X9X9X-X9X-X-X<X-X9X9X>X9X9X9X<X9X<X9X4X4X4X4X4X8X4X4X4X5X5X8X4X4X4X4X4X4X8X6X8X4X8X8X5X4X4X4X4X4X4X8X4X4X8X8X8X4X5X8X4X4X4X4X4X4X4X<X4X4X4X4X<X4X4X4X4X4X4X9X*Xk.k.G.J.J.:X,X,X,XeXqXG.h r = = = 2 = , = = = - - , - - - - , , < < < < 3 < - 3 - - < < < < < < < < < < - - < < = < - - - 2 = = - - ",
"L T L T T T T L L T T L T T L R L L T T T T L L T L T T T T T T T L T T M O.L o.Y T T R P Y T R R T O.-.k.BXJXJXHXHXHXHXHXHXJXJXJXJXJXJXJXJXJXHXJXHXJXHXGXHXHXHXJXJXuXz.E B 9 l x x ~ ^ s.A.@XA.l 8 >.z.z.d.0XBXvXwXyX0X2X2X2XqXiXnXKXJXHXVXHXVXCXCXBXBXCXBXCXVXVXVXVXVXVXFXVXHXVXVXVXVXVXVXBXBXVXZXmXnXVXVXvXVXnXnXVXvXvXnXvXvXvXaXaXvXvXaXzXaXaXaXuXuXuXaXuXiXiXiXiXeXiXiXeXeX0XiX0XqX0X0X0X1X1X1X,XP.P.I.K.3.-.L b A ' a.v.m.m.m.M.M.m.A.U.4.1 U h.1.T I.+X!.z.h.h.h.h.h.k.K.:XeXVXCXeX*Xk.q.q.0.2.6.<.6.6.<.<.<.2.6.6.6.0.6.5.5.6.6.<.6.6.6.6.6.6.6.5.5.6.6.6.6.5.6.6.<.6.6.=.<.<.<.r.r.:.;.r.&.&.&.&.&.&.&.@.*.@.+.o.@.W o.o.o.o.o.o.O.T o.J o.P P P @.@.+.&.&XIXlXeX0X!.~.~.~.~.~.~.oXQ.N.-.= b R W M 0XI.%.@.&.&.:.<.:.<.,.%.&.i.<XIXIXkXkXcXcXcXcXcXlXcXcXcXcXcXcXcXcXcXcXcXcXcXcXxXxXxXxXxXxXxXxXPXPXbXPXPXPXPXbXbXPXPXNXPXbXNXPXNXNXNXNXPXNXNXmXPXNXNXbXbXNXNXNXbXNXNXNXNXNXNXPXNXxXDXPXAXNXDXDXDXDXDXDXDXDXkX<X2XrXaXnXnXnXnXnXVXjXrXd.@ r t.% - = = = - , , , , = = - , 2 - - < - < - < < < - 3 3 - 3 < < < < = < < < < < < < < < < - 2 = = = , = , ",
"T L T T T L L T R T L T L L T R T L T L T L O.L T T T T T T T T T T T L T T L R L T T L R P Y R R R #.( k.BXJXJXJXJXJXHXJXJXHXJXJXJXJXJXJXJXJXKXJXHXGXHXHXHXHXJXvXP.( z 9 q q z B A ^ s.W.@XN.x 7 7 W z.z.E ^ I.bXAXyX6X>Xl.k.k.,.h.:XnXHXHXVXCXVXVXCXVXVXVXBXVXVXHXFXVXVXVXVXVXVXVXVXVXVXnXVXnXnXVXVXvXZXnXNXVXVXvXvXnXvXvXZXvXvXvXvXvXvXaXzXzXuXaXuXaXaXiXiXiXiXeXeXtXqXeXqXqX0XqX0X2X2X0X3X0X1X,XP.P.K.h.<.W b x a.R.R./.]././.].(./.{.E.X.w > x g.h.M z s.XX~.L.d.g.( ( ( ( >.>.z.0XVXZX1Xk.q.0.2.<.<.6.<.=.<.r.<.<.<.<.<.6.6.6.:.6.<.6.<.<.=.6.6.6.6.<.6.6.6.<.6.:.<.r.&.6.=.r.:.r.&.;.&.&.&.&.&.&.$.@.*.+.@.@.o.+.O.o.o.*.+.o.O.o.o.T o.o.o.P o.o.o.o.@.i.IXcXrX~.+XpXfXfXfX#XpXpXfX+XN.V 1 @ 0 T T 6 l n.N.) c i u a n m P @.%.@.%.e.4XyXIXIXIXkXkXIXkXkXkXkXcXkXcXkXkXkXkXkXcXkXkXkXzXcXcXcXxXcXcXcXcXxXcXxXcXxXxXxXcXxXxXxXxXxXxXxXxXxXxXxXxXxXxXxXxXxXxXxXxXxXxXxXxXxXxXxXxXxXxXxXbXbXxXPXxXAXNXPXxXDXDXkX,X,XrXaXaXaXaXaXaXnXaXrXf.M %   3 g # 2 = - 2 = = = = , - , , , - , < < < 2 < < < < - - 3 - - 3 3 - 3 2 < < < < < < - < < - , - 2 = = = , = ",
"O.M M T L T L L L R L P L T L T L T T L T T T T T L T T T L L T L T T T L L T R R R R R R Y Y T R R W W h.BXJXJXJXHXJXJXJXJXHXHXJXJXJXJXJXJXJXJXJXJXHXHXGXJXHX2X .B l 9 7 q 9 z B V b.[.).a.l 7 w 7 ( z.z.) x s.d.0XmXAXzXwX>XH.k.2.-.1.P.nXHXHXVXCXVXCXVXCXVXCXVXVXVXVXVXVXVXVXVXVXVXVXVXVXVXVXVXVXnXVXvXVXnXnXvXnXZXvXZXvXvXvXvXjXaXvXaXzXuXaXvXuXiXaXiXiXiXiXeXiXiXiX0XqXtXqXqX0X0X0X0X2X3X1X1XP.I.k.2.#.v B a.m.R.R.R.R.R././.R./.).b.9 1 1 > C >.h.) M l ^ W.OXOXj.) ) W W W T W W h.qXVXuXJ.2.0.e.<.<.:.<.r.<.r.&.<.<.&.6.:.:.<.r.6.&.r.6.=.:.:.6.r.6.r.<.r.6.&.6.r.:.:.6.:.&.&.&.&.&.&.&.&.$.&.$.@.@.@.@.+.+.+.o.o.o.O.P o.o.o.T P o.P o.o.o.P @.O.6.8XcXqX!.+XpXpXpXpX+X+XpXpX#XW.^ l > * * q Y M z > 1 / d.[ C v s s n o.&.@.@.%.%.;.&X7XkXkXIXkXkXIXcXIXcXkXkXcXkXcXkXcXcXlXcXcXcXcXcXcXxXcXxXxXxXxXxXxXxXxXxXxXxXxXxXxXxXxXNXxXxXxXxXbXPXbXxXxXbXxXxXbXxXbXxXbXxXPXxXxXPXNXxXNXNXPXbXNXNXNXDXPXNXDXPX5X:XrXaXaXaXaXaXaXjXjXpXL.d.7 +     t.g @ = = = = = , = 2 - , - - , , - - - - - < < 3 < 3 < - 3 - - 3 < < < < < < < < < , - - < - , - = 2 = 2 - ",
"T T L L L T L L T L L T L T L T T T L T P T T T R T T T T T T T T L T T T L R R T T L T R T R R R W W #.k.mXJXGXHXJXJXHXHXHXHXKXKXHXKXHXHXHXHXHXJXHXFXJXJXuXz.U C B 9 w 9 q z N ` E.{.v.Z w 9 9 9 z ,.F.K.4.E x ^ ^ f.rXxXxXlX5Xl.k.2.-.-.>.,XnXJXCXVXVXHXVXVXVXVXHXVXVXVXVXVXVXVXVXVXVXVXBXnXVXVXVXVXVXnXVXnXNXnXnXvXZXvXvXnXvXvXvXvXvXvXaXuXaXuXaXuXuXuXiXuXiXeXiXeXiXeX0XqX0XqXqX0XqX0X0X0X1XP.K.h.-.H B _ m.C.R.R.R.R.^./.R.R.R.E.! w 1 1 w N A ) 1.) B z z x ^ E.OXQ.d.) #.R R I R T ( h.eXnX0Xk.2.0.:.:.:.:.<.r.<.:.:.&.<.r.<.<.&.:.6.6.&.=.:.:.6.&.r.<.r.r.6.&.r.:.r.r.&.:.&.&.&.&.&.&.&.@.@.@.&.@.@.+.+.o.@.P P o.o.o.o.o.o.O.o.o.L L o.@.P O.&.9XcXyXY.~.+XfXpXpX+X+XpXfX+XXXx.N 1 1 j * 1 z v c z z > $ > ! a.^ c g n P @.@.@.o.T O.T ;.;XIXkXIXkXkXkXkXcXkXkXcXcXcXcXcXlXcXlXcXcXzXcXzXxXcXxXxXxXxXxXPXxXxXxXxXxXxXPXPXxXxXPXPXxXbXxXbXPXNXxXNXxXxXPXxXPXbXbXxXbXbXbXxXbXPXNXAXbXPXAXDXAXNXDXDXDX7X:X1XpXaXaXpXaXaXpXaXjX!. .z =       *.8.h o ; ; ; - - - = < = , - , < - < - < < < - - 3 - 3 - - - 3 - < 3 < - 3 - - < < , - , - , - , 2 = - = = 2 ",
"L L L T T L L T M L T L T T T L R R L T T P L T T T L T T L L T T T L T R L R R L T T Y R T R T R T T ( h.FXJXJXJXJXHXHXKXHXHXHXHXHXHXHXHXKXHXJXHXGXKXnXP.d.^ ^ V k N B B V V M.).Z._ N 9 N 9 9 C K.<X2XK.h.g.) M x ^ s.I.zXmXxXqX*Xk.:.-.#.#.1.0XVXHXVXVXVXVXHXVXVXVXVXVXVXVXVXVXVXVXVXVXVXVXBXNXnXvXVXVXvXnXnXNXvXnXNXvXnXvXnXvXaXvXvXzXvXvXzXlXaXaXaXaXiXiXiXiXiXiXrXeXiXeX0X0X0XqX0X2X1X1XP.J.2.O.c Z c.V.C.R.R.R.R.^.^.R.R.E.a.7 1 1 w 9 N C 4.=XH.,.A x l x x ^ f.XXOXf.) W W Y L K R R ( K.iXuXP.2.6.0.<.<.&.r.:.<.:.<.r.<.r.r.:.<.&.:.6.=.:.6.:.6.:.r.<.<.r.:.r.:.&.&.<.&.&.;.&.&.@.&.@.@.&.@.@.@.@.+.+.@.*.o.@.*.P o.P L L o.T o.o.o.+.@.&.p.IXyX0X~.+XpXfXpX+X+XfXpX#XOXM.Z w 1 1 j j j w <.w.$.z 7 1 1 > > l ] c.~ M J J J J J H H K Y P :.-XIXkXIXkXcXkXcXkXcXkXkXcXlXcXcXcXxXcXxXcXxXxXcXxXcXxXxXcXxXxXcXPXxXxXxXxXxXxXPXxXxXbXbXPXPXxXbXxXPXxXbXbXbXxXPXxXPXbXPXbXPXNXNXPXbXPXAXbXNXPXSXDXkX,X,XpXaXaXrXaXaXaXaXaXrXj.z 4 X         - g 2.o o : ; ; ; - - = , , < = = < < < < < < < < < < - 3 < 3 - < 3 = 3 = - < 2 2 - - , - , - , = = = = , = - ",
"T L M T M L T L L L T L T L T T P L L L T P T P L T T L T T T T L R R T R R R T R R Y L L R R T R T W #.h.AXJXJXJXJXJXJXHXHXJXJXHXHXHXHXKXHXKXHXJXHXqXd.s.s.s.^ _ ..,./ A x.).).a.V 9 9 9 9 N 3.7XiXtXPXPX5Xk.>.) M x x ^ f.Y.rXbXwX>Xk.<.-.#.W R h.iXVXHXVXVXVXFXVXVXVXHXVXVXHXVXVXVXVXVXnXnXVXVXVXnXnXnXNXmXNXnXZXNXnXnXvXvXvXjXvXvXaXaXvXvXaXaXuXuXiXuXaXiXaXiXrXtXeXiXtXqXiXeXqXqX0X0X1XP.G.&.v V a.V.C.C.C.C.R.R.R.R.R.R.c.l 1 7 7 w N N / J.oXXXY.6XH.( x x l l x ^ M.OXXXd.) I I Y F K R L ( K.aXrXz.2.6.<.=.<.:.:.:.:.=.&.6.&.6.r.&.&.:.:.r.6.r.:.6.r.:.&.<.&.6.&.&.6.&.&.&.&.;.&.&.&.&.@.@.@.@.+.+.+.*.@.T @.o.P o.o.o.o.o.o.o.O.+.O.+.e.8XkX0X~.+XfX+XpX+XpX+XpXpXOXA.^ l w 1 j j j j T 9X7XT.J.-X>.6 7 w w w 1 V a.s.E v H f s s s s s G P H :.4XkXkXkXcXcXlXkXkXlXzXcXxXxXcXzXcXcXxXcXxXxXxXcXPXcXPXPXxXxXxXxXPXPXbXPXbXxXbXbXPXxXPXNXxXbXbXNXxXxXNXbXxXbXbXPXbXbXPXbXNXNXPXAXAXAXAXSXGXxX4X,XpXaXaXpXaXpXaXpXaXpXI.) 8 o     . . # r o.G.6Xo   o o ; ; ; - = < < = < < < - < = - < < < < < 3 < < < < < < < < - 3 < - , < , < - - < - , = = , = = - ",
"L L L T L T L L M L T L L L L L T T L T T L P T T T L T L T L L T T T L R L R R R T Y T T R R R R T T ( h.GXJXJXJXJXJXHXHXJXHXHXJXJXKXHXHXHXHXHXvXK.{ s.a.a.a.n.:X9Xy...V.).v.V l x N 9 N } 2XtXoXoXfXoXoXbXxX:Xg.) d.M x ^ s.d.0XzXzX<Xk.;.-.T O.R ( H.uXHXHXVXVXVXVXVXVXVXVXVXVXVXVXVXVXVXVXVXVXVXmXVXVXVXvXZXNXZXvXvXNXnXZXvXZXvXvXvXaXvXvXuXzXaXvXuXiXiXiXiXiXiXiXiXeXeXeXeXiX0X0X0X1XH.0.K C a.V.R.R.R.R.C.R.R.R.C.E.m.V 1 1 7 9 l 9 A F.oXXX(.`.(._.!.3Xk.I N B V x V ^ A.OXN.) W Y F n v n K K ) P.iX0Xk.2.2.<.:.6.:.:.:.<.&.<.6.&.6.6.&.:.:.:.:.&.&.6.&.6.&.:.&.r.:.&.&.&.r.&.&.&.@.&.&.&.@.@.@.+.+.+.+.o.*.P o.o.P o.P o.T o.+.o.O.:.-XyXqX!.OX+X+X+XfX+XfX+XpX+X_.a.x 1 1 1 j 1 j d G.8X4XT.B.v.N.Y.z.W q 9 9 9 7 l _ b.[ Q s s s s s d h d H G P e.8XkXkXkXcXcXcXcXcXcXcXcXzXcXxXxXxXxXcXxXxXxXxXxXxXcXxXxXPXxXxXxXbXxXxXxXPXxXPXbXbXxXPXxXPXxXbXPXxXbXPXbXPXbXbXPXNXPXPXNXNXbXPXAXGXAXqX1X0XpXaXpXpXaXpXpXaXaX,X1.u #     . . # h &.9X-XG.7Xo   o o o ; ; ; - = = , = < - - < - = < < < < < < < < < - < 2 - 3 = = < < < < < < , , , , = 2 - - = 2 = ",
"L L M T L L T L T L L L L O.T T L P T P T L T L L R T T L L T T R L L T T L R L L T R R R R R R R W #.( h.BXKXHXJXJXJXJXJXJXHXJXHXJXHXHXJXJXHX2X) s.b.a.a.f.P.7X9Xy.N.E.B.! 9 N l l 9 A J.iXoXXXsXZXCXhXfXQ.tXvXyXl.g.) ^ M x ^ s.f.0XlX5Xl.:.O.T T R F >.P.vXHXVXVXBXBXVXVXVXVXFXVXVXVXVXVXVXVXVXVXVXVXVXnXmXNXnXVXvXZXvXvXnXvXvXvXjXvXaXvXaXaXzXaXuXaXaXaXiXiXiXtXiXiXtXeXiXqX0XqX1XY.k.+.B ' V.R.R.R.R.R.R.^.C.B.E.Z._ 7 1 w w 9 9 S 4.tX+X'.}.#XdX#X|.(._.!.<X .C B C V B N s.E._.n.W R Y M n n H K F 1.0XtX:X3.2.6.:.:.:.:.6.&.6.&.:.r.:.:.:.:.r.:.<.&.&.6.r.:.&.:.:.&.;.&.&.&.&.&.&.$.@.@.@.@.@.@.@.+.o.+.o.o.@.P o.o.o.P o.o.@.O.+.UXwXeX!..X+X+X#XfX+X+X#X+X#X_.x.S w 1 1 * 1 * w e.8X8X8XzX+X(.|.).V.A.Y.K.E 9 9 N 9 w N ' c.s.B a a a a h d p s G f +.l.7XlXkXcXcXcXzXlXcXzXxXxXxXcXcXxXcXcXxXxXxXxXxXxXxXPXxXxXPXxXPXxXPXPXxXbXPXPXbXNXxXPXbXPXbXPXbXbXPXPXbXbXPXPXbXNXPXDXNXNXLXGXIX:X0XaXpXaXpXpXaXpXaXaX!.g.a =     . . + 3 o.w.8XPX&XK.IXo       o ; o ; ; ; - < = - - < < - < < < < = < < < < < 2 2 - 2 - < - < < - < < < , - - , - = - = = 2 - ",
"T L L L L L L L M T O.M o.M L T L T L T P T L T T T L L R T L T T T R R T R L R L Y R R R R R T R R R W h.GXJXJXJXJXJXJXHXJXJXHXJXHXHXJXJXuXz. .f.m.a.c.L.2X8X;XF.E.Z.a.N N N 9 l V 3.tXoX_.$XgXZXZXZXhXhXgXfXoXzXPX4Xh.d.) ^ ^ x ^ s.j.qXqX=X2.W L K R K K >.3XVXVXVXBXVXVXHXVXVXVXHXVXVXVXVXVXnXVXNXnXnXNXVXnXNXnXNXvXNXZXvXnXvXvXvXvXvXvXzXvXaXzXaXuXuXuXuXuXiXiXiXiXeXiXqXtX0X1XJ.<.C ^ m.^.R.R.R.R.R.R.R.V.C.).c.9 7 w 9 9 9 l  .Y.oX).{.@XgXhXZXZXdX@X'.(.XX0XH./ C N N N x V x.).W.d.I U U F G G H Y I h.0XiXH.6.0.<.6.:.:.<.:.6.:.r.6.:.:.=.:.&.&.6.:.&.:.&.&.r.&.&.&.&.:.&.&.&.&.&.&.@.@.@.@.@.+.+.+.+.@.o.P o.o.P o.o.O.o.o.2.5XuX,X!.OX#XOX+X+X+X+XfX+XOXN.! w j * j 1 * 1 @.9X8X6XlXDXDXtX X#XgXOX).C.U.P.3.B 9 9 k 9 9 N a.b.` c i d d d h h d G H n @.;XwXkXkXlXcXxXcXxXcXcXxXxXxXxXxXPXxXxXPXxXPXxXPXxXxXPXxXPXxXPXxXbXPXbXbXbXPXbXPXbXPXPXbXxXAXbXbXbXPXbXNXNXNXNXNXPXSXSXcX,X0XpXpXpXpXaXpXaXpXpXrXh.M < o   . . X # y <.-XxXxXwX1.H.kX        o o ; o ; ; ; ; - = - = - - = < < < < < - < < < < < < < 2 , 2 < < 2 < < - , , - - = 2 = , = = = ",
"L L L L L M T L L L L o.L M O.L P P P P L T P P L L L T T T L T L T R L R R T L T P Y R R R R R R W #.( h.FXGXJXJXJXHXHXHXHXHXHXFXCXKXVX>Xg.f.M.c.M.A.0X8X9X*XU.R.a.V x N N N S ,.3XtX_.[.dXZXZXZXZXZXhXgXdXgXgXnXAXAXcX*Xh.) M M x x ^ s.I.2X-X0.O.K K F K n K 2.qXVXHXVXVXVXVXVXVXVXVXVXVXVXVXVXVXVXNXvXVXNXZXVXvXvXVXZXvXNXvXvXvXvXvXvXvXzXaXzXaXaXzXaXuXaXiXiXiXiXiXiXeXeX1XP.0.T ` m.R./.R./.R.^.^.^.C.^.).Z.S 1 7 w 9 w 9 { T.oX_.{.@XsXhXhXhXhXhXhXgX#X|.(.E.!.<Xh.A V C C C x V b.E.W. .I I F G G F Y F I K.tX0Xk.<.6.<.<.<.:.:.<.:.:.6.:.r.6.:.:.:.:.&.&.r.&.:.&.&.&.&.&.&.&.&.&.@.@.&.@.@.@.@.@.@.o.+.@.P o.o.T o.O.+.o.&.;XyX0XU.~.+X~.OX+X#X#X+X#X+X_.] 9 1 1 * j j * d &X8X8XkXPXLXDXPXfX XsXCXhXsX|.^.C.T.J.} N 9 N 9 l 9 ! c.b.E p i d 0 0 0 h d K K M :.>XkXkXcXcXzXcXxXcXxXcXxXxXxXxXxXxXxXxXcXPXPXxXxXxXxXPXbXbXbXPXbXPXPXxXbXPXxXPXbXbXAXxXxXPXPXbXNXPXNXNXDXPXDXSXPX4XP.tXpXpXaXpXaXpXpXjXpX!.>.e +     .   O 2 L &XkXPX6XH.3X1.=XkX          o o ; ; ; ; ; - - = - - = < < < < < < < < < < - < 2 < - < < 2 - 2 < < < < , - , - = 2 = 2 = , ",
"M T L L L L L M L L L M L R L L L T T L T P L T L T R T L L L R T L L R R L R R Y T R R R T R R R R R #.2.GXJXJXJXJXJXHXHXHXHXHXJXCX6XF.s.M.M.M.A.Q.qX8X-XU.E.a.V x V V N N { J.tXXX_.#XhXZXhXhXZXZXhXjXgXdXdXgXGXLXLXAXAXwXk.) ^ ^ x 7 x ^ f.I.:Xw.O.K n v n M v m h.eXHXJXFXVXVXVXVXVXVXVXVXVXVXVXVXVXVXVXNXnXNXnXVXvXvXZXZXvXvXvXjXvXaXvXvXvXvXzXaXzXuXaXuXuXiXiXeXiXqX0X:Xq.%.A c.R./././.^.^.^.^.R.^.).%X' w 7 9 9 9 9 C F.oX_.'.|.#XgXhXhXhXZXZXZXhXZXZXgX#X|.'._.Y.:X1.C B V x x x ! Z.).M.) I I G G H F G F ( I.iX0Xk.0.6.6.:.6.:.=.&.&.:.:.&.:.&.r.&.:.:.&.:.r.&.&.&.&.&.&.&.&.$.&.&.@.@.@.@.%.o.@.O.o.T o.o.P o.O.o.@.i.6XwXY.Q.OXOXOXOXOXOX+X+X+X[.M.S w j j * j @ t q.4X8XIXPXLXLXDXPXDXtX|.dXZXZXZXgX@X{.^.%XT.K.E l 9 l l 9 l ] S.c.A h d d u d q 8 v L m m l.7XcXzXcXxXxXxXxXxXxXPXxXPXxXxXPXPXxXxXxXPXxXPXxXxXPXxXPXbXPXbXNXbXPXbXAXbXPXNXxXAXxXNXNXNXPXNXPXPXNXSXPX6XT.!.fXpXpXpXpXpXpXpXjX0Xj.v +       . X % a w.7XxX7X&XK.1.<Xh.;XkXo           o o o + + ; ; ; ; ; - = = = < = < < = < < < 2 < - < - 2 < - < , < , < < - , - , - = - = , = ",
"L L L L L K R K L L L R R L R L L L L T T L T R T P P T L L T R R L R P L R P R R K R R R R R R R R W #.h.JXJXJXJXHXHXHXHXCXJXJXuXK.| b.M.m.A.Q.tX8X9XI.W.M.! x N V V N S G.tXoX_.+XdXZXhXhXhXZXCXZXhXgXdXdXdXhXKXKXKXKXKXLXDX5X2.x C x z l x s.f.l.*X:.M n n v s n a P G.uXCXCXVXBXVXVXVXVXVXVXVXVXmXnXVXVXNXnXNXnXNXnXNXvXNXvXnXZXvXvXvXaXvXaXvXaXvXaXuXaXuXuXiXiX0X0X1XG.-.E a.C./.].(./././.^.^.C.).).] 9 w 9 9 9 9 S 4.Y.OX(.|.#XdXhXhXhXhXhXdX#XdXhXZXhXZXhXgX#X|. XW.3XG.E N k N N x l ] E.).b./ U U M b v G H b >.0XtX1X0.6.6.:.<.:.:.:.r.;.r.;.;.r.;.&.r.;.r.&.&.&.&.&.;.&.&.%.&.&.@.@.$.@.@.+.+.o.P o.@.o.P o.+.+.0.5XyX,XQ.Q.OX[.~.OXOXOX+X+XOXM._ w * * * j @ j ;.9XIXIXPXLXLXPXLXPXPXPXfX XgXZXZXZXhXhXsX@X X^.%XT.i.X.N N N w w S ] B.x.D c c 0 p u 0 u d K K @.&XIXxXzXcXxXxXxXxXxXPXPXxXxXxXPXbXPXxXbXxXPXbXPXbXPXbXPXbXbXbXbXPXPXbXbXNXAXPXbXPXPXbXbXAXAXNXGXmXuXI.!.pXpXpXpXpXpXpXpXfXtXT.T 2     X X : j w } 4XlX8X=XT.-X0Xi.T.i.J.kX:           o o o ; ; ; ; ; ; ; - - ; - - - - - - - - - - - - r - - < - < < < < < < = < = < < = , = = < ",
"R L L M Y L L L L M R L M L L T R T R P L L T L L L T L L T L L L R K R Y L R R L R R R R R R R W T T W K.HXJXJXJXHXHXCXHXKXVX:X..b.V.m.M.!.0X6X9XG.N.Z.' x x V S S V 4.3XoX[.OXsXhXhXhXhXZXVXgX#X[.OXgXgXdXgXCXKXKXKXKXKXKXDXLXxX=XW M x x l 7 x f.j.z.5.L v y a i u a c #.=XvXHXVXVXVXVXBXVXVXVXVXVXVXmXnXNXVXVXmXZXvXNXZXnXvXvXvXnXvXvXvXvXvXvXzXuXvXaXuXaXiXiXiX0XH.<.I ] C.].].(.`.(.(.(./.R.).).c.9 w 9 N 9 w N { T.XX X}.@XsXdXhXhXhXhXdX#X|.'.|.#XgXZXhXhXhXhXdX@X|.).XX1X3.Q S N N N l V f.).E...U U I G H G K n L 4.1X0XJ.0.<.6.<.<.r.;.r.;.;.;.;.&.;.;.&.&.;.;.&.&.&.&.&.&.&.%.@.@.%.@.@.@.+.+.+.@.o.o.%.*.@.:.=XwX2XI.Q.Q..X[.~.[.OXOXOX@XE.! l * * * * * : J &X8XIXcXLXPXPXPXLXPXPXLXxX$X X@X#XhXhXhXhXhXgX#X|.{.).U.T.4.k N N S 9 l Z c.B.[ z 0 z q 0 0 8 0 d K P :.-XcXxXzXcXxXxXxXxXxXbXPXPXxXPXbXPXPXPXPXPXbXPXPXPXbXPXPXPXAXbXNXNXPXPXbXbXAXbXAXAXAXPXAXGXlX,X!.~.rXpXpXpXpXpXpXaXpX1X<.e .     . X @ j J -XcXIX-X=X<X5X3X3X4.e.J.J.kX: .         o o o o o ; ; ; ; ; ; ; - - - ; - - - - - - - - - - - - < < < < < < < = < < = < < = = , = = ",
"M L L L M L L K L L L L T L L L L L T P P T P R T P T P R T L R R L P P L T R K R R R R R R R R R T W W k.FXJXJXJXJXHXKXHXqXg.s.Z.M.n.L.2X7X4XH.T.A.a.x l V V N S 4.<X+X[.[.#XgXhXhXhXhXCXhX#X X(.^.R.oXhXhXhXHXKXKXKXKXKXKXKXKXDXAXyXk.F z x x 7 x x s.z.0.o.y t t t t u a s ,.3XbXCXmXVXVXVXVXVXVXVXmXnXNXVXnXmXnXnXNXnXvXnXNXvXnXvXvXnXvXaXvXaXzXaXuXaXiXiXiXeX,Xq.W ` m.(.].`.`.].`.].(.^.R.(.B.Z w 9 l 9 9 N ~ T..X_.(.@XsXgXgXgXhXZXgX#X[.`.`.`.`.}.|.#XhXZXhXhXZXZXdX@X X%X!.=X,.x N N k x x V M.'.A./ I I F H F n K H I h.0X0Xk.6.0.6.<.r.<.:.:.;.&.;.&.;.&.&.;.;.&.;.&.&.%.%.&.@.%.@.@.@.@.@.+.+.O.+.+.@.@.%.G.rX2XI.U.Q.Q.[..X.X.XOXOXOX).u.9 > > $ * $ @ t i.8XIXcXDXLXPXLXPXLXLXLXPXxXDXoX(.`.{.@XdXhXhXgXgXhXdX#X|.(.).U.J.} S 9 N N l l ! m.B.` z d 0 k p 0 8 0 G P T 6.4XzXxXxXxXxXPXxXPXbXPXPXxXPXbXPXNXbXPXNXPXbXAXbXDXbXAXAXbXbXPXPXNXPXAXbXAXbXPXbXGXxX5XY.~.rXpXpXpXpXpXpXpXpX0Xq.a :   . . . o j h e.IXcX-X=X<X5X3X3XY.0XG.o.e.<XyXo             o o o ; o ; ; ; ; ; - ; ; ; ; - - - - - r r - - - - - - < - < < < < < < = < < = = , = = = ",
"L L R m L L K L L L L L L L L L L R L L T P P P P P L L L L L R L R R P P R P P P P R L R R R R R R W W K.JXJXHXHXKXHXzXT.d.A.E.M.F.1XwX5X;XT.W.b.V l x N N N { P.tX$X[.#XgXZXhXhXhXCXhXsX[.).^.^.XXoXY.!.aXCXKXKXKXKXKXKXKXKXKXKXGXPXxX7X2.M z x 7 7 x ^ d.k.;.a 5 e t e t h a n 2.0XVXVXVXVXVXVXVXVXnXBXVXVXBXVXnXmXnXNXVXNXnXVXvXvXZXvXvXvXvXvXaXzXaXiXiXiX0XH.;.A c.^.{.}.].'.].`.`.(.^./.R.] 9 9 l N l N A F.oX_.).@XsXgXgXgXgXhXhXsX|.`.(.(.).[.`.`.}.}.@XdXhXZXhXhXhXhXsX|. XXX!.J.E N k x l l l _ E.[.M.~ I F I K F K K n R h.0X1Xk.<.6.<.:.&.:.;.&.&.;.&.;.&.&.&.&.%.&.&.;.&.%.&.&.@.&.@.@.+.@.@.@.@.@.@.i.5X6XI.L.W.W.W.OXQ.[._.[.OXE.u.S j j > $ $ X j 6.4X8XIXPXDXDXPXLXPXDXPXPXPXLXDX8XF.n.^.(.(.{.@XgXhXhXgXhXhXdX@X}.(.).T.T.E S N l l 9 l a.Z.M.A z 0 z 0 q 8 8 p F Y +.i.7XcXxXxXbXxXxXPXbXbXPXbXPXNXPXPXbXPXNXbXPXPXbXAXPXPXbXNXAXbXAXNXPXAXPXAXGXAXwXP.~.pXpXpXpXpXpXrXpXpXtXz.T =       X : % 6 ,.8XxX8X=X<X5X4X1X1X3XP.i.e.8XH.<XIXo             o o o o ; ; ; ; ; ; ; ; ; - - - - - - - - - - - - - - < < < < < < < < < < = < = < = = = < ",
"L m Y M L L L L M L L L R M L T T R T L T P T T R L P L T P P K L L Y L K R P Y R P Y R Y R R R R R W W K.JXHXKXKXCX3Xn.M.).Z.D.,XwXIX>XT.Q.A._ 9 w N N x A K.iX+X_.@XgXhXhXhXZXZXZXsX[.(.^.^._.fXJXGXZXtXY.tXMXKXKXKXKXKXKXKXKXKXKXKXPXPXcX>X>.M x x 6 7 x s.g.2.m t < e e r t p a L z.uXBXVXVXVXBXVXVXVXmXVXVXnXNXnXNXVXvXVXvXvXvXZXvXvXvXjXvXvXuXaXiXiXtX>Xq.E ] R.}.}.}.}.'.'.}.]./.^.E.c.N 9 l l N B Q F..X_.).|.sXgXgXhXhXhXZXsX@X{.`.(.(.OXjXzX+X[.`.`.].}.@XgXhXhXhXhXhXgX#X X).XX3Xi.Q l N N 9 9 x b.'._.s./ W Y M K K P K F ( J.0XP.0.<.<.:.;.:.&.&.;.&.;.:.&.&.&.&.&.&.%.%.&.&.&.@.@.+.@.@.@.&.$.@.6.4XwXP.N.A.U.W.Q.Q._.XX_.[.].f.x j j : : j : : Q 9X8X8XcXDXPXPXLXPXDXLXPXxXDXLXkXi.%.%.i.T.A./.(.`.{.#XgXhXhXhXZXhXdX@X`.(.%XT.i.C N N N N w V c.Z.M.C z 0 q 0 q q 8 d P Y &.&XkXxXxXxXPXPXbXPXbXPXPXPXNXNXPXNXPXDXbXPXAXPXbXAXAXPXPXNXPXAXAXbXGXAXlX,X!.~.pX~.~.~.~.pXpXpXtXI.%.e .   . : : : 3 P >XxXIX-X>X5X4X3X:X3X<Xi.&.&XzXJX-X<XIXo               o o o ; ; ; ; ; ; ; ; ; ; ; - ; ; - - - - - - - r ; - - - - < < < - < < = , < = , , = = ",
"L L L L L K M J L L L L L L L L L L L L L L P L T L T P L T P P L R P R P R R P P Y R Y R L R R W R W W J.JXJXJXaXD.n.).E.N.:XwXcX8XP.U.A.u.l 9 N N N S 4.tXfX X|.dXZXhXZXZXZXZXgX@X X(.(.).#XCXKXGXGXJXBXnXtX1XaXKXKXKXKXKXKXKXKXKXLXKXLXxXcXIXk.M z x x 7 7 x ) >.$.v 4 r 4 4 e t u v #.J.uXVXBXnXVXnXVXnXmXnXVXVXVXVXNXVXvXVXNXZXvXnXvXnXvXvXaXaXuXiX3XG.} X.m.].}.}.}.}.'.{.'.(././.V.Z l l l x N N u.Y.$X).|.#XgXhXhXhXhXhXdX@X}.`.(.(.[.fXvX6X>X6XuX+X[./.}.}.|.#XhXZXhXhXhXhXdX@X X%XoXT. .N N N l l l V M.[.Z.| E W F F G F K F b 1.P.0XG.<.<.=.:.;.;.&.&.&.%.&.&.;.;.&.&.&.&.&.@.%.@.@.@.@.@.$.@.:.*XwX:Xn.b.A.A.A.W.W.W.W.[._.f.^ 1 > j : j @ : h p.IX8XIXPXPXPXPXPXPXPXPXPXPXLXbX;X;.%.6.G.4X4X<XU.Z.(.(. X|.sXhXZXhXhXZXgXsX|.`.(.W.T.1.S 9 N N l 9 ! M.Z.s.B q k 0 q q q q G P T <.-XlXPXxXxXPXPXbXPXNXNXPXPXDXPXNXPXAXAXPXbXAXPXAXmXAXAXmXNXAXGXcX<XI.~.pXpXpXpXpXpXpX~.rXY.<.i : . . . o : j s G.cXkX-X>X6X6X4X1X3X0XT.%.i.IXNXbXmX<X>XyXo               o o o o o ; ; ; ; ; ; ; - - ; - - - ; - - - - - ; r - ; < - - < - - = < < = < = = = = < ",
"L M L L K L L L K L M L R L L L R L R L T P T P L T L P L L L L P P P P K R P R K R K R R I Y R T O.R W H.KXHX0Xd.E.).B.T.6XcX8X:XU.E.b.V w 9 N N N { 3XfXXX_.fXhXZXhXZXZXZXhX#X{.(.(.(.$XhXLXJXFXJXFXFXJXJXVXiX1X0XbXKXKXKXKXKXKXKXLXKXLXKXDXxXkX>X>.M q x 8 7 7 ^ ) >.m t < r r e e t i b -.:XvXVXVXNXBXnXVXVXnXmXVXnXVXnXNXnXnXZXvXvXnXnXaXzXzXaXiXJ.<.` x.).}.}.'.}.}.}.{.'.(./.E.] l l x N N N A T.oX[.[.#XgXhXhXZXZXhXgX#X|.`.`.(.(.+XZXlX3XP.T.J.:X5XaX+X'.}.}.}.|.sXhXZXhXhXhXhXsX@X XW.3XT.E N V N N l l ^ E._.N.^ E E I F F Y R I Y h.3X1Xq.;.r.;.;.&.;.&.%.&.%.;.%.%.%.&.%.@.@.&.%.@.&.$.+.&.l.5X2XD.b.N.M.A.A.Z.W.W._.].C._ 1 $ $ O : j : j 6.8X8X8XcXPXPXPXPXPXPXPXxXPXDXSX8X6.#.:.i.*X-X9X4X8X6XY.A.C.(.(.{.@XdXZXhXhXZXhXhX#X X(.%XU.T.} N S N N 9 9 ! V.Z.[ B 0 q q 0 q q q G P T <.<XcXbXxXxXNXNXPXPXNXNXPXDXNXPXAXPXAXPXAXAXbXAXAXAXbXGXAX2XI.~.+XpX~.pX~.~.pXpXpX!.j.P =   . . X + $ w e.IXcX<X-X6X7X6X<X<X3X=X<.6.7XNXNXxXxXDX<X-XIXo             o o o o o ; ; ; ; ; ; ; ; ; ; ; - - ; - - ; - - - - - - r < < - < < , < < = < , , = = = = ",
"L K L K M L L M L L L L L L T L T L L T P L L P L P P L L R L R K R K R P R K P R K Y R R R L R R M ( M z.VXwXd.E.E.D.>XIXIX<XU.E.M.Z 9 9 N N N S K.iX$X_.#XgXZXZXhXZXCXhXsX|.(.(.(._.fXCXKXCXGXJXJXJXJXJXCXHXHXZXiXY.yXLXKXKXKXKXKXKXLXLXKXLXKXPXxXyXH.R x x x l x x ) d.#.v r 5 4 5 e t t a v <.2XVXFXnXNXVXVXVXVXNXVXNXVXVXvXVXvXnXNXNXvXvXaXiX3X3.E u.C.`.{.}.}.}.}.}.}.(././.c.l 9 N N N N S g..XOX'.@XdXgXgXhXZXZXhXsX|.`.`.(.(.OXjXxX6X1XJ.J.J.J.J.J.>XeXaXOX`.}.{. X@XdXhXhXhXhXhXjX#X|.^.U.1XF.V N N x l l l a.E._.f.~ E E I I F I I F T F.1XJ.<.;.:.:.;.&.&.;.&.&.&.&.%.&.&.%.&.@.%.&.@.@.0.<X2XF.[ s.n.M.M.N.Z.A.A.E.E.s.9 @ @ O $ @ : j @.-X4X9XIXcXcXxXcXPXPXPXPXcXDXLXkXl.$.-.6.l.&X-X9X<X4X4X8X7X6XP.Z.R.(. X X#XhXhXhXhXhXhXsX$X`.(.%XT.4.A 9 N x l l l ] Z.Z.` B 0 k q q q 0 B Q P W e.6XxXDXPXPXNXPXDXDXPXDXDXmXAXPXAXAXAXDXAXAXPXGXDXyXz.Q.~.pX~.pX~.~.~.pX~.~.z.-.t .   . X # O , @.4XcX6X=X4X7X6X>X:X6X3Xi.r.<XxXNXbXNXNXbXDX>X<XIXo             o o o o o o ; o ; ; ; ; ; ; - ; - ; - ; - - - - - - - - ; < - < < < < = < = , , = , , = = ",
"L L L K K L Y M L L L L L L L L L L R M L L L T R L L P K R L L L R L K R K R K P Y Y Y Y R I R R R W M >.k.-X>.2.*X8XIX8X:X%XE.] 9 9 k k N S 4.iX+X[.$XgXhXZXZXZXZXZXdX@X X(.(. X#XZXJXJXJXJXCXGXGXJXJXJXFXCXCXJXCXvX1X,XyXKXKXKXLXLXKXLXKXKXLXKXLXPXcXwXl.M x x l 7 7 x d.d.n t 5 t < 4 e t y p M k.eXFXVXVXVXVXnXVXmXVXNXZXVXZXNXnXNXvXaXaX6XG.E _ V.`.}.}.`.}.{.}.}.{.)./.m.Z w 9 N N V V ..Y.$X(.[.#XhXgXhXZXZXhXdX#X}.`.`.(.[.fXMXkX1X:XJ.P.z.:XH.J.J.J.H.:XuXfX$X`.`.}.{.@XgXhXhXhXhXhXfX@X X%XY.T.4.S S S N k 9 N x.).W.s./ / E I U I I E G W H.:XK.:.:.<.:.;.&.&.$.&.$.&.%.&.%.&.&.%.@.;.=X5XK.s.a.b.b.b.b.b.M.M.Z.^.v.x $ O $ : @ : : G p.4X-X4XcXcXcXcXcXPXPXPXcXPXLXxX;X-.&.:.q.UX;X-X-X9X>X9X4X5X8X7XIX2XT.B.^.(.'.|.dXhXhXgXgXhXgXsX|. XC.U.T.4.S l N l l w N c.E.M.A z z q q q q k G Y P o.i.7XNXDXPXNXNXDXDXPXNXAXDXDXAXAXAXAXPXAXGXcX,XI.~.~.pX~.~.~.~.+X~.pXI.1.s :     X : % % s -XcXIX-X<X7X6X<X=X3XyXJ.:.&XcXDXNXbXNXPXbXNXDX<X9XyXo               o   o o o ; ; ; ; ; ; ; ; ; ; - ; r ; ; r r ; - r ; ; r = < < = , = = < < = = , = , ; < ",
"J M K K L K m L M L L L K L M R L L L R T L L L L L L P L L K L P L K R P R R P R K R K Y Y R R R R R I M ;.9.6.8XIXIX9XU.).m.V 9 q N N N ..1XfX$X$XdXhXhXZXhXZXCXhX@X{.`.(.(.@XjXJXJXCXJXFXJXJXJXJXGXJXJXJXJXJXFXJXCXCXiXY.3XxXKXKXKXLXKXLXKXLXLXLXLXGXcXcX5Xk.M x l z 7 7 M d.( n t e 4 4 4 4 e t v O.z.lXHXVXVXVXVXVXmXnXNXnXvXZXvXnXaXiXJ.,.X.v.(.}.{.'.{.}.{.{.}.).).R.' 9 9 N N S N ` T.XX). X#XgXgXhXhXZXZXgX#X|.}.}.`.[.fXBXzX6X1X:X:XJ.*X:Xl.J.H.z.H.*XH.J.<XuXfX[.`.}.}.|.#XhXhXhXgXhXhXdX|.%X_.0X9Xu.S k N N N 9 S m.[.A.s.^ / I U I U I I U ,.J.J.q.&.&.<.;.;.&.$.;.&.&.%.&.%.@.%.i.>XI.s.' s.[ [ s.s.b.b.b.M.m._ j $ $ O X : X 5 e.;X;X9XIXcXcXcXcXcXPXcXcXcXDXNX<X<.%.;.2.l.&X*X-X-X>X9X9X4X4X4X8X5X7XIXyX3XN.V./.(.{.@XgXhXhXgXhXhXgX#X|. X%XU.T.{ N N 9 N 9 7 V B.E.s.C B B B k d k B Q W P @.i.yXNXDXPXDXDXDXDXDXDXDXDXDXAXAXSXbX0XI.!.~.~.pX+XpX~.pX~.pXY.z.M ;   o X X # @ t 9.IXIX-X>X6X6X<X=X<XyX<Xr.i.kXDXmXbXNXNXNXNXNXNXDX>X<XyXo .         o     o o o o ; o ; ; ; ; ; ; ; - ; ; ; ; - ; ; r ; - - r ; < < < < < < < = < = < , , = , = ",
"L K L L L L L L m R Y L R K R L T L L L L L L L L L L K L P P R K R K K R P P Y R R R K Y R R R R R I W b :.7.p.cX8XY.E.E.a.7 9 N B k S T.tX+X_.#XhXZXhXZXZXCXhX#X|.`.(.(.[.dXCXJXFXFXJXJXJXJXJXJXGXJXJXFXFXJXCXCXJXCXJXHXvX0X:X6XDXKXKXLXKXKXLXLXKXLXKXLXDXcXkX>X;.z l 7 x 7 x ) d.W v t 4 4 4 5 5 r i b #.:XvXVXVXNXnXmXVXVXNXnXNXvXaX6Xq.{ x.).{.'.`.{.{.{.}.{.(././.c.N 7 l x N k Q n.Q.).).$XdXhXhXgXZXZXhX#X|.{.'.`.'.#XVXBXuX2X1X:X:XP.J.J.z.J.H.H.H.z.H.K.H.G.H.3XiX#X'.`.}.{.@XsXhXZXhXhXhXjX#X|.(.XX3XT.} S S N N k 9 ^ E.).N.s.) / Q Q F E Q Q P 3.J.J.2.;.&.&.;.&.&.&.%.;.%.@.<.*XJ.d._ s.] ' [ [ [ [ s.c.v.] w X : O X @ X * @.&X&X;X4XIXIXIXcXIXcXcXcXcXxXDX7Xi.%.@.<.e.UX&X;X;X=X-X-X9X<X9X4X4X4X8X6X7XIXkXIXP.M.C.(.(.{.#XhXhXgXgXhXhXgX@X|.(.%XT.J./ N w k N 9 l _ Z.Z.[ B B B k k B Q { ,.<.%.r.;XcXSXDXNXDXSXAXAXAXAXDXSXDXyXH.Y.~.+X~.~.~.~.~.~.pX!.h.T , .   . o : # j &.8XcX9X=X4X7X4X-X=XwXwX0.;.8XDXDXbXNXNXPXNXNXNXNXPXGX9X4XyXo               o o o o o ; ; o ; ; ; ; ; ; ; ; ; r ; - - - ; ; - ; - - ; - < < < = < = < = < = , = = , ",
"L K K K m M R K L L M L L L L L L R L T L L R L R R L L L L P K L K P R K K K Y K Y R R R L I R I R R R z 5.6.y.2XA.).c.V 7 x x l N 4.tX$X_.@XgXhXhXhXZXCXZXdX|.`.`.`. X#XZXLXGXJXJXJXFXJXJXFXJXJXJXJXFXJXFXJXJXJXJXFXCXJXHXHXaX3X:XyXLXKXLXKXLXKXLXLXLXLXKXLXDXcXwX*X#.x 7 x 7 7 x ) >.M c t 4 4 4 5 e e v v -.1XNXVXVXVXnXVXnXZXnXiX=X} u.C.`.`.{.`.}.}.}.}.(.(.).B.Z 7 9 9 l l S u.U._.).@XdXhXgXgXhXZXhXsX@X}.`.`.'.@XjXAXlXqX1X,X:XP.:XJ.J.J.H.H.H.H.l.*Xz.G.K.K.K.K.J.5XpX$X`.}.{.|.@XdXZXhXgXgXhXgX@X X%XXXY.K.~ N S N N x V a.E.E.b.[ / E Q I I E / Q %.G.=XG.<.<.&.&.&.%.&.&.&.l.J.D._ ' ' ' ' ' _ ` ' ] c.] 9 X o X X O X . t i.;Xp.;X4X8X8X8XIXIXIXcXIXcXPXkXG.&.@.%.e.w.G.&X&X*X;X-X-X-X>X9X>X4X4X4X4X8X7X7XIXIXcX7XT.Z.^.(.(.|.sXhXhXhXgXhXhXdX@X X^.W.Y.K.X.N 9 k l 9 x x.^.m._ B Q Q A E { { 4.4.,.@.<.<XxXSXDXDXAXDXAXAXSXzX:XI.~.pX~.~.+X~.pX~.~.~.z.>.e . . X o : : j H -XcX4X*X<X6X4X>XJ.5XzX=XO.&XxXMXbXNXNXNXNXNXNXDXNXmXPXGX>X5XIXo           o         o ; o ; o ; ; ; ; ; ; - ; - ; - - ; ; - - - - - - = < ; < < < < < = < = = = , , ; ",
"J K M L L K K R L K L K R L K L L R L L L P R K L K L L L L R K K K P K P K R K L Y Y R R R R R R I R I c y.r.d.).V.^ 9 l N N N { Y.pX_.OXsXhXZXhXhXZXCXgX@X{.`.(.{.@XhXJXFXFXFXFXJXJXJXJXJXSXFXJXFXCXJXFXJXCXJXFXHXJXJXBXJXBXHXBXiX,X<XxXLXKXLXKXLXKXLXKXLXKXKXKXPXcXIXl.R l 9 x 6 7 C d.) y t 5 5 5 5 5 e u p n 2.0XBXVXVXVXnXaX2X3.{ S.(.{.'.`.'.`.}.}.{.).(.C.' w 7 9 9 l N ` U.XX(.|.sXhXhXhXhXhXZXdX@X{.`.`.`.[.fXVXzXqX3X1X,X:X:X:XP.*XJ.z.:Xl.*XH.H.H.z.l.K.K.G.K.G.K.H.qXpX X{.`.}.|.#XhXZXhXgXhXjXsX$X'._..X1X4.S S k N N 9 Z M.(.E.f...{ E E I E / / E ,.J.:Xk.;.&.;.&.@.0.H.K.` _ ] ' ' ' ' _ ~ X.] ] N @ . X X X X . , 6.-X&XG.-X9X9X4X8X8X8XIXIXIXPXxX-Xr.%.%.r.e.w.G.&X&X&X;X;X-X-X-X9X>X>X4X4X4X4X8X8X7X7XIXyXcXcX2XA.C.^.(. X@XfXZXhXhXhXhXhXfX@X(.C.Q.3X4.Q S l l 9 w Z m.R.b.A A ~ { { .... .4.3.&.*.q.wXSXSXAXAXGXbX6XI.!.~.~.~.~.~.~.~.oXoXY.1.a #   . . . : j J i.IXIXJ.-X4X9X9XJ.<XlX7X,.6.yXSXAXNXAXAXNXNXNXNXNXNXNXNXNXGX<X5XIXo           o o o o o o o o o ; ; ; ; ; ; ; ; - ; - - ; - ; - - - - - - - - - - - - - ; = = ; , = ; , , ",
"L K K L K L L M K L K Y L K L L K L L R P P R L R L L R K K L P L R K R P Y P R R R M T R M W I I R I R q &.3.M.] l l l N l A Y.pXOX[.#XhXhXhXhXZXCXhX@X{.`.`.(.[.dXJXGXJXJXJXJXJXJXFXJXJXJXJXSXJXJXFXJXJXFXFXFXFXJXCXJXHXBXJXHXFXHXnX0X,XqXPXKXLXKXLXLXLXLXLXKXLXKXLXPXlX4X0.M x l x 7 7 ^ ) M t 5 5 5 4 5 5 e t a R l.qXnXVXiXH.{ u.^.`.'.`.`.'.`.}.{.(.^.^.c.N w l 9 9 N Z n.XX).'.@XgXhXgXhXZXZXhX#X|.}.`.`.).fXVXbXiX3X3X1X>X,X:X,XP.=X=XJ.:XJ.:Xz.l.H.H.H.K.G.k.k.i.K.k.G.K.:XtX+X{.`.`.}.|.#XhXZXhXgXhXgX#X[.).A.tXT.{ S N N 9 N 9 ! Z.).M.[ { { / E E / ` / ( 3.:X=X5.:.6.z.I.| Z ' ' ' ' ' ' _ _ ] ] X.1   o X X X . : O.*X*Xi.&X-X-X-X9X9X4X8X8X8XcXDX7Xe.%.%.&.<.w.w.i.UX&X&X;X*X=X-X-X>X>X9X9X4X4X4X4X5X8X7X7X7XIX7XkXcXcX1XZ.^.(.(. X@XdXZXhXhXgXhXgX#X|.^.%X!.T.4.N N N 9 l 9 _ B.Z.[ { ` ....i... .4.,.,.O.%.*XzXGXGXwXP.U.~.~.~.~.~.~.~.pXoXY.h.H ;     . . X O w i.IXIX=X&X-X-X=XJ.J.yXiXi.&.4XAXSXAXAXAXNXAXAXDXNXNXDXDXNXDXbXGX>X5XIXo o             o o o o o ; o ; o ; ; ; ; ; - ; - ; - - ; r ; ; - - - ; - = < ; ; - - < < < , = = , = = ",
"M K M L K K L K Y K L L K K R L L L L K P P L K K L R K L R L P L R K K P P P Y R R R R R I R R R R I ( z > N N 7 9 N N C F.tX+X_.@XhXZXhXhXZXCXZXsX[.`.(.(.'.#XCXJXFXJXFXJXJXJXCXJXJXFXJXSXJXJXSXFXFXFXFXJXJXSXFXFXJXJXJXJXBXBXHXBXJXBXvX0X,XwXLXKXLXKXLXKXKXLXLXKXLXKXGXcXwX=X#.x 7 x 7 7 x / ) M r r 5 5 4 4 5 t a n 0.=X:X1.[ C.(.`.(.`.`.`.`.{.).).).m.Z w w l l 9 S u.U.[.'.[.dXhXhXgXhXZXhX#X|.].`.(.`.OXjXNXuXtX3X3X3X1X1X:X:X:X:X:XJ.P.J.H.H.H.H.H.H.l.G.l.K.k.K.q.k.K.K.q.K.<XpX$X{.`. X|.@XdXhXhXgXgXhXgX#X X^.Q.!.T.` S N l l 9 9 ' E.E.M.s.| { { E / ~ ` `  .z.l.h.j.d.V Z _ ' ' ' ' _ _ _ ] ' w X X X . X . X H H.=XG.UX;X;X;X;X-X-X9X9X4XIXPXcXi.%.%.&.r.e.i.w.i.UXUX&X&X*X*X-X-X-X>X9X>X>X4X8X4X5X8X6X7X7X7X7XIXIXyXcXcXyXY.C.^.(.(.|.#XhXZXhXhXgXhXdX@X X^.%XY.K.X.S S N N 9 N ] C.Z...[ ..[ ....} } } E Q A 1.>X*XL.Q.~.~.~.~.~.~.~.oX!.h.T 4     . . X X & O.9XIX-Xi.J.-X-XJ.i.qXzXJ.%.G.bXSXAXAXDXAXAXAXAXNXNXMXNXDXNXNXNXNXGX>X5XkXo             o o o o o o o ; ; ; ; ; ; ; ; - - ; ; - ; ; ; ; r - - - - < ; - - - - - = = - = < , < = = ",
"L J L K K K K K K K K M L Y K L L R R L K L L L L L L K P L L K L K R K Y K K Y R M R R R I R M W I I R E z 1 q z l N | 1XpXXX[.dXhXhXhXhXCXZXgX|.`.`.(.(.OXhXGXJXFXJXFXJXJXFXJXJXFXJXFXJXSXJXFXJXSXJXFXFXFXSXJXJXCXFXFXBXHXHXJXHXFXHXFXHXVXuX0X5XcXLXKXLXLXLXKXKXLXKXKXKXKXPXcX5Xk.M x l x 7 l C  .>.f 4 4 e 5 5 t t f y.p.O.] ^.`.(.(.`.{.(.`.(.(.^.C.] 9 9 9 l N N [ T.XX].[.#XgXhXgXhXhXZXsX@X}.`.`.`.OXjXSXlXiX6X3X3X1X3X:X1X:XP.:X:XP.*X:X:XH.P.H.H.H.H.z.K.K.G.G.q.K.q.q.k.k.i.K.J.6XpX$X X{.{.|.$XdXhXhXgXjXhXgX#X X%X!.Y.4.S N N 9 9 q 9 b.E.E.v.[ [ { / / { { ^ d.d.j.~ V V ! _ _ ' ' _ _ a.] N $ . X . o .   5 i.>XG.w.&X&Xp.&X;X;X-X-X;X4XcXxX<X<.%.&.;.e.e.i.e.i.y.UX&X&X&X;X;X;X=X-X9X>X9X9X4X4X4X4X5X8X8X7X7XIX7XIXIXyXkXcXxXqXU.^.(.(.(.[.#XgXhXhXhXhXgX#X@X XC.Q.Y.3.A N l N 9 9 N x.Z.M.........} { ~ Z X.a.M.b j.~.~.~.Q.~.!.~.~.!.F.( 5 .   . . . X @ i *XkX8Xi.T.-X=X;Xi.>XiX6X<.e.kXLXDXDXAXSXDXmXAXAXAXNXDXDXNXNXAXNXAXNXLX>X8XIXo               o o o o o ; o o ; ; o ; ; ; ; ; ; - ; - ; r - ; ; - - - - < < ; = - - - - = = , ; ; < = ",
"K K L M K K K K K L L L K Y L L L K L L L P L L P R K L P K L P L L L Y L K R Y K R R R R Y R R I I W M W ) B B l E P.aXOX_.#XhXhXhXhXZXCXhX@X{.`.(.(.OXfXJXJXJXGXJXJXJXJXJXJXGXFXFXCXJXFXJXFXJXSXFXJXSXJXSXSXJXCXSXJXCXJXCXFXCXFXFXFXVXBXCXFXVXiX,XqXDXKXKXLXKXKXKXLXKXKXLXKXKXPXcX4X2.B l l 7 7 x ^ >.;.i 4 e e r r g y.;X@.v.`.(.(.(.`.`.`.(.^.^.b.N w l 9 N N Z n..X[.'.@XdXhXgXgXhXZXgX#X{.`.`.`._.fXMXbXiXqX2X0X3X3X1X1X>X<X:X,X:X:XP.J.:XH.H.H.J.*Xz.H.H.l.l.k.G.l.k.K.k.k.k.q.K.k.K.H.6XfX$X`.}.}.|.#XgXhXhXhXhXhXfX@X).Z.!.T.` N k N 9 9 1 V M.).E.c...| { { { { [ n.w.E S V S _ ' ' _ ] ] Z 1 . . X X X X j e.>X=Xw.UXi.&Xp.&XJ.;X=X;X-XIXNXyXw.&.$.&.6.0.0.l.0.UXUX7.UX;X*XUX*X;X*X-X-X>X-X9X4X4X4X4X5X8X5X7X7X7X7X7XIXIXkXIXkXkXcXcXrXI.E.E.].].|.sXhXjXhXhXhXgX#X[.(.%XQ.T.} S k w l l 7 V m.E.b.| | { { A Z Z c.Z.U L.~.Q.~.~.~.~.!.I.} b :   . . X : X 2 i.IX7X&Xi.=X-X=Xi.J.yXiXw.<.4XGXDXAXDXMXDXMXmXDXAXAXAXAXNXDXDXSXMXMXNXNXGX<X5XyXo             o     o o ; o ; o ; ; ; ; ; ; ; ; ; - ; - - ; - - ; r r ; ; < - - - - ; - - - - - - - - = ",
"K K m L K K K K K K L L K K L K R L K L P P L R K L L K L K L P R L L L R K K R K Y F R Y I R I W I I ) I ) ) { K.aX+X_.@XdXhXhXhXhXZXhX#X|.`.(.(. X#XHXKXJXJXGXJXGXFXJXFXGXFXJXFXSXJXFXFXFXJXFXCXJXSXJXSXCXSXFXJXSXSXSXFXFXFXSXFXHXHXHXFXCXBXVXBXvX0X3XkXLXKXLXLXKXKXLXKXKXKXKXKXLXPXIX=X%.z l 7 7 l l / 4.-.y 4 r r g y.;X@.S.`. X(. X X^.^.^.B._ 9 l l N S Z n.U.OX'.@XfXgXgXgXhXZXhX#X|.`.(.(.(.+XZXMXuXtX6X0X2X2X3X1X3X>X1X:X,X:X:X:X:X:XJ.P.*XH.H.*Xz.H.l.G.K.G.z.k.k.k.q.q.k.h.k.q.K.F.K.=XtX+X[.{.}.|.|.sXhXhXhXhXjXgX#X|._.A.Y.D.S N 9 9 9 7 7 ^ Z.).M.s...} ( } { } p.( V V Z ! _ ' a._ w @ . X X X X : W =X=Xw.w.G.UXp.p.&X&Xp.&X;X8XmXxX*X&.$.&.<.6.0.0.7.7.UX7.l.UXUXUXUX;X;X*X;X-X-X9X9X<X9X4X4X4X4X5X8X8X7X7X7XIXwXIXkXkXkXkXlXcXcXrX,XW.R.].`.{.@XdXhXhXgXhXhXgX@X|. X%XT.T.{ S l 9 l 9 w _ R.Z.s.` ` X._ X.v.A.W L.~.~.Q.~.!.I.d.Y =   . . . : X # &.7XIXG.i.*X=X;XG.G.6XuXJ.&.*XAXGXAXAXAXDXmXSXDXDXNXDXNXAXAXDXNXNXNXPXmXDXNXGX<X4XIXo             o o o o o o o o ; o ; ; ; - ; - - - - - - - - - - ; ; ; ; < ; - - - - - - - ; - - ; - = = ",
"L L K K K K L K L K L M K L K R L K P L K L P L L L L R R L L K K L K K K Y K Y Y R R R R R I R W I R R ) ) 4.iXjX$X XsXhXhXhXhXZXZXdX@X`.`.(.'.$XCXKXJXFXJXGXJXGXJXJXJXFXJXJXFXJXJXSXJXFXSXJXFXJXSXSXCXJXSXSXCXSXSXJXSXJXFXFXFXBXHXFXBXBXFXFXBXVXBXVXuX0X6XxXKXLXLXKXLXLXKXKXLXKXKXKXDXxX7XG.E x x 7 x l x ) d.W h r t.y.;X%.C.`.(.`.(.^.).%Xu.l 9 N N N N [ T..X X[.#XdXhXgXhXhXhXdX|.{.(.(./.OXjXJXzXiX6XqX6X2X2X2X3X1X<X1X1X,X>X:X,X:X:XP.J.J.*XP.H.z.*XH.z.l.K.G.K.k.K.k.k.K.q.k.k.k.q.q.k.h.K.<XtX$X X}.{.|.#XgXhXhXhXhXhXgX#X|.).U.Y...S 9 l 9 9 7 l a.).).N.9X;X} ..,.p.} S N Z ! ' ' x : X X : : X X d H.:Xi.w.G.UXi.i.i.&Xp.&X;X4XbXSX5X6.&.<.;.<.6.0.7.7.UX0.l.7.UXUXUX*X;X*X*X;X;X-X-X9X>X9X9X4X4X4X8X5X7X7X7X7X7XIXIXwXwXkXkXkXkXkXcXxXnXeXY.A.E.].(.|.#XgXjXhXhXhXhXdX@X|. X%XY.F.Z S 9 9 9 9 N x.^.M.[ Z _ _ c.%XW I.~.!.~.U.h.W 5 .   . X X X : J >XIX*Xe.G.=X&X*XG.-XiX3X<.i.xXGXDXAXAXAXAXmXDXAXAXSXAXAXAXAXAXMXDXMXDXNXNXNXbXGX>X4XwXo               o o   o ; o ; o ; ; ; ; ; ; ; - ; - ; - - - ; - ; r ; r - - - ; - ; - ; - - - ; = - = ; ",
"n M K L L J M L K K K Y K K L L R K P L P K K K R K L K K P P L L K L Y K L Y K Y M K R I M R I I R E ) ) ) L.XX).@XgXhXhXhXhXZXgX@X{.`.(.(.OXjXJXJXFXJXJXJXJXJXJXJXJXGXGXJXFXJXSXFXJXJXFXJXGXFXSXJXSXSXJXSXFXSXMXSXCXMXSXFXCXFXFXFXBXHXHXFXCXBXHXBXBXBXbXeX2XIXLXKXKXKXKXKXKXKXKXKXKXKXKXDXxX4Xh.C x x l l 7 x ....t.t.y.;X%.C.{.(.(.^.).v.S w 9 N l N ! L.oX[.|.#XgXhXhXhXhXhXgX@X{.(.(.(.[.fXZXvXiXiXtXqX3X2X2X2X2X3X1X3X1X:X,X<X:X:X:XP.=X:X:XP.*XH.*XH.H.J.G.G.G.k.G.k.k.k.q.k.k.q.3.q.3.q.k.k.h.K.0XtX@X X`. X|.#XhXZXhXhXhXgXsX@X X_.!.I.{ N 9 9 9 7 1 V b.Z.$XkX;X .1.;X} N N Z _ V > . X X : : . 6 3.>XG.e.w.i.w.w.G.p.p.&X&X-XzXJXkXi.;.;.&.:.<.6.0.5.0.l.7.0.l.UXl.UXUXUXUX*X*X;X*X-X-X>X9X<X4X4X4X4X5X8X8X7X7X7X7X7XIXwXIXkXkXkXkXcXlXlXxXxXzXrXU.W.^.(. X[.sXZXhXhXhXhXgXsX@X X).Q.Y. .S N 9 N 9 w ! B.E.v._ _ u.W.( I.~.Q.j. .v +   . . . : : r i.IX-Xe.q.*X&X&XG.i.6XiXi.q.IXSXDXmXAXAXAXAXSXDXmXMXAXAXAXAXAXAXAXDXNXNXNXMXDXDXNXGX<X4XIXo       o     o     o o o o o ; ; o ; ; ; ; ; ; - ; - - - ; - - ; ; - - - ; - - - - - - ; - ; - - = = - ",
"K K L L M K M L L K K L L L Y L K L P K P L L K L L L P K L P K K L K Y K K K Y K Y R R R R R I R W E W | Y.$X XdXhXhXhXhXCXZX#X[.].(.(.[.fXCXKXJXJXFXJXJXJXFXJXJXGXGXFXJXSXJXSXSXSXJXSXSXSXSXJXFXJXSXFXSXJXSXJXCXSXSXSXSXSXCXFXBXFXFXCXFXHXBXHXHXBXBXBXFXBXvXqX5XkXLXKXKXKXKXKXKXKXKXKXKXKXKXLXlX<X2.M x l 7 l 7 V s.| 6.;X&.^. X^. X^._ w 9 N N l S n..XXX X@XsXgXgXhXhXZXhX#X|.(.(.(.).+XZXvXuXiXiX6X0X6X6X0X0X2X3X3X3X1X>X1X,X>X,X:X:X:X:X:XH.J.:Xl.J.z.l.l.K.G.k.G.k.K.k.l.k.q.q.k.K.q.q.3.q.h.k.k.F.J.0XoX X{.{.{.|.sXhXhXhXhXjXhXsX@X XW.oXK.A 9 9 w 9 w w V a.E.!.k.,.;X( V _ ! 7 X . X X : : * -.:X=Xq.e.i.w.w.G.w.i.p.&X;X7XSXbXJ.=.<.;.r.<.<.<.0.5.q.0.l.0.UX0.UXUXUXUX*X*X;X*X-X-X-X-X>X>X9X4X4X4X4X5X5X5X7X7X7XIX7XIXwXkXkXkXkXkXkXcXlXcXxXxXxXxX2XA.^.^.(. X|.dXhXhXjXhXhXjX#X|.'._.!.T.{ S N 9 N 9 l ] R.^.u.] A.,.J.U.F.P j . X . X : : - e.8X8Xe.2.i.i.G.i.i.=XyX=X<.4XDXSXDXNXAXAXAXAXSXAXAXDXAXAXAXAXAXAXAXAXMXNXNXDXDXNXMXNXGX<X5XIXo     o       o     o o o o ; o ; o ; ; ; ; ; ; ; - ; ; - - - - r ; ; ; ; - - - ; - - ; - = ; = ; - = = ",
"M L L M J K K K K K K K K L L K P L K P K K P L K L K L K P L K L K K Y K Y Y K Y R F K I M I R E R W ) { tXZXsXZXhXhXZXZXsX[.`.`.(. X#XZXKXJXCXFXJXJXJXLXJXFXJXJXJXJXJXJXJXGXJXJXJXSXSXSXJXSXSXFXFXFXFXFXSXSXSXSXJXSXMXCXSXSXCXBXHXBXHXFXBXFXCXBXBXJXBXBXBXVXVXaX2X5XxXKXKXKXKXKXKXLXKXKXKXKXKXLXPXkXH.) z x 7 9 q 9 _ b.L.,.%X{.).x.9 w N l N N | U.$X[.@XsXgXgXhXZXZXZXdX@X'.`.(.(.$XjXmXzXiXiXqX6XtXqX2X0X2X2X2X3X3X<X1X1X>X>X,X:X:X:X:XP.H.J.=X:Xz.*X*X*Xz.z.G.l.K.l.k.K.k.k.k.k.3.q.3.q.k.q.h.q.h.q.q.K.J.tX$X{.`.{.{.@XsXhXZXhXjXjXgX#X@X).XXY.4.S 9 9 9 7 7 7 ! m.n.1.-X.._ N $ . O . O : : G J.<Xi.w.q.w.w.w.i.w.G.&XG.<XbXSX5X6.;.<.&.&.:.;.6.6.0.e.e.7.7.l.7.l.l.UXUXUX;X*XUX;X*X-X-X-X9X9X<X9X4X4X8X8X8X8X8X7X7X7XIXwXIXkXIXkXkXcXkXcXkXlXxXxXxXxXxXlX!.%X^.(.(. X$XgXZXjXhXhXhXgX#X|. XXXY.K.~ S k l x l V v. XE.B.| T. .6 . . X : # $ j @.8X8Xi.,.e.i.q.i.q.&XwX5X3.G.xXSXMXDXMXMXSXAXAXSXAXAXAXAXAXAXAXAXAXNXAXNXNXNXDXDXDXNXDXNXGX<X4XwXo           o   o o o o ; o o ; ; ; ; ; ; ; ; ; - ; - - - ; ; - ; ; r ; ; - - ; - - - - ; - - = - = - = ",
"L L K K L J L L K K L K K L K L L K K P L P P K L K K R L L P K K K K K K Y K Y Y K M R R M R I I I W ( ) !.CXdXhXZXZXgX@X{.(.`.`.$XZXJXGXCXJXJXFXJXJXJXFXJXJXLXJXJXJXFXJXFXFXFXJXSXSXSXJXSXFXJXFXFXFXJXSXJXSXSXSXSXCXSXSXSXSXSXBXBXJXBXBXHXBXFXFXCXHXBXBXBXBXBXBXvXiX2X7XPXKXKXKXKXKXKXKXKXKXLXKXKXGXPX4Xk.R x l 7 7 7 V m.M.).S.N w 9 l 9 l X.L.$X_.[.#XdXgXhXhXZXVXhX#X{.(.`.(.).fXVXZXuXiXiXiXqX0X6X0XqX2X3X2X2X2X3X3X1X1X>X,X>X,X:X:XP.J.:XP.H.*X:Xz.J.z.*XG.G.K.G.k.l.l.k.k.k.k.k.k.3.q.h.3.q.q.3.q.3.h.h.i.P.tX$X X X`.{.@XdXhXhXjXhXhXgX#X X_.oX:X,.N 9 9 7 7 1 l a.N.L.^ 1 X . . @ @ X q G.2X&Xe.q.q.w.i.w.i.i.&XG.=XkXJXyXi.<.6.;.;.&.<.<.6.<.0.6.q.e.7.0.7.l.UXUXUXUXUX;X;XUX;X-X*X-X-X-X>X9X4X<X4X4X5X8X7X7X7X7X7XIXIXIXwXkXkXkXkXkXkXlXcXcXcXxXxXxXNXPXyXU.%X^.^.(. X#XhXZXhXhXhXhXfX#X{.(.XXY.4.X.N N x l l ! ).^.u.B X . X X : : # J -XIXp.;.<.i.2.e.e.q.4XwXi.0.6XDXDXNXDXDXDXNXAXAXSXAXAXAXSXDXAXMXNXAXSXAXAXAXNXDXNXMXNXDXDXNXLX<X4XIXo o           o o     o ; o o o o ; ; o ; ; ; - ; - - ; ; - - - r ; r - - - - - ; ; - ; - - - = - = = ; ",
"K n K L K M K K K L K K L K R K K P L K P K L K K K L K P K K P Y K R K Y K K R K Y I R I R R E W I I W ) oXCXgXZXhX#X|.`.`.(.|.dXHXJXFXJXFXJXJXJXJXFXFXJXFXSXJXGXFXJXGXFXJXFXJXSXSXJXJXSXSXSXSXFXFXFXFXSXJXSXJXCXSXMXSXCXMXSXCXFXFXBXBXFXBXBXHXFXFXBXBXHXFXBXBXBXMXVXvXqX2XyXLXKXKXKXKXKXLXKXLXLXGXKXLXLXkX*X( M z l l 6 6 Z V 1 w 9 9 N N n.oXOX[.@XdXgXhXhXZXZXhX#X|.(.(.(./.+XZXVXzXiXiXiXqX6XqXqX0XqX2X0X6X0X2X3X3X3X<X1X1X>X,X:X:X:X:X:X:X*XP.P.l.:Xl.*Xz.H.k.l.k.G.z.k.k.k.q.q.k.q.k.q.q.q.k.3.3.q.3.h.k.3.4.T.Y.+X[.(.{.{.|.#XgXhXhXgXhXhXgX@X X_.!.K.E l 9 w 7 > > V l X X : @ : @ & 4.3X-Xq.e.q.i.w.w.q.i.G.UX&X6XJXNX-X6.;.<.&.;.r.;.<.6.<.6.6.5.q.e.7.l.7.l.UXUXUXUXUXUX*X;X;X*X-X-X>X9X9X<X4X4X4X4X5X8X8X7X7X7X7XwXwXkXIXIXkXIXkXlXkXcXlXxXlXxXxXxXxXxXPXbXqXW.C.^.(.(.[.sXhXZXhXhXhXhXsX@X X).XXT...Z N N l 9 9 k * X X : @ : : k G.IX-Xr.;.2.6.<.:.<.J.IX-X<.=XbXDXMXMXDXDXSXDXSXAXDXDXAXAXSXAXAXDXAXDXAXAXAXAXNXMXDXNXDXMXNXDXNXGX9X4XIXo o           o   o o o o o ; ; o ; ; ; ; ; ; ; ; - ; - - ; - - ; ; ; ; - ; ; - - - - - - ; = - ; - ; - ",
"K K K L K L K K M L L L K K K K P K L K L L K P K L K K M R K K Y K K K K K R F I Y L R Y M R I I W W ) ) !.ZXgXsX[.`.`.(. XsXZXJXGXJXHXJXJXFXJXFXJXSXJXJXFXJXJXJXJXFXJXFXJXFXJXSXSXSXFXSXSXJXSXJXSXSXSXFXFXJXSXJXSXSXMXCXSXSXMXSXCXMXCXCXMXFXCXCXFXBXBXHXJXBXBXBXBXBXBXVXaX2X5XcXKXKXLXKXKXKXLXKXLXLXGXKXLXPX8X9.E B q 9 7 1 7 9 9 N N | Y.$X[.@XsXgXhXhXZXhXhXsX|.{.(.(.).$XjXFXnXuXuXyXiXqXiXqXqX0XqXqXqX0X5X2X2X3X3X2X1X3X,X,X>X:X:X:X:XP.*X:XJ.:XH.H.H.H.l.K.G.l.l.k.K.k.k.k.k.q.h.q.3.q.h.q.3.3.0.h.0.3.2.3.3.h.h.J.tX+X'.(.{.{.@X#XgXhXhXgXhXgXsX|. XXX1X3.S 9 9 1 > O . @ @ @ : * W 3X<Xl.q.w.q.q.G.w.w.i.i.G.4XNXSX6Xe.;.;.;.&.;.;.:.<.<.6.6.<.0.e.e.e.l.7.l.w.l.UXUXUXUX*XUX*X;X-X-X-X9X>X9X4X9X4X4X5X8X8X7X8X7X7X7X7XwXkXIXwXkXkXkXcXcXlXcXzXcXxXxXzXxXxXbXNXDXzXtXZ.C./.(.`.@XsXZXZXhXjXjXgX#X|.(.%XU.F.` S N 9 w 1 @ @ @ # $ 6 e.8X9X=.%.<.2.<.<.$.q.7X4X6.q.kXGXAXmXDXAXAXDXDXAXAXSXAXDXAXAXAXAXSXAXAXmXPXAXAXAXAXDXNXDXDXAXmXAXmXGX<X4X7Xo o         o   o o o o o o o ; ; ; o ; ; ; ; ; ; ; ; ; ; - ; - - - - - - - ; - - - - - - ; = = = - - ; ",
"K M K K K K K L K L K K L L K K L K P K K P L K L K K L L K L Y K K Y Y R Y K Y L M M I I Y R I I I M ) / !.CX@X`.`.(.(.#XZXLXFXJXJXFXJXFXJXJXJXJXJXJXSXFXSXFXJXJXSXJXSXJXFXFXFXJXSXSXJXSXSXSXSXSXSXSXSXSXFXSXSXSXSXMXSXSXSXSXSXSXFXSXMXMXCXMXMXBXBXBXHXBXBXBXBXFXBXBXBXMXMXvXiX3X6XxXKXKXJXKXKXKXKXKXKXLXGXGXLXIX-X,.B C z B 9 k N E L.oX[.|.#XgXhXhXhXZXhXdX@X{.{.(.(._.fXCXMXzXiXuXuXiXiXeXqXqXqXqX6X0X2XqX0X0X2X3X2X1X3X1X<X<X,X,X:X:X:X:X:XJ.=XH.J.J.H.H.*XG.l.K.K.l.k.G.k.k.k.k.k.k.q.q.q.k.3.0.3.0.3.0.h.3.2.3.3.3.h.,X0XOX X{.{.|.#XdXhXhXgXgXgXgX#X}._.!.J.W 9 w 1 * $ * * 1 I 1XqXH.q.q.w.q.w.l.i.G.&X=X<XbXJXkXi.&.r.&.&.&.&.&.;.<.r.<.6.<.e.<.e.0.q.0.l.7.l.UXw.UXUX;XUX;X;X*X-X-X-X>X9X>X>X4X4X4X8X5X8X8X5X7X7XwXIXIXIXkXkXkXkXkXkXlXcXlXcXzXcXzXxXxXxXxXxXxXPXDXuX!.Z.^.^.(. X$XgXZXhXhXhXZXdX@X{.(._.U.4.S 9 N 9 1 1 6 9 ,.<X4Xe.%.;.<.<.;.$.<.>X7XUXq.5XAXAXAXDXDXDXAXSXDXSXDXAXAXAXDXAXAXAXAXAXAXAXAXAXAXAXAXAXMXDXMXNXDXNXAXPXGX4X5XIXo         o   o   o o o o o ; o o ; ; ; ; ; ; ; ; ; ; ; ; ; - ; ; - ; ; ; ; - - ; - ; ; - - = - = ; ; = ",
"n L K n K K K K K K K K K P L K P K P L P L P P P K L K L L K K K Y K K K K Y K K R I Y I R I I I W R E / !.ZX[.`.`.OXgXLXJXJXJXJXJXJXJXJXJXJXJXFXJXSXFXLXJXFXJXJXJXSXFXSXSXFXFXSXJXSXFXJXSXSXSXJXSXSXSXSXSXSXSXSXCXSXCXSXSXMXCXSXMXFXFXMXCXCXFXFXCXBXBXCXJXCXFXBXBXBXBXBXMXBXVXvXtX3X7XDXKXKXJXGXKXKXGXLXGXLXxX<Xw.9.4.A C E E E h.oX[.|.#XgXhXhXhXZXZXgX@X X`.`.(._.#XVXGXvXaXuXiXiXiXqXiXiXqXqXqXqX0X5X0XqX2X2X2X2X3X3X<X3X<X,X<X,X:X:X:X:XP.:Xz.H.H.H.H.H.z.K.l.l.k.k.K.k.k.k.q.k.k.q.k.k.3.3.q.q.3.2.0.2.2.2.3.3.2.3.h.h.z.3X+X$X{.{.}.|.#XgXgXhXgXhXgXdX@X).U.1Xq.B 7 > 1 6 q K.yX3Xk.i.G.k.q.w.l.G.H.J.3XzXKXbX*X<.&.&.%.%.&.&.;.r.,.<.r.<.6.<.e.e.5.e.e.7.0.UXl.7.l.UXUXUX*XUX*X;X-X-X-X9X9X9X4X9X5X4X4X5X5X7X7X7X7X7XIXwXIXwXkXIXkXkXkXcXcXcXzXcXxXcXxXxXxXxXbXPXbXPXPXAXiXU.V.^. X(.|.#XhXZXhXhXhXgXsX@X X^.W.T. .S N N U 4.1XzXqXH.i.i.6.6.;.;.&XkX9X6.-XAXGXAXAXDXAXSXDXSXAXAXAXAXSXAXDXAXDXSXAXAXAXAXAXAXAXPXmXAXAXDXNXDXDXAXAXAXAXGX4X4XwXo             o o     o o o o o ; ; o ; ; ; ; ; ; - - ; ; - ; - ; - - ; ; - ; - - ; - - ; = - ; ; = - ; ",
"M L K L L K K K K K L L K K L K L K K K K K K K L K L K K L L K K K Y K K Y K Y Y K K I R I R I R I E W / !.ZX'.'.+XCXJXJXGXJXJXJXJXJXFXCXFXSXSXJXFXJXFXJXSXJXFXFXGXSXJXJXSXJXFXFXSXSXFXSXSXSXJXSXMXSXSXSXSXSXSXMXSXSXSXSXCXSXMXMXFXSXSXSXSXMXMXBXFXFXBXBXBXBXBXBXJXBXBXBXBXBXVXBXNXaX2X<XkXLXKXKXGXGXLXKXDX8X9.&.%.r.IX .N } E u.+X X$XgXhXhXhXhXZXgX#X|.`.'.(.).$XnXSXnXzXaXuXuXiXuXiXiXiXqXqXeXeXqXqXqXqX5X0XqX2X2X2X3X2X,X1X<X,X<X>X,X:X:X=X:X:X:XH.J.H.*Xl.l.H.K.G.l.k.l.k.k.k.k.q.k.3.k.q.q.3.q.0.h.0.3.2.2.2.2.3.2.2.:.h.h.K.1X+X|.(. X|.@XsXgXhXgXhXgXgX#X^.A.1X*Xq q 8 q :XCX0XY.I.J.K.H.G.K.H.=X<XuXJXSX<Xe.;.%.%.%.%.%.&.;.&.&.r.<.<.<.<.6.<.2.e.e.e.l.7.l.7.UXUXUXl.*XUX;X;X*X-X-X-X-X>X9X4X9X4X4X8X8X7X8X7X7X7X7X7XIXwXIXkXkXkXkXcXcXlXlXcXzXcXxXxXxXxXxXxXxXbXbXbXbXAXbXeXA.^.(.(.{.@XfXhXhXgXjXgXdX#X|.^.oXY.V / 4. .T.HXMXBXbXiX<XT.K.G.8XkXw.w.lXGXDXAXAXAXGXAXDXSXAXAXAXDXDXDXAXSXDXDXDXAXAXAXAXAXAXAXAXAXNXAXDXDXNXNXDXNXAXDXGX4X<XIXo           o   o   o o o o o ; o ; ; ; ; ; ; ; ; ; ; - ; ; - ; - ; ; r - ; - ; - - ; - - ; ; - - ; - = ",
"K K J L K K K K L K K K K K K L K K L K K L L K K K L K K K K Y K K K Y K K Y K Y L F Y I Y I R I E R W / Y.ZX$XhXJXGXHXFXJXJXJXFXJXJXJXFXFXJXJXJXFXJXJXFXFXJXSXJXFXFXJXFXFXSXLXSXJXSXSXSXSXCXSXSXJXSXSXSXSXSXSXSXSXMXMXSXSXSXCXSXSXFXFXFXBXSXFXBXFXBXBXBXBXFXBXBXBXBXBXBXBXBXBXmXVXmXnXiX3X2XcXLXKXKXLXIX&X&.%.+.T 2.Y.[ k } E N. X@XhXhXhXhXZXZXsX|.{.(.`.(.OXfXFXmXvXaXuXzXuXiXuXyXiXiXeXqXiXqXqXqX0XqX0X5X2X5X0X0X2X3X3X1X1X<X,X,X,X:X:X:X:X:XP.*XH.H.H.H.H.H.l.H.k.l.z.l.l.k.k.k.k.q.h.q.q.3.3.q.3.3.3.2.2.2.2.3.2.:.h.:.h.3.3.h.J.tX$X[. X X{.@XgXhXhXhXgX@XE.b.F.4X6 0 c z yXKXHXVXaX0X,XI.P.,X1XiXJXKX6Xi.;.&.%.%.*.%.*.%.%.&.r.;.,.=.<.<.6.<.e.0.5.0.e.0.w.0.w.UXUXUXUX*XUX;X*X-X*X-X-X-X>X9X9X9X5X4X4X5X8X5X8X7X7XIX7XwXIXkXIXkXkXkXcXlXcXcXzXxXcXxXcXzXxXxXbXxXxXbXPXbXbXAXDXvX!.E.E.(.(. X#XdXhXhXgXgXgXdX|.(.S.S } 3.{ U.ZXHXKXKXHXMXaXuXxX8X9.5XDXSXAXAXSXGXAXAXAXAXAXSXAXDXDXDXDXAXAXDXAXDXAXAXNXAXAXNXAXNXAXAXAXDXMXDXmXAXNXAXxXGX5X<XIX+             o o   o o o ; o ; ; o ; ; ; ; ; ; ; ; ; ; - ; - - - ; ; - - ; ; - - ; - - = - = ; ; ; - ; ",
"K H K K K K K K K K L K K L P K L K K P P K K K P K P K L K L K Y K K K Y K F K K M Y I M R R I R I I W E J.aXNXKXFXHXGXSXJXFXJXJXJXJXFXJXJXJXFXJXJXCXFXFXJXJXJXSXJXFXFXSXJXSXJXSXSXSXSXCXFXSXSXSXSXSXCXCXSXSXSXSXSXMXSXSXSXSXSXCXFXFXFXBXMXMXFXBXBXFXBXMXBXFXBXBXBXJXBXBXBXBXVXBXVXVXVXMXaXyX:X7XDXcX;X6.#.T #.2.4X6XW.X.k { / M.{.@XhXhXhXZXgX@X}.`.`.(. X+XZXFXvXvXaXaXuXuXuXuXiXuXiXyXiXiXqXiXqXqXqXqX5X0XqX0X2X2X2X2X3X2X<X,X<X<X:X:X,X:XH.*X*X*XP.:XH.z.H.H.z.H.l.z.l.l.z.k.k.k.k.k.q.q.h.q.q.q.3.0.e.3.3.2.2.2.2.h.:.<.h.2.3.4.4.4.Y.oX$X X(.{.|.dXgX#X[.Z.N.F.<X>X> q q z tXKXCXHXHXCXjXiXtXeXnXJXkXG.<.&.%.@.@.@.@.@.%.&.&.&.,.r.<.<.=.<.6.e.<.6.0.e.e.9.0.UXw.l.UXUXUXUX;X*X;X;X-X;X-X>X9X>X>X4X4X4X7X5X8X7X7X7X7XIXwXIXwXIXkXkXkXlXkXkXlXcXzXzXcXzXxXxXxXxXxXxXbXbXbXbXPXxXbXbXmXrX!.C.(.(.{.|.#XgXjXgXdXgX@X`.B.Z { g.{ XXfXCXKXHXJXJXJXKXwXl.cXGXDXAXAXDXAXAXAXAXDXAXDXDXAXAXSXDXAXDXAXDXAXAXAXAXAXAXAXAXAXAXAXAXPXDXNXDXNXAXAXAXAXGX5X4XyX+               o o o o o o ; o ; ; ; ; ; ; ; ; ; ; - ; ; ; ; - ; - ; ; ; - - - ; - - ; ; - ; - - = ; = ",
"K K K K K P K L K L K L K L K K K K K L K K K P L K K K L K K K K K Y K I K K K F Y K R R M M I I I I W W qXCXtXaXJXJXJXJXJXJXJXJXCXGXJXFXJXCXJXJXSXJXFXFXFXJXFXSXFXFXSXSXFXSXSXSXFXLXSXSXFXSXSXSXSXSXMXSXSXSXSXSXSXSXMXSXSXSXSXMXSXSXSXFXMXMXFXSXBXBXBXBXBXBXBXJXBXBXBXBXBXBXBXBXMXmXVXVXNXVXuX3X&X&X<.P %.w.5XzXDXyXW.X.q { A M.}.#XhXhXZXsX}.`.`.`.).OXZXBXNXvXaXzXuXzXuXuXaXiXuXiXiXiXiXeXiX0XiXiXqXqX0XqX5X5X0X2X2X2X1X1X<X,X<X:X,X:X:X:X:X:X*XP.z.H.H.H.l.H.z.z.l.z.l.k.k.k.k.k.0.k.0.k.0.3.0.3.q.0.2.0.2.2.2.2.2.<.h.:.h.2.<.2.3.3.4.K.3XfX[.`.`.|.[.E.Q.Y.6XlXIX=X, 8 0 z 2XJXCXCXHXHXHXCXCXCXMX>X<.;.;.@.@.@.@.%.@.%.%.&.%.;.&.,.<.<.=.6.<.<.6.0.5.e.0.w.0.w.l.l.l.l.UX*XUX;X*X*X-X-X>X>X9X9X4X4X4X4X4X8X8X8X7X7X7X7XwXwXkXkXIXkXkXcXkXcXlXcXlXzXxXcXxXxXxXxXxXxXxXxXbXbXbXbXbXbXPXAXbXtX_.^.(.(.`.[.fXgXfXdX|.(.B.X.{ 4./ W.dXBXHXHXHXHXJXJX=X4XGXDXGXAXAXAXDXAXAXAXAXAXSXAXDXSXAXAXAXDXDXDXAXAXDXAXAXAXAXAXPXAXAXPXAXDXNXDXDXAXAXAXNXGX4X4XIXo         o   o   o o o o o ; o o ; ; o ; ; ; ; ; ; ; ; - ; ; - ; - ; - ; - ; - ; - ; = - = - ; ; = - ; ",
"K n K L K K J K K K K L K K K K L K K K K L L K K K L K K K K K K Y K K K Y K R F K M I K I I R I I I Y Y tXJXU.+XaXBXJXJXJXFXJXJXJXJXJXJXFXJXFXSXJXSXFXJXFXFXSXJXSXFXJXSXFXFXFXSXSXJXSXJXFXFXSXSXSXMXSXSXSXSXSXSXSXMXSXSXSXCXMXSXSXMXMXFXBXBXMXFXMXMXBXJXBXFXBXBXBXBXBXBXBXBXBXBXVXMXmXVXVXVXmXZX:XP P q.5XxXmXbXmXqX%X! 9 / A S.{.@XhXhXZX#X`.{.`.[.dXHXmXvXaXaXzXaXzXaXuXuXuXaXuXiXiXiXqXiXqXyXqXqXqXqXqX0X0XqX5X5X0X2X2X2X1X<X>X,X:X,X:X:XP.:X:X:X=XJ.H.H.H.H.H.l.H.l.l.k.l.k.k.k.k.k.k.q.k.q.q.q.0.0.3.2.0.3.2.2.<.:.h.<.<.4.<.2.,.<.2.2.1.K.Y.$X XE.Q.tXuXNXNXNXyX;X> 8 0 7 0XHXCXCXHXCXCXCXHXHX=X<.;.%.@.@.@.@.@.*.%.&.%.&.&.&.&.r.r.=.,.<.<.e.0.5.0.e.e.0.UXw.q.UXUXl.UXUXUX*X;X*X;X*X-X9X>X9X4X4X4X4X4X7X5X7X7X7X7X7XIXIXwXIXkXIXkXkXkXlXcXzXcXcXxXzXcXxXxXxXxXPXxXbXxXbXbXPXbXbXAXbXAXPXNXoX^.^.(.(.#XgXdXgX|.(.V.Z ` d.~ W.fXBXHXHXHXHXHXCXG.7XGXAXAXDXAXAXGXDXDXGXDXAXDXAXAXDXAXAXDXGXAXAXAXAXDXAXAXAXAXAXAXAXAXNXAXmXDXDXNXNXAXAXAXGX4X<XkX;             o o     o o ; o ; o ; ; ; ; ; ; ; ; ; ; ; ; ; ; ; ; ; - ; - ; - ; - ; - - - ; - ; - - ; - ",
"n L L K K K K L K K K K K K J P K K K P P K L K L K P K K K K K K K K F K K F K K K I K I M R R U I R E R qXCXL.c.XXfXZXJXJXJXFXFXJXJXJXJXJXFXJXJXFXJXSXFXSXSXJXJXJXSXCXSXSXCXSXSXSXSXSXSXSXMXSXSXSXSXMXSXSXSXSXSXSXSXSXSXMXFXMXFXFXMXMXMXCXMXSXMXMXMXMXMXJXMXMXBXBXBXBXBXBXBXBXBXBXBXBXVXVXVXNXnX6XJ G.xXDXNXPXNXDXiX_.Z w A { V.}.@XhXhXhX#X`.`. XZXJXnXnXvXaXzXaXaXuXvXuXaXuXuXiXiXuXiXyXiXyXiX0XqXqXqX6X0X6X2XqX2X2X2X2X,X2X<X,X,X>X,X:X:X:X=X:XH.J.H.H.H.z.z.H.l.H.l.l.z.k.l.k.l.k.k.0.k.0.z.0.0.0.2.0.2.k.:.h.:.:.h.;.:.<.<.2.<.,.2.<.1.1.1.2.K.Y.0XNXMXSXSXSXDX7XJ.j 6 q 7 3XHXCXCXCXCXCXCXCXCXJ.;.@.@.+.+.@.@.@.@.%.@.&.&.;.&.r.;.r.r.<.<.e.<.e.0.e.e.q.7.0.UXl.l.UXUXUXUX*X;X*X;X-X-X-X9X>X9X9X5X4X4X4X7X8X7X7X7X7XwXIXwXwXIXkXIXkXkXkXkXkXcXcXcXcXcXcXcXxXxXxXxXxXPXxXbXxXbXPXPXbXAXbXNXPXDXjX%X^.(.@XgXdXgX@X`.C.Z ` ..~ W.fXmXHXFXVXHXHXBXG.wXGXDXDXAXDXFXAXAXGXDXAXAXAXAXAXNXDXDXAXDXAXDXDXDXDXDXDXAXAXPXAXAXAXAXAXDXbXAXbXAXAXAXAXGX5X4XyXo             o   o o o o ; ; o o ; ; ; ; ; ; ; ; ; ; ; ; ; ; - ; - ; ; ; ; ; r ; - - ; - - r ; ; - ; - ",
"K M n L K K K K P K K K K K L K K K K K K L K P P K K L L K K P Y K K Y K Y Y K K I M I Y K I F Y I I E ) qXHXHXtXb.A.fXjXMXJXJXJXJXFXJXFXFXJXJXFXFXSXJXFXSXJXSXSXSXJXSXJXJXSXSXSXSXJXCXSXCXSXMXSXSXSXSXSXSXSXSXMXSXSXSXMXMXFXBXFXFXMXFXSXMXMXMXMXMXMXMXMXZXMXCXBXBXBXBXBXBXBXBXBXBXBXVXBXVXmXVXZX2XJ 4XGXNXAXNXNXDXuX%XX.q / A m.}.@XhXhXZX#X`.`. XCXSXbXvXzXvXuXlXvXuXuXuXuXlXuXuXuXiXiXeXiXeXiXqXiXqXqX0X0XqXqX2X2X2X2X2X2X2X,X<X>X,X:X:X:X:X:XJ.:XH.*XH.J.*XH.H.l.z.G.z.l.l.k.k.q.k.k.k.k.0.0.0.0.z.0.2.2.2.k.:.:.k.h.:.h.<.2.<.2.<.<.,.;.<.<.<.2.&XSXGXSXSXSXSXSXIX;Xj 6 8 7 2XCXCXHXCXHXCXCXHXCXH.&.@.@.@.@.@.@.@.@.&.&.%.%.&.r.,.r.,.<.<.6.<.<.e.6.e.e.0.0.UXl.7.UXl.l.UX*XUX&X*X;X-X-X-X>X9X>X4X4X4X4X7X4X7X5X7X7X7XIX7XIXkXIXIXkXkXkXkXcXkXkXcXcXcXcXcXxXxXxXxXxXxXbXbXbXPXbXbXbXAXbXAXNXMXNXFXXX^.(.$XgXdXgX@X(.C.X.` ..~ W.sXVXHXHXHXHXJXBXG.7XGXAXDXDXAXAXAXAXDXAXAXAXDXDXAXDXDXSXAXDXAXmXDXNXDXAXMXAXAXmXAXDXbXAXNXAXAXAXAXAXAXAXbXGX5X9XIXo               o   o o o o o ; ; o ; ; ; ; ; ; ; ; ; ; ; ; - ; ; ; r ; r ; ; ; - - - - - - ; ; ; - - ; ",
"H m L L K K K K J K J K K K K K K L P K K K K P K L K K P F Y K K K L F K K F K M Y K F I M R F I M I R E qXKXCXKXZXL.Z.+XjXNXLXJXJXJXFXJXJXFXFXJXFXJXFXJXFXJXJXSXJXSXSXSXSXSXSXSXSXSXSXSXSXMXSXMXMXMXMXSXMXSXSXMXSXSXSXFXSXBXSXMXMXFXMXSXMXMXMXMXSXMXMXMXCXMXBXBXBXBXBXBXBXBXBXBXBXBXVXVXVXVXVXVXqXJ 5XGXAXAXNXMXDXuXA._ 9 A ` m.`.@XhXhXZX#X`.`.[.CXFXnXvXvXzXvXuXuXvXaXlXuXaXuXuXuXiXiXiXeXuXyXqXqX0XqX0X6X0X0X5X2X2X2X2X2X2X<X<X<X,X,X:X:X:X=XH.:XH.*X:Xz.*XH.l.z.l.l.H.z.k.k.k.k.k.k.0.k.0.k.k.0.0.0.0.0.2.:.h.<.:.:.;.:.:.<.<.<.,.,.<.,.;.-.;.2.=XJXSXJXDXSXSXSXIX&Xj 5 8 9 3XCXCXCXCXCXCXCXCXCXG.;.@.+.+.O.@.@.%.%.@.%.&.r.%.%.;.r.r.,.6.<.<.<.e.e.0.e.q.k.w.9.l.l.UXUXUXUX*X*X;X*X;X*X>X9X>X9X4X4X5X5X4X8X5X8X7X7X7X7XIX7XkXkXkXkXkXkXkXkXcXcXcXcXxXxXcXxXxXxXxXxXxXPXbXbXbXPXbXAXxXbXAXNXbXNXSXXXR.(.@XgXgXhX@X(.C._ ` | V E.sXVXHXHXVXHXHXHXG.7XGXDXDXAXDXDXFXAXAXAXGXAXDXDXAXAXAXDXAXDXAXDXAXAXAXAXAXAXAXAXAXAXAXPXAXAXAXAXAXAXbXAXAXGX5X9XkX;             o   o o o o o ; o ; o ; o ; ; ; ; ; ; ; ; ; r - ; r ; ; ; ; r ; r - ; - - ; - ; ; - ; ; - ",
"K K K n K K K K K F P K K K K K K K K K L K P K L K P K K K K K K K Y K K Y Y K K K F Y K I F U I I I R W iXHXCXCXHXHX!.M.XXgXjXJXJXJXJXFXJXJXFXFXJXJXJXFXJXFXSXFXSXJXSXSXSXSXJXSXSXSXSXFXCXMXSXSXSXMXMXSXMXSXSXSXMXSXSXSXSXSXFXFXFXFXMXSXCXMXMXCXSXMXMXMXMXMXMXBXBXBXBXBXBXBXBXBXMXVXBXMXVXVXNXNX2XL 6XGXNXAXAXMXDXzX_.! 9 A A m.].@XhXhXhX#X`.`.[.ZXMXVXvXzXaXvXvXvXuXvXuXuXlXuXuXuXuXuXeXuXeXqXiXiXqXqXqXqX6XqX5X0X2X2X2X2X,X1X,X<X,X:X:X:X:XP.:XH.:XJ.z.J.*XH.H.H.H.z.l.l.l.l.q.l.k.k.k.0.k.0.0.0.0.k.0.2.0.k.:.h.k.:.k.h.:.2.2.<.<.<.<.<.;.;.-.<.=XLXFXGXSXJXSXSXwX&Xj 6 6 q 3XCXCXCXHXCXHXCXCXCXH.%.@.@.O.@.@.@.@.&.&.%.&.%.;.r.r.,.r.=.<.<.e.<.6.3.e.e.e.5.w.9.l.l.G.UXG.*XUX;X*X-X-X-X-X>X9X>X>X9X5X4X4X5X4X7X7X7X7X7X7XwXIXIXwXkXkXkXkXcXkXkXcXcXlXcXxXxXxXxXxXxXxXxXxXbXbXbXPXbXxXAXbXNXPXNXDXXX^.(.@XgXgXgX@X(.C._ X.{ C W.#XBXHXVXHXHXHXCXl.7XSXDXmXAXDXAXDXAXAXDXDXAXAXDXAXDXAXDXAXAXAXDXAXDXAXAXAXAXAXAXAXAXAXAXAXAXAXAXAXAXAXAXbXGX5X4XIXo         o o     o o o o o o o ; ; ; ; ; ; ; ; ; ; ; ; ; ; ; - ; ; r ; ; ; ; ; - - ; - - - ; r ; - - ; ",
"K K K M m K K K K K K K K K L K K L K K P J L K K L L K K K K K L K K K Y K L M K Y R I M F K R R I I I W eXHXHXCXCXHXJXaXA.A.fXaXCXJXGXJXJXJXFXJXJXLXJXJXSXJXJXJXFXFXFXSXSXSXSXSXSXSXSXSXSXSXSXMXSXFXMXMXSXSXSXSXSXMXMXSXFXMXFXFXFXMXFXMXMXSXMXMXMXMXMXMXMXMXMXMXBXBXBXBXMXBXMXBXBXVXMXVXVXVXnXZX6XP 7XSXNXDXAXDXDXzXA._ 9 Z ~ m.].@XgXhXZX#X`.`.[.ZXBXVXvXvXvXvXvXuXuXuXvXuXaXuXuXuXuXuXuXeXuXtXqXiXqXiXqX0X6X0XqX2X2X2X2X2X<X1X<X,X>X,X>X,X:X:X:X,Xz.H.:XH.H.H.H.l.l.G.z.z.l.k.l.k.l.0.k.k.0.k.2.k.0.>.0.2.0.:.h.:.:.:.k.k.:.<.<.<.,.2.<.<.-.,.;.<.=XGXSXFXFXGXDXFX7X&X, 1 6 7 3XCXCXCXCXCXCXCXCXCXH.:.@.+.@.@.%.@.@.@.&.%.&.,.&.&.,.,.&.<.<.6.6.e.<.e.e.3.e.k.7.l.w.UXl.l.UXUXUX*X*X*X-X-X-X>X9X>X4X4X4X4X4X7X4X4X7X7X7XwXIXIXIXIXkXkXkXkXkXcXlXcXcXlXcXxXxXlXxXxXxXxXxXPXbXPXbXbXPXbXPXbXAXNXNXNXSXQ.^.^.@XhXdXgX@X`.C._ ` { V E.sXVXHXHXHXHXHXBXG.7XGXAXAXAXAXDXAXAXAXAXDXDXAXAXAXAXDXAXDXDXAXDXDXAXDXNXDXAXAXAXNXNXAXAXAXAXDXAXAXAXAXAXAXGX4X<XIXo             o o o o o o o ; o o ; ; ; ; ; ; ; ; ; ; ; ; ; ; ; ; - ; r ; - - ; - - ; - - ; ; ; ; - ; - ",
"n m K L K K K K K K K K K K J K K K L K P K K K P K K K Y K K Y F K Y K F K L I K F K F F R M I U I I R E eXJXCXHXHXVXHXKXCX!.n.T.FXJXJXJXJXJXJXJXSXSXJXJXFXSXLXSXSXJXSXJXSXSXSXSXJXSXSXSXCXSXMXFXSXSXMXMXMXSXMXSXSXSXFXMXMXSXSXMXMXSXMXMXSXMXMXSXMXMXMXMXMXMXMXBXBXBXBXBXVXBXBXBXMXBXBXmXMXVXNXnX6Xo.6XGXDXAXAXmXDXzX_._ w A ~ B.].@XhXhXZX#X`.`.[.CXBXZXvXvXzXuXvXvXvXuXvXuXuXuXaXuXiXeXuXeXeXqXiXqXqXqXqXqX0X5XqX2XqX2X2X2X3X2X,X1X>X,X:X:X:X:X*X:X:X:Xz.H.H.H.G.z.H.G.G.l.l.k.k.k.k.k.k.k.0.0.k.2.0.k.2.0.2.k.:.k.;.:.>.:.:.<.<.<.<.<.<.;.;.&.%.<.-XJXSXFXGXGXSXFXwXG.> , 6 7 2XCXCXCXCXCXHXCXHXCXJ.;.@.@.+.@.@.@.@.%.&.&.%.r.%.&.r.=.<.r.<.e.<.<.e.e.3.e.e.9.0.7.l.l.UXUXUX*X*X;X;X;X-X-X-X9X>X9X4X4X4X5X8X4X7X7X7X7X7X7XIXIXwXIXIXIXkXkXkXlXcXlXlXxXxXxXcXxXxXxXxXxXbXxXbXPXbXPXbXPXbXbXPXPXbXNXDXW.^.^.@XgXdXgX@X`.C.X.! { V W.fXVXHXHXHXHXJXCXl.7XLXAXDXDXAXAXDXAXGXAXAXAXAXAXDXAXDXAXAXAXDXDXPXDXDXNXDXAXAXAXPXAXPXAXAXAXbXAXAXAXmXAXbXGX4X<XIXo               o o o o ; o o ; ; o ; o ; ; ; ; ; ; ; ; ; r - ; - ; ; ; r ; - - ; - - - ; - - - - ; - ; ",
"K K L n L n K K P K K K K K L K L K L K K P K P K K P K K K K K Y K Y K K Y Y K Y M L I Y M F F I I I I W qXHXCXHXCXHXCXCXJXKX0XF.JXJXJXJXJXFXJXJXFXJXSXJXFXJXSXJXLXSXSXSXSXSXSXSXSXSXSXMXSXSXMXFXFXFXFXFXSXMXCXSXMXMXSXFXSXMXSXMXFXMXFXMXSXSXMXMXMXFXSXMXMXMXVXBXBXMXBXBXMXVXBXBXVXMXMXVXVXmXVXmX6XT 7XGXmXDXmXmXDXzXW._ w A ~ m.].@XhXhXhX#X`.`.[.CXCXNXvXvXvXvXuXuXvXuXuXvXuXuXuXuXuXeXuXuXeXiXqXqXqXiXqXqX6X0X2X0X2X0X<X1X3X<X,X<X,X>X>X:X:X*XP.*X*X:X*XH.H.H.H.H.G.z.l.z.l.k.l.k.0.0.k.l.k.k.0.2.2.k.0.2.2.:.k.k.:.k.;.k.:.<.<.<.,.,.<.,.;.;.,.:.-XGXSXFXGXSXSXSXyXG.= , 6 7 0XCXCXCXCXHXCXCXCXCX*X:.@.@.+.+.@.@.@.@.@.-.&.&.&.%.r.r.,.<.=.<.<.e.e.6.e.3.e.l.l.0.w.w.UXUXUXUX*XUX*X*X-X-X-X>X9X4X9X4X4X4X5X8X8X7X5X7X7X7XwXwXIXIXwXkXkXkXkXlXcXcXcXlXcXlXxXxXxXxXxXbXbXbXbXbXPXbXPXbXbXPXbXNXNXbXDXQ.^.(.@XhXgXgX@X`.C.X.X.` V W.#XBXHXHXHXHXHXCXl.7XGXNXDXAXAXAXDXDXAXAXAXDXAXAXAXAXAXAXAXAXAXAXAXNXDXDXDXAXAXAXPXAXAXbXDXbXAXPXAXAXbXAXPXGX4X9XwXo             o o o o o o o o ; ; ; o ; ; ; ; ; ; ; ; ; ; ; ; ; ; - ; ; ; r ; ; - - - - - - - ; - ; ; - ",
"L n L n K K K H J K K K K K K K K K K P K K K K K K K K K K K Y K K K K K K K K K I F K F Y R I Y M R I E iXHXCXCXHXCXHXCXCXHXaXF.CXJXJXJXJXJXJXJXFXSXJXFXFXFXJXSXSXJXSXJXSXSXJXSXSXSXCXSXSXSXSXSXSXMXSXFXSXSXSXSXMXMXCXMXMXFXFXFXMXMXMXMXCXMXMXMXMXZXMXMXMXMXBXBXBXBXBXBXBXBXBXVXMXBXVXBXBXVXVXZX6Xo.7XSXAXNXSXmXMXzX%X_ 9 Z ~ m.}.@XhXhXZX#X`.`.|.ZXMXnXvXvXvXzXvXvXuXvXlXaXuXaXuXuXiXuXuXyXeXyXiXiXqXqXqXqX0XqXqX5X2X0X2X2X3X1X<X,X<X,X:X:X:X:X:X:X:Xz.*XH.H.H.H.z.G.z.G.l.z.l.k.k.k.k.0.0.0.k.0.k.0.2.0.2.0.:.h.:.:.h.:.>.:.4.<.<.<.<.$.;.;.;.%.<.-XJXSXJXFXFXSXFX7XG.= , 6 6 2XCXCXHXCXCXHXCXCXCXJ.;.@.@.@.@.@.@.%.&.&.&.;.&.,.r.,.r.r.<.=.<.=.e.<.e.e.e.e.7.w.UXl.UXl.l.UXUX;X;X*X-X*X-X-X9X>X9X4X9X4X8X4X5X7X8X7X7X7X7XIXIXIXkXkXIXkXkXkXcXlXlXcXxXcXcXxXxXxXxXxXxXPXxXbXbXbXxXbXbXAXbXAXPXNXNXPXXX^.^.|.gXgXgX@X(.C._ Z ~ V W.sXBXHXHXHXHXHXBXl.7XGXAXDXGXDXDXAXAXDXDXAXAXAXAXAXAXAXAXPXAXAXAXDXDXDXDXNXAXAXNXAXAXAXAXAXAXAXAXAXAXAXAXDXGX5X>XIXo           o   o o o o o o o ; o ; ; ; ; ; ; ; ; ; ; ; ; ; ; r ; ; r ; ; ; ; - - - - ; ; - ; - ; - - ; ",
"n K M J K K K K H K K K K L H K K K K P L K K L K L K K K K K K K K I K K I Y F Y F F Y I M Y F I I I I W eXHXCXCXCXHXCXHXVXHXiXK.FXJXJXJXJXGXJXJXSXJXFXJXSXJXSXSXJXSXSXSXSXSXSXSXSXSXSXSXSXSXMXSXSXSXCXFXMXSXMXSXSXMXSXCXSXMXMXMXMXMXMXSXMXSXMXMXMXMXMXZXSXMXMXMXBXBXBXBXMXBXmXBXVXVXBXmXVXVXNXVX0Xo.7XGXDXMXDXNXSXzX%X_ 9 ! Z m.].@XhXhXZX#X}.`.[.ZXFXVXvXvXvXvXuXvXuXvXvXuXaXvXuXuXuXuXuXeXuXiXqXeXqX0XqXqX0X6X0X6X2X2X2X2X3X1X1X<X,X,X:X:X:X:Xz.P.*XH.H.z.=XH.H.l.l.z.l.l.l.k.l.k.k.k.k.k.k.0.2.k.:.k.:.k.:.2.2.:.2.:.2.:.:.2.<.2.<.>.;.-.;.;.&.<.-XJXSXFXJXSXSXGX7XG.j 2 6 1 0XCXCXHXCXCXHXCXCXCXH.;.$.@.O.O.@.@.$.&.&.$.&.&.,.r.;.<.r.<.<.<.6.<.e.0.e.e.e.5.7.l.w.l.UXUX*X*XUX;X*X;X-X-X-X9X>X9X4X4X4X4X5X5X8X8X7XwX7XwXIXwXIXkXwXkXkXkXkXlXcXlXcXcXcXxXlXxXxXxXbXxXbXxXbXbXbXAXbXbXPXbXAXNXPXDXMXQ.R./.$XgXgXgX@X`.C._ _ ` N W.sXCXHXCXHXHXHXCXG.8XGXDXDXAXAXGXAXAXAXAXAXAXDXAXNXAXAXAXAXAXAXNXDXAXPXNXDXNXAXAXAXPXmXAXAXAXAXAXAXAXAXAXbXGX5X4X7Xo o             o o o o o ; o ; ; o o ; ; ; ; ; ; ; ; ; ; ; ; ; ; ; r ; ; r ; ; - ; ; - - - - ; - ; - ; ",
"L n n L n K K K K K K K K K K K K K K K K K K K K K L K L K K P R K L K K K K K M K Y M K Y F I M Y I Y I iXHXCXCXHXVXHXHXCXHXaXT.JXHXJXJXJXJXFXJXSXLXJXFXFXSXSXSXSXJXSXJXSXSXSXSXSXJXSXSXSXSXSXSXSXSXSXFXSXMXSXSXMXSXMXMXMXMXMXMXMXMXMXMXMXSXMXZXMXMXMXSXSXJXZXBXBXBXBXBXBXBXBXmXBXmXBXBXVXVXVXVX5Xo.6XGXDXMXDXNXSXvXA._ 9 Z ~ m.}.@XhXjXZX#X}.`.[.ZXFXVXvXvXvXvXvXvXuXuXuXvXuXuXuXuXrXuXuXuXyXqXiXqXiXiXqXqXqXqX2X2X0X0X2X2X2X<X<X,X>X>X,X:X:X:X:X:XH.P.*XH.H.H.H.H.z.H.H.z.l.l.l.0.k.0.k.0.0.k.0.0.k.:.k.:.k.2.2.2.2.:.k.h.:.;.<.:.<.<.<.;.;.;.%.<.-XFXSXFXSXSXGXGXwXG.j 2 6 6 2XCXCXCXCXHXCXHXHXCX*X;.$.@.@.@.@.@.@.$.$.&.&.&.;.&.;.r.<.<.6.6.<.e.<.e.0.e.q.l.l.l.9.l.l.UXUXUX*X*X;X*X-X-X-X-X>X>X9X<X4X4X5X4X7X5X7X7X7X7X7XIXwXIXkXkXkXkXkXkXlXcXcXcXcXxXxXxXzXzXxXxXxXbXxXbXxXxXbXbXbXAXbXNXNXNXDXXXR.(.|.gXgXhX@X(.C._ Z ` x A.sXCXHXHXHXHXHXCXq.6XGXAXSXAXAXAXAXAXDXDXAXAXAXDXPXAXNXPXAXPXAXAXAXAXAXDXAXAXDXAXAXAXAXAXAXPXAXAXAXAXAXAXbXLX5X>XIX              o o     o o o ; o o ; ; ; ; ; ; ; ; ; ; ; ; ; ; ; ; - ; ; ; ; - ; - - - ; - ; - ; ; - - - ",
"J M K K K K K K H K K K K K K K K K K K K K H K K K K K L K K K K K Y K K Y K Y L K K Y I M M K M I I I W eXHXCXCXHXHXHXCXCXCXiXK.JXCXGXFXJXJXJXJXJXFXFXJXFXSXJXJXSXJXSXJXSXSXCXCXSXSXSXSXSXSXSXSXSXSXSXFXSXSXFXSXSXSXMXMXFXSXMXMXMXMXMXSXMXJXSXSXSXMXMXMXMXMXFXBXBXBXBXmXBXBXBXBXBXBXBXBXVXNXVXVXqXO.6XGXNXSXSXSXSXxX%X_ 9 Z ~ m.}.@XhXhXhX#X].`.|.ZXFXZXvXvXvXvXvXlXvXvXuXuXuXrXzXuXuXuXuXuXeXyXeXiXqXqXqXqX0X0X6XqX2X2X2X2X3X1X<X<X,X>X,X:X:X:X:XH.*XH.:XH.H.H.H.z.l.l.G.l.l.k.k.k.k.k.k.0.k.k.0.k.:.2.2.:.k.0.2.2.:.:.:.>.k.2.;.>.<.<.;.<.-.;.$.<.>XLXFXFXFXFXSXSXwXi.= 2 6 6 2XCXCXHXCXHXHXCXHXCXJ.;.@.@.+.@.@.%.$.%.&.&.%.;.&.&.,.,.r.<.<.<.0.6.e.0.e.e.q.7.k.7.l.l.UXUXG.*XUX*X*X;X*X-X-X>X9X>X4X4X4X4X4X8X7X5X7X7X7X7XIXwXIXIXkXkXkXkXcXcXkXlXlXcXcXxXcXxXxXxXxXbXbXbXbXPXbXPXbXAXbXbXPXNXDXNXDXQ.^.^.|.gXgXgX@X`.C._ ! _ N W.sXBXHXHXHXJXJXHXG.7XGXAXDXAXAXAXAXGXAXAXAXAXNXAXAXAXPXAXAXDXNXPXNXAXAXAXNXDXAXAXPXAXAXAXAXAXAXAXbXAXAXAXAXGX5X9XwXo                 o o o ; o o ; ; ; ; ; ; ; ; ; ; ; ; ; ; ; - ; - ; ; - ; - ; r ; - - - - - - ; ; - ; - ",
"n K K n K H K H K K K K H L K K K K J K K L L K L K L K K K K L K K K L Y K K F R K F Y R K Y I R I M Y W iXHXVXHXHXVXCXHXCXCXaXK.CXHXJXJXJXFXJXJXFXJXJXJXFXJXSXSXJXSXSXSXJXSXSXSXSXSXJXSXMXCXSXCXSXSXCXSXFXFXMXSXMXMXMXMXSXFXMXZXMXMXMXMXMXZXMXSXSXMXMXMXVXMXMXMXBXBXBXBXBXBXBXBXBXBXBXVXmXVXVXnX6XO.7XSXMXMXDXDXSXvXA.' 9 Z ! c.].@XhXhXhX#X}.`. XCXFXbXvXvXvXzXaXvXuXuXvXuXvXvXuXuXuXuXeXeXuXiXiXqXqXqXqXqXqXqXqX0X2X2X2X0X2X,X<X,X>X>X,X:X:X:X:X:XP.:XH.H.H.H.H.H.H.z.l.z.l.l.k.l.q.k.0.k.k.0.k.2.k.k.:.k.2.2.2.:.k.k.:.:.:.2.<.<.<.;.<.:.-.;.&.<.-XGXSXFXFXFXSXSXwXUXj 2 2 > 0XCXCXCXHXCXHXHXCXHXH.;.@.@.@.@.@.@.$.&.%.&.&.%.&.r.r.=.<.<.=.<.6.2.0.6.0.e.q.k.7.l.l.l.UXUXG.UX*X*X;X*X-X*X-X9X>X9X<X4X4X4X5X5X5X7X8X7X7X7XwXkXwXwXkXIXkXkXkXlXcXcXcXlXxXlXxXxXzXxXxXxXxXxXbXbXbXbXbXbXPXbXAXNXNXNXSXXX^.(.@XhXgXhX@X(.V._ Z ` N A.dXVXHXHXHXHXHXHXG.8XGXNXDXAXGXAXAXAXAXAXAXAXAXAXAXDXNXmXPXDXDXAXDXPXAXAXAXAXAXAXNXAXDXNXPXAXAXAXAXbXAXAXAXGX5X<XIX              o     o o o o o o ; o ; o ; ; ; ; ; ; ; ; - ; ; - ; ; - ; ; - ; - - ; ; - - ; ; - - ; - ; ",
"L n n K K K K K K K K L H K K K K K K K K L K K K K K K K K L K K K K F K L K Y F I M L I M K I I I I I ( eXHXCXVXHXVXHXHXVXCXiXK.JXJXJXJXJXJXGXCXJXFXFXJXFXFXSXSXSXFXFXSXJXSXFXSXSXSXSXFXFXFXFXSXJXJXSXSXSXFXSXMXSXFXSXMXSXSXFXJXFXMXMXSXMXMXMXMXMXMXMXMXMXMXBXBXBXMXBXBXBXBXVXBXBXBXVXVXBXVXVXMX6XO.7XJXmXNXDXMXDXzX%X] w Z _ v.}.@XhXhXZX#X`.].[.ZXBXnXvXvXvXvXuXuXvXvXuXvXuXuXuXuXuXuXuXuXyXiXqXiXqXqXqX0XqX6X0XqX2X0X2X2X3X2X2X<X,X>X,X:X:X:X:X=X,XH.:XH.H.H.G.z.H.G.z.l.z.k.l.k.k.k.0.k.0.k.:.:.k.2.2.k.:.:.k.0.:.2.:.:.2.<.<.<.<.;.;.;.<.;.;.:.>XJXSXFXJXFXSXGX6Xl., , 6 > 1XVXHXHXCXCXCXCXCXCX=X;.$.@.@.@.@.$.$.%.&.&.%.&.;.,.;.<.r.<.<.<.6.6.e.0.e.e.e.7.l.7.l.l.UXUXUXUX*X;X*X-X-X-X-X>X-X9X9X4X4X4X4X8X5X7X8X7X7X7XIX7XwXIXkXkXkXkXcXlXlXcXlXxXxXlXxXxXxXxXxXxXbXxXbXPXbXPXbXbXbXAXbXNXNXNXSXXX^./.|.gXgXgX@X`.C.! _ ` N A.dXVXHXHXHXHXHXHXl.6XGXAXAXAXAXAXAXAXDXAXAXDXAXAXAXAXPXAXAXNXDXAXAXDXNXAXAXAXNXAXNXDXAXAXAXAXAXAXAXAXbXAXAXGX5X>X7Xo   o           o   o o o o o ; o ; ; ; ; ; ; ; ; ; ; ; ; - ; - - ; ; - - ; - - ; - ; - ; - - - - - ; - ",
"n K K m K K K K H K K K K K H K J P K J K L H K K K K K K K K L K K K R K M Y F Y K K R Y K I K R M M R W iXHXHXHXVXHXCXHXVXCXaXT.CXJXFXFXJXJXJXFXFXFXJXFXFXFXSXFXJXLXFXSXFXSXJXSXJXSXSXSXFXFXSXSXSXCXSXSXFXFXFXSXSXCXSXSXMXFXFXSXSXFXFXSXCXMXMXMXCXMXMXCXMXMXMXBXBXBXMXBXBXBXBXVXMXBXBXVXBXmXVXZX6XO.7XSXMXMXDXSXSXvXA.] 9 ~ ! m.'.@XhXjXhX#X{.].[.ZXJXnXvXvXvXvXvXvXvXuXvXuXuXuXuXaXuXuXeXuXeXwXiXeXyXqXqXqXqXqX6X2X6X2X2X2X3X2X,X1X>X,X>X,X>X:X:XH.H.:Xz.*XH.H.H.H.l.H.G.G.l.l.k.k.k.l.0.k.0.k.k.k.0.:.k.:.k.2.:.2.2.2.2.2.:.<.>.<.;.<.;.,.;.;.%.<.-XJXSXFXSXFXFXFXwXl.> , 6 6 0XHXVXHXHXHXHXCXHXCXJ.;.$.@.@.@.&.@.$.&.%.&.$.&.;.r.&.;.;.6.6.6.2.2.<.6.e.3.e.k.7.7.l.l.UXl.UX*XUX*X*X*X-X*X-X>X9X>X4X4X4X4X8X5X8X5X7X7X7X7X7XIXkXwXIXIXkXkXkXcXcXlXcXcXcXcXxXzXxXxXxXxXxXbXxXbXbXbXbXPXbXbXAXNXbXNXDXXX^.(.@XgXgXgX@X(.C._ ! ` N A.dXBXHXHXHXHXHXHXl.6XLXAXAXGXAXDXFXDXAXAXDXAXAXAXAXDXbXAXAXPXAXPXAXDXDXAXAXAXDXAXAXAXAXAXAXAXAXAXAXAXAXSXbXGX8X>XIXo           o o   o   o o ; ; o ; o ; o ; ; ; ; ; ; ; ; ; ; ; - ; - - ; ; - - - - - - - - - ; ; ; - - ; ",
"K K K K n K K L K H K K K H K K K J K P K K K J K K K K K L K K K Y Y K K Y K R I K F R I M R K I I Y I ( iXHXVXHXHXVXHXHXVXHXiXF.HXJXJXJXCXFXFXSXSXSXJXJXJXSXJXJXSXFXFXCXSXSXSXSXSXSXFXSXFXFXFXSXSXCXMXFXMXFXFXCXSXSXMXMXMXSXSXMXSXFXMXMXMXMXMXMXSXBXMXFXBXBXMXBXBXBXBXBXBXBXMXBXBXBXVXBXVXVXVXVX0X+.6XGXMXNXMXNXDXvX%X] 9 ! ! v.].#XhXhXZX#X'.].'.VXmXbXvXvXvXvXvXvXuXvXuXvXuXuXvXuXuXuXuXeXuXiXiXwXqXiXqXqXqX0XqX2X0X2X2X2X2X2X<X1X<X>X,X:X:XH.,XH.:XH.H.z.:XH.G.H.G.l.z.z.l.l.k.k.l.k.k.k.0.0.k.2.k.k.:.k.:.2.0.2.0.2.2.:.2.<.:.<.>.<.;.;.;.&.-.<.>XLXFXFXJXGXFXFX7Xl.> , 8 1 3XCXCXHXVXHXVXCXCXCX=X;.$.@.@.@.@.@.%.%.&.$.<.&.;.;.;.;.r.r.<.<.e.e.6.e.e.q.e.7.k.l.l.l.UXUXUXUX*X*X;X*X*X-X-X>X-X9X>X9X4X4X5X8X5X7X7X7X7X7XIXIX7XkXIXkXkXkXkXlXcXlXcXlXcXxXcXxXxXxXxXbXxXxXbXxXPXPXbXAXbXAXbXPXNXNXSXXX^.(.|.gXgXgX@X(.C._ ! ` x W.dXVXJXHXHXHXHXHXl.8XGXAXAXGXAXAXAXAXDXAXAXAXAXNXAXAXAXPXAXAXDXNXNXDXDXAXAXAXAXAXAXPXAXAXAXAXAXAXAXAXAXAXAXGX5X-XIXo                   o o o o o o o ; ; ; ; ; ; ; ; ; ; ; ; ; ; ; - - ; ; ; - ; - ; - - ; - - ; - ; - ; - ",
"M H H K K K K v K K K K K L K K K K K G K K K K K K L K K L L K K K K K K K K K K R F R Y I F M F Y I I W iXHXVXHXVXHXVXVXCXHXiXK.FXFXJXFXJXFXJXJXJXSXSXJXSXSXJXSXJXFXFXSXSXSXSXSXSXJXFXSXFXFXFXSXMXSXSXFXFXMXBXFXMXSXMXMXMXMXCXSXSXCXMXMXMXMXMXMXSXMXMXMXBXBXBXMXBXBXBXBXBXMXVXBXBXBXBXBXmXVXBXVX6X+.7XGXDXDXSXDXSXzXZ.] 9 Z _ m.].$XhXgXhX#X}.].[.VXAXnXvXvXvXvXuXuXvXuXvXuXvXaXuXuXuXuXuXuXuXiXeXeXeXqXqXqXqXqX2XqX2X0X5X2X2X2X1X<X,X,X:X:X:X:X:XP.:X:X=XH.H.H.H.z.H.H.l.l.z.l.k.l.0.k.0.k.k.k.:.k.:.:.k.:.k.2.2.2.:.2.:.2.:.<.2.<.<.<.-.;.-.<.&.:.<XJXSXSXSXFXFXFXwXl.= , 6 , 3XCXCXCXHXHXHXCXHXCXJ.;.%.@.@.@.@.@.%.&.%.&.&.&.&.;.r.:.<.<.<.<.<.<.e.3.e.e.q.k.7.7.l.UXUXUXUX*XUXUX*X-X-X*X-X9X>X>X4X>X4X4X4X5X8X5X8X7X7X7XwXwXkX7XkXkXkXkXkXlXlXxXlXcXxXxXlXzXxXxXxXbXxXbXxXbXbXbXbXbXbXbXNXNXNXNXSXXXC.(.|.gXgXgX@X(.C._ X.` N A.dXCXJXHXHXHXHXHXl.5XLXAXSXDXDXSXAXAXAXAXAXAXAXAXAXAXAXAXDXNXDXDXDXNXAXNXDXAXAXAXAXAXAXNXAXAXAXAXAXAXAXAXbXGX8X>XIXo             o o   o o o o ; ; o ; ; o ; ; ; ; ; ; ; ; ; - - - ; ; r ; ; - ; - - - ; - - ; - ; - ; - ; ",
"K K K K n K n K K K K K K K H K K K K K K K K K P J K K K K K K K Y K K R F F K R K R Y I M K I I M U R ( uXHXCXVXHXCXHXVXCXHXtXF.HXGXFXFXFXJXFXFXJXSXJXSXSXFXFXFXJXSXSXSXFXJXSXFXJXMXSXFXFXFXFXSXSXSXMXSXFXSXSXFXFXFXSXMXFXBXFXFXFXMXMXSXSXMXMXZXJXCXMXSXMXZXFXBXFXBXBXBXBXFXBXBXBXVXFXBXVXBXVXZXqXW 7XSXDXMXNXNXSXzX_.] 9 ! ! m.`.@XhXhXhX#X{.(. XZXFXbXvXvXvXvXuXvXuXvXuXuXvXuXvXrXlXuXuXuXuXeXeXwXeXeXqXqXqXeX2X2XqX2X2X2X,X,X<X,X<X,X:X:X:X,X:XP.:XH.H.H.H.H.H.H.z.H.l.l.l.z.k.k.k.0.k.k.0.0.0.0.0.0.0.2.0.0.2.0.>.:.0.2.:.2.;.>.<.:.<.>.;.-.$.:.>XGXGXFXFXFXGXFXyXl.= , 6 6 1XCXCXHXHXCXHXHXCXHXH.:.$.+.+.@.@.&.$.&.$.$.&.;.;.&.;.;.<.:.<.6.<.6.6.e.3.q.e.7.l.l.w.l.UXl.UX&X&X&X*X;X=X-X-X-X>X9X<X4X4X4X4X4X8X6X7X7X7X7XIX7XIXwXIXkXIXkXkXkXlXcXcXlXxXlXxXxXxXxXxXxXxXxXxXbXbXxXPXbXbXNXNXbXMXbXSX.X^.(.|.gXgXhX@X(.V._ ! ` N A.dXVXJXHXHXHXHXCXG.5XGXDXSXDXGXAXGXAXAXAXAXAXAXAXAXDXAXbXAXNXDXDXAXPXAXAXAXAXAXNXDXDXMXDXNXAXAXAXAXAXAXAXAXGX5X<X7Xo           o     o o o o o o ; o ; ; ; ; ; ; ; - ; ; ; ; - ; - ; ; ; - r - - ; - - ; ; - - ; - ; ; - ; ",
"n n K n K F K K F H K H n K K K K K K K K K K K K K K K K K K P K K K K K Y Y K K I M I Y F Y I K Y I I ( iXHXVXHXVXHXVXHXVXHXiXF.HXFXHXJXSXJXFXSXJXSXJXJXSXFXFXFXFXFXJXSXJXGXSXFXSXFXSXFXFXFXFXSXSXSXSXFXFXFXSXMXFXFXBXFXBXSXSXFXFXFXBXSXSXMXMXMXSXMXMXSXMXFXFXBXmXBXBXBXBXVXBXBXBXFXVXVXBXVXBXNX6XO.7XFXMXDXDXMXSXzXZ.x.l ! _ m.].#XhXhXjXfX{.`.[.ZXSXnXbXvXaXvXuXuXvXuXvXvXuXuXuXuXuXlXrXuXeXlXlXeXeXqXqXqXqXqXqXqX2X2XeX2X2X2X2X2X,X<X,X>X:XP.:X*X:X:XH.J.H.H.l.H.l.H.z.z.l.l.l.k.l.l.q.0.k.0.z.0.0.2.0.0.2.2.0.0.0.2.2.:.0.;.2.<.<.<.;.:.;.;.$.:.>XGXGXHXFXGXFXGXyXG.= , 6 , 1XCXVXHXCXHXHXHXCXCXJ.;.;.@.@.@.@.@.$.&.$.&.;.&.&.;.&.:.=.:.6.<.6.3.e.6.e.e.q.k.7.w.l.w.l.UXUX&X&X*X*X;X*X=X=X-X-X>X-X>X4X4X4X4X6X8X6X7X7X7XwXIXwXwXkXkXkXkXkXlXcXcXlXlXxXxXxXlXxXxXxXxXxXxXxXbXPXbXbXbXbXbXAXNXPXNXSX.X^.(.|.gXgXhX@X(.V._ _ _ N W.dXVXJXHXHXHXKXHXq.8XGXAXDXAXAXDXAXGXAXAXAXAXAXAXAXAXDXDXAXDXNXDXPXAXDXNXAXAXAXAXDXNXDXDXNXbXAXAXAXAXAXAXbXGX4X-XkXo             o   o o o o o ; o ; o o ; ; ; ; ; ; ; ; ; ; ; ; ; - - - ; ; ; ; r ; - - - r ; - - - - ; - ",
"K n K F n K K K n K K K K K K K K K J P K K K K K K H K K K K K K K K F K I K K I K L Y R I I I I Y Y I ( iXHXCXHXVXVXHXHXVXHXiXF.CXJXFXJXJXFXSXFXFXFXSXJXSXJXFXGXFXFXFXFXFXGXFXSXSXFXJXFXFXFXFXSXJXSXJXFXFXCXSXMXFXFXMXFXMXBXFXFXFXFXMXCXMXMXMXMXMXMXMXMXMXMXMXFXBXBXFXBXBXBXBXBXBXVXFXBXBXBXBXVX6X%.7XJXDXDXMXDXSXuXZ.a.9 ! _ m.`.@XhXhXhXsX`.(.[.ZXBXnXvXvXvXvXvXzXlXvXuXvXuXvXuXuXuXuXuXuXuXeXuXeXwXeXqXqXqX2XqXeX2XqX2X2X2X2X<X<X,X,X>X,X:X:X:XJ.J.:XJ.H.H.H.H.H.z.l.l.H.z.l.k.k.k.k.q.k.0.z.0.0.2.2.0.2.2.2.:.0.:.:.2.2.>.<.>.<.<.:.:.;.;.$.;.:.>XGXFXGXGXFXFXGXwXG., , 6 6 1XVXHXVXHXCXHXHXCXCX*X;.-.@.$.@.$.$.$.$.$.&.&.-.&.<.:.r.:.<.r.6.2.e.6.<.3.e.e.7.k.9.9.l.l.UXl.G.&X&X*X=X;X=X;X>X-X>X4X>X4X4X4X5X8X6X8X6X6X7X7XwXIXwXkXkXkXkXkXcXlXcXlXcXxXlXlXxXxXxXxXxXxXxXxXxXbXbXPXbXPXbXbXNXbXNXDX.X^.(.|.gXgXhX@X(.C._ _ ` x A.gXVXJXHXHXHXJXHXG.8XGXAXSXAXGXGXAXAXAXAXAXAXAXAXAXbXAXbXAXAXPXNXAXDXNXAXAXAXDXDXmXDXDXMXDXAXAXAXAXAXNXAXbXGX4X<X7Xo               o   o o o o o ; ; ; o ; ; ; ; ; ; ; ; - - ; ; - - ; - - ; - ; r - - - ; ; ; - ; - ; - - ",
"n K n K n K n K H K K K n K H K K J K G K H K K K K K K K J P K L K K K K K K Y M K Y F K Y M R I M I I ( uXCXCXHXHXHXCXHXVXCXtXh.HXGXHXFXJXJXJXFXJXFXJXSXJXLXFXGXGXFXFXFXFXFXFXJXFXFXSXFXFXFXFXSXSXSXSXFXSXMXFXSXFXMXFXMXFXSXMXMXMXFXMXSXMXMXFXFXSXMXMXMXMXMXMXBXBXBXVXVXFXBXBXBXBXFXVXBXBXBXBXZX6XW 7XSXDXMXDXNXGXzXZ.x.l ! _ m.`.#XjXhXhXsX{.(.'.ZXBXbXvXvXzXvXuXvXnXuXvXuXvXuXuXvXuXuXuXuXeXuXeXeXwXeXqXeXqX0XqX2XeX2X2X2X2X2X1X,X<X<X,X>X:X:X:X:XJ.H.=XP.H.H.H.H.H.H.z.l.l.k.l.k.k.k.k.k.k.0.0.z.0.0.0.0.2.2.0.0.>.0.:.2.:.2.<.:.:.<.>.;.;.;.;.:.>XGXFXFXFXFXFXFXwXG., > , > 3XCXVXHXHXHXVXCXCXCXH.;.&.@.@.@.@.$.@.$.&.&.$.&.;.&.<.;.:.<.<.<.<.<.2.e.e.e.q.k.7.l.l.l.l.UX&X&X&X&X*X;X=X-X-X-X>X-X<X9X>X4X4X4X4X6X7X7X7X7X7XIXwXIXIXwXkXkXkXlXlXlXcXlXxXxXxXxXxXlXxXxXxXxXxXbXxXbXbXAXbXAXbXNXNXPXDX.X^.(.@XgXhXhX@X(.C.' _ ` N W.dXVXJXHXHXHXHXHXG.5XGXAXDXDXAXAXAXAXAXGXAXAXPXAXAXAXDXAXAXAXNXAXDXNXDXPXAXAXNXmXDXmXDXDXDXAXAXAXAXAXmXSXAXGX6X-XkXo           o o   o o o o o o o o ; ; ; ; ; ; ; ; ; ; ; ; - - ; ; - ; - r - ; ; ; - - - ; - ; - ; - ; ; ",
"M K n K M H n L K H K K K K K K K K K K K H K K K K K K K K K K K K Y K Y K K Y L Y K I Y I M K K Y M I ( uXHXCXCXHXVXHXCXBXCXiXF.HXGXHXGXFXJXCXSXJXJXFXSXJXSXSXFXJXFXGXFXFXFXFXSXFXSXFXSXFXSXFXSXSXCXSXSXFXSXSXBXSXSXSXMXMXFXFXFXMXMXFXMXMXMXMXMXMXSXMXMXMXMXZXBXBXmXBXBXBXBXBXBXBXBXVXFXVXBXBXVXqXT 6XFXDXMXMXDXDXzXZ.] l _ _ m.`.#XhXhXhXsX'.(. XZXBXnXvXvXvXuXvXvXuXvXuXvXuXuXnXrXlXuXuXuXyXuXwXeXwXeXqXqXqX6XqX2XqXeX2X2X2X1X<X,X<X,X>X>X:X:X:X:X:X:X*XH.H.H.l.H.H.G.z.z.G.l.z.l.k.k.k.k.0.z.k.0.0.0.0.2.0.0.0.>.0.:.2.:.2.>.2.<.:.>.;.<.;.;.$.:.<XGXFXGXFXFXSXmXyXG.& , 6 > 0XVXHXHXHXCXHXCXHXVX:X;.$.@.@.@.&.@.&.$.&.;.&.%.r.;.r.;.r.<.<.<.6.2.e.0.e.e.e.0.w.w.l.l.G.UX&XG.&X&X&X*X;X=X-X-X>X>X9X4X4X4X4X5X8X6X6X6X7X7X7XwXIXkXIXkXkXkXkXcXlXcXcXxXlXlXxXzXxXxXxXxXxXxXxXbXbXbXbXPXbXbXbXNXNXPXSX.X^.(.|.gXhXhX@X(.C._ _ ` N W.gXBXHXHXHXHXHXCXl.7XGXAXSXGXAXAXGXAXFXAXAXAXAXAXAXAXAXAXAXAXDXNXDXAXAXNXAXAXAXAXAXDXDXDXNXNXAXAXAXAXbXmXbXSX5X>X7Xo                 o o o o ; o o ; ; ; o ; ; ; ; ; ; - ; ; ; ; - ; - ; ; ; ; ; - - ; ; - - - - ; - - ; - ",
"K n n n K n K n v K F n K v H K K K K K K K K K K H K K H K K K K K F L K F K F K F M Y K M I F I I I I ( uXHXCXHXVXVXHXHXVXHXiXF.BXHXJXFXJXJXFXJXFXFXFXSXJXSXJXGXFXFXFXSXFXFXFXFXSXFXFXFXFXJXFXSXSXSXSXFXFXFXFXSXCXFXBXBXSXFXFXBXMXFXMXBXMXFXMXCXMXMXMXMXMXMXJXFXmXFXBXFXBXBXBXBXBXFXBXVXFXVXmXVX6X#.wXGXDXDXMXmXGXzXZ.a.l Z _ m.].$XhXjXhXsX'.`.[.ZXMXNXvXvXvXvXvXuXvXuXvXuXvXzXrXvXuXuXuXuXuXeXuXeXiXwXeXqXqXeX2XqX2X2X2X2X2X2X2X<X<X<X,X,X:X:X,Xz.:XH.J.z.P.H.H.H.z.H.H.l.l.l.l.k.l.k.k.l.0.0.0.0.0.0.0.0.2.2.2.0.:.2.2.2.:.<.:.2.:.:.:.>.;.-.;.:.<XGXFXFXFXFXMXFXwXG.& , 2 , 1XHXVXHXVXHXCXHXHXVXH.;.$.$.@.@.$.$.$.$.$.&.$.;.;.;.&.:.:.<.r.6.<.6.6.e.3.e.q.q.q.w.w.l.y.w.G.&X&X*X;X;X*X-X=X-X-X>X>X>X4X<X4X4X5X5X8X7X7X7XwX7XwXwXIXIXkXkXkXkXlXlXlXlXcXxXxXxXxXzXxXxXxXxXxXxXbXPXbXbXbXAXbXNXNXbXMX.X^.(.|.gXgXgX#X(.C.' _ ` V A.gXBXHXHXHXHXJXHXl.8XGXAXAXAXAXAXAXDXAXAXAXAXAXAXAXbXAXAXAXDXNXNXAXAXNXAXNXAXNXAXAXDXNXMXDXAXAXAXAXmXSXSXAXSX8X<XkX;           o       o o o o ; o ; o ; ; ; ; ; ; ; ; ; - ; - - ; - ; - - ; r - - - - - - ; ; - - - ; - ; ",
"n n K n n K K n K n H K K K n K K K K K K J K K K H K K K J K J K K F K K F Y K K K I F Y I M Y M I I I ( uXHXVXHXVXHXVXCXCXCXaXz.BXHXFXJXFXJXFXFXFXJXSXSXJXJXSXFXFXJXSXGXFXJXSXSXFXJXSXFXFXFXFXJXSXJXSXSXFXSXBXSXFXFXFXBXFXMXFXFXFXFXMXSXMXMXFXSXSXMXMXMXMXSXMXFXVXBXBXVXFXBXFXBXVXFXBXVXFXVXBXVXqXO.6XSXNXMXDXMXGXvXZ.a.l ! _ m.].@XhXhXhXfX{.`.[.CXBXbXvXvXvXnXzXvXuXvXvXvXuXzXvXrXuXuXuXrXrXwXuXuXeXqXqXqXqXqXeX2XqXqX2X2X2X,X2X<X,X,X>X,X:X,X:XP.H.:X*X:X*XH.H.H.H.l.H.l.z.z.z.l.k.k.k.k.k.0.0.k.0.2.0.0.0.2.0.:.0.2.:.:.0.<.<.<.>.:.>.:.:.;.$.:.<XFXFXGXGXFXFXFXyXl., > 6 1 0XHXCXHXCXHXHXVXHXVX*X;.$.@.@.@.$.$.@.&.-.$.&.&.;.r.,.;.;.;.r.<.6.6.2.2.e.e.q.e.w.w.k.w.G.&Xl.G.&X*X&X*X-X-X-X-X>X>X9X>X4X4X4X5X8X8X6X8X6XwX7XwXkXkXwXIXwXkXkXlXlXlXcXcXlXxXlXlXxXzXxXxXxXxXxXbXxXbXPXbXAXbXAXNXNXNXDX.X^.(.|.gXhXhX@X(.C.' _ ` x W.dXVXJXHXHXHXHXFXl.6XGXAXAXAXGXAXGXAXFXAXAXAXAXAXAXAXAXAXAXNXPXAXAXAXAXAXNXAXAXNXAXDXDXNXMXAXAXAXAXAXbXAXbXGX4X-XkX;           o     o o o o o o ; o o ; ; ; ; ; ; ; - ; - ; - ; - ; - - - ; ; ; ; - - ; ; - ; - ; - ; ; - ",
"K K H M F n n n K F n K H K K K H K K K K K K K K K K K K G P F K K K K K Y K F I K K Y F Y K I Y Y M I ( uXHXVXHXHXHXHXCXBXCXtXF.BXHXFXBXJXBXFXFXFXSXJXSXSXJXFXFXFXFXFXFXFXSXSXFXSXSXSXFXFXFXFXSXSXSXSXMXFXFXFXFXFXMXMXFXFXSXMXSXFXFXMXFXBXBXMXMXSXMXMXMXMXMXMXVXFXBXFXVXFXBXFXBXFXCXBXFXVXFXVXVX6X%.6XSXDXNXNXMXSXzXZ.a.l _ _ m.`.OXhXhXhXdX{.(.[.ZXBXnXvXvXvXuXvXvXvXvXuXuXvXuXuXzXuXuXuXlXuXuXeXiXwXeXqXeXqXqX2XeX2X2XqX2X2X2X2X,X2X<X,X>X,X:X:X:X:XJ.=X:Xz.H.H.H.H.z.l.H.z.l.l.k.k.k.0.k.0.k.z.0.0.0.0.2.2.0.0.0.>.:.2.2.:.<.<.<.<.:.;.;.;.;.-.<.<XGXBXFXFXFXFXBXwXl.> , , 6 3XHXVXHXHXCXHXCXHXHX*X;.;.@.$.@.@.@.&.$.&.&.&.%.&.&.;.:.r.<.<.<.6.<.6.5.2.e.e.q.q.w.w.w.l.w.&X&XG.&X;X*X*X;X=X-X-X-X>X4X>X4X4X4X5X6X8X6X7X7X7X7X7XIXwXkXkXkXkXkXcXlXlXlXxXlXxXxXxXxXzXxXxXxXxXxXbXxXbXbXxXbXAXNXNXNXSXXX^.(.|.gXgXgX#X(.C.] _ [ V W.dXVXHXHXHXHXHXHXl.7XGXAXAXAXSXAXDXDXAXSXAXAXAXAXbXAXAXbXDXAXAXAXAXNXAXAXAXAXAXNXAXSXNXDXNXAXNXAXbXAXAXAXbXSX5X-XkXo                 o o o o ; ; o ; ; ; o ; ; ; ; ; ; ; ; ; ; ; ; - ; ; ; ; r r ; ; - - - - - - ; ; - - ; ",
"n n n M m n F n n K F K K n K H K H K K K K K K K K K H K K K K K K K F K K K K F Y Y K M I K I F I U I ( uXHXVXHXVXHXVXHXVXCXiXF.BXJXFXFXSXJXJXFXJXFXFXFXFXFXFXFXFXFXSXGXSXSXFXSXSXFXSXFXFXFXFXSXSXSXFXFXSXFXSXFXMXSXMXFXFXFXFXSXSXSXMXMXMXSXCXMXMXFXMXMXMXMXMXBXBXBXBXBXFXBXBXFXBXCXBXBXBXBXmXNX6XO.6XSXDXmXNXDXSXzXZ.u.N ! _ m.`.$XhXhXhXdX{.(.[.CXBXZXvXvXvXuXvXvXvXuXvXzXuXvXuXuXlXuXuXuXuXiXeXeXeXwXqXeXqXqX2XqX2X2XqX2X2X2X2X,X3X<X,X,X>X>X:XP.:Xz.*Xz.:XH.H.H.H.z.G.G.l.l.z.l.k.l.k.k.0.k.0.0.0.0.0.0.0.2.:.0.:.2.2.0.>.2.>.:.<.:.:.>.;.;.-.:.<XFXmXFXmXMXMXSXwXk., , , 1 3XCXVXCXHXHXFXHXHXCX*X;.;.+.$.+.$.+.&.$.&.&.$.;.;.r.;.,.r.r.=.<.6.<.e.e.2.e.e.e.w.w.i.w.G.UXl.&X&X&X&X=X;X=X-X>X>X>X4X<X4X<X4X4X5X6X8X8X6X7X7XwXwXIXIXIXkXkXkXkXkXkXkXcXlXxXxXlXlXxXxXxXxXxXbXbXbXxXbXbXbXAXbXNXNXDXSXXX^.(.|.gXgXhX$X(.C.' ' [ x W.dXBXJXHXHXHXHXCXi.8XGXSXDXAXAXAXAXAXAXAXAXAXAXNXAXAXAXPXAXAXAXbXDXAXAXAXNXDXNXNXDXNXDXDXDXNXSXNXDXDXNXNXNXGX4X>XIX:             o     o o o o ; ; ; ; ; o ; ; ; ; ; ; ; ; ; ; - - ; - - - ; - ; - - = = = ; - - - ; - ; - ",
"n F K n n K n K K F n K F K F H K K K K K H K K K K K K K K K K F K K K K F K F K K F M K K I F M Y R I ( uXHXVXHXHXVXHXHXVXCXaXF.MXCXJXFXJXSXFXFXFXSXJXJXFXFXFXFXFXFXSXFXFXFXFXFXFXFXFXFXFXFXFXJXSXFXSXSXFXFXFXSXFXFXFXMXMXFXMXMXCXMXSXMXMXFXMXMXMXMXMXMXMXFXZXSXBXSXBXBXBXBXFXBXBXBXBXBXBXVXVXVX0XO.6XSXNXMXDXNXSXuXZ.] N _ ' B.{.@XhXhXhXdX{.(. XZXBXNXvXvXvXvXvXvXuXuXvXvXuXaXuXvXaXuXuXuXuXuXuXiXwXiXqXqXqXeX2X2XqX2X2X2X2X2X2X2X1X1X<X>X,X:X:X:X:X:X:XH.:X*XH.H.H.H.G.H.z.l.l.z.k.k.k.k.k.z.0.z.0.0.0.0.2.0.2.2.2.2.:.:.2.<.<.<.<.:.>.:.;.;.$.:.2XGXmXBXBXMXMXSX6Xl.= , > 6 0XHXHXHXHXCXHXHXVXCXJ.:.$.+.$.$.$.$.$.+.;.;.;.&.;.&.;.r.;.<.,.<.6.e.<.6.2.e.3.q.w.w.q.w.G.i.&XG.&X&X*X*X;X=X-X-X-X>X-X9X>X4X4X4X8X6X6X7X6X7XwXIXwXwXkXwXkXkXkXkXkXcXkXlXxXcXlXxXxXxXxXxXxXxXxXbXxXbXbXbXbXbXAXNXNXPXSX$X^./.|.dXgXgX$X(.^.] _ ` V W.fXBXJXCXHXHXHXCXG.6XGXDXAXSXAXGXDXAXAXAXAXAXAXAXAXNXAXmXAXNXDXAXAXNXAXAXDXNXDXDXMXDXNXNXMXDXNXNXNXDXDXNXNXFX4X>XyX;             o o o o o o o o o o o ; ; ; ; ; ; ; ; ; ; ; - ; ; ; ; ; ; - ; - - ; - ; < - ; ; - - ; ; - ",
"M n n n n n F n K n n K n n K K H K K H K K H K H K H K n K K K K K K K K Y K Y K I R Y I K Y M F I I I ( uXHXCXHXVXHXHXHXVXHXiXh.MXCXFXFXFXFXFXFXJXFXFXFXFXFXFXSXSXFXSXFXSXFXFXFXFXFXFXFXFXSXGXFXFXMXFXFXFXFXFXMXMXFXFXMXMXFXFXFXMXFXMXSXSXMXMXMXMXMXMXMXMXMXFXMXBXBXFXBXBXBXBXBXBXBXBXCXBXBXVXVX6XW 6XSXNXNXNXNXGXuXZ.] l _ _ m.`.#XhXjXhXsX{.`.[.ZXMXnXNXvXvXvXvXvXvXvXvXuXvXuXlXuXuXuXuXuXeXeXeXwXuXiXeXeXqXqXqXqXqXqX0X2X5X2X<X3X>X<X,X,X:X,X:X:X*X:X*X*Xz.H.H.H.H.z.z.G.l.z.l.l.l.l.0.0.k.0.k.0.0.0.2.0.2.0.2.0.0.2.:.0.:.<.>.<.>.:.;.;.;.;.;.:.5XFXmXBXmXMXMXSX6Xk.= , > > 0XHXCXHXCXHXCXHXVXCX*X;.$.@.$.&.+.&.$.$.&.&.;.&.;.;.;.,.=.<.<.<.<.<.e.6.e.3.e.q.w.q.i.i.i.i.UXG.&X&X*X;X*X;X=X-X-X-X4X4X4X4X<X5X8X8X8X6X7X7X7XwXIXwXkXkXkXwXkXkXkXkXcXxXlXlXxXlXxXlXxXxXzXxXxXbXxXxXbXbXbXmXAXPXNXNXSX.X^./.|.gXdXhX#X(.C.u.X.` V W.gXBXHXBXHXHXHXHXG.8XGXAXAXAXAXAXAXAXSXAXAXAXAXAXAXAXNXAXAXAXAXAXAXAXDXNXAXDXNXDXDXNXNXPXPXNXNXDXNXNXNXPXNXFX4X<XIX;             o   o   o o o o ; ; o ; ; ; ; ; ; ; ; ; ; ; ; ; - - ; - - ; - - ; - ; < ; - ; - ; ; - - ; ",
"m K n F F F n K n n K F K K K K K K K K H K K K K F K K K K K K H K F K F K F K F K F K M I I F I K Y F ( uXHXCXHXHXVXVXHXVXHXiXF.mXJXFXJXCXJXCXFXFXFXJXGXSXJXGXFXFXSXSXSXFXFXSXFXFXFXFXFXFXBXFXFXSXFXSXMXFXFXMXMXMXMXMXMXFXMXBXBXSXCXMXSXMXMXMXFXMXMXFXMXMXMXSXBXBXBXBXFXBXFXBXBXFXBXBXBXBXVXMXNX2XT 6XSXNXNXDXNXDXaXZ.a.N ! ' B.`.$XhXhXhXsX{.`._.CXMXNXnXvXvXvXvXuXvXvXuXvXuXuXvXuXuXuXaXiXuXuXuXiXeXwXeXwXqXqXeX2X2X2X2X2X0X2X2X3X3X<X,X>X,X:X:X:X:XP.*X:X:XH.H.H.z.H.G.G.H.z.l.z.l.k.k.k.k.k.0.k.0.0.2.z.0.2.0.2.:.:.2.2.>.0.<.<.:.:.>.;.;.;.;.:.2XGXmXBXBXMXMXFX6Xk.> , , 6 3XHXHXHXHXHXHXHXHXHXJ.:.$.@.$.$.$.$.$.&.$.$.&.;.&.;.&.&.r.<.<.<.6.<.<.2.e.e.e.e.q.q.w.w.w.G.UX&XG.&X*X*X*X-X-X-X-X>X-X>X<X4X4X4X5X5X6X8X7X6XwX7XwXwXIXwXkXkXkXcXkXcXkXlXlXcXlXxXlXxXxXxXxXzXxXbXxXbXbXbXbXbXbXbXNXbXSXoX^./.@XgXgXgX@X(.C.u.X.' x W.dXBXHXJXHXHXHXHXG.5XGXAXAXSXAXAXAXAXAXAXAXAXAXAXAXAXAXmXAXNXAXAXNXAXbXAXAXNXDXPXNXMXMXMXNXDXNXNXNXNXNXNXNXSX4X=XyX;             o o   o o o ; o o ; ; ; o ; ; o ; ; ; ; - ; - ; ; ; - ; ; - ; ; - = - ; < ; - - - - ; - - ",
"M n F n n n n M n F K n H K K K n K H F H K K K n K K K K K n K H K F F K F F K M K I K I F Y R I F M I W iXHXCXVXHXHXHXHXBXJXtX3.MXJXFXSXSXFXFXFXFXJXFXJXFXFXFXFXSXSXSXSXFXFXSXSXFXFXBXMXFXFXFXMXSXFXSXFXFXSXMXMXSXFXMXFXMXMXBXFXMXFXMXSXMXMXSXMXMXMXMXMXFXMXMXMXBXFXBXBXFXCXFXBXFXBXBXBXBXBXVXNXqXW 6XMXNXNXNXNXSXuXZ.] l _ ' m.].@XhXgXhXfX X(._.ZXBXNXNXvXvXuXvXvXvXvXvXvXuXvXvXuXuXuXuXuXuXuXwXeXiXeXqXqXqXqXqX2XqX2XqXqX2X1X2X1X<X,X<X,X>X:X,X:X:X:X:X*XH.,XH.H.H.H.z.H.z.H.l.l.z.k.l.0.q.0.k.0.k.0.z.0.2.0.>.0.0.2.:.2.0.<.:.<.<.>.:.>.:.;.#.2.5XmXmXmXmXZXMXSX6Xi.j > , 1 0XHXHXHXHXCXHXHXHXHX*X;.-.$.+.$.$.$.$.+.;.$.;.&.,.,.r.&.<.<.=.6.<.<.6.e.3.3.e.q.w.w.w.k.w.i.G.G.&X&X&X*X=X=X-X-X>X-X<X9X<X4X4X4X8X5X6X8X6X7X7X7XkXwXkXkXwXkXkXkXkXkXlXcXlXcXxXxXlXxXxXxXlXxXxXxXbXbXbXbXbXbXbXPXNXNXGXXX^./.|.gXdXgX@X/.R.' ' ' x W.dXBXJXCXHXHXHXCXw.8XGXAXSXAXAXAXAXAXAXAXAXAXAXAXAXAXAXAXAXmXPXAXNXbXAXbXAXDXNXNXDXNXDXNXNXNXNXNXNXMXNXNXbXSX5X=XIXo                 o o o o o o ; o ; ; ; ; ; ; ; ; ; ; ; ; ; - - ; ; ; = ; < ; < < ; < ; = ; ; = - - ; ; ",
"n n n n n K K n n K n K K v K n K K K K K F K H K K K n K F F K K F K K K K K K L F M I K M M F K Y F I ( iXHXVXHXHXHXVXCXCXHXiX4.mXJXFXJXJXFXFXFXFXSXFXSXFXFXFXFXFXFXFXSXFXFXFXSXFXSXSXSXFXFXFXFXSXFXSXFXMXFXSXMXMXMXFXMXFXSXMXSXMXSXCXCXMXMXMXMXMXMXMXMXMXMXMXBXBXBXBXBXBXBXBXBXCXBXBXBXBXVXVXnX2XO.5XmXNXNXNXNXAXuXE.] l _ ' B.}.#XhXhXhXfX X`.[.CXBXnXvXvXvXvXvXvXuXuXvXuXvXuXuXuXuXuXuXuXiXiXiXuXwXqXiXqXeXqXeXqX2XqX2X2X2X2X2X2X1X<X<X>X,X:X:X:X:Xz.,X:X*XH.H.H.H.G.H.G.l.l.z.l.l.k.k.z.l.z.0.z.0.0.0.0.0.0.2.0.>.0.0.>.:.<.>.:.<.<.:.;.;.;.:.:.2XmXmXBXmXMXDXSXqXq.j , > , 0XHXVXHXHXHXHXHXHXVXJ.;.;.$.$.+.$.$.$.&.;.&.;.&.r.r.;.r.;.<.<.<.6.<.e.<.6.e.e.e.q.q.w.w.G.UXG.&XG.G.*X*X*X=X-X=X-X>X-X9X<X<X4X5X5X8X6X7X7XwX7X7XwXIXwXkXkXkXkXkXkXcXlXlXcXlXxXxXxXxXlXxXxXxXxXbXxXbXxXbXbXAXbXNXNXbXSX.XR.^.|.gXgXgX$X(.C.a.' [ x W.dXCXJXJXCXHXHXCXl.6XFXAXAXSXNXAXAXNXAXAXSXNXAXAXNXNXAXbXAXAXAXAXAXAXAXbXAXNXNXNXNXNXNXNXNXNXNXDXNXNXNXNXbXMX5X-XyX;       o     o o o o o o ; o ; ; o ; ; ; ; ; ; ; ; ; - ; - ; ; - - ; = - ; ; ; ; ; = ; ; - - = ; - - - ",
"v K K n M n v n K v K v v K K K H K H K K H n K K K K K K K K K K K H F F K M F K F F K K I F I I F U I ( uXHXCXHXVXCXHXHXVXHXiX4.NXJXBXJXFXFXSXCXFXCXSXFXFXFXFXFXFXSXFXSXFXSXSXSXSXFXFXFXMXSXBXFXFXFXFXFXSXSXFXMXFXFXFXMXFXSXMXMXMXMXMXMXMXMXMXMXMXMXMXMXMXBXMXBXMXBXBXBXBXBXBXBXBXVXFXBXVXMXVXVX2X#.5XmXbXNXNXNXmXuXZ.] l ! ' B.`.@XhXgXZXsX X(.[.CXBXVXvXvXvXzXvXvXvXvXuXvXuXvXuXvXuXuXuXuXuXuXeXiXeXiXqXyXqXqX2XeX2X2X2X5X2X2X2X2X<X2X,X,X,X:X:X:X=Xz.:Xz.:XH.H.H.G.H.H.l.H.l.z.z.l.k.k.k.k.0.k.0.0.z.0.0.0.0.2.0.>.:.2.0.:.<.:.<.>.<.:.>.;.>.;.:.<XmXmXmXBXMXZXDX6Xi.& & , 6 0XHXFXHXHXHXHXHXHXHX=X;.$.$.$.$.$.$.&.$.$.;.&.&.;.;.;.,.;.r.=.<.<.6.<.6.6.e.e.e.q.w.w.l.l.G.i.i.&X&X*X;X*X;X=X=X-X-X>X<X4X4X4X5X5X8X8X6X7X7X7XwXwXwXkX7XwXkXkXkXkXcXkXcXlXcXlXlXxXxXxXxXxXxXzXzXbXbXxXbXbXbXbXNXbXPXSXXX^./.@XgXgXgX@X(.R.' ' ' x W.gXCXJXHXHXHXHXHXl.8XGXAXAXAXAXNXAXAXNXNXDXAXNXAXNXmXAXAXPXAXbXAXAXAXNXAXNXNXNXDXNXPXNXNXNXbXNXNXPXbXPXbXbXmX4X-XyX;             o   o o o o + o ; ; ; o ; ; ; ; ; ; ; ; ; ; ; ; ; ; - - ; - ; < ; = = ; = - = ; - ; ; ; - ",
"n v v n v n K n n v K K n K n F H K n K K K K K K K H K K H M K K F K K K F K K F K I F F M Y K M I U U ( uXHXVXHXVXHXVXHXCXCXiX4.VXJXFXCXFXFXSXJXJXFXJXFXFXFXFXFXFXFXSXBXFXFXBXSXSXMXSXFXMXFXFXSXSXSXMXFXFXBXFXFXFXFXBXSXMXMXSXCXMXFXSXCXMXMXMXMXMXMXMXBXMXMXMXBXFXBXBXBXBXBXBXBXBXFXVXBXBXVXVXVX6XO.2XbXnXbXbXNXmXaXC.a.l _ ' B.`.#XZXhXhXfX X(.[.CXVXNXnXvXvXvXnXuXuXvXvXuXvXuXvXuXuXuXuXuXuXeXuXwXiXqXiXeXqXqXqXqXeX2XqX0X2X2X2X2X,X,X<X>X>X,X:X,X:X:X:XH.:X*XH.H.H.H.z.H.z.H.l.k.k.k.l.k.k.k.0.k.0.2.0.0.2.0.0.0.0.2.:.>.:.2.<.<.<.>.:.:.;.$.:.:.2XAXmXmXmXNXMXSX6Xq.& & > 1 0XHXFXHXHXCXHXHXVXCX=X<.-.$.$.$.$.$.$.$.&.&.$.;.&.;.&.r.<.<.<.6.<.e.<.e.3.e.3.q.w.w.k.w.l.w.G.&XG.&X&X*X*X;X=X-X>X<X>X<X>X9X4X4X4X5X6X8X6X6X7X7XIXkX7XkXkXkXkXkXkXkXcXlXcXlXxXxXlXlXxXxXlXxXxXbXbXxXbXbXbXbXbXbXNXbXLXXX^.^.[.gXdXgX@X(.R.a.' ' x W.dXBXHXCXCXHXHXCXl.6XSXAXAXDXMXDXNXMXDXDXNXAXAXNXAXAXbXAXAXAXAXNXNXPXNXAXNXNXNXNXNXNXNXNXPXNXNXbXNXNXbXbXbXmX5X-X7X;       o         o o o o o ; o o ; ; ; ; ; ; ; ; ; ; - ; ; - ; - ; ; = ; - ; < - - ; - - ; = - - - - ; ",
"n n b n F n n M n H n K n K n K n K F n K K K K K K F n H K K K F K K n G K F F K F K I M K Y F I F R U W uXCXVXCXCXHXVXHXVXHXiX4.AXHXFXHXFXFXJXBXFXCXFXFXFXFXFXJXSXCXSXSXSXFXMXSXSXMXSXSXFXFXMXSXFXFXSXFXFXFXBXmXFXFXFXmXFXFXmXBXFXAXFXBXBXBXmXBXmXGXmXMXMXBXMXMXMXVXBXBXBXBXBXFXBXBXBXBXBXBXVXVX2XO.2XbXvXbXbXbXmXuXE.a.l ! ] m.`.#XhXjXZXsX(./._.CXBXNXnXvXvXvXvXuXvXzXaXzXuXaXzXaXlXuXuXuXuXyXuXeXiXeXwXyXqXqXqX0XqXqX2X2X2X2X2X2X,X<X,X<X,X:X:X:X:X:X*X*XP.H.z.,XH.H.z.*Xz.z.H.l.k.k.l.k.k.0.k.0.z.0.0.0.2.0.0.2.2.:.0.:.0.:.:.:.>.;.;.;.;.:.>.<.<XBXmXmXmXFXmXAX6Xk.% = > 7 3XHXHXHXCXHXCXFXGXmX*X>.;.;.+.+.;.;.+.+.;.:.+.&.;.;.:.:.<.:.:.:.6.0.:.0.0.0.0.w.q.w.l.w.w.w.UXi.&XH.&X&X&X;X=X=X-X-X>X9X<X9X4X4X5X5X6X5X7X7X7X7XIXwXIXIXkXiXkXkXkXkXkXcXkXzXcXcXzXcXzXzXxXzXbXxXvXbXxXbXbXbXbXbXbXNXSXXX^.(.|.gXgXgX@X(.C.] ' ' V W.dXVXHXHXCXHXHXCXq.6XGXNXDXDXNXMXDXNXNXSXNXDXDXNXDXDXNXDXDXNXNXNXNXNXNXNXNXPXNXNXNXbXNXNXNXbXPXbXbXbXbXbXNXNX5X-XwX;               o o o o o + o ; o ; ; ; ; ; ; ; ; ; ; ; = ; - < ; < < ; = = - ; < ; < ; < ; ; < ; = = = ",
"n n n M n v n n v K F n F n m M K K K K K n K K H K K K K K F n K K K F F K M K F F F F F F F F M F U F ( uXHXCXVXHXVXHXHXVXHXtX4.BXGXFXFXJXFXJXFXJXFXFXFXFXCXFXMXSXMXFXSXSXSXSXMXSXSXSXSXMXFXFXSXSXFXSXFXFXFXFXSXFXFXmXFXFXmXFXFXmXGXmXmXFXFXBXBXmXmXFXMXMXMXMXMXMXBXBXMXBXBXBXBXBXBXBXBXBXVXVXmX0XO.<XbXvXvXbXvXmXiXE.] l _ ' B.}.#XhXhXhXsX X(.[.CXFXVXvXvXvXvXvXaXzXzXaXuXzXlXuXuXuXuXuXuXuXeXuXiXwXiXeXqXeXqXqXqX2X2XqX0X2X2X2X2X2X,X<X>X,X:X:X:X:X*X,XP.*XH.*XH.H.*Xz.l.l.z.l.z.l.k.k.k.k.0.z.k.0.0.0.0.0.2.2.0.2.0.>.0.>.:.h.:.:.>.:.>.;.;.-.<.>XBXVXBXBXVXmXAXqXk.% % > 7 0XHXCXHXHXHXHXHXGXmX:X:.:.+.;.;.+.#.;.;.+.;.;.$.;.:.;.:.:.6.:.k.6.:.0.5.0.7.7.0.q.q.w.l.w.G.l.G.G.&Xp.&XJ.=X=X-X-X>X-X>X<X<X4X4X4X8X8X8X6X7X7XwXwXwXyXiXIXkXkXkXlXcXzXlXzXcXzXzXxXzXxXxXzXxXxXbXxXxXbXbXxXbXNXNXbXbXMXXXC.^.|.gXgXgX@X X^.] _ ' V W.dXCXHXHXHXHXHXCXG.6XDXNXDXMXNXDXNXMXNXNXSXNXNXNXNXNXNXNXNXPXNXNXNXPXNXPXNXNXNXNXbXPXbXbXbXbXbXbXNXNXbXNXzXNX2X=XwX;           o o . . . o o + o + + ; ; o ; ; ; ; ; ; ; - ; ; ; ; ; = ; = - ; ; - ; < ; - ; = = ; = = = ; ",
"n n v n n H n M n n n K n F K n K n K H F K K n K K H K n K n K v F K H K K K K F K F F Y F F M I F I M ( uXCXCXHXVXHXHXVXHXFXiX4.BXJXFXFXJXFXFXJXFXJXSXFXFXFXFXSXSXFXFXFXSXSXMXSXMXSXMXSXSXSXFXFXMXMXFXFXFXSXSXFXFXmXBXmXFXFXFXBXFXGXBXFXBXFXmXFXFXBXmXmXMXMXMXMXMXMXBXBXBXBXBXBXBXBXBXVXMXMXVXmX5XT <XvXvXvXvXvXNXiXE.] l _ ] B.`.@XhXhXZXsX(.(._.CXMXvXvXvXvXvXvXzXvXzXzXzXuXuXuXuXuXuXuXuXiXeXuXiXwXqXeXeXqXqXqX0X6X2X2X2X5X2X2X2X2X<X,X<X,X:X,X:X:X,XH.H.P.P.H.*Xz.z.*Xl.H.H.l.z.l.k.k.k.k.0.l.0.z.0.0.0.0.2.0.2.2.0.2.:.0.>.:.k.+.:.;.>.:.$.;.:.2XBXmXmXBXmXBXBXqXk.+ & > > 0XHXHXHXHXCXHXHXFXAX*X:.$.:.+.+.;.:.+.+.:.:.;.;.:.:.:.:.:.:.6.:.:.0.6.0.0.0.0.e.q.w.q.q.i.w.G.&X&X&XJ.&X=X=X;X=X>X>X>X>X<X<X4X4X5X4X6X6X7X7X6X7XwXwXIXIXkXIXkXkXlXkXkXlXzXkXzXzXxXxXzXzXxXxXzXxXzXbXxXxXbXbXbXxXNXbXMXXX^.(.|.gXgXgX$X(.^.u.] ' x W.dXBXHXCXHXHXHXCXG.6XSXNXSXDXNXDXNXNXNXDXNXMXNXNXDXNXNXNXNXDXNXNXNXNXxXNXNXNXbXbXNXNXbXbXbXbXbXbXbXNXbXvXbXNX5X=XwX;   o       o . o . o o o + + + o ; o ; ; ; ; ; ; ; ; ; ; - ; ; ; ; ; ; = ; = - < ; < ; = = ; < ; = = = ",
"n b n n v n n n n K F n K K n K n K n K K n K K H n K K F K K K K K F K F F n F K F K M M F F Y M F U F ) uXHXVXVXHXCXVXHXVXFXtX4.BXFXJXJXFXJXBXFXCXFXFXFXFXFXFXSXCXFXFXBXBXSXSXSXMXSXAXMXSXSXMXSXSXSXFXFXBXFXFXSXSXFXFXFXFXmXFXGXmXBXmXBXFXmXGXmXmXmXFXMXBXmXMXMXMXBXBXMXMXBXBXBXBXBXBXMXVXMXVXnXqXO.:XvXvXvXbXvXNXiXC.] l _ ' B.}.#XhXhXZXsX(.(._.CXMXVXvXvXvXvXzXaXzXaXvXuXzXaXlXzXuXuXuXuXuXuXuXeXiXeXwXwXqXqXqX0XqXqX2XqX2X2X2X2X,X2X<X,X>X:X:X,X:X*X,X:X*XH.*XH.*XH.=Xz.H.l.l.l.z.k.k.k.k.k.k.0.0.z.0.0.0.0.2.2.2.:.2.2.:.:.k.:.>.;.:.-.;.;.-.;.<XBXVXVXBXBXmXmXqXk.% % > 1 3XHXCXHXHXHXHXHXHXAX*X>.:.+.:.;.#.#.;.+.;.+.;.;.;.:.:.:.:.:.:.:.:.:.0.6.6.0.0.0.w.q.w.l.w.l.i.G.i.p.J.*X&X=X=X=X-X-X>X9X<X<X4X5X4X5X5X8X6X7X7X7XIXIXyXyXIXkXkXkXkXlXkXcXkXcXzXzXcXzXzXxXzXxXzXbXbXvXxXbXbXxXbXNXxXbXMXQ.^.(.$XgXgXgX#X(.^.u._ ' V W.jXVXHXHXHXHXHXCXG.8XSXDXNXDXNXMXMXDXNXNXNXNXDXNXNXNXNXNXPXNXNXPXNXNXNXNXNXNXbXbXbXbXbXbXbXxXbXbXvXvXbXbXzXNX<X=XwX;       .         o o o o o o ; ; o ; ; ; o ; ; ; - ; ; ; ; - - ; < < = - = - ; ; < ; = - ; - ; ; = ; ; ",
"b n v n n n n F v n H K v K n F n K K K n K K K F K K n K K F n F K F H K F K F K F F F F K F M F F F U ( uXCXCXHXVXHXVXCXVXHXtX4.MXFXFXJXFXFXJXFXFXFXFXFXFXFXFXFXFXMXFXSXFXMXSXSXMXSXMXSXSXSXmXSXFXSXFXFXBXBXFXmXFXFXmXFXFXFXBXFXmXGXBXmXFXFXBXFXmXmXFXmXmXMXMXMXMXMXVXBXBXBXBXBXBXBXBXMXMXVXBXnXqXo.:XvXvXvXvXvXbXiX^.] N _ ] B.}.#XhXhXZXsX`./.[.CXMXVXvXvXvXzXuXaXzXzXuXuXaXuXuXuXuXuXuXuXiXuXuXeXwXeXqXwXqXqXqX0X5X0X5X0X2X2X2X2X1X,X,X<X,X,X:X:X:X:XP.:XP.*XH.H.H.H.z.l.z.l.l.k.k.k.k.k.k.k.0.k.k.0.0.0.0.2.0.2.>.0.:.0.>.:.:.k.+.:.>.:.$.$.$.:.2XBXmXmXBXVXmXBXqXk.+ # , 6 0XHXFXHXHXHXHXHXHXHX*X:.+.+.+.+.$.$.;.+.:.:.;.$.;.:.:.:.:.:.:.6.:.6.6.:.0.5.7.e.e.w.q.G.w.G.i.G.&XG.&X&X=X=X;X-X=X>X-X>X9X<X<X4X5X5X5X6X7X7X7XqXwXIXiXIXiXIXIXiXkXkXkXlXlXzXzXcXcXzXzXxXzXxXbXzXvXxXxXvXbXbXbXbXbXbXNXXXC.(.|.gXgXgX@X`.C.a.a.' V W.jXVXHXCXHXHXHXCXG.8XSXMXNXDXMXMXPXDXNXmXNXNXPXNXPXNXNXNXNXNXNXNXNXNXNXxXNXbXbXbXbXvXbXxXbXbXxXxXbXvXbXvXxXbX<X=XwX;       . .     . . o X o + ; o ; ; ; ; ; ; ; ; ; ; ; - ; ; - ; ; = ; = ; = ; - ; - ; = = = ; = - = ; ; ",
"n n n v v M n b K K v v K n n K K K v K F K n K K n H F K v K K H n F K F K n F F K F K F M F U F F F U ) uXHXVXCXHXVXHXVXHXHXiXh.BXJXBXFXFXJXFXCXFXJXFXSXJXFXFXMXFXFXFXSXFXFXBXMXSXSXSXmXSXBXFXSXMXSXSXSXSXSXFXFXSXFXFXmXFXmXFXFXFXmXGXGXFXAXBXBXFXBXFXmXFXMXMXMXMXmXMXMXBXBXBXBXBXBXBXBXVXBXVXbXqXO.:XaXuXzXvXvXvXiX^.] N _ ] B. X@XhXhXZXsX(./.[.CXmXvXvXzXvXvXvXzXvXuXvXzXuXuXvXuXuXuXuXuXuXuXeXuXeXyXiXeXqXqXqXqXqX2XqX2X2X2X2X2X2X2X>X,X>X>X:X:X:XH.:X*X*X*XP.H.H.H.*XG.H.z.z.k.k.l.k.k.k.k.0.0.0.0.2.z.2.0.2.0.2.2.0.:.0.>.:.>.:.:.>.;.;.;.$.>.<XmXVXBXmXBXmXAXqXk.$ > > 1 1XHXFXHXHXHXCXHXVXHXJ.:.>.>.+.+.;.;.+.:.+.+.:.;.:.;.:.:.:.k.:.k.:.:.k.0.0.0.0.q.q.q.w.q.w.w.G.p.G.G.&X*X&X&X=X=X>X-X>X>X<X<X4X5X4X5X4X8X6X6X6X7X7X7XIXIXiXyXiXkXkXlXkXkXcXkXcXzXzXcXzXzXxXzXxXxXxXxXxXbXxXxXbXbXbXbXDXQ.^.^.|.hXhXhX@X`.C.a.' ' x W.jXVXHXCXHXCXJXCXi.6XMXNXNXNXDXNXNXNXNXNXPXNXNXNXbXNXNXNXbXxXNXxXbXxXNXNXxXbXNXxXbXxXbXbXNXbXvXbXvXbXvXbXzXbX4X=XwX;           o o o o . o o o o o o + o ; ; ; ; ; - ; ; ; - ; ; - < ; < ; - ; = ; = ; - ; = ; = = = ; ; = ",
"b n b n n n n n v n v K K n n K K v F K K n F n H v K K H F n n K n K F F K F K F F F F F M F F F F I F ( uXHXVXHXVXHXVXHXVXVXiXh.BXFXHXFXHXFXFXFXFXFXFXFXFXFXSXFXFXFXSXSXSXSXSXSXMXSXSXSXMXSXFXSXSXMXSXFXSXBXSXSXSXmXFXFXFXGXBXBXmXmXGXBXmXBXAXmXmXFXmXFXmXmXMXMXMXBXBXBXMXBXBXBXBXMXBXBXVXVXVXNX0X+.:XuXuXvXuXvXvXiX).] N _ ' B.{.@XZXhXZXsX(./._.CXBXNXvXvXzXzXvXzXuXvXuXvXvXvXuXuXuXuXuXuXrXwXiXiXwXeXeXqXqXqX0X5X2XqX2X5X2X2X2X,X2X,X<X<X:X:X:X:X:X:X:X:XP.,X*Xz.H.H.*Xz.H.H.l.l.k.k.k.k.k.0.k.0.0.z.0.0.0.2.0.2.2.:.0.:.:.;.;.:.:.:.;.$.:.;.$.:.<XmXmXVXmXmXmXmXqX0.+ > > > 1XHXHXHXHXHXHXHXHXVXJ.:.:.>.$.$.#.#.;.$.>.:.+.;.:.;.:.:.:.:.:.<.6.:.k.6.0.0.0.e.q.q.q.w.l.UXi.p.G.G.&XJ.&X;X=X-X=X-X>X>X9X<X4X4X5X5X8X5X6X7X6XtX7XwXwXyXIXiXIXkXkXkXiXkXzXlXcXzXcXzXzXzXzXxXzXxXxXvXbXzXbXzXbXbXbXbXZXXX^.(.|.hXgXhX@X`.R.a.' ' V W.dXVXHXCXHXHXHXCXi.8XSXNXDXNXNXNXNXNXNXNXNXNXNXPXNXNXNXPXNXNXNXbXbXbXbXxXbXbXzXNXvXxXbXxXzXbXbXbXbXzXxXvXvXNX2X=XwX;       o     . . o o o + + + ; ; ; ; + ; ; ; ; ; ; ; - - ; ; < ; ; ; < ; = - - - ; = < ; - = - - ; = ; ",
"n n n M v n n F n n M n n n F n K n K n K K K n K K K n K H K F K F H F H H M F K M F K F F F F F F M F W uXCXCXHXVXVXCXVXVXHXtXh.VXFXFXGXGXJXFXJXFXFXFXFXFXFXFXBXFXMXSXMXSXSXMXSXSXBXSXBXSXFXmXFXMXSXMXMXSXSXBXBXmXFXFXmXmXFXmXBXGXBXmXBXGXBXFXmXFXmXFXmXFXBXBXVXmXBXMXBXBXBXBXBXBXBXBXBXBXMXmXmXqX#.:XaXuXuXzXaXbXtX/.] N ' ] B.}.#XhXZXZX#X{.(.[.CXMXZXvXzXaXaXzXuXvXuXzXuXuXuXuXvXuXuXuXuXuXuXiXiXiXeXyXiXqXqXqXqXqX2X0XqX2X2X2X2X2X<X1X<X,X,X:XP.:X:XP.H.:XH.H.:XH.l.z.*Xz.z.l.l.k.l.k.k.0.k.0.z.z.0.0.0.2.2.2.0.2.0.>.0.>.:.k.:.>.:.>.;.>.$.;.:.2XmXVXmXmXVXmXAXqXk.$ , > 1 1XHXHXHXHXHXCXCXHXVX*X:.:.+.+.:.:.$.$.:.+.:.:.-.:.:.:.;.:.:.k.6.:.6.:.0.0.7.0.q.q.w.w.w.i.i.i.G.G.&XG.&X&XJ.=X=X=X-X=X>X-X<X<X<X4X5X5X8X6X6X7XIX7X7XwXyXIXIXIXiXkXkXkXkXlXkXlXlXzXcXzXcXzXzXxXzXvXxXxXbXxXbXbXxXbXxXPXQ.^.(.$XgXhXhX#X`.C.] ' ' x W.gXVXHXCXHXHXHXCXi.6XSXNXNXDXNXNXNXmXPXbXDXNXbXNXNXNXbXNXbXbXxXxXbXbXbXxXbXbXxXxXxXbXzXvXbXzXzXvXzXxXvXzXzXvX2X*XwX;           . . o . X o o o + o o ; ; ; ; ; ; ; ; - ; ; ; = ; ; ; < = ; - ; ; = ; - = ; - ; ; = ; = = = ",
"n v b n n n H v F n H n F F n F n K n n K n K K K K F n M K K n n K n F F K n F K F F F M M n F b U U b W aXCXVXHXVXVXHXVXVXHXiXh.BXHXBXJXBXFXFXFXFXFXFXFXFXSXBXFXFXFXFXmXSXSXSXmXBXMXSXmXSXBXSXFXmXFXSXSXmXSXmXSXFXmXFXmXFXBXFXBXmXFXmXFXBXGXmXMXMXFXMXMXMXMXMXMXmXBXMXBXBXVXMXBXBXBXCXMXBXBXMXVX6X#.P.uXuXuXaXuXbXtX^.] N _ ' B.`.@XZXhXZX#X(.(._.CXMXNXvXvXvXvXvXlXvXvXuXlXaXvXuXuXuXuXuXuXiXeXuXwXuXqXeXeXqXqXqXqXqX2XqXeX2X2X2X2X,X<X,X>X,X:X:X:X:XP.H.:X:XP.*X:Xz.z.*Xl.:XH.l.z.l.l.z.l.k.k.0.k.0.0.z.z.2.0.2.0.2.0.>.2.:.>.:.>.:.:.:.:.>.-.$.:.5XmXmXmXVXVXbXmXqX0.# > , > 1XCXHXHXHXHXHXHXCXCXH.:.;.-.#.+.>.+.+.:.$.:.:.;.;.:.:.<.:.<.<.:.0.:.2.0.0.5.0.0.q.w.q.w.w.l.l.p.G.G.&X*X*X&X;X=X-X=X>X-X-X<X<X4X5X4X5X5X5X6X7X8X7XIXwXwXyXyXwXIXkXkXkXkXkXlXlXlXcXzXlXzXzXzXzXxXzXxXxXxXbXbXxXbXbXbXNXXXC.^.|.hXhXhX$X`.^.] ] _ N Q.gXCXHXCXHXHXHXCXi.6XSXbXNXAXbXAXAXbXAXNXNXbXAXAXbXbXbXbXbXbXbXbXxXNXbXbXxXxXzXbXzXNXzXzXzXzXxXzXvXzXvXvXzXvX4X=XwX+ . .         . X o o o o o + + ; o o ; ; ; ; ; ; ; = ; = = ; - ; - ; - - ; ; - = - - = = ; ; = = ; - ; ",
"v v n n n n v H n n K v n n K n K n F K K F v K v n K K H n F F F F n K F n G F F n K F I F F F F M F U ( uXHXCXHXVXVXHXHXVXHXtXh.FXFXJXFXFXFXFXHXFXFXFXFXFXFXFXSXSXFXMXFXFXSXSXSXSXSXBXSXMXSXSXmXFXmXFXSXFXBXSXmXmXmXFXFXmXFXmXGXmXmXFXFXmXmXmXMXMXMXMXMXmXVXMXMXMXBXmXmXBXMXMXBXMXBXBXMXMXmXZXvXqX#.:XiXiXuXuXaXvXtX).] S ' ] B.}.#XhXhXZXsX X(. XCXMXnXvXvXzXzXzXaXuXaXlXvXuXvXuXlXeXvXuXuXuXuXuXiXeXiXwXeXqXqXeX2XqXeX2X2X2X2X2X2X2X2X1X,X>X>X,X:X:X:X:X:Xz.H.*XH.J.*X*Xz.z.H.z.l.z.k.l.k.k.k.0.k.0.0.0.0.0.2.0.2.:.0.0.:.0.:.k.:.:.:.>.;.:.;.-.>.2XmXmXVXVXVXmXmX5Xh.+ > > 1 1XHXHXHXCXHXCXHXHXCX*X:.;.;.$.:.$.:.:.>.:.+.>.;.:.:.:.:.>.6.<.0.:.0.0.:.0.0.0.0.w.q.q.w.k.w.l.UXG.G.&XG.&XJ.;X=X=X-X=X>X>X<X4X<X4X5X5X5X7X6X5X7X7XqXIXwXIXiXIXIXiXiXkXkXkXkXkXlXlXcXzXzXcXzXcXzXxXzXbXzXbXbXxXbXbXbXNXXXC.^.|.hXgXhX#X`.R.] ] ' x W.fXVXHXHXCXCXHXCXq.6XDXPXNXbXAXbXbXmXNXNXNXbXbXbXbXbXxXbXbXbXxXbXbXxXxXvXxXvXxXvXbXzXzXNXzXvXvXzXzXzXvXlXvXzX2X*XwX+ .         .     . . o + + o ; o ; ; ; ; ; ; ; ; ; ; = ; ; = ; - ; = ; ; = - ; ; = ; ; - = - = = = = = ",
"n v v n b F v v b H v H v K n F n K n K n n K K K K K n K n F K K n F F F K n F F n M F F F F F F F U D W uXCXVXHXVXHXVXHXVXCXiXF.FXFXFXFXBXFXBXFXFXFXFXFXFXFXFXFXSXMXMXmXFXFXFXSXSXMXmXAXSXAXSXFXSXFXmXFXmXmXSXFXmXFXSXmXFXmXFXAXBXmXmXBXmXFXBXMXMXFXmXMXMXMXBXMXBXBXBXBXBXBXBXBXBXBXBXBXBXMXVXVXqX-.=XiXiXiXuXuXzXtX).] N ' ' B.{.@XhXhXZX#X`.(.[.ZXMXbXvXvXvXvXuXvXvXzXvXuXzXuXuXuXvXuXuXuXiXuXeXeXeXeXiXqXqXeXqXqX2X2XqX2X2X2X2X2X<X,X<X,X>X,X:X:X:X*XP.*X:X:Xz.l.J.J.z.z.l.l.H.l.l.k.k.k.k.0.k.0.0.0.0.0.0.0.2.2.0.2.:.2.>.:.:.:.:.:.>.;.$.;.;.;.2XmXmXVXmXmXnXmX0Xh.+ & > 1 :XHXHXHXHXHXHXHXHXCXH.;.;.$.$.;.#.;.+.+.:.:.:.;.;.;.:.:.<.:.2.:.0.:.0.0.5.0.0.q.q.q.w.l.w.G.w.i.G.&XG.&X&X*X=X=X=X-X-X-X>X-X<X<X4X4X5X5X8XqXwX6X7X7X8X7XIXIXwXiXIXIXiXiXkXkXcXkXzXcXlXzXcXzXcXxXzXzXbXxXbXxXbXbXbXbXNXXXC.^.|.hXhXhX#X`.R.] ] ' N Q.dXVXCXCXHXHXHXCXi.8XMXNXNXAXbXbXNXbXNXNXxXbXAXbXbXbXbXbXbXxXxXvXxXbXvXxXzXxXzXxXzXxXzXzXzXzXzXzXzXzXzXlXlXxX2X=XwX+     .     . . o . o X o + o + ; ; ; ; ; ; ; ; ; = = ; ; - ; - ; - ; - - = - = - = = - ; = = ; ; = = = ",
"n v b n n n H n K v K v K v n K F n K v K F K n n H K n K F n F F F n F F n F F F F F F b F F M F U b M ( iXHXVXVXCXVXHXVXVXHXtXh.FXVXFXFXJXGXJXGXFXFXFXFXFXFXmXMXFXMXFXFXmXFXmXSXBXSXSXBXSXBXBXFXmXmXFXmXSXBXSXmXSXmXmXBXmXFXmXFXBXFXFXmXFXmXFXMXFXmXMXmXMXMXBXmXVXBXmXBXBXBXMXBXBXBXBXBXMXmXVXbXqX#.P.iXeXiXiXiXzXtX/.] V _ ' B.`.#XhXhXZX#X X(. XCXBXZXvXzXvXvXvXuXlXvXuXvXuXuXvXuXuXuXuXuXeXuXyXuXuXeXwXeXwXqXqXeX2XqX2XqX2X0X2X2X,X<X2X,X,X:X:X:X:X:X:XP.:X*X:X*X:Xz.*XJ.l.l.z.l.z.k.k.k.k.k.k.k.z.z.0.0.0.0.2.2.2.2.0.:.2.>.2.2.>.:.:.:.>.$.#.;.5XmXVXVXbXVXmXmXqXk.% = > 1 1XCXHXHXHXHXHXHXCXCXH.;.;.$.$.+.;.$.;.:.+.:.$.;.;.;.:.:.:.:.:.2.:.0.0.0.0.0.0.0.q.w.q.q.q.w.G.UXG.G.&X*X*X*X=X=X-X=X-X>X>X<X<X<X<X5X<X4X5X5X8X6X7XtXIXtX7XiXIXIXyXkXkXkXkXkXiXlXlXlXlXcXzXzXzXzXzXxXzXzXbXbXvXbXbXNXNXXX^.^.|.gXhXgX#X`.C.a.] ' V W.gXVXHXCXHXCXHXCXk.6XDXNXNXAXbXNXmXNXbXbXNXbXbXbXbXbXbXbXbXbXvXxXxXxXxXvXxXzXxXvXzXvXzXzXzXzXzXvXzXzXuXvXzXvX<X:XwX+           o     o o o o o o ; # o o ; ; ; ; ; ; ; ; ; ; ; ; - - ; = = - ; ; - - ; - = = - ; - = = = ; ",
"v v v n v F n v v n F n n n v K n K v K n K n F F K K v n K n n n F K F v K n F M F n F F F F U M M D D W iXHXVXHXVXCXVXCXHXHXtXh.VXHXFXFXHXFXFXmXFXFXFXFXFXFXFXFXFXFXMXFXSXFXFXMXmXSXMXMXMXSXBXmXFXFXmXmXSXmXAXmXFXFXAXmXmXFXmXmXFXmXmXFXmXmXFXMXSXBXMXMXMXmXMXMXVXMXMXVXMXBXBXBXMXVXBXBXBXBXVXnX6X-.P.iXyXqXiXiXuXtX X] N _ _ v.`.#XhXhXhX#X X`.[.CXVXvXbXvXzXlXvXvXuXzXaXuXuXuXuXuXvXuXuXuXuXeXuXeXeXeXwXeXqXqX2XeX2XqX2X2X2X2X2X2X2X,X<X<X>X,X:X:X:XP.:X:Xz.*X:X*Xz.H.l.J.l.l.l.k.l.k.l.k.k.0.k.k.0.z.0.z.0.0.0.2.2.2.:.2.2.2.:.:.>.>.:.>.:.$.;.>.2XBXmXVXmXmXnXVXqXh.; > > 1 ,XHXHXHXHXHXHXHXVXVX:X-.-.+.$.+.;.#.$.;.$.$.;.:.>.:.:.<.<.<.<.:.0.:.:.6.0.0.0.0.q.w.q.w.q.G.w.UXG.G.G.J.&XJ.;X=X=X=X=X>X>X<X<X<X5X4X5X5X5X5X7X6X7X8XtXIXwXyXIXyXyXIXkXkXiXkXkXkXlXkXzXzXzXzXcXxXzXzXxXbXzXzXbXvXbXbXZXXXC.(.|.hXhXhX#X`.^.] ] _ V W.gXCXCXCXCXCXHXCXi.8XDXNXNXNXbXNXbXbXbXbXbXbXbXbXbXbXbXxXbXbXzXvXzXxXxXvXzXxXzXvXzXzXzXzXzXzXzXzXzXzXlXvXlXvX<X=XuX;         .     . . X o + o + ; ; + ; ; ; ; ; ; ; ; ; = - ; = ; - = < ; ; ; - = = = - = - = = - = ; = = ",
"M n v n n v v H F n v n H F v K K K K H F H K K K n K K K F F K n K F n H F M F F K F M F F F F F U U D W iXHXVXVXHXVXHXVXVXHXeXh.BXFXFXFXFXFXFXGXFXFXFXFXFXFXFXSXFXFXFXSXSXBXFXSXSXMXAXSXmXmXmXFXbXmXFXSXSXSXmXmXmXmXmXmXFXFXBXFXmXFXBXmXBXFXmXMXmXMXMXmXVXMXMXMXMXBXBXMXMXBXMXBXMXMXCXBXBXVXMXVX6X-.J.0X0XiXiXiXuXtX).] N ' ' v.}.@XhXhXZX#X(.(. XZXVXZXvXzXaXvXuXaXzXvXuXlXzXvXvXuXuXuXuXuXuXuXuXuXwXeXeXqXeXqXqXqXqX6X0XqX2X2X2X2X,X,X<X,X<X>X:X:X:XP.=X:XJ.P.z.H.:X*Xz.z.H.z.z.k.z.k.k.k.k.k.k.0.k.0.0.2.0.2.2.0.2.2.2.2.:.:.2.:.:.:.:.;.;.-.;.:.2XBXnXmXVXmXmXmX2X2.+ = > 1 :XHXCXHXHXHXHXHXHXHXH.;.;.$.$.;.+.$.;.$.$.;.;.:.:.:.:.:.<.:.2.0.:.0.0.0.0.0.0.q.q.q.k.l.k.l.G.G.i.UXG.&X&XG.&X;X=X=X>X-X>X>X>X>X4X<X5X5X5X5X5X6X8X7X7X8XIXwXwXkXIXiXIXIXkXkXkXkXkXlXlXzXlXzXlXzXxXcXxXzXxXbXbXbXbXbXMXXXC.^.|.gXhXgX#X`.C.] ] ' x W.jXVXHXCXCXHXCXCXq.6XMXbXbXNXbXbXPXbXbXbXbXxXbXbXxXbXbXbXzXxXbXxXxXzXvXxXvXvXzXzXzXzXuXzXzXlXuXlXuXlXuXuXuXzX>X:XwX;       .   o . o X o O o ; + o + o ; ; + ; ; ; ; - = ; ; = ; = ; ; ; - - = - ; - ; ; - ; - = = - = ; - ",
"n v v v K v v K n v n F v K K n K v K n n K F n K K v K F n n F F K n F F n F F v G M F F F F M U b F U ( iXHXVXHXVXCXVXBXCXHXeXj.FXFXFXFXFXFXFXFXFXFXFXFXFXFXFXMXSXSXSXBXMXSXSXmXmXSXMXMXSXmXFXSXmXmXmXmXmXFXmXBXmXFXBXmXBXmXmXmXBXFXmXSXmXmXFXmXSXmXMXMXMXMXMXMXVXMXVXVXMXBXMXBXBXMXBXBXMXmXVXnX6X-.P.eX0XtXiXiXiXtX).] N _ ' m.`.@XhXhXhX#X X(.[.ZXmXvXvXvXvXzXzXzXzXuXzXlXuXuXuXlXuXuXuXrXuXuXeXeXuXwXeXqXqXeXqXqX2X6X2X2XqX5X2X2X2X2X,X<X,X,X:X:X:X:X:XJ.J.H.P.H.H.z.*Xz.l.H.l.l.k.0.k.k.k.k.0.0.z.0.0.2.0.0.2.2.2.2.:.2.2.2.>.:.h.:.:.>.$.-.$.;.2XBXmXVXmXVXmXmXqXz.+ > , 6 ,XHXHXHXHXHXHXHXHXFXH.;.$.$.$.#.;.;.$.;.;.;.;.;.:.:.:.<.<.:.2.:.0.:.0.0.0.0.0.q.0.q.w.k.w.q.G.UXG.G.G.G.&XJ.J.=X=X-X-X>X:X>X<X<X<X<X5X5X5X5X6X6X7X6X7XtXwXyXwXtXIXIXIXiXkXkXkXlXkXcXlXcXzXzXcXzXzXzXxXxXzXzXbXvXbXvXNXXX^.(.|.gXhXhX#X`.^.u._ _ V A.gXVXCXCXCXCXHXCXq.7XDXNXNXbXAXmXbXmXbXbXbXbXxXbXxXbXzXxXzXzXxXbXvXzXxXzXzXzXzXzXzXzXzXzXuXuXzXuXlXlXlXuXlXzX,X=XwX#         . . . . o o o o o + ; ; ; ; + ; + ; ; ; = ; = ; = ; ; - - ; ; - - - ; ; - ; = = - = ; = = = = ",
"v v v n v n v v v H n F n n v K n F n K v K H K n v K H K n K K F n F F H F n F F K G F M F F U F U U b ( uXHXVXVXHXCXCXCXBXHX0Xh.VXFXFXFXFXFXFXFXFXFXFXSXSXBXFXFXSXSXBXSXSXSXmXSXBXmXSXSXmXSXmXmXSXBXSXFXmXmXmXFXmXmXmXmXmXFXmXFXmXmXmXBXSXBXmXFXmXMXMXMXmXMXMXmXMXMXmXBXBXMXmXVXBXBXVXMXmXVXMXVX5X#.P.0XqXqXqXiXiXtX X] N ' _ v.`.@XZXhXZXfX(.(.[.VXmXNXvXvXzXaXvXvXuXvXlXaXvXuXvXuXaXlXuXuXuXlXeXeXwXeXwXeXqXqXqXqXqX0XeX2X2X2X2X2X2X,X<X<X,X>X,X:X:XP.*XP.*X*X*XH.H.J.l.:Xl.H.z.l.l.k.k.k.k.0.z.0.0.z.0.z.2.0.0.2.0.0.0.>.:.k.:.:.>.:.>.:.:.-.-.;.5XFXnXmXmXmXnXVX5Xh.$ % > 1 Y.HXCXHXHXHXHXHXHXHXH.;.;.$.$.+.;.#.$.;.+.$.;.;.;.:.:.:.<.:.:.0.:.0.:.0.:.0.0.e.q.q.q.q.l.w.l.G.G.i.&XG.J.;X&XJ.=X-XT.-X-X>X>X<X<X4X<X5X4X5X6X8X6X8XIX8X7X7X7XIXIXiXiXIXkXiXcXiXkXiXkXlXlXlXlXzXzXzXzXzXxXbXzXxXbXbXNXU.C.^.|.hXgXhX#X`.C.u.] _ N W.gXCXHXCXCXHXHXCXi.6XNXbXbXbXbXbXbXbXbXbXbXbXbXbXbXbXzXbXbXvXzXzXzXzXzXzXzXzXzXlXzXuXuXuXzXzXlXuXuXuXuXlXuXzX,X:XyX+         .     . o o o o o ; o ; + ; ; ; ; ; ; ; ; = ; < ; = - = ; - = ; ; = - = - - ; - = - = = = ; = ",
"v v v n v v M n K v K K n n v K H n F n K H H F F n K F n F K v n F n F F n n F F F F F M I F D U b U U ( iXHXCXCXBXBXCXVXFXHXeXh.mXFXSXFXFXFXFXBXFXFXBXSXSXSXSXmXBXmXBXmXBXmXGXGXmXGXmXBXGXmXGXSXmXBXmXmXmXmXSXmXmXmXGXBXmXmXmXmXGXmXmXmXmXmXBXSXmXmXmXFXmXmXmXMXMXMXMXMXMXMXVXBXBXBXBXBXmXBXmXVX2X#.J.0X0XeXeXiXiX0X).] N _ ' S.`.@XZXhXZXsX{.(.[.ZXVXbXvXzXaXzXuXvXzXzXaXzXaXlXuXuXuXuXuXuXuXeXuXeXeXiXeXeXqXqXqXqXqXqX2X2X2X2X2X2X2X1X<X<X,X:X:X=X,X:X,XP.*XP.H.P.H.H.z.*Xl.H.l.l.l.z.k.k.k.k.k.2.k.0.k.2.k.2.2.0.2.2.2.:.2.:.2.:.>.:.:.>.;.>.+.>.5XmXmXmXnXnXmXmX2Xh.+ > > > ,XHXFXHXHXHXHXHXHXCXH.-.;.$.$.$.$.$.;.$.$.;.;.:.>.:.:.:.:.:.2.:.0.:.0.0.2.0.0.q.q.q.q.7.k.l.l.l.l.G.*XG.G.*X*X*X=X-X>X=X>X>X>X>X<X<X4X<X5X5X5X6X7X6X7X7XwXwX7XiXIXIXiXIXyXIXkXkXyXlXkXlXlXlXzXzXcXzXbXzXbXzXbXvXxXxXZXXXC.^.|.hXhXhX#X`.C.] ' _ V A.dXVXCXCXHXHXHXCXG.5XNXbXbXbXbXbXbXbXbXbXbXbXbXvXbXzXbXzXxXzXvXzXvXvXzXlXvXlXvXzXlXlXlXlXuXuXuXuXyXlXuXlXuXuX,X:XwX= .     . .   . o o o o o + # # ; # # ; ; ; ; ; ; ; ; = ; = ; - ; - - ; - ; - = = ; - = - ; = - = ; = = ",
"v v v v n v v v b n v v v F H M n F n K n M K n K n H H K n F v F n F n H F M F n D M n M F F M M U U b ( uXHXVXCXCXCXVXHXVXHX0Xg.SXBXFXFXFXFXFXFXFXFXSXBXFXSXSXGXGXGXGXGXGXmXmXBXmXBXmXmXmXmXmXmXFXmXFXmXFXmXmXmXmXmXmXmXmXmXmXBXmXBXGXmXGXmXmXBXBXBXSXBXmXVXmXmXmXmXVXBXVXMXMXmXBXBXBXBXBXBXVXVX5X#.I.0X0X0XeXeXiX!. X] 9 ' _ v.{.$XhXhXZX#X(.(._.CXMXvXvXvXvXvXzXzXaXuXzXuXzXvXuXvXuXuXuXuXuXuXiXuXwXeXwXeXwXqXqXqX2X2XqXqX2X2X2X2X2X1X<X,X>X:X,X:X*X*XH.:X*XH.H.H.H.z.*XH.z.z.l.z.l.k.k.k.k.k.k.k.0.k.<.k.<.z.2.2.2.0.2.2.0.:.>.>.6.>.:.:.;.$.;.;.2XmXbXmXmXmXmXVXqXh.+ > > > P.HXFXCXHXHXHXHXHXCXJ.;.;.$.+.$.$.$.;.$.;.;.$.$.:.:.:.:.:.:.:.0.:.:.0.2.0.0.0.0.q.q.w.k.l.l.l.l.UXG.G.&X*X*X*X*X=X*X=X=X-X>X>X>X<X>X5X<X5X5X5X3X6X6X6X6X7X7XwXwX7XyXIXyXyXkXiXkXlXlXlXlXlXcXlXlXzXzXzXzXxXbXzXbXvXxXNXXX^.^.|.gXgXhX@X`.C.a.] ' V A.dXCXHXCXCXCXHXCXG.5XNXbXbXbXbXbXbXbXvXbXzXzXbXbXzXbXzXzXzXxXzXzXzXlXzXlXlXlXlXlXuXuXlXuXlXuXlXuXlXuXuXlXeXlX>X:XwX; . .       . . . o X o o ; o ; o ; ; ; ; ; = ; = = ; - = ; = ; - ; = = = = - ; - ; = - - = - = = = - = ",
"v n v n v v v v b n n n n n n n n K n n F H v K v K H K n v F K n F n F F F n F F D M F G F F U b U F U ( uXHXBXBXBXCXCXCXBXHXiXg.mXFXVXFXFXFXBXFXSXBXFXBXSXBXSXmXBXmXmXBXmXBXmXBXmXGXBXmXmXmXmXSXFXmXmXFXmXmXSXGXmXmXmXmXmXmXmXmXmXmXmXBXmXGXBXSXmXmXmXmXSXMXmXVXmXMXMXVXMXVXmXmXBXBXBXBXBXBXmXVX0X#.K.0X0X0XqXtXqX!.'.] l ' ' v.`.@XhXhXZX#X X(._.ZXMXZXzXvXzXzXvXvXlXaXlXzXuXuXuXvXuXuXuXuXuXiXwXiXwXiXeXeXqXqXqXqX0XqX2X0X2X2X2X<X,X<X,X<X,X,X:X:X,X,XH.H.P.:XP.H.*Xz.*XH.l.z.H.z.l.k.k.k.k.h.2.k.k.k.:.<.k.0.0.0.2.2.2.2.>.:.:.6.:.:.:.:.>.>.+.>.5XAXnXmXnXmXVXVX2X2.% > > > 1XHXVXHXHXCXHXHXHXCXH.;.-.$.$.$.$.$.$.-.;.$.:.:.:.;.:.:.:.:.2.:.:.2.0.0.0.2.0.0.0.0.l.0.l.7.l.l.l.UXG.UX*X*X*X*X*X=X=X>X>X=X>X<X>X<X5X5X5X5X5X3X8X6X6X6XwX7XwXwXIXwXyXyXyXIXiXkXkXlXkXlXlXlXlXzXzXzXzXzXzXvXzXxXvXxXNXU.^.^.|.hXgXhX#X`.R.] ' _ V W.gXBXCXCXCXHXHXHXG.4XmXbXbXbXbXbXbXbXbXbXbXzXbXbXzXxXbXzXzXzXzXzXzXzXlXlXlXlXuXlXlXuXlXuXuXuXuXuXlXlXyXuXeXlX,X:XuX+         .     . . o o + o + ; ; ; # # ; = ; = ; = = ; ; - - = = ; ; - - = = ; = - ; = = = = ; = = = ; ",
"n v v v v n v v n n b n K n F n F n F n n K v H K K v n K H F n F n F n F n M F F G G F F F F U F D U M -.aXHXiXBXHXBXCXHXBXJX0Xh.BXFXFXFXFXFXFXFXSXFXMXSXMXMXMXmXBXBXBXGXmXGXmXmXmXmXmXmXGXBXGXmXmXmXmXmXmXmXmXmXmXmXmXmXmXmXGXmXmXmXmXmXmXmXBXmXBXBXBXBXmXMXmXmXmXmXMXmXMXVXMXBXBXmXBXBXBXBXmXNX5X#.P.1X,X0X0X3XiX0X).] l ' ' B.`.$XhXhXZXsX`.(._.VXVXNXvXvXzXzXzXaXzXzXvXuXvXvXuXuXuXuXuXuXuXuXuXeXiXwXqXqXqXqXqXqX6XqX2X5X2X2X2X2X2X1X<X,X>X>X:X:X:X:XP.,XH.H.H.*Xz.=Xz.*Xz.l.*Xz.z.k.k.k.k.0.k.2.k.k.k.2.h.0.0.2.2.2.2.2.2.>.k.:.>.>.:.;.$.+.;.:.2XmXmXmXmXnXmXmXqX2.+ > > 1 P.HXHXHXHXHXHXHXHXBXH.;.;.$.#.$.-.-.$.$.$.;.$.$.;.;.;.>.:.2.:.2.0.2.:.:.0.0.0.0.0.k.0.l.k.k.l.l.l.l.G.G.G.*XG.*X*X=X=X*X>X>X>X>X<X<X>X<X<X5X5X6X6X6X6X6XwX6XwX7XiXwXyXIXyXkXkXuXyXkXlXkXlXlXlXlXlXzXzXzXxXzXzXvXxXcXPXXX^.(.$XhXgXhX@X`.C.] ' _ x W.dXCXHXHXCXHXHXCXH.5XmXbXbXbXbXbXbXbXzXvXbXbXzXbXzXzXzXzXzXzXzXlXzXzXuXlXlXlXuXuXlXlXeXuXlXuXyXyXeXuXeXuXyXuX:X:XuX;   .     . . . o o X O o o + o # ; ; ; ; ; ; ; = ; ; ; - ; ; - ; - - ; ; ; - - - = - = - = = - = = = = ",
"v v v v v v v n n n n F H H M n K H v H n K n K n F n F n K b n M K F n F n F F b n F U F F U D U U U b ( vXJXI.K.vXHXHXBXBXHXiXh.mXBXFXFXFXFXFXFXBXMXMXMXBXMXSXmXmXmXGXmXmXGXmXGXmXmXGXBXmXmXmXmXFXBXmXmXbXFXFXmXmXmXmXmXmXmXmXmXBXmXmXmXmXBXmXmXmXBXmXBXmXBXmXVXNXmXMXMXMXVXMXBXBXBXBXBXBXMXVXVX6X>.P.0X,X0X0X0XqX!. X] l ' ' m.].@XhXhXZXsX X`.[.VXmXnXvXvXvXaXzXvXzXuXvXaXlXzXzXzXuXuXuXuXuXuXeXyXwXiXqXqXeXqXqX6XqX2XqXqX2X2X2X2X2X2X<X,X,X,X:X,X>X*X,XH.*XH.H.:Xz.H.H.z.*Xl.z.l.l.k.k.k.k.k.:.k.:.2.k.<.k.0.2.z.2.0.2.2.2.k.:.:.:.>.:.:.$.$.-.;.<XmXbXVXmXnXmXmX0Xg.$ > > 1 Y.CXHXHXCXHXHXHXHXCXH.<.%.$.$.+.;.;.+.;.$.;.-.;.;.;.;.:.<.>.<.:.2.0.2.:.0.0.0.0.k.0.k.0.l.l.l.l.G.G.l.G.G.*X*X*X*X*X*X*X>X=X>X>X<X<X4X<X4X5X5X6X8X6X6X6X6X7X7XwXwXwXyXiXIXiXIXkXyXlXuXkXlXlXlXlXzXzXzXxXzXzXbXxXzXvXNXXXC.(.|.gXgXhX#X`.C.u.' _ V A.dXCXHXCXHXHXHXCXG.5XmXbXvXbXbXbXvXbXzXbXzXzXzXbXzXzXzXzXzXlXzXuXzXlXuXlXlXuXlXuXuXuXuXuXwXuXyXuXuXeXyXuXeXuX:X:XuX;         .   o o . o o o + ; ; + ; ; # % = ; = ; - ; - ; = = ; ; - - - - = - = ; - - ; = = = = = = = % ",
"v v v v v n n n b n b n n v H n v v K K F n K v K n K n F n F F H v v F F n n F K F F b F F U M U M U M ( vXKXiXz.1.,XvXHXHXJXqXh.VXFXBXFXFXBXBXFXSXMXMXMXSXBXMXGXBXmXBXmXBXBXmXmXmXmXBXGXmXmXmXBXmXmXmXmXmXmXmXmXmXmXmXmXmXBXmXmXmXmXBXmXBXBXBXBXBXmXBXmXBXmXmXMXMXmXMXmXmXMXMXmXBXBXBXBXBXBXMXVX2XO.I.0X!.0X,X1XqXY.{.] N _ ' m.].@XhXZXZXsX(./._.VXVXNXvXvXzXvXvXvXuXvXuXzXuXuXaXuXuXuXuXuXuXuXiXiXeXwXqXiXqXqX0X0XqXqX2X5X0X0X2X2X2X,X>X<X,X:X:X:X:X:X:X*XP.:XP.*XH.z.*X*Xz.H.z.z.l.k.k.k.h.k.k.k.k.k.0.:.k.0.2.2.2.:.2.2.2.>.:.:.:.>.:.>.$.$.#.-.2XBXVXmXnXmXmXmX2X>.$ > > > ,XHXHXHXHXHXHXCXHXCXG.;.;.$.#.#.#.#.;.$.$.$.;.$.;.>.:.:.:.:.:.:.2.:.0.2.0.0.0.0.0.k.0.7.k.k.l.l.l.G.UXG.*X*XUX*X=X*X-X=X=X>X>X>X>X<X<X<X<X<X5X5X3X6X6X6X6XqX7XwXwXwXwXIXiXyXyXkXyXyXlXlXlXuXlXlXlXlXzXzXzXzXxXzXbXvXNXQ.^.(.|.gXgXhX@X(.C.] ' ! V A.gXCXHXHXCXCXJXHXK.4XmXxXbXzXbXzXbXzXbXzXbXzXbXzXzXzXzXzXzXlXzXlXuXlXlXuXuXuXuXyXyXwXlXwXuXeXyXeXyXyXeXeXyXuX:X:XlX;   . .     . . . o o + + o o # # # ; ; ; ; ; ; ; = - ; - ; = = = - ; = - ; ; = = - = - = = = = = = = = ",
"v v n v v v M v b n n n G v M n n K H v K n H F n F n F n F G n n G K v G F F v n F F b F D D U b U F U 1.vXKXKXHXeXh.g.:XZXJXiXh.mXFXBXmXFXFXFXmXSXBXBXMXBXSXMXmXmXmXmXmXGXGXmXmXmXmXmXmXmXmXmXmXmXmXmXmXmXmXmXGXmXmXmXmXmXmXmXmXBXmXmXmXmXmXBXmXBXFXmXmXBXBXAXMXmXMXMXmXMXMXMXmXSXMXBXBXFXBXVXVX<X#.Y.rX,X,X0X1X0XY.'.] N _ ' m.}.@XhXhXZXsX`./.[.BXNXvXvXvXzXzXzXuXzXzXzXuXzXuXzXuXuXuXlXuXeXiXwXyXqXeXqXqXqXqXqXqXqX0X2X0X5X2X2X2X,X,X2X>X>X,X:X:X:X:XH.:X:XH.H.H.H.H.H.z.H.l.l.k.k.k.k.k.k.k.k.k.k.k.:.k.k.k.2.0.0.0.2.2.:.:.:.>.>.:.:.>.$.-.$.#.2XmXVXVXbXbXnXmXqX<.+ > > 1 ,XHXCXHXHXHXHXHXHXCXK.-.-.@.#.#.;.-.$.;.+.$.;.-.;.;.;.<.<.<.2.:.:.0.2.2.0.0.0.0.0.0.k.k.7.l.k.l.l.G.G.G.G.G.*X*X*X*X=X=X>X>X=X>X>X>X<X<X5X<X5X5X5X5X5X6X6X7XqX6XwXwXwXyXyXyXyXlXyXlXyXuXlXlXlXzXzXlXzXzXzXzXzXxXvXzXNXXX^.(.|.gXgXhX#X`.C.] _ ! N W.dXBXCXCXHXHXHXHXG.<XNXvXxXbXzXzXbXbXzXbXzXzXzXzXzXzXzXlXlXvXlXlXuXlXuXlXyXyXuXuXyXeXuXwXuXyXeXeXyXeXyXeXyXuX:X:XlX;         . . . . o o o + + o + ; # ; ; + ; = ; = ; ; = ; ; ; - = ; - = = - ; = ; = = = = = = = = = = = ",
"v n v n v v v n n n b n F n n n H v v K v F n n K v K n K v n G F n H F n F n M F F F F F F D D U D U b ,.vXJXHXHXKXBX0X1. .6XiXz.BXBXFXBXFXFXmXBXBXBXSXSXMXMXAXGXBXGXmXmXmXBXmXmXmXBXGXmXmXmXmXmXmXmXmXSXmXmXmXmXmXmXmXmXmXmXmXmXmXBXmXGXmXBXmXBXmXBXmXmXmXmXmXMXMXMXMXmXMXMXMXSXSXBXBXBXBXMXmXVX<XM 0XpX~.0X0XY.0XY.'.' l ' ' m.}.@XZXhXCXsX(.(._.MXZXNXvXvXvXvXvXvXvXaXzXzXaXlXaXvXuXuXuXuXuXyXiXiXiXwXiXeXqXqXqX0X5X5XqX2X2X2X2X2X<X<X2X,X,X>X:X,XH.P.:XH.H.*XP.H.H.l.*Xz.l.G.z.k.k.k.k.k.k.h.k.:.k.k.h.k.:.2.0.2.2.0.2.2.2.k.:.:.k.:.>.:.;.#.#.-.,XmXbXnXVXmXnXVX2X>.$ > > 1 P.HXHXHXHXHXHXHXHXCXk.;.#.$.$.$.#.+.$.$.>.$.-.-.;.;.:.:.>.:.:.2.2.:.2.:.0.2.0.0.k.7.k.k.k.k.l.l.l.l.UXG.G.*XG.*X*X*X*X=X=X*X>X>X>X>X<X<X4X5X<X5X5X6X6X6X6X6X7X6XwXwXwXyXyXyXyXyXyXyXlXyXlXlXlXlXlXzXzXzXzXzXxXzXzXzXbXQ.^.(.@XhXgXhX@X(.C.' _ ! V W.gXCXHXCXCXHXHXCXi.<XNXxXvXbXzXbXzXbXzXzXzXzXzXzXzXzXlXlXlXuXlXlXuXlXlXeXuXyXyXlXeXuXwXuXyXeXyXyXeXyXeXwXeXeX:X,XlX;     . .   . . o X X o o o ; ; o ; # ; = - + ; ; ; = ; - = = ; - = ; ; - ; - = - - = = = = = = = = = % ",
"v v v v v v v v n M n n M v v n v n F n n F n K v K n n F n v n b n G n F v F n M H G F F U U M U D U D ,.CXJXCXHXCXHXKXnXP.z.P.z.FXFXVXFXFXBXFXBXBXmXBXmXmXGXmXmXBXmXBXmXmXGXmXmXmXmXmXmXmXmXGXBXmXmXmXVXmXmXmXmXmXmXmXmXmXmXmXmXmXmXmXmXBXmXBXmXmXBXmXmXBXmXBXBXBXmXmXBXSXmXBXBXBXBXBXMXVXmXNXqX0.M I.jXpXtXrX0X0XY.].' l ' _ m.}.@XZXZXCXsX`.(._.JXbXvXvXvXvXvXzXvXzXzXzXvXuXuXvXuXuXuXuXuXuXiXeXyXeXwXeXqXqXqXqXeX2X2XqX2X2X2X2X,X<X2X2X,X,X:X:X:X:X:XH.:XH.H.*Xz.:Xz.*Xl.l.z.z.l.z.k.k.k.k.k.k.2.k.2.k.2.k.2.2.2.2.2.2.2.2.2.<.<.<.:.>.-.-.-.+.g.,XnXVXnXbXVXnXmX0X;.> > > 1 :XHXCXHXHXCXHXHXnXaX2.$.-.$.-.#.$.$.$.>.;.#.:.;.;.;.;.:.>.<.<.<.<.:.2.<.2.2.0.0.0.k.0.6.k.k.l.l.l.l.G.G.G.*X*X*XH.*X*X=X:X=X>X>X>X>X<X<X4X<X5X5X5X5X5X6X6X6X6XwX6X7XyXwXwXyXyXyXkXyXlXyXlXlXlXlXzXzXlXzXzXzXzXzXvXiXY.%X^.(.@XhXgXhX#X`.C.' _ ! N A.dXCXCXCXCXHXJXZX2.4XvXzXbXxXzXbXzXxXvXzXvXzXzXlXvXzXuXlXuXlXuXlXyXuXrXkXkXeXlXwXeXlXeXeXeXyXeXwXeXwXeXeXeXeX:X,XlX;           . . o . o + + + + + # ; ; ; ; ; = ; ; = ; = ; - ; ; = - ; - ; = = = = - = = = = = = = % = = ",
"v v v v v v n n v v n v n v n n K n n n n F K v K v n F n F K v F n n b b F b F F b b F D M b U F F F D W 3XMXJXCXHXHXHXJXKXvXP.z.FXFXFXFXVXBXFXBXGXmXBXGXmXBXmXmXmXBXmXmXmXmXmXmXmXmXmXmXmXmXmXmXmXAXBXmXmXmXmXmXmXmXmXmXmXmXmXmXmXmXmXmXAXmXBXBXBXBXmXmXBXBXmXmXBXmXMXmXmXFXmXmXFXBXmXMXmXuXJ.#.M M ) I.pXaXpXpX0XQ.'._ l _ ' m.}.#XZXZXZXsX`.^.Q.vXbXZXvXvXvXvXvXzXvXzXaXzXzXvXuXzXuXaXuXuXuXuXwXiXwXwXiXiXqXqXqXqXqXqX5X0XqX2X2X2X2X,X>X<X>X,X:X:X:X:X:XH.:XH.P.H.H.H.H.z.*XH.l.z.l.z.k.k.k.2.k.k.2.k.0.0.0.2.k.0.2.2.0.2.2.<.2.2.>.<.;.$.$.O.#.z.z.l.uXnXVXNXnXNX2X>.$ > 1 1 Y.HXJXHXHXHXVXtXK.2.;.T O.#.#.>.$.#.;.+.;.;.#.-.;.-.;.;.:.>.<.<.<.2.6.2.0.2.0.0.0.5.k.k.k.7.k.l.l.l.G.G.G.G.G.G.*X*X*X=X=X>X=X>X>X>X>X>X<X<X4X2X2X5X6X6X6X6X6X6XwXqXyXyXyXyXyXyXyXlXyXuXlXlXlXlXlXlXzXzXzXzXzXuXY.n.v.C.^.(.@XhXgXgX#X(.C.' _ Z S XXdXCXCXCXCXCXZX1XR 2.uXzXzXzXnXzXzXzXzXzXzXzXzXzXlXlXlXlXlXuXlXlXlXyXuXeXyXyXyXeXwXwXwXwXwXeXwXeXwXqXqXwXqXwX:X,XlX;     .   . .   . o o o + o + ; ; + # ; ; ; ; ; = ; ; ; = ; = - = ; = ; - = - - = = < - = = - = = = = = ",
"v v v n v n v n n v v M n n v n n F F n n n F n v K F n n n n F b K n F v H n b n D b F D D F F D U D D I W k.iXCXCXCXFXVXHXHXBXnXGXFXBXFXFXVXBXBXmXmXGXBXmXGXmXmXmXmXBXmXmXmXmXmXmXmXmXmXmXmXmXmXBXAXmXmXmXmXmXmXmXmXmXmXmXmXmXmXmXmXGXmXBXmXmXBXmXBXBXmXGXmXBXBXmXBXmXBXBXBXmXVXmXmXVXvX<X<.F M -.+.n G  .Y.fXpXaX!.]._ l _ ' v.}.#XZXhXCXgX{.C.g.3.P.uXvXzXzXzXaXaXzXaXzXaXzXuXvXuXuXuXuXuXuXuXiXuXyXeXeXqXqX0XqXqX2X0X5X5X2X0X2X2X2X,X<X,X,X,X:X:X:X*X:XH.H.:XH.H.H.H.G.z.G.l.z.H.l.k.k.k.k.k.2.k.k.k.2.k.2.2.0.0.0.2.2.2.2.h.:.<.<.>.;.#.O.h.I.U.s.s.g.:XrXnXNXnX2X-.$ > 1 7 Y.HXCXHXCXuXP.1.O.O.w.6.O.T #.+.;.#.+.>.#.#.>.-.;.-.;.:.:.<.<.<.2.<.2.6.2.2.0.0.0.k.5.k.k.7.l.k.k.l.l.G.G.H.UX*X*X*X*X=X=X=X>X:X>X>X<X<X<X4X2X5X5X5X5X5X6X5X6X6XwXwXwXwXyXwXiXlXlXwXlXkXkXlXlXlXlXlXlXzXuXuX6XT.b.B.C.C.^.(.#XhXgXgX#X(.C._ _ ! S _.fXVXCXHXZXtX4.I r.o.-.1XyXuXzXzXzXzXzXzXzXzXuXuXzXuXlXlXuXuXlXlXrXyXuXyXyXuXeXwXeXeXwXeXeXqXeXwXeXeXqXqXeXeX:X,XlX-     . .     . o . X + o + + o ; ; # ; + ; = = ; = = ; ; = = ; ; = = - = - = = - = = = = = = = = = = = ",
"v n y v v v v v v n v n n M n n n n b n F n n F K v K v n F v v n b b n G v M F F b F D D D D D U b U D D W I ,.:XzXCXCXFXFXFXHXGXBXFXFXVXFXFXVXGXmXmXBXGXmXmXmXmXGXmXGXBXBXGXmXmXmXmXmXmXmXmXmXmXmXmXmXmXmXmXmXmXmXmXmXmXmXmXmXmXmXBXmXmXmXVXmXBXBXBXmXBXmXBXmXBXBXBXBXmXBXBXVXmXVXbXwXi.T F %.<.-.#.+.J a Y F.rXjX!.).! l _ ' v.}.#XZXZXZX#X(.Z.u.<.%.4.<XaXvXvXzXvXzXzXvXzXlXzXuXuXlXuXuXuXyXuXyXeXeXyXqXyXqXqXqXqX6XqX0X2X2X5X2X,X2X2X,X<X>X:X:X:X:X:XH.:XP.H.H.H.H.H.H.H.H.l.l.z.l.k.k.k.k.k.k.k.2.2.k.2.k.k.2.k.2.2.2.2.2.h.:.>.:.$.O.#.j.z.f.E.].'.E.N.j.,XuXBX3X,.> > 1 7 P.JXJXZX0Xh.( +.&.:.w.;Xy.&.O.M +.$.>.+.;.+.:.-.;.$.;.>.:.:.<.<.<.2.<.2.2.2.0.2.k.6.k.6.k.k.k.l.l.l.l.G.G.G.H.*XH.*X*X=X=X=X>X:X>X>X>X<X<X>X2X5X2X5X5X5X6X6X6X6XqX6XwXwXyXwXwXeXwXlXyXlXuXuXlXuXzXlXlXiXiXP.n.S.^.^.C.(. X#XgXhXgXgX@X(.V._ _ Z V _.#XCXCXpXD.E H &.y.y.r.L k.5XuXlXlXlXzXlXzXlXzXzXzXlXuXuXlXlXrXyXyXuXyXyXeXwXwXeXwXwXeXwXeXwXqXwXeXqXqXqXeXeX:X,XlX;         .   . . X o o o + + ; # # ; ; = ; ; ; ; ; ; = = - ; - - = - = = = = = = - < = = = = = = % = = ",
"v a a M v v v v v v n v n v n v n n K n n n n n n v n K v v K v v F v v v b n F F b D F D B b U b D D B D Y A ` { 3.3XvXHXFXBXFXGXBXBXBXGXBXBXBXBXGXBXmXmXmXGXmXBXGXmXmXmXmXmXmXmXmXmXmXmXmXmXmXmXmXmXmXmXmXmXmXmXmXmXmXmXmXmXmXmXmXmXmXmXBXBXBXVXmXVXmXBXmXmXBXmXBXBXmXBXmXVXNXbXwXH.$.L W ,.;.#.O.%.%.%.P H d W 0XoX(.! 9 _ _ v.}.#XCXZX#X(.^.b.D.<.:.;.#.k.0XvXvXlXvXaXzXzXvXaXlXlXuXlXuXuXuXuXeXuXyXwXeXqXqXqXqX5XeXqX2X0XqX2X2X2X2X2X<X,X<X>X:X:X:XH.:X,XH.P.H.H.H.H.z.l.z.z.z.l.z.l.l.k.h.k.k.k.2.k.k.k.2.2.0.>.k.2.2.2.2.;.<.:.#.L h.L.N.a.B./.`.|.|.}.).M.D.2X,X>.$ > 1 7 Y.HXiXK.,.%.&.;.:.<.<.6.UX&X9.&.m O.$.;.-.;.>.;.$.;.;.;.;.<.<.<.<.<.2.2.2.6.0.2.0.k.2.k.k.6.k.k.l.l.G.l.G.G.H.G.*X*X*X=X=X=X=X=X>X>X>X<X<X2X4X<X5X5X5X6X6X6X6X6XqXqXwXwXwXwXiXlXwXlXlXuXlXkXlXlXlXuXeX1XD.S.^.^.^.(. X@XdXhXhXgXgXhX@X^.B._ ! Z V _.#XfX!.| I &.8.y.w.5.9.y.*.+.*XeXyXlXlXlXlXzXzXlXlXlXuXlXuXyXuXyXyXyXeXyXeXwXeXeXqXqXqXeXqXqXqXqXeXqXqXqX2XwX:X1XlX= .     .     . . o o o ; o + ; ; + # ; + ; = + = ; = = = = = ; ; - = - = = - = = - - = - , = = = = = % ",
"a v v n v v v n v v v v v n n M n b b n n b v n n v v F F n b n n b n G v G b b n F b D D M D D D C D C B C ] u._ X.` K.qXnXVXVXBXBXFXFXBXBXBXGXBXmXmXmXmXGXBXmXmXmXmXmXmXmXGXmXmXmXmXmXmXmXmXmXmXmXmXmXmXmXmXmXmXmXmXmXmXVXmXmXmXBXmXBXmXmXBXmXmXBXBXBXBXBXBXBXBXmXmXBXBXbXNXlX:X2.R W ,.,.%.W #.#.%.W W %.%.T v C b. XV 9 _ _ c.{.sXhX@X`.C.S.F.UXy.9.:.;.+.#.k.eXvXzXzXlXaXlXzXzXaXvXuXuXuXuXlXeXeXyXeXwXqXqXqXqXeX2X2XqX5X2X2X2X2X,X<X,X<X,X:X,X:X:X:X:XH.:XH.*XH.H.H.H.H.H.H.H.z.l.l.z.k.k.k.2.k.2.k.2.2.k.k.2.k.2.2.2.2.:.>.$.o.>.j.N.a.a.m.V.C.^.].].}.|.|. Xs.z.1.> 1 > 1 F.>X1.-.&.:.<.<.0.<.6.2.:.e.&XUXk.+.M O.#.;.+.-.-.;.>.;.:.>.;.<.2.;.2.2.2.2.2.0.0.0.k.k.6.k.k.k.l.k.UXG.G.UX*XH.*X*X*X*X=X=X>X>X=X>X>X>X<X>X5X<X5X5X2X2X6X6X6X6X6X7X6XqXwXyXyXwXyXeXlXyXuXkXuXlXiX3XD.S.C.(.^.^.(.|.sXhXhXhXgXhXgX#X(.^.c.S ! Z N _.@Xb./ #.7.p.p.9.6.&.&.r.8.=.o.:.,XeXuXuXlXrXlXlXuXyXuXuXyXuXyXuXeXeXyXeXwXwXeXwXqXqXqXqXqXqXqXqXqXeX2XqXqXqX:X,XlX;       .     o X o + . o + o ; + ; ; ; - ; ; = = = = ; ; - ; = = = - = ; - = - = - = - = % , = = = = = ",
"v a M a a v f v M v v n v n v v n v n n M H v n n v n n n K v v b n G v v b M H b b b D b U D D D D C C Z [ x.^.B.u.u.X...K.iXbXVXVXBXBXBXBXBXmXBXGXGXBXmXmXmXmXmXmXGXmXmXmXmXBXmXmXmXmXmXmXmXmXmXmXmXmXmXmXmXmXmXmXmXmXmXmXmXmXmXmXmXmXmXmXBXVXBXmXBXmXBXmXBXBXBXVXBXmXBXbXqXq.O.O.-.<.$.W O.%.#.O.%.%.%.W %.%.#.A m.B.w 9 ! ! a.[.$X X^.C.M.F.l.w.w.UXy.5.:.&.O.-.H.eXvXzXvXuXlXuXuXuXuXuXuXuXeXlXuXuXwXeXeXqXqXqX2XqXqX2XqX2X0X2X2X<X1X1X,X>X:X:X:X:X,X*X:XH.P.*XP.*XH.z.H.z.l.l.z.z.k.k.k.k.k.2.k.k.2.k.2.2.>.2.0.2.2.2.:.>.+.o.g.f.b.a.x.c.v.m.B.C.R./.}.}.|.}.A.U.E > 1 1 > ~ d.%.=.8.<.<.2.<.e.<.<.0.<.:.UX;X;X6.#.M #.-.-.;.;.>.>.<.:.2.2.<.2.2.2.6.2.0.:.k.0.k.k.k.k.k.k.l.l.z.l.G.G.G.G.*XH.*X=X*X=X=X=X:X>X>X>X>X<X<X<X4X<X5X5X5X6X6X6XqXqXwXwXwXwXyXuXyXlXwXlXyXuXiX0XF.b.E.(.(.(.(. X#XhXZXZXhXhXhXgX@X(.^.B.] V Z Z l x.E.4.9.;Xp.y.w.5.r.&.&.*.+.r.y.r.+.k.,XrXkXyXlXlXuXlXuXlXyXeXyXwXyXeXwXyXeXeXqXqXqXqXqXqXqXqXqXqXqXqXqXqXqXqX:X,XlX;     .   .   . X o + + o o + + ; ; # # ; + = ; = ; ; = ; = = ; = - - = - ; - - - = - = = = = = = = = = ",
"a n a v v v a M n v n v n v v n b n v n v n v F n F n b v v v v v b v b n G v b G b D D b b D D D D C C _ S.).@X{.(.B.x.] ` 4.,XuXmXBXBXBXBXBXBXBXmXmXBXmXBXGXmXmXGXmXmXmXmXmXmXmXmXmXmXmXmXmXmXmXmXmXmXmXmXmXmXmXmXmXmXmXbXmXmXmXmXmXmXBXmXBXmXBXBXBXBXmXBXBXmXmXNXNXnXwXH.#.T -.>.-.#.#.%.%.W W %.W %.%.%.&.,.n.).c.9 w N Z ~ ' n.XXN.M.n.F.i.l.y.w.y.w.UXw.5.&.+.O.>.,XuXvXvXuXzXzXuXvXlXuXuXuXuXwXeXwXeXqXqXqXqXqXqX2XqX2X5X2X2X2X2X<X<X,X:X:X,X:X:X=XP.H.P.H.H.H.z.H.H.H.l.z.H.l.l.z.l.k.k.k.k.k.2.k.2.k.2.k.2.2.2.>.2.+.+.$.d.f.s.a.x.c.x.c.c.m.B.C.R.^.(.^.XXtX .> > 7 1 7 9 _ b.u.<.e.e.e.e.0.0.0.2.0.h.:.k.UX;XUX:.O.M #.-.;.;.;.:.:.>.<.<.2.:.<.2.0.<.k.:.k.6.6.k.k.k.l.k.l.l.l.G.G.G.G.*XH.*X:X*X*X:X=X>X:X>X>X<X>X<X2X2X<X5X5X2X6X6X6X7X7XqXqXwXwXyXwXuXwXuXyXuXeXI.n.V.(.(.^.(. X@XdXhXZXhXhXhXhX#X X/.^.S.' S V V N 9 w B 4.G.p.;Xp.5.=.&.&.@.+.+.o.o.r.8.r.+.l.6XrXyXlXrXyXuXuXyXeXyXeXwXwXeXwXwXqXqXqXqXqXqXqXqX6XqX0X6XqX2X2XqXqX:X,XlX;   o   .   o . o . X o ; o + ; o ; ; ; ; - ; ; = = ; = ; = - = - = = = - = - = - = = , = = = = = = = = ",
"a v v v y v v v v v v n v v v n n n n v v n n v n n v v v v v v v F b G v G b b G b D D b D b B D B C A _ V.|.hXsX|.}.(.B.x.[ { h.3XvXZXNXVXMXBXBXBXBXFXSXmXFXFXmXmXBXBXAXBXAXmXmXmXmXmXmXmXmXbXmXNXmXmXmXmXmXmXmXmXmXmXmXmXmXBXmXmXmXmXBXmXBXBXVXBXMXBXMXmXMXMXNXNXzX>X&.Q %.%.;.} %.W W %.%.W %.%.%.%.;.-.n.%XC.S w w l N Z ~ ~ B ' A.D.3.w.i.w.y.UXUXUXw.i.p.w.=.&.O.T 3.2XuXvXuXzXuXuXuXuXuXuXiXwXwXeXeXqXqXqXqXqXqX5XqX2X0X5X2X2X,X2X<X,X,X>X,X:X:XH.:X:XH.J.H.H.H.H.l.z.H.l.l.l.z.z.k.z.k.k.k.2.k.k.2.h.2.<.h.h.<.;.+.O...f.s.a.a.c.a.c.c.c.v.v.B.V.R.C.Z.Q.T.k * 1 1 7 w 9 9 w V c.M.h.5.e.0.0.0.0.e.e.2.3.4.<.i.&X;X9.&.Q %.%.,.<.<.,.<.<.<.2.<.2.2.2.0.:.k.0.k.0.k.k.k.k.l.l.l.l.G.G.G.H.H.*X*X*X*X:X*X:X=X:X>X>X>X>X<X2X<X5X2X5X5X6X6X6XqX6XwXqXwXwXyXiXwXuXuXqX,XN.Z.(.(./.(.`.|.#XhXZXhXhXZXhXdX@X`./.C.x._ ! Z Z S N 9 1 O @ B  .q.&X&X=.&.&.*.@.@.P o.J *.=.8.%.,.:XqXiXqXyXyXyXiXwXiXwXeXwXwXqXqXqXqXqXqX5XqX2X2XqXqXqX2X2XqXqX5XqX:X1XyX;     .   o .   . + X + o + + ; # # # ; + = ; = = ; = = ; = = - ; - - - = ; - = = = = = = = , = = = = % ",
"v a v v v v v v v v v n v v n n v v v n n v v n v v v v n v n v v v v v v v v F v D b D b D D D D C C A ' V.@XhXhXhX#X|.{.^.B.u.[ { K.qXaXNXVXMXMXBXSXMXBXSXmXmXBXmXmXmXmXmXBXmXmXmXmXmXmXmXmXmXmXmXmXmXmXmXmXmXbXmXmXmXmXmXmXmXmXmXBXmXmXmXmXmXMXmXBXBXMXZXNXNXvX6X3.P o.Q i.} %.%.W %.%.%.W %.W W %.<...Z.C.] w 1 w 9 k N V ~ ^ C z x b.D.4.w.G.y.UXy.p.p.p.UXp.p.9.=.&.o.#.k.qXzXuXlXuXzXuXuXuXwXiXiXiXyXiXqXqXqXqX6X0XqX2X2X2X2X2X<X<X,X<X>X:X:X:X:X:X*XH.:XJ.P.H.H.H.H.H.l.H.H.z.l.l.k.k.k.k.k.k.k.h.k.0.2.2.<.;.+.O.) d.s.s.a.c.a.x.x.x.x.x.c.v.B.B.v.L.T.P * * j w w w l N l 9 w 7 ' M.N.3.q.e.3.0.2.3.3.3.3.4.4.4.i.;Xp.6.%.P W ,.;.<.<.2.<.<.2.2.2.2.0.0.2.k.:.k.0.k.6.k.k.k.l.l.l.G.G.G.H.*XH.J.=X*X:X=X:X=X>X>X>X<X<X<X<X2X4X2X5X6X2X2XqX6XwXwXwXwXyXyXyXwX3XD.M.^./.(.(.(. X#XgXZXhXhXhXhXgX#X{.`.^.B.] _ ! ! ! V N N w 1 > O . > B ,.w.p.5.@.@.@.o.o.P P H f *.=.=.&.3.1XqXtXwXqXyXiXwXqXqXeXqXqXqXqXqXqXqXqXeXeXqX2X5X0XqX0X5X0X0XqX,X1XlX;   .       . X . X o o + o + o + # ; ; ; ; ; ; ; = = ; - = = ; = = = = - - - - = , = , = = % = = = = = ",
"a v v v v v v v v v a v v v n v v v v v v n n v n v v v v M v v v n b G v G n b v b D c D D b b D B C V ' C.@XgXgXhXhXdX@X|.(.C.v.s.` } J.yXvXVXmXmXBXmXSXmXMXMXmXFXmXFXmXmXmXmXmXmXmXmXmXmXmXmXmXmXmXnXbXmXmXmXmXmXVXNXmXmXmXmXmXmXmXmXmXmXmXBXmXBXBXmXVXVXNXyXi.%.o.%.} %.} %.W %.%.W ( %.W W ,.%.} M.).v.S 1 w 9 w 9 N ` D.` ~ ~ x z 7 A .. .0.&Xp.UXp.p.G.p.p.p.&Xp.9.r.*.o.-.H.eXuXuXuXuXuXuXuXwXiXwXeXwXqXqXqXqX0X0X5X5X0X2X2X2X2X1X<X,X>X,X:X:X:X:X*XP.H.z.:XH.H.H.H.z.H.z.l.l.z.z.l.k.k.h.k.k.h.0.h.h.2.:.$.o.W d.s.] x.a.a.c.c.x.x.x.c.b.v.v.u.n.F.W j @ 1 w w w 9 ` [ S S N l 9 1 l a.M.n.<.q.e.3.3.3.3.3.4.3.h.4.4.i.p.p.=.W W W ,.<.2.<.<.2.<.<.0.2.2.0.2.k.:.k.k.k.w.k.k.l.G.k.G.G.G.&XH.*X*X*X*X=X=X:X=X>X>X>X<X<X<X<X<X2X5X5X5X6X6XqXqX6XwXqXqXiXqX5XT.b.C.(.(.`.`.}.@XdXhXhXhXgXhXhX#X|.`.(.C.x.' ! Z ! ! Z d.0X-XB 1 * $ @ . . > D <.G.9.r.T o.o.o.J J J f J &.e.r.,.K.1XqXqXqXeXqXqXqXqXqXqXqXqXqX2XqXqX2X2XeXqX2XqX2XqX5XqX2XqX:X1XlX-       .   X   X o X o o # o ; ; + ; % ; = = = = = ; = - ; - ; - - = - - - = - = = , = , = = = = = = = ",
"v a y v v v v v v a v n v v v v n v v v v v v v M v n v v v v v v v v v v n b b G b b D D c D D D D C A _ B.|.dXgXgXgXjXgXsX|.}.(.V.v.] ` 4.1XuXnXVXmXBXmXBXBXMXFXmXmXmXmXmXBXmXmXmXmXnXmXmXmXbXbXmXmXmXmXmXmXmXmXmXNXmXmXmXmXmXmXmXmXBXmXmXBXmXVXmXNXNXNXuX=X<.P W } %.} W %.W } W W } W W -.;.,.N.).Z.Z w w 9 9 l N X.n.aXFX3X..A A x 9 7 7 ` ..1.w.&X&Xp.p.&X&Xp.&X&X;X&X9.=.O.L <.,XuXuXuXuXiXuXiXwXiXqXwXeXqXqX6XqXqX2XqX2X2X2X2X,X<X,X<X,X:X:X:X:XP.P.H.:X:XH.H.H.H.H.*Xz.l.K.l.z.k.k.k.k.k.k.2.k.k.<.2.;.+.O.d.s.s.a.c.c.a.c.a.c.x.a.x.c.x.x.u.F.%.j : * 1 1 7 7 Z N..X.XN._ S N N N 9 l V m.Z.d.3.q.e.3.e.4.3.4.4.4.4.4.4.i.;X8.@.P W ,.,.<.<.<.2.2.2.0.k.0.k.0.k.k.6.k.q.k.l.k.k.G.G.G.H.H.G.H.H.J.=X:X:X=X>X:X:X>X:X>X<X3X5X5X2X5X6X5X6X6X6XqXqX6XqX6XT.n.B./.(.(.`.'.@X#XhXhXhXhXhXhXsX|.`.`.R.S.u._ X._ _ Z ' Y.zXPXIXG.E j $ $ O .     > G 3.w.=.+.P P J J H H f h f &.6.r.2.P.3X2XqXqXqXqXqXqXqXqXqXqX5X0X2XqXqX2XqX2X2XqX2X2X5X0X0X:X3XlX=   o   .   . . . o + o # o ; + + ; ; # = + ; = ; ; = = ; = = = = ; ; - = = - = < = = = = = = = = = = % ",
"a a v a v v v v v v v v a n v f v v v v v n v v v v v v v v v v v c v G b G b v b G b b D b b B D B B C A v.{.@XsXgXdXgXgXgXgX@X|.}.^.B.x.[ { F.0XzXbXNXVXVXMXmXmXmXGXmXmXmXmXGXmXmXmXmXmXbXmXmXmXNXmXmXVXbXmXmXmXbXmXBXmXmXmXmXmXmXmXmXmXBXNXVXNXNXmXvX4X3.P P } } %.} W W %.%.%.%.W } W ,.,.n.).%X' 9 9 9 N 9 N S b.Q.OXjXzX6XqXK.A B x l 6 1 l )  .2.l.&X&X&Xp.&X;X&Xp.;X;Xy.6.&.o.R q.2XuXuXeXyXuXiXwXeXwXeXqXqXqXqX2X0XqX2X2X2X2X2X,X,X,X>X,X:X:X:X:X:X:Xz.H.*XH.H.H.z.H.*XH.l.z.l.l.z.l.k.k.k.2.h.2.<.+.M ) s.s.a.c.v.c.v.c.x.x.x.x.x.x.] [ n.,.5 X @ j 1 1 1 x n.W.oXjX$X'._.x.! S S S N 9 N ] R.Z.d.3.3.3.4.h.4.4.h.4.4.4.g.3.p.p.=.O.W W ,.<.2.2.2.2.<.:.k.k.:.k.k.k.6.k.k.k.l.z.G.l.H.G.H.H.*X*X*XJ.*X=X:X:X=X:X:X>X<X1X<X<X<X3X5X2X6X6X6X6XqXqX5X:XF.B.^.(.(.(.{.|.#XgXhXhXhXhXgXdX@X}.`.^.S.u.] _ _ X.X.X.N.tX6X9.cXIXr.i.3.0 : X X       . > U q.5.*.J H J f H f H f s J r.2.<.4.P.0XqX6XqX0XqXqXqX0X5XqX5X0X5X0X5X2XqX2X2X2X2X0X2X5X:X0XwX;   . .   .   . X X o o o + + ; + ; ; ; = + = ; = = = ; = = ; = = - = - = = - = - = = = = = = , , = = = ",
"M a a v v v i v a v a v v v v v v n n v v v v n n v v n v v v v v v v v v v v b b G b D b B b M D B C C C ! Z.].}.@XsXdXgXgXhXhXsX@X}.`.C.v.] [  .P.iXvXVXNXVXNXmXmXmXmXmXmXmXmXmXmXmXmXmXmXmXmXmXmXmXNXmXmXmXmXmXVXmXmXmXmXmXmXBXmXmXmXmXVXVXbXVXvXqXl.@.P %.} } %.} W %.} } W W E } %.,.d.W. Xv.N 9 N 9 N N S [ A._.[.sXHXvXK.*XqX1X} l l l 7 > > z / -.0.p.&X&X&Xp.&X;X;X;X;X;Xy.<.*.R O.G.qXuXuXeXyXeXwXeXqXqXqXqX6X6X6X5X0X2X2X2X1X2X>X,X>X>X,X:X:X:X:X:X:X:Xz.*XH.H.H.H.z.H.z.H.z.z.k.k.k.<.h.h.:.$.o.W d.f.s.a.f.v.c.c.x.x.c.x.x.x.a.' | / q . X * > j j 7 [ W.XX+XhXCXhX+X'.'.Z.x.X.S S S S 9 Z c.E.M.4.3.3.4.4.4.4.4.4.g.4.d. .h.&Xy.&.T W ( <.<.<.0.2.0.2.0.k.6.k.k.k.w.k.k.l.l.l.G.G.G.G.H.*XH.J.=X=X=X=X=X>X>X>X,X>X<X<X3X<X5X2X6X6X6X0X6X2XP.F.S.^.(.(.(.}.|.@XdXhXhXhXgXhXgX#X|.(./.V.u.u._ _ _ X._ b..XtXG.,.=.PXIX&.P ;.3.W j X   . .     O q / 3.r.J J J f H f f H s f o.6.6.<.h.P.0X2X6XqX2XqX0XqX0X2XqX2X2XqX2X0X0X2XqX2X2X2X2X:X0XlX-       .   . . X X X X + + + + # ; # ; ; ; ; = ; = = = = - = = = ; - ; = - = = = - , = = = = % = % % = ",
"a v M a v a v v v a n v v v v n a v v v n s v v v v v v v v v v v v v b v G b v b b b D D b b D D D B D C C ^ v.`.`.|.#XdXgXgXhXhXhX#X|.{./.V.c.[ | g.1XiXbXVXVXmXmXBXmXmXmXmXmXmXmXmXmXVXbXmXbXmXmXmXmXbXmXmXmXmXBXmXmXmXMXmXmXBXmXBXmXmXNXNXNXyXH.;.T %.} } } } } %.W W W W %.} %.%.u.A. XZ._ w 9 N N N S [ N._.[.#XhXCXHXzXT.K.*X4X5XK.E 9 7 7 1 > > b ( } q.;X;Xp.;X;X;X;Xy.;X;X;Xy.:.+.L -.*XqXuXeXwXeXeXwXqXqXqXqXqX2XqX5X2X2X2X<X1X<X3X:X>X:X:X:X:Xz.:XH.:Xz.P.z.H.H.H.l.z.H.l.z.z.k.k.k.h.k.+.o.M ) s.a.a.v.m.v.v.c.c.c.c.x.x.u.] ` / q @   @ * 1 > r B n.XXXX+XgXjXVXZXhXsX@X].].V.u.X.X.S S N l ^ m.R.N.4.4.h.h.4.4.F.g.4.4.n.d.d.F.y.8.&.W W ,.<.6.0.2.k.k.0.k.0.k.k.k.k.k.k.l.G.l.l.G.H.H.G.*XH.=XJ.=X=X:X:X:X>X>X>X<X<X3X4X2X5X5X2X5X2X:XF.n.C.(.(.(.(.}.@XdXgXhXgXgXhXhX#X|.`.(.C.v.u.] ] _ _ _ b.U.pX3Xi.2.2.6.cXcXr.T H H -.<.G O   .         $ S 4.3.@.J H H f f f s d a s %.<.2.2.K.1X0X6X0X2X5XqX2XqX2X2XqX2X2X2X2X2X2X2X0X2X0X:X0XlX; . .       X . X X X o o + + ; # # # ; ; ; ; % ; = = = ; = ; = - - - - - - = = = = = = , = = = = = = = ",
"a a a a v a v v a v v v n v a a n v v n v v n v n v n v v v v v v v v v b v b v b b b b b B D b b B D C B C A V m.`.].}.|.#XdXgXgXhXZXgX@X|.{.(.V.c.[ ..F.3XuXNXVXmXmXmXmXmXmXmXmXmXmXmXmXmXmXmXbXmXmXbXVXNXNXmXmXmXmXmXBXmXBXMXmXmXmXNXmXBXuX:X<.O.#.} ,.} } } %.W } %.%.W } } %.4.N._.E.] l 9 N N N S ` N._.'.@XsXCXZXZXKXuXK.J.4XcXkXkX2X1.z 7 7 7 > $ 1 M R <.w.;X;Xp.;X;X;X;X;X;X;X;Xe.:.O.M <.>XwXwXeXwXeXqXqXqXqX0X6X2X0X0X2X2X2X1X3X,X>X,X:X:X,X:X:X:X:X:X*XP.=XH.H.H.H.H.z.H.l.k.k.h.2.$.*.m ) s.a.a.m.m.m.v.c.v.c.c.c.c.x.] ` A B * . O @ * * 1 9 u.Q.XX+XsXfXfXjXCXZXhXhXhXsX|.}.(.S._ X.X.S S N N ] C.Z.n.4.4.F.4.4.4.n.D.d.d.n.d...K.w.8.W W W ,.<.0.:.:.k.6.k.k.6.k.k.l.l.k.l.K.G.G.G.H.H.H.*X*X=X=X:X:X:X>X:X>X>X<X<X<X2X2X3X5X3X:XF.n.Z.(.(.(.(.{.@XsXgXhXgXhXhXhXdX@X}.`.^.S.u.] ] _ X._ u.A.oXzX6XG.i.3.3.6.cXcX<.W J H a Q ,.( q X   .       o j Q 4.<.J f H f s a s a d u s %.2.<.4.P.0X6X6XqX2X0X5X0X5X2X2X2XqX2X2X0X2X2X2X2X,X2XkX;   . .     o X X X X : : o + + + ; # ; ; + ; = ; = = ; = = - - = ; = = = = - = = < , = = = = = = = % = ",
"M p a a M a v a v v v v v v v v v v n a v v v f v v n v v v v v v v v b G c v v b G c b b D b D z M D B B C A / | c.E.].].}.@XsXgXgXhXZXhXdX@X}. X^.S.x.[ ..K.6XvXnXbXmXmXmXmXmXBXmXmXmXmXbXmXVXmXmXmXmXmXmXmXVXmXmXmXMXVXmXMXMXmXmXmXNXvX2Xq.#.%.} } } } } } %.} %.W } %.%.%.} n.).).x.N 9 N S S S X.n.XX[.[.#XhXZXZXZXZXHXuXT.J.8XPXLXPXcX8XJ.} w w w 7 > @ 7 b W 0.&X;X;X;X;X;X;X;X9X;X9X;X8.&.L O.k.>XeXeXqXqXqXqXqXeX2XqX2X2X2X2X2X<X,X>X,X>X:X,X:X:X:XJ.z.H.H.H.z.:XH.z.H.K.z.l.k.k.h.2.$.m #.s.s.a.a.m.m.v.v.c.v.c.c.x.x.] _ A Q 1 . . : $ * * w / T.XXoXfXaXfXfXfXhXZXZXZXZXgXhXdX#X{.}.E.m.' X.S S S N V a.R.Z.D.3.4.F.4.u.g.i.d.n.d.n.s.n.K.9.r.Q W } >.6.k.k.q.q.q.k.q.w.k.G.K.k.G.G.G.G.G.H.H.*XJ.=X*X:X:X:X>X>X:X>X<X<X<X<X2X2X>XK.n.B.(.(.(.(.}.|.#XgXhXhXhXhXhXgX#X}.`./.S.v.u.u.X.X.X.u.A.$XlXPXcX8XT.i.e.e.<.IXPX=.@.J G H s h L >.W 6 .           X 7 { 3.$.J G f s d h k h g h Q %.4.<.F.Y.6X0X2XqX2X0X5X2X2X2X2X2X2XqX2X2X0X0X:X0XlX+ .       . . . o X X X : o # o ; # # ; = ; ; % = = = ; = = = = ; - = = = - , = , = = = = = = = = % = = ",
"v a v a p v a v a v v a v a a v n a a v n v v v v v v v n v v v b v v v v v v b v b b b B M z D D B D z C C ) z.j.| ^ M.R.].`.|.#XdXgXgXhXhXhX#X|.}.(.C.v.x.[ g.:XeXvXbXNXmXmXbXbXmXNXNXmXmXmXbXbXmXbXmXbXmXmXmXVXmXMXMXMXmXMXmXNXNXNXqXG.-.W ( }  .} ,.} } } %.%.} %.} } } u.%X'.v.V l V S Z S Z b._.OX|.@XgXZXhXhXZXZXCXKXiXK.=XcXPXLXLXPXcXIX4XK.C 1 1 1 > $ $ 6 b M 7.;X;X;X;X;X;X;X;X;X9X;XUX6.+.L +.k.5XeXqXeX2XqXqXeX2X2X5X2X2X2X3X1X,X<X,X:X:X:X:XJ.J.:XP.:X:XH.H.H.H.H.H.l.z.k.h.;.o.O.d.d.a.a.a.m.v.m.v.v.v.c.c.c.x._ X.A q @   X @ $ * * B g.T.oX+XfXfXfXfXdX$X@X#XsXhXZXZXhXhXhXdX@X}.}.R.c.X.X.S S N N V v.R.A.u.4.F.i.D.u.n...n.s.b.b.M.b.i.y.=.E M >.h.:.q.q.3.q.k.k.k.k.l.l.l.G.H.G.H.H.*XH.J.=X=X=X:X=X=X>X>X>X1X<X3X1X>XJ.F.b.C.(.(.(.`.|.#XdXhXhXgXhXhXgX#X|.`.`.C.v.u.] ] X.u.u.Z.$XaXPXPXLXPXIX9Xi.i.4.3.IXLXi.%.o.J H G f a v #.,.I $           . @ 9 | 1.o.g f h h h h h h h h G ,.<.4.K.0XqX2X2X5X0X2X0X0X2X2X2X2X2X2X2X2X:X2XlX; . o   .   o . X X X X o : # ; # # # ; + - ; = ; ; = % = - ; - - - - = - = = = = = , = , = = = = = % = ",
"y v p a a a a v a v v v v v a v v a a v v a v v v v v v v v v v v v v b v b v b b b b D b D b D D D U U I j.Y.L.L.j.d.s.s.m.`.}.}.@XsXgXgXgXhXhXgX@X|.}.(.B.c.s.| z.,XlXvXbXNXmXmXbXVXbXbXmXNXmXmXmXmXmXmXVXVXmXmXmXVXMXVXmXmXNXVXuX:X2.%.} }  .} } } } ,.} ,.} } } } ;.} M. XZ.! l V V Z Z Z a.A.OX|.@XdXhXhXhXhXZXCXZXgXCXiXK.9XPXDXLXPXLXLXPXIX8X=X1.l 1 1 1 > @ > l M #.q.;X9X;X;X9X;X;X;X;X9X;Xy.&.o.L #.l.5XqXqXqX2XqX2XqXqX2X2X2X,X<X,X>X,X>X:X:X:X:X:XH.H.:XH.:XH.H.z.*Xz.k.h.<.o.L  .d.s.a.f.m.v.v.c.v.v.v.v.v.c.' Z A k @   . @ @ $ $ 9 4.T.!.oXfXpXfXpXfX+X$X X X(. X@XdXhXZXZXhXhXgXsX|.}.`.C.u._ X.S S S 9 _ V.E.M.i.g.i.b.n.n.n.n.b.M.m.V.B.A.i.8.:.M M >.4.q.q.q.q.k.k.l.l.l.l.G.G.H.H.H.J.H.*XJ.J.:XJ.:X>X:X>X1X<X<X<XJ.F.n.C.(.'.(.}.}.@XsXhXhXhXhXhXhXsX@X}.(.C.S.x.] u.] X.] b.XXtXzXPXLXLXPXPXIX9Xi.i.3.<.8XPXp.;.o.J P H f n s p v -.,.c O             @ x u.} J g k u k h h w h 5 5 Q ,.3.4.I.0X0X2X2X2X2X2X2X2X0X2X2X1X2X0X:X0XlX;   . .     . . X X X : o : o # # : ; ; ; = = ; = = = ; = = = - = = = - = = = , = = = = = = = = , = = = ",
"v a a v M a v a v a v a a v v a a v v v a n v v v v v v v v v v b b v v v b v v v b b b b B b b D D U M 1.FXJXaXU.L.N.d.s.[ a.R.].}.|.#XdXgXgXhXhXhXdX@X|.{./.m.a.| d.H.0XzXvXbXbXnXNXmXVXNXNXmXmXnXmXbXbXbXVXmXVXMXmXmXmXVXVXvX2Xk.-.#.} } } } } } } } } } } } } %.} b.).).] k N S S Z Z ' A.OX@X|.#XhXjXhXhXZXZXhXdX[.(.gXxX:X8XPXLXPXLXLXPXLXDXcX8X<XH.( 7 1 7 > $ $ > z M -.p.-X;X;X9X9X;X9X-X;X9X;X7.&.+.L >.*X2XqXqX2XeX2X2X2X2X,X2X<X1X>X<X,X:X:X:X:XP.:X:XH.:Xz.H.H.H.z.k.2.+.o.( d.s.' s.a.m.c.c.v.v.v.c.v.c.] ! A B *   . X : @ @ 1 E F.Y.oX+XpXoXfXfX+X+X$X X^.^.^.^.}.|.#XgXZXZXhXhXhXgX#X|.}./.S.u.X.X.S S N N ] ^.R.b...n.n.n.b.b.M.B.B.C.C.^.C.A.z.7.*.M W 1.3.q.k.q.k.k.z.l.K.l.H.G.H.H.H.*XJ.J.:X=X:X:X:X:X<X:X1X:XF.n.B.(.(.(.`.{.@X#XgXhXhXhXhXhXdX#X'.`.^.S.v.u.u.] ] u.x.W.oXkXxXLXLXLXLXPXPXcX8X;X3.4.-X8X=X<XG.:.P J J H n n f v a F ,.} 6 .           . j Q ..Q g u h h h 5 8 h h 5 h / 4.h.z.!.0XqX3X0X0X2X2X2X2X0X2X1X2X:X2XlX; . .   . . . X X : o X : + # o + ; ; % + + = ; % = ; = = ; = = = = ; = = = , = = = , = = = = = = % = = ",
"a v p v y p v a v a v v v a v a a v v a v v v v v v v v v v a v v v v v c v v b v b b b G c b D M b F I h.GXLXbXnXtXL.f.d.d.^ ' c.E.'.{.@XsXgXgXhXhXhXhXsX@X}.'.R.m.s.| g.P.eXzXvXbXbXNXbXVXmXbXmXbXbXmXmXmXmXVXMXVXNXVXNXNXyXG.;.%.} } { } { } } } } } } } -.-. .n.).).x.N N S S Z Z ' N._.@X[.#XgXZXjXhXZXZXhXsX$X(.^.).jXKXLXIXcXDXLXPXLXPXPXPXPXPXIX9X-Xi.Q 1 1 > $ $ $ > x U 2.&X;X;X;X9X;X9X9X;X9X9X;X5.*.o.O.k.:X5XqX2XqX2X2X2X,X2X,X<X,X,X>X:X:X:X:X:XJ.,XP.:XH.H.H.l.k.:.+.T d.n.] ] c.c.v.v.c.v.c.v.c.c.x._ Z C 1 .   X X O O * B F.Y.oXoXfXoXfXoX+X$X$X_.).Z.XXtXoX$X(. X|.@X#XhXZXZXZXhXhXgX@X}.}./.v._ X.X.S S N S v./.Z.s.n.n.n.M.M.B.C.^.^.^.^.^.Z.L.i.6.+.Y } 3.q.k.k.K.k.G.G.K.G.H.H.H.H.J.*X=XJ.=X:X:X:X>X1X:XJ.n.b.R.`.`.`.}.|.#XdXhXhXhXhXZXgX#X|.(.^.B.v.u.u.u.u.] u.Z.oXtXcXLXLXLXLXLXPXLXLXcX8XJ.&X9X-XJ.yXVXyX>Xi.%.J H H n f s f s d T 1.E $ . .         . 9 _ ` G h h u 5 5 5 5 5 e w c ,.F.F.I.tX0X0X2X0X2X0X2X2X0X2X0X:X0XkX;   .   .   . . X X X X + o # # : # # ; ; = ; = ; % = = = = = = = = = = = = = = = = , = = % = , = = % = ",
"a p a a v v a a a v a v v v a v v a n v v v a v v v v v v v v c v c v c v v b v b G c G b D B D B U U W h.FXKXHXvXvXaX!.f.d.d.s.^ ' m./.].{.#XgXhXgXgXgXhXgX#X|.}.(.R.c.s. .h.,XwXvXvXbXbXbXbXmXVXbXVXmXmXVXVXbXmXVXNXvXuX:X3.T W } { ..} { | } { } } } } 1.1.n.).{.m.V N N V S S ! a.W.[.@X+XgXZXZXhXhXZXhXsX@X(./.(.[.jXHXvXvXLXLXPXPXLXDXLXPXDXPXPXPXcX8X4X>Xh.7 1 1 > $ $ $ 6 z R k.;X9X;X9X;X9X9X9X-X9X9XUX6.+.O.+.k.,X2X2XqX2X2X2X2X<X,X<X<X:X:X,X:X:X:X:XH.*XH.*Xz.z.k.+.O.{ f.s.] c.v.v.v.c.c.v.c.v.v.c.] Z S q X   . X @ @ $ q  .Y.!.oX+XpXtX+XtX$XXXXX%XA.XXtXuX=XJ.tX+X(.`.{.|.@XsXhXZXhXZXhXhXsX@X}.`.C.u.X.X.S S S l ! V.^.M.b.M.B.Z.C.C.^.^.^.(.^.(.R.Z.T.i.r.P E 1.4.k.l.k.k.G.K.G.K.H.G.H.H.*XJ.:XP.=X=X:X:XJ.D.b.C.(.`.`.`.|.@XdXhXhXhXhXhXhX#X|.`.^.C.S.v.c.x.u.] u.B.XXtXzXDXLXLXDXLXLXLXLXLXPXcXIX8X-XT.<XzXmXMXJXNXIX>Xe.P H J f n g s s a v -.>.z X .           . S [ ` p u u 8 5 h 5 r 5 4 6 G 3.K.F.!.0X0X2X0X0X0X2X2X1X2X:X6XkX+   .       o o X X X o O o + # ; # # # ; % % % = = ; = = = = = = = = = = , = = , , = = = , = % = = = = ",
"p v v p a v v p v p a a a v v a a v v v v v v v a v v p v v v v v c v v v b v v v v b b b c D b z M U I h.FXKXKXHXNXuXaXaXL.f.s.| ^ ^ a.B./.`.|.sXgXhXgXhXhXZXdX@X}.}.R.m.a.| | K.2XuXvXvXbXbXmXbXmXVXbXmXVXbXVXNXvXzX5Xk.W W } { u.{ { { } { } } } } ,.1.d.E.'.E._ x N S S S Z [ W.@X[.$XgXhXjXZXhXZXhXdX@X'./.(.'.#XCXGXNXbXuXqXzXSXDXPXPXLXLXPXPXPXPXcXcXIX9X-X*X) > > > > $ O > 8 b #.y.;X9X;X9X;X9X9X9X9X9X9XUX:.+.+.:.H.,X2X2X,X2X1X2X<X,X,X:X:X:XP.:XP.P.H.P.H.z.k.:.o.) s.f.[ a.c.c.c.c.c.c.c.c.c.c.a.! C k $   . X X X @ > E K.!.tXoX+XtXfX+XoX$XXXW.A.%XtXvX5Xh.4.,.4.<XfX_.(.`.}.|.@XsXZXZXhXZXhXhX#X|.].(.B.] X.X.S S N N ] E.E.v.M.C.C.^.^.^.(.^.(.(.(.(.^.A.F.w.&.W W 4.h.K.G.G.G.K.G.H.H.H.J.J.J.=XP.=XP.J.K.n.B.(.(.`.`.}.|.sXgXhXgXhXhXhXdX@X(.(.C.S.c.u.u.u.] ] v._.tXzXDXLXLXDXLXLXLXLXLXLXLXLXcX8XG.J.yXbXvXxXbXbXBXFXbX7X=X6.J J J f f g s p i M <.( 8 .             1 _ s.E u q h w r 5 5 5 5 3 5 W F.K.T.~.rX0X,X0X2X2X2X5X,X0XkX;   o   . . o . X X X o o # : : : # # % + % ; = ; = % = = = = ; = % = = = = , = = = = = = = = = = = = % ",
"p a p a a a a a a a v v a p a a v p a p v a v v v v v v v v v v v v v v b v v c v c b b b D b D D M U R h.CXKXHXHXKXHXzXaXjXrXN.f.s.[ ` ^ a.V./.`.|.sXhXgXhXhXhXhXsX@X}.].C.v.s.| g.P.qXzXvXnXbXbXbXbXmXbXbXbXvXzXyXK.%.W } } ..{ } { { { } { { { }  .d.M. X).a.N l N Z V V ' M.[.|.OXfXhXhXhXhXZXZXgX#X{.`.(.(.OXhXLXMXvXvXvXvXzXqX5XzXDXPXPXPXDXPXPXPXcXcXIX8X-X&X>Xk.M 1 > > $ @ X > z M :.&X9X;X9X9X9X-X9X-X9X9X;X9.:.+.+.k.,X2X2X2X<X,X,X2X1X:X>X:X:X:X=XJ.*XH.k.0.+.M s.s.[ [ c.c.c.c.c.c.c.c.x.c.x._ Z q j     . X X X > C F.Y.oXtX+XpXtX+XoXXXXXW.%XA.oXjXyXH.4.,.,.} } } i.iXfX[.`.}.}.|.#XgXZXZXZXhXgXgX#X|.}.^.c.] _ S S S 9 N x.E.Z.B.C./.^.^.(.(.(.(.(.(.(.(.C.N.F.2.@.I } 4.k.k.K.G.H.H.H.H.J.=X=XP.J.J.K.n.M.^.(.(.(.`.|.#XgXhXhXhXhXhXgX@X}.(.^.B.c.u.u.u.] ] v.%XoXuXDXLXLXLXLXLXLXLXLXPXLXLXLXIX;Xi.3XlXzXzXzXzXaXzXvXbXFXGXzX4XG.@.J J n v f a a p v R ,.R >               9 ] u.Q 5 5 h 3 5 5 5 5 5 3 0 } K.L.I.~.rX0X0X2X0X2X:XqXkX+   .   . . .   X X X + : o # : # ; % ; = % % = = ; = = = = = = = = - = , , = = = = , = = = , = = = = = ",
"a v y v a d a a d v s a a d a v s s s d v v v v v a v c v v v v p v v v v c b v v b v b b b b b D U U I h.BXKXKXHXKXKXKXCXaXaXjX!.N.s.s.^ ~ ' c.R./.].@XsXgXgXgXhXjXgX#X|.}.].V.c.[ | h.P.yXzXbXnXnXbXmXbXbXvXuX:X2.#.( } | | | { { { { { { { } } ..b.).].c.N l V V Z S Z b.[.[.OX#XhXhXjXhXjXZXhX#X[.'.`.(.[.dXHXGXbXvXvXzXbXzXzXvXuX3X2XxXDXPXPXPXPXxXcXcXIX8X4X;XUXUX-X2.w * > > $ X O 1 z M 0.;X9X9X-X9X;X9X9X9X9X9X;X6.+.+.-.k.,X3X<X1X1X>X<X:X:X:X:XP.J.H.z.k.*.O.| b.s.[ s.c.c.c.c.c.c.c.c.c.x._ Z B w X   . X @ o @ B g.Y.oXtXpXtXoXpXoXoX.X_.A.A.XXaXvX9X3.,.,.,.W ,.,.} } 1.:XaX$X X(.{.}.|.#XhXZXhXhXhXhXdX#X|.}.R.c._ X.S S S 9 Z S.E.V.V./.(.(.(.(.(.(.(.(.(.(.(.C.n.i.<.%.W 4.h.G.K.K.H.H.J.J.J.J.J.K.F.n.C.(. X(.`.|.@XdXhXhXhXhXhXgX#X|.`.^.C.v.u.u.u.[ u.u.C.$XaXxXLXKXLXLXLXLXLXLXLXSXLXLXcX-Xk.=XwXvXlXzXlXlXvXeXlXlXvXbXmXHXGXlX4Xe.o.m H n n a a a d a -.>.b +       .     . Z c.s.z t 5 8 5 5 2 4 5 5 3 k  .D.I.!.pX~.0X0X0X:XqXkXo . . . . . . X X X X o : # X # # # % # ; ; % ; ; ; = % & = = = = = = = ; ; , , & = , = = = = = & = = = ",
"v y v t a d a a a a s d v a a a s d s a s s a v v v v v p v v a v v c v v v v b c v b c b b b b b D U R 1.VXKXJXJXHXJXJXHXKXNXuXjXpXQ.f.s.s.` ^ a.m.^.(. X@XdXjXgXgXjXjXdX@X|.].^.m.s.[  .K.3XuXbXbXvXbXvXlX5Xk.-.%.} ..| [ ` { { { { { { { }  .n.%X'.B.! x Z Z Z Z ! b._.|.[.#XgXZXhXhXhXZXhXsX|.`.`.(.[.#XCXGXbXvXvXbXvXzXvXzXzXzXvXzXiX>X6XNXPXPXxXxXcXcXIX8X9X;X&Xw.e.p.;X%.> $ > > $ . @ > z O.l.;X9X;X9X9X9X9X9X9X9X;XUXr.@.O.<.H.,X1X<X,X,X:X,X:X:XH.H.k.:.+.M f.x...s.c.c.c.c.c.c.x.x.c.c.] Z B k :   . . X X @ w 1.Y.tXtXpXtXtXtXoXoX.XQ.A.A.Q.pXZX6Xw.,.-.%.%.W ( W ( -.} }  .h.6XjX$X(. X|.}.@XdXZXZXZXhXhXgXdX@X}.].B.u.X.X.S S N N ' V.V.B.C.^.(./.(.(.(. X X(. X`.(.Z.n.3.,.Q { 4.K.K.H.H.K.J.K.K.F.n.Z.(.(.(.{.}.@XdXgXhXhXhXhXgX#X@X}.`.C.S.u.u.] ] ] u.B._.fXbXLXKXLXLXGXLXLXLXLXLXLXLXDX8Xi.i.5XlXlXlXlXlXlXlXlXlXyXlXeXlXlXxXBXKXmXkX;X<.J f m n a a v a u v -.-.8 .             * _ M.' z 5 5 5 4 4 2 5 5 5 < U d.L.I.~.tX0X0X,X0XkXo . o . . . X . X X X o : : # : # # # % # ; & = & = = = = = ; = = = = = , , = = = = = = = , = = = = = = ",
"a p t v a a a a a s a a a a v a s a a v a a v c v v a v v v v p v v p v v c t v v v c b b b b b b M b I 1.VXKXJXKXJXJXJXJXJXKXHXvXuXaXpXN.f.s.^ ^ ^ a.V.`.`.}.#XgXjXjXdXjXhXsX|.}.'.R.m.] | 4.:XeXzXvXlX6XJ.,.-.} d.x.[ [ ..| { { { { { } } u.A.'.E.' N V Z Z ! ! s.W.[.[.$XdXZXhXhXhXZXhXfX@X'.`.`.'.+XhXJXmXvXvXvXxXvXvXzXzXvXvXzXzXzXuXuX3X=XIXDXPXcXcXkXIX8X9X;XUXw.e.,.6.;Xl.v > $ > $ @ X $ x M #.UX9X9X-X9X9X9X9X9X9X9X;Xe.&.$.#.2.J.:X1X:X1X:XP.H.z.2.*.-.s.f.s.u.b.b.x.c.b.c.x.x.c.x.] Z V z $   . . X @ X 1 / T.tXtXpXtXpXtXoXoXoXQ.U.A.U.pXZXyXG.,.,.-.W W %.W %.W W ( ( ( ,.1. .K.uXfX[.(.`.}.|.@XhXZXZXhXhXhXgXsX|.}./.B.] X.S S S N V a.R.V.B.^.(.(.(.(.(.(.(. X(. X`.(.B.n.3.%.` } F.F.K.G.K.F.n.M.^.`.(.`.|.|.#XhXhXhXhXhXhXdX@X}.`.^.S.u.u.] ] ] ] v.%X+XbXSXLXLXLXLXLXLXLXLXLXLXLXLXcX&Xq.>XyXuXlXuXlXuXzXlXlXlXlXwXuXwXlXeXzXlXvXFXJXNX7X&X&.f n n n p v v a t M >.( >     .         7 x.M.^ q 8 8 3 5 5 3 5 5 4 t ` M.U.!.pXiXP.0XkXo . . . . . . X . X X X X + X # # # % ; % % & ; ; & = ; ; = = = = = = = = = = , = = = = = = = , = = = & ",
"a t v y i d a d d a d a a d v a s s d a v v v a v a v v a v v v v p v c v v v v v c b b b b b M D b b F ( VXKXVXHXJXJXJXJXJXHXJXKXCXlXaXnX~.f.s.s.' ! ^ x.R.`.].|.#XgXgXjXgXjXgX#X|.}.(.C.b.[  .k.>X<Xz.4.,.1.d.M.m.v.b.u.[ | { { { { { ..b.[.).x.V N Z Z Z Z ' A.[.[.@XsXZXhXhXhXZXZXgX#X{.`.(.`.OXgXJXSXbXvXxXxXxXzXzXvXzXzXvXzXzXvXuXzXzXzXiXP.>XcXPXcXIX8X8X-Xp.l.9.6.<.%.T 0.;X2.8 $ $ $ $ O X $ 7 M :.;X9X9X;X9X9X9X9X9X9X9X;X5.&.$.-.k.:X,X:XJ.l.h.;.+...b.s.s.s.v.b.v.c.c.x.c.c.c.x._ Z B 1 .   . X : : $ D j.Y.tXpXpXpXpXoXoXoXXXU.A.U.oXZXbX:X<.<.-.%.%.%.%.W %.W %.W W ( ( } }  . .4.=XuX#X X`.}.}.|.#XhXZXZXZXhXhXgX#X|.`.^.v.] X.S S S N ! m.C.V.V.(.(.(.(. X`.`.(.{. X}.{.%X%XF.u.~ | ..D.F.u.b.^.`. X(.{.|.@XdXhXhXhXhXhXgX@X}.]./.B.v.x.u.] ] ] x.Z.$XfXDXLXLXLXGXLXLXLXLXLXLXLXLXPX-Xe.G.6XyXyXlXwXlXlXlXeXlXyXeXlXyXyXwXyXeXwXwXuXzXbXJXLXcX4Xy.@.n n n v v v v v v T ,.Y @               V m.v.C 8 5 6 3 j 5 4 5 5 t C a.E.Q.pXrXeXwX+   .   . . . X X o X : o : # : # # # # ; % % ; & ; = ; = = = = - j = = = = = = = , = = = = = = = = = = ",
"y v a p i p a a a i a d a a a v d s s v a d s s p v v v p a v v v v v v v c v v v c v c c b b p b b v D ( aXKXKXVXVXJXJXJXHXHXJXHXKXJXVXzXvXaXQ.f.s.[ ^ ^ _ c.R.].'.@XfXgXgXjXgXgXdX@X|.}./.V.s.) 3.3.,.} u.M.C.C.V.B.v.b.u. ...| { } n.).].m.V l Z Z Z Z _ N.[.[.[.#XhXhXhXhXhXZXhX#X{.(.`.(.[.jXHXFXbXbXvXzXzXzXzXzXzXzXbXzXzXaXzXzXzXzXuXzXzXuX6XJ.3XxXxX8X-X;X&Xq.e.<.%.%.@.T o.5.&X-.= $ $ $ $ X $ > q M 5.;X9X9X9X9X9X9X9X9X9X-Xy.5.&.#.,.k.H.k.2.@.} n.b.s.s.M.b.c.b.b.c.c.c.c.x.] ! C q O . . . O O @ q 1.Y.tXtXpXtXpXtXtXoXoXU.U.A.oXjXNX<X0.,.,.%.W #.W O.%.#.W #.%.W W ( ( ( } } } 1. .h.<XaXOX`.].}.|.|.sXgXZXhXhXhXhXfX@X|.].R.c.] X.S S S S ' V.R.S.C. X(. X(.{.{.{.{.}.|.}.}.).A.n.u.{ u.u.Z.(.`.`.}.}.@XsXgXhXhXZXZXgX#X|.`.(.C.S.x.x.u.] ] ] B.XXpXvXDXLXLXLXLXLXLXLXLXLXLXKXDX8X9.e.>XyXyXyXyXyXuXlXuXuXyXyXyXuXyXiXyXuXwXwXwXwXwXeXyXzXmXJXGXlX9Xw.o.n n v v v v v t n -.>.c .             $ ' V.s.x 5 5 5 < 4 5 5 w h d ' R.E.~.uXkXo     . . . X . X X O o @ # o # # % % # % % % % % = ; = = ; & = = = = = = = = = = = , = = = = = = , = = ",
"v t i a a p d a a d a a a d c a a s s a a G s d v p p v v v a v v p v p v v v c c v c v c v c b c c b D W iXHXHXKXCXvXVXJXKXJXJXHXKXHXKXJXvXvXZXpXL.f.s.[ ^ ^ ' v./.(. X#XgXgXjXjXhXgXsX@X}.].R.c.n.k. .N.%XR.^.R.C.B.S.b.b.u...| n.E. XZ.! x V Z Z V ! f._.@X[.+XhXZXZXhXhXZXgX#X|.`.(.(.).#XZXGXmXvXbXbXxXvXbXzXxXzXzXzXzXzXzXzXzXzXzXzXuXuXlXzXzXiX1XH.5XPXIX;XUXw.e.:.;.%.@.O.R n O.k.l.M $ $ $ $ O . $ 6 x T y.-X9X-X-X9X9X9X9X9X4X9Xy.6.<.%.-.$.W d.b.s.s.b.M.b.b.b.v.x.b.b.b.] _ C k $   . X O O O 7 ) I.tXtXaXaXaXpXtXtXoXU.U.U.Q.aXNX6Xl.,.-.%.#.O.O.O.W O.W #.W #.W %.%.%.W ( W -.W } ,.,...K.yXfX[.(.}.}.|.@XdXhXZXhXhXhXgXsX@X}.`.C.x.] X.S S S Z a.C.C.S.(.(.`. X}.{.}.|.}.|.|.|.}.%XT.b.S.).{.{.{.}.@X#XhXhXhXhXZXhX#X|.}.(.^.B.c.x.u.] u.u.v._.fXjXDXLXLXLXLXLXLXLXLXLXLXLXLXIX&Xe.H.6XiXwXyXyXyXyXuXwXyXwXuXyXyXwXwXwXyXwXeXwXeXqXqXwXeXwXuXzXGXKXDXkX>X6.n v v v v t v v a M ,.( ,               7 a.M.^ q 5 8 5 4 3 5 5 q u Z E./.N.J.+ o o . . . . X X X X X X + @ + # # # # % ; ; % = & & = = = = = = = j = = = , = , = = = = = = , = = = = ",
"t p i a a p a a d s a a a s a a a d a d a v s v v a v v v v a v v v c p t v v v v v c v c c b b b c b D U iXVXaXnXHXHXZXvXCXKXHXHXHXJXJXJXKXHXNXnXnX!.M.f.a.' V ! a.V./.].[.sXdXgXgXjXgXgX#X|.}.^.Z.M.C.^.^.^.^.^.^.C.B.B.b.n.n.E.'.^.] V N Z Z S ! a.W.[.[.OXdXZXZXhXhXZXZXdX@X{.`.].).OXhXGXSXbXnXvXbXzXzXzXzXvXzXzXzXzXzXzXzXlXzXzXuXlXzXzXuXuXzXlXuXeXJ.*XyXxX4Xw.e.6.;.%.o.L J R n n +.l.5.v + $ $ $ O @ > 6 x $.UX9X9X-X-X9X-X9X9X9X9X;Xw.6.$.} n.b.[ n.b.b.b.v.v.c.b.b.v.u.` A B 1 .   . X O @ > E I.0XaXaXiXpXpXtXtXoXU.U.U.U.pXZXuXH.<.-.%.$.#.#.O.W T %.W #.O.%.W #.#.W W W ( %.} ,.W ( } 1. .1.J.iXsX|.].}.}.|.#XdXhXhXjXhXhXgX#X|.`.(.S.u.X.X.X.S S Z c.^.C.C. X}.}.}.}.}.|.|.|.|.|.{.(.C.(.{.`.}.|.#XgXhXhXhXhXhXdX@X].(./.B.v.x.] u.] ] x.Z.+XjXDXLXLXLXLXJXLXLXLXLXLXLXLXcX-X6.q.>XwXwXyXwXyXiXwXyXwXwXyXyXwXiXwXyXwXyXqXqXwXeXwXqXqXqXqXqXqXqXeXvXJXKXbX7X&X;.v v v v v v a p v W 1.F $             . N m.M.C 8 5 5 5 5 5 w h q s.E.R =.o .   .   . . X X X X + O # + : # # % ; ; % % ; & ; = & = = = ; = = = = = = = = = = , = , & = = = = & = ",
"a p p i a a i p d a d s s d a a a a v v a a s s p v v p p v v p p p v v c v c c v t c c c c c b c c c b M iXVXaXaXvXBXHXHXvXnXHXKXHXJXJXJXHXJXKXFXvXVXaXQ.s.s.s.^ ! _ c.R././.@XfXgXjXgXgXhXdX#X|.(.(.(.(.(.(.^.^.^.^.C.Z.A.).{.).c.V N N V V V _ N.OX|.OXdXZXhXgXhXhXZXhX#X|.`.`.(.[.gXJXFXbXbXbXzXxXzXbXzXxXvXzXzXzXxXzXzXzXzXlXzXzXzXzXuXzXzXlXuXzXuXlXuX0XH.-XcXcX-Xe.<.&.W P J m m m M m 6.&X>.> $ $ $ O X $ > 8 M 6.;X9X9X9X9X9X9X9X9X4X9Xw.5. .s.| b.b.b.b.b.b.b.b.v.c.[ A C 7 o   . @ X @ > z j.0XaXpXaXpXaXpXtXoXoXY.U.U.tXZXNX<X2.-.-.$.#.#.#.#.#.#.#.O.%.#.W O.#.#.W %.%.%.( W W %.} ,.W } } 1.} 4.:XaX@X'.].}.}.|.#XhXhXhXjXhXhXdX#X|.{.^.S.u.X.X.X.S S X.v.C.^.`.}.|.|.}.|.|.|.|.|.|.|.`. X X|.@XdXhXhXhXhXhXgX#X|.]./.V.v.x.a.u.u.] x.Z.XXaXvXLXLXLXLXLXKXLXLXLXLXLXLXPX4Xe.<.*X2XqXqXwXwXqXqXwXwXyXeXwXwXyXwXyXwXiXqXwXqXwXqXwXqX5XqXqXqXqXqXqXqXwXuXbXJXGXcX<Xe.m v v v v a p v c n >.1.c .             O ^ V.b.N 8 h 8 h 8 k h s._.t.*.+ . .   . . . X . X X O + X + # # # # # ; % ; j ; & ; = ; = j = = = , = , = , = = = = = = = = = = = = = ",
"p a i i h d a a a a s d s s d a a d s a d s s d y v v p v a v v v v v v p v p b v p c c v c c p c c c b b iXVXiXuXuXuXvXHXHXCXvXnXJXKXJXJXJXJXJXHXJXbXvXnXpXN.f.a.' ^ ' a.m.R./.'.#XdXjXgXgXgXhXgX#X|.(.'.(.(.(./././.).E.}.{.M.Z 9 S 9 S S ! n.XX@XOXsXhXhXhXhXhXZXhXsX|.'.]./.[.fXCXGXbXbXxXzXzXxXzXzXzXxXzXzXxXzXzXzXzXzXzXlXzXzXzXuXzXuXzXuXzXuXzXuXzXuXuXuX,XG.4XxXIXi.r.%.O.P J H G G H s L w.&XL $ @ $ $ O X $ 1 z W w.-X9X-X9X9X9X4X9X9X8X8.W n.b.b.b.b.b.b.b.b.b.s.~ C q @   . X X @ $ x d.Y.rXaXaXpXaXaXtX~.!.!.Y.Q.,XjXBXeXk.;.;.-.#.#.#.T O.#.#.#.#.#.O.%.W W #.#.%.W %.-.W -.%.( ( ( } -.,.} ,.1.4.K.7XaX@X].}.}.|.@XsXhXhXhXjXhXgXfX@X}.'.R.v.] X.X.S S N _ B.C.R.'.|.|.|.@X@X#X@X@X@X}.|.@XdXhXhXhXhXhXhX#X|.}.(.C.S.u.x.u.] ] ] B.XX+XzXLXLXLXLXKXLXKXLXLXLXLXJXDX8Xy.=.l.>XqX6X7X7XwXqXyX6XyXiX6XqXyX6XqXwXqXwXwX7XqXqXqXqXqX6XqX5XqXqXqX2XqXqXqXqXeXlXBXJXMXwXG.&.K v v s s a v y c M >.>.z .             > a.M.s.z 8 u 8 0 5 ^ [.t.t.;       . . . . X X X O + : # : % : ; # % : & ; & & = = = = = = ; = = = = = = = , = , = = = = = = & = = ",
"a i d d a i d i d a d a a a s s a s s a s s d d v a p v p v p p v p p v v v p v c v v p p c c b c c c c D tXVXyXwXiXiXuXaXNXHXJXVXvXVXJXJXJXJXHXKXJXKXHXzXvXjXQ.M.s.s.s.' a.c.R./.(.[.sXgXjXgXgXhXZXgX|.'.(. X). X).).'.{.Z._ N l N N S S s._.@X[.#XgXZXZXjXhXhXZXdX@X{.'.(. X#XZXJXmXvXbXvXvXxXxXzXzXbXzXzXbXzXzXzXzXzXzXzXzXzXzXzXlXzXlXzXlXzXuXzXuXlXzXuXuXuXuXqXJ.K.8XxX9X:.@.O.P J H s s f v s @.&Xq.u $ $ $ @ X X + 7 c -.UX9X9X-X9X9X9X9X4Xy.} n.n.u.b.b.b.b.b.x.~ C z > . . X @ @ O 7  .Y.rXaXaXaXpXaXpXtX!.!.!.U.!.aXGXxX*X<.;.-.#.#.O.#.#.#.#.#.O.#.O.#.#.O.#.#.#.T W #.W W %.#.W W %.%.( ( ( ( } } 1.} ..J.iXfX|.].{.{. X#XgXhXhXjXhXhXhXsX|.}.`.C.c.u._ X.S S S a.C.R.(.}.|.@X#X#XsXdXsX#X#XhXhXgXhXhXhXsX@X}.].R.B.v.u.u.u.] a.B.).#XvXPXLXLXJXLXLXLXLXLXLXLXLXLXkX&X:.q.:X2XqX6X6X6XqXqX6XqX6X6X6X6XyXqXqXwX6XwXqXqXqXqXwXqXqX6XqX6XqXqX2XqX2XqX2X0X5X0XqXiXuXVXKXxX-X5.O.v a v v v v v v v W h.W >             . l c.v.A 8 p 0 8 ~ ].t.t.o o o   . . . X X X X O X + : # : ; # # ; j ; % = ; & ; % = = = = = = = = = , = = = = = = < , = = = = = ",
"u u u i d i i d i a d i a a d a s a a a s d s h v y v a v p a M v a v v v b v v t v v t b b p b c c c c M tXVXiXeXiXwXiXiXuXvXVXJXHXvXvXHXKXJXJXJXJXJXKXKXMXvXvXaXQ.b.s.s.a.a.a.v.R././.@XdXgXhXgXgXhX@X(. X(. X X'.|.E.a.N l N N S S ' A.@X[.OXdXZXhXhXhXhXZXgX@X|.`.`.'.OXZXJXSXbXvXbXzXxXxXzXzXxXzXxXzXzXxXzXzXzXzXzXzXzXvXlXzXzXlXlXzXzXuXzXuXzXzXlXuXuXlXlXuXuXiX2XK.H.IXIXp.&.o.P J G s s v v a n 6.&X2.6 $ $ $ O . X > l I 2.;X9X-X9X4X9X8Xp.,.n.n.b.b.n.b.n.` E B 2 X . X : @ @ > ) I.tXaXjXaXaXaXpXtXtX!.!.Q.Y.rXHXAX>X3.<.-.-.#.#.O.#.#.+.@.#.#.#.#.#.#.#.O.O.#.O.#.#.%.#.#.#.#.W %.( %.( %.( -.,.} } } 4. .4.J.iX#X X}.}.}.|.#XhXhXZXhXgXhXgX#X|.}.].B.u.] X.X.S S _ B.R.^. X@X#XdXdXdXdXdXdXgXgXhXhXdX@X}.].(.B.c.x.u.] ' ] c.^.$XaXPXLXLXLXLXLXLXLXLXLXLXLXLXcX-Xe.0.*X<X5X5X5X5XqX6X6X6X6XqXqX6XqX6XqX6X6XqXqXqXqXqXqX6XqXqX5X5XqX5XqX2XqX2XqX2XqXqX5X5X0XqXqXiXvXHXHXyX&X&.o.v v v v a v a t v >.g.U X       .     . V m.x.C l 8 ` '.L t.  .     . . . X X X X X + @ : # # : # % % % ; % % % = % = = = = = = = - , = = , = = = = & = = = = = % = ",
"u a h d s i i d i d a a a d a a a a d a s h s s v v y v p v v a p v v p p p v p c v c c b p b p c p d c b iXVXyXiXqXeXiXiXuXuXaXnXCXKXBXvXvXJXKXHXKXKXJXJXJXJXNXaXaXpXN.f.s.s.^ ' a.m.R./.).#XdXgXgXgX#X{.{.'.|.|.'.c.! N N N S S _ N.@X@X|.sXhXZXhXhXhXZXhX#X|.`.`.'.|.gXJXGXmXvXbXbXxXxXxXzXzXzXxXzXzXzXvXzXzXzXzXzXlXzXzXzXzXuXzXlXzXlXzXuXlXlXlXuXlXlXuXuXuXuXyXiXyXyX1XK.=XkX8Xe.@.P H H G d a v v p J w.&XR $ $ $ $ O X O > z ( q.9X4X9X9X9X;X%.n.n.[ n.u.[ Q D 8 :   . X @ @ * C F.tXaXjXaXjXaXaXpXtX0X!.U.Y.rXVXGXqXk.:.-.$.#.#.#.#.O.#.#.O.#.#.O.#.#.#.T #.%.W #.#.O.#.W #.#.W %.%.#.#.W %.( ( ( W ( -.} } } 1. .h.<XfX@X'.}.}. X@XfXhXZXhXhXhXhXdX@X}.{.^.S.u.] _ ! Z Z a.C./.`.|.#XdXdXdXdXdXgXgXdX#X|.].`.C.c.u.] ] ] _ x.C. XpXbXGXLXDXLXLXLXSXLXSXGXLXJXPX8Xe.;.i.:X<X2X2X2X5X5X5X3X5X6XqX2X6X6X6X6X6XqX6X6XqX6X6X5XqX5XqXqX6X0XqX2X2XqX2XqX5X0X2X2X0X2X2X2X2X2X0XeXvXHXmX6Xw.$.J v v p v v p c t M 1.1.8     . . . .   $ a.V.a.x [ ).L g . . o o . . . . X X O O + o : : # # # % ; % % = = ; = = & = = = = = = j = = = = , = = , = = = = = = % = ",
"a u a u a i p i h d d d i a a a s a s d a a a p y v y v p v a v a v v p v v p v c v t c v c v c c c 0 c M iXZXeXiXqXeXqXeXiXeXuXuXaXVXHXKXVXaXVXKXKXJXJXKXJXJXKXJXvXaXjXQ.N.b.s.s.a.^ a.V.^.^. X#XgXhXsX|.}.|.|.B.! N N N S S Z b.XX|.[.#XhXZXZXhXZXZXhX#X|.'.(.`. XsXCXGXMXbXvXbXzXxXzXzXzXxXzXcXzXzXzXzXzXzXzXzXzXzXzXzXzXzXlXzXlXzXzXlXlXlXzXlXuXlXuXlXuXuXkXuXuXyXyXyXiX6XJ.K.4XcX9Xr.J P G s s a a a v a +.l.l.v X @ $ O X X @ 7 B ( &X9X9X9X;X;.D.n.b.| / Q 0 &   . X $ $ @ l j.0XjXjXnXjXaXaXaXpX0X0X!.!.0XjXKXzX*X>.:.>.-.+.#.#.+.O.O.#.O.#.#.#.#.#.#.#.%.#.#.#.#.O.#.W #.#.W #.W W -.#.-.%.( -.W ( -.} } } ,.} } 4. .G.6XfXOX`.{.}.|.@XgXZXhXhXhXhXjX#X|.}.'.V.c.u._ X.X.X._ m.^.(.[.@XsXdXsXdXdX#X|.`.(.C.v.u.u.u.u.X.] S.).$XuXLXLXLXLXLXLXLXLXLXLXLXLXDX7Xy.;.0.J.>X<X3X<X<X4X2X<X5X6X3X5X6X5X2X6X6X6X6X0X6X6X2X2XqXqX2XqX5XqX2XqX2XqX2X5X0X5X2X2X2X2X2X2X2X2X0X3X3X3X2XiXVXHXzX<X6.o.n v v v v v c p a M h.>.%     . .     . x m.M.a.E.H r   . . .   . X X X X X X X O + # : # % ; % % & ; % ; = = = = = & = = = = = , = & = , = = = = = = = = % = ",
"u a i a i d u d s s h h a a d d d a s a a a a p v t y v v p v p v p v v p v v p c v v c t c c b c p p c M iXVXqXwXiXqXiXwXeXiXqXyXiXuXvXVXJXJXvXaXFXKXKXJXJXKXJXJXKXMXuXuXpXQ.N.s.a.^ a.' x.V.^.).[.#X#X|.|.).' V N N V S S a.W.@X[.@XdXZXhXhXhXZXhXdX|.`.`.(.(.OXZXKXSXbXbXvXxXzXxXzXzXzXzXzXcXxXzXzXzXzXzXzXzXzXzXzXzXzXlXlXzXlXlXlXuXuXzXlXuXlXlXuXlXuXkXuXuXuXyXiXyXyXqXiXiX2XK.G.6XcXp.o.J H f d s a a v a M r.l.;.6 $ $ @ X . X * q A 2.-X9Xp.&.n...{ Q d 2 o . X @ $ $ 1 ) !.jXnXVXnXnXjXaXaXpX0X!.!.!.aXVXVX3X3.:.>.;.+.O.#.O.#.#.#.O.#.#.O.#.O.#.O.#.#.#.#.#.#.#.#.#.#.#.#.#.#.#.%.#.#.W %.%.W -.%.( ( %.} W ,.,.} 1.} 4.J.iX#X X}.}.}.|.#XhXZXZXZXhXhXdX#X|.}.(.B.v.u._ X.X.! ] V.(.(.|.#XdX#X|.{.`.^.S.u.u.u.] X.] v.).$XtXDXLXPXLXLXLXLXLXPXLXSXLXLXkX&X:.<.G.:X:X>X>X3X<X3X<X2X5X2X3X5X3X5X2X6X2X6X2X3X6X6X6X0XqX2XqX2X2XqX5X0X2X5X0X2X2X0X5X0X0X2X2X2X3X2X3X2X3X3X3X2X2X0XuXBXCXyXUX$.L n v v a v p v t c -.h.M +     . . .   @ ' M.E.8 o .     . . . . . X X O O # O # X # ; # % % ; % % = % ; & = = = = = = - - = = = - = = = = = = = = % = % = ",
"i p p i i i h d s h d s a a a s a a a a a d a a p v v v a v v p p v v p p v p v v t v c c c c t t c c c D iXVXeXeXqXqXwXiXqXqXyXeXeXiXuXiXvXCXKXBXvXvXHXKXHXKXJXJXJXKXKXbXzXaX~.N.f.s.a.' _ ] m.^.^.(.}.E.a.V N N V V Z ! A.[.[.|.dXZXZXhXhXZXZXdX@X`.(.(./.XXfXJXGXbXbXNXvXzXxXzXxXzXxXzXzXzXzXzXzXzXzXzXzXcXzXzXzXzXlXzXzXlXzXzXlXlXzXlXlXzXlXlXuXlXlXlXuXuXuXuXyXyXiXyXiXyXqXyXqX3Xi.J.IXIXe.J m m n a a a v v a m 6.w.+.> @ $ @ O . . 1 B } H.;X%.n./ D 6 X . @ @ @ $ $ U Y.aXnXZXVXVXnXnXjXpXpXrX!.!.pXnXCXeXz.:.-.#.+.#.#.#.O.#.O.O.#.#.#.#.#.@.O.O.#.#.O.O.#.#.O.O.%.#.#.%.#.#.#.W -.#.W W %.%.-.%.( -.( W ,.,.( W ,.} ,.} } 4.:XiX#X}.].}.}.@X#XhXhXZXhXhXjXdX@X}.}.^.S.u.] _ X.X.Z x.^.`.(.{.{.`./.B.u.u.] u.X._ u.C.[.tXcXLXLXLXLXLXLXLXLXLXLXLXLXcX-X6.<.K.J.:X>X>X:X>X>X<X<X<X3X4X2X5X<X3X5X5X2X5X5X6X2X6X2X2X5X2X6X2X5X2X2X2X5X2X0X5X2X2X2X2X2X2X2X2X0X3X3X3X3X3X1X3X0X1X0X3X0XuXCXVX5X5.+.m n b v v c p v t v 2.h.z + . X . . .   l V X   .     . . X . . X X O X O + # o # # # % % ; % = % = & = = & = = = = = j = = = , , = = = = = = = = = = % ",
"i a t p d h d h s d h s a s s h a s a a a a a a p y v t v p a v p v v p v p v p c c t t v c c c c c 8 c D iXVXqXiXwXeXqXqXiXqXeXiXwXqXeXiXiXuXvXCXKXnXvXmXJXJXJXGXKXJXJXJXJXvXvXaX!.M.s.a.] _ _ ] v.C.c.! x V V V V ! n._.[.[.#XhXZXhXhXhXCXhX#X X`.(.(._.#XCXJXNXvXbXzXzXxXzXzXzXzXzXzXxXcXxXzXlXxXcXzXzXcXzXzXzXzXlXzXlXzXlXlXzXlXlXlXlXzXlXuXlXlXyXuXkXuXyXyXuXuXyXyXyXyXqXyXwXqXqXqXJ.3.-XIX4X&.n m n f a a a v v v L 7.q.v $ $ $ O O . O l E 4...{ q @   . @ @ $ * z z.tXnXVXVXVXZXnXjXaXaXtXrX!.iXnXHXlX*X0.<.:.-.>.+.+.+.#.#.O.#.#.O.#.O.O.#.O.#.#.O.#.#.%.O.%.#.#.#.#.#.#.#.#.#.#.#.%.#.%.%.W W %.%.W %.,.W } %.} ,.,.} ,.1.4. .h.6XpX@X`.}.}.|.@XsXhXhXZXhXhXgXsX@X|. XC.c.u._ _ Z S X.v.).(./.C.x.u.X.u.X._ ] B.[.$XiXPXLXLXPXLXLXLXLXPXLXLXLXcX4Xe.;.0.H.=X=X:X:X>X:X:X>X:X,X<X>X,X<X<X3X2X<X3X3X2X2X3X2X3X2X2X2X2X2X2X2X2X2X2X2X2X2X2X2X2X2X2X1X2X2X2X2X1X3X3X1X3X1X1X3X3X1X1X0X0XqXuXVXzX=X:.L M n a v v t v v t M k.>.7 X O O . X         . . . . . . X X X X X : X O @ # # # # # % % ; & ; & ; = = = = & = = = = , , = = = = = = = = = = % = % = ",
"i p t t a p y u d i d a a a a a h i a a d h s h s s g s d d s s a v v c v t t c v c c c p b p p c p p b M eXVXqXeXwXeXeXwXeXeXqXeXwXiXwXeXiXiXiXzXnXHXCXvXvXBXJXJXJXJXKXJXKXKXGXvXjXpXU.b.s.a.^ ! Z V x V N N V Z b.Q.[.'.@XdXZXhXhXhXZXZXsX|.(.(./.).+XCXKXAXbXbXxXxXzXzXzXzXzXzXzXzXzXzXzXzXcXzXcXzXzXzXcXlXzXzXzXzXlXzXzXkXzXlXlXlXlXlXlXlXlXlXlXlXrXrXkXlXyXyXrXyXrXkXyXeXwXqXqXqXqXqX2Xz.k.>XkX;Xo.m m n v s s s g a i @.w.6.8 @ * @ O . . O B C $   . O O $ $ 7 >.0XaXZXVXZXVXZXZXZXjXaXrXrXtXjXHXbX<Xk.<.:.:.+.>.+.+.>.+.#.#.#.#.#.+.#.#.#.#.+.#.O.O.#.#.#.#.#.#.#.#.#.#.O.#.#.#.#.#.#.#.#.#.#.#.#.#.#.>.#.( -.#.( -.,.-.}  .,.1.4.4.K.yXfX[.(.{.}.|.@XsXhXhXhXjXgXgX#X@X}.`.B.x.] _ X.S Z _ x.u._ _ _ _ X.] c.).$XtXcXLXLXPXLXLXLXDXLXDXLXLXPX7Xi.&.2.i.H.=XJ.=X=X:X:X=X:X:X>X>X>X>X,X<X>X1X<X3X2X<X2X1X3X3X3X3X3X2X<X3X<X3X2X3X3X3X3X<X3X3X3X3X3X3X3X3X3X3X3X3X3X1X3X1X1X1X1X1X1X1X3X0X1XeXnXVXwXl.$.L M v v v v t v t t -.z.>.> + $ X O X X . . . . . . X . X X X @ X @ : @ # # # % ; % ; & ; & & = = & = = = = = = = 2 = = = - = = = = = = = & ; & = ",
"p t p i p p u a i d a a a a a a s s d a s h s d d s k s s s a s v p y v c v v c v t v t v p p b c p 8 c M eXVXqXqXeXqXqXeXqXeXwXeXeXqXqXeXwXqXwXiXuXvXVXHXVXvXbXJXKXJXJXKXJXJXJXKXFXVXjXpXN.f.a.^ V V V V V ! s.W.OX|.[.fXhXjXhXhXZXZXgX@X}.(.(.(.$XhXKXSXNXvXxXzXzXzXzXzXzXcXxXcXzXzXcXzXcXzXzXzXzXzXzXzXzXzXlXzXcXlXzXlXlXlXlXlXlXlXlXlXrXlXrXkXlXkXkXyXlXyXyXyXkXyXyXwXwXwXwXwXeX7XqXqX6X5X,Xk.0.wXwXw.o.m m f s s a s s h a r.p.&.6 $ > @ O .     . X O $ > 7 ( P.aXVXCXCXVXCXZXZXnXjXaXaXpXjXHXFXqXz.0.:.-.>.+.+.+.+.>.+.+.#.+.#.+.#.#.O.#.+.#.#.#.#.#.+.#.#.O.#.#.+.#.#.#.#.#.#.#.#.#.#.#.#.#.#.#.>.O.#.O.>.#.-.( ( -.( -.-.,.,.,.1.4.4.g.:XyXfX[.(.}.}.|.#XgXhXgXjXgXjXdX#X|.'.^.v.] _ _ X.Z Z S X.X.X._ x._.[.oXuXPXLXLXDXLXLXLXLXDXLXLXDXIX&X<.;.3.G.H.J.*X=XJ.=XJ.:X=X:X:X:X:X>X:X>X<X<X<X<X>X<X,X<X<X<X<X3X3X3X3X3X<X3X3X3X<X3X3X3X1X3X1X<X3X1X3X1X3X1X3X1X1X1X1X1X1X1X3X1X1X1X1X1XY.0X0X0X0XVXbX5X5.+.m v v c c p p c e p k.H.) 1 7 b b , . . . . . X . X X X X @ : X : @ # # # # % % % ; % = ; ; = = = = = = = = = = = , = = = = = = , = = = = & = ",
"p y a p p u u p i i d a h a a a a a a a a d a a d s s s a a d s p v p v v c v v v t v c p c p c p b 8 b c iXVXeXqXqXqXqXqXwXeXeXwXqXeXeXqXeXqXiXiXwXuXuXvXFXHXVXvXSXKXJXJXJXJXKXJXKXKXBXVXaXQ.s.' ^ ^ Z ! ] U.OX[. X#XhXhXhXhXhXZXgX#X X`.(.(.[.dXJXLXNXzXbXzXxXzXzXzXzXcXzXzXzXzXzXzXzXzXcXzXzXzXlXcXlXlXlXlXlXlXzXlXzXlXlXlXlXlXlXlXcXlXlXlXlXkXrXyXyXyXyXkXrXyXyXrXwXwXwXeXwXeX7X6XeX6X6X6XqX2Xz.h.UXkX8X=.J J n f s a a a f i J 5.UX@.< > $ O O O O > > 7 ( I.iXZXCXCXCXZXCXZXVXVXjXaXaXjXHXJXyXJ.0.2.;.-.$.+.>.>.+.+.+.+.+.#.#.+.#.+.#.#.+.O.#.#.#.+.#.#.#.#.#.O.#.O.+.#.#.#.#.#.#.#.#.#.#.#.#.>.#.#.#.#.#.#.#.#.-.-.( -.#.-.} } -.,.} 1.4.4.4.3XzX+X'.}.}.}.|.#XgXhXgXjXjXgXfX#X{.(.Z.c._ Z Z Z X.X.X.u.C.[.$XiXxXLXDXPXPXPXLXLXPXLXLXGXcX-X6.%.,.q.K.K.G.H.H.J.=XJ.*X:X:X=X:X=X:X=X>X>X:X:X<X<X,X>X1X1X<X<X1X1X<X<X<X<X1X3X3X1X1X1X<X<X1X1X<X>X1X<X1X1X3X1X1X1X3X3X1X1X1X1X1X1X0X1X0X1X0X1X0X0X0X0XaXnXvX=X:.O.n v a v a c t v t T H.I.M >.UXi   X . O . X X X X : X : : X O : # # ; % # % % % = = & & = = = = = = = = = = = = = = = = = = j - = = = = ; ",
"y p y p u u u a d i i i d a a a a s h s a d a a h s s h a s s d v p v v y v c t c v c t c p v p p p b p b eXVX0XqXqXqXqXqXqXqXqXqXqXwXeXyXqXwXqXqXqXiXyXuXaXnXHXHXvXbXGXKXKXJXJXKXJXJXKXJXmXuXU.s.d.s.s.d.~.OX X$XgXhXjXhXhXZXhXsX|.`.(./.).#XCXJXNXxXzXzXzXzXzXzXzXcXxXzXzXzXcXzXcXzXcXzXzXzXcXlXcXzXzXcXzXzXlXlXkXlXlXlXlXlXlXlXlXkXrXlXlXkXkXlXlXyXlXkXyXwXlXyXwXwXwXwXeXwXwX7XqXqX6XqX6XqX5X5X5X<Xk.<.>XcX-X&.o.L H f s i a a a h +.&X-XO.6 1 > $ > 7 I H.aXCXHXHXCXCXCXCXZXVXZXnXnXnXHXKXzX:Xk.2.;.-.-.$.#.:.+.+.$.>.+.+.>.#.#.#.$.#.#.#.$.#.#.#.+.#.#.#.O.#.+.#.#.#.#.#.O.#.#.#.+.#.#.#.#.#.#.O.#.-.#.>.#.-.#.-.#.-.-.-.( -.-.( ,.-.,.} ,.4.4...K.6XjX$X`.}.}.|.@XsXjXgXgXjXgXgXsX@X}.(.V.x._ _ X.] b.XX#XaXNXLXLXDXDXLXLXLXLXLXLXLXxX4X0.%.;.i.i.G.G.G.H.H.H.H.H.H.J.H.=X=X=X:X=X:X:X:X:X:X:X>X,X>X>X>X1X1X>X>X1X>X1X1X1X1X>X<X1X<X1X1X1X1X1X1X1X1X1X1X:X1X1X1X1X1X1X1X1X1X1X1X1X1X1X1X0X1XY.1X!.0X0X0XiXNXwXl.$.n n v v v v t v t v k.,X#.0.*Xe.  X X O X X X X @ X : : @ : + # # # # % ; % ; & ; ; = & & = = = = = = = = 2 & = 2 & = = = & - = = = & = ",
"p u i u p u d i h p d a d d d a a d s d h a a s d a a a d s s d v p a a v p v p v t c p c p c p p c 0 d b eXZXqXqXqXqXqXqXqXqXqXqXqXqXqXqXyXqXqXqXiXqXiXwXlXlXvXVXHXVXvXAXJXKXGXKXJXJXKXSX4X3.XXs.[ s.d.N._.[.sXhXhXhXhXZXhXdX@X'.`.(.(.OXZXJXFXxXzXzXzXcXzXzXzXzXzXcXzXzXcXzXzXzXcXzXzXzXzXzXzXzXcXzXlXlXzXzXcXzXkXzXkXkXkXzXlXkXlXlXlXlXlXyXlXkXkXyXrXkXkXyXyXyXwXwXwXeXwXqX6XqXqXwX6X6XqX5XqX6X0X2XqXP.2.0.8XIX&X*.o.L m f g a a J J @.&XIXw.6 7 6 8  .uXVXJXHXCXHXHXCXCXVXVXnXnXZXCXJXVX2Xk.2.:.;.-.$.$.#.-.>.+.+.+.+.+.+.+.#.+.#.+.#.$.#.#.#.#.#.#.#.+.#.#.#.#.O.O.#.#.#.#.#.O.O.#.#.#.#.O.#.#.#.#.#.#.#.-.$.-.#.-.#.-.-.#.-.-.,.( ,.( ,.( } ,.4.4.4.J.iXfX[.(. X}.|.#XgXhXgXgXgXgXgXsX|.}.R.x.] ] ] XXCXBXKXJXGXFXLXDXLXDXLXDXLXNX8Xi.%.%.2.q.k.G.K.G.K.G.H.H.H.H.J.*XJ.*XJ.*X:X=X:X:X:X:X:X:X:X:X:X>X1X>X:X1X>X,X:X<X1X>X>X>X1X:X1X:X1X<X>X1X1X1X:X1X1X1X1X1X1X1X1X1X1X1X1X1X0XY.1X0XY.1X0X1X0X0X0X0X!.!.rXaXvXqX9.#.m M v i m n n ;.:X5X,.{ qX-X  O O X X X : : : : : : # @ : @ % # % # % ; % = & & = = = = = = = = = = = = = = = = , = = = = = = = & % ",
"i u u u u u u u d u i d h h s a a a s d a a s d a a d s d s s a p v v p p v p v t v v t v p p p 0 p p c b eXZXqXqX0XqXqXqXqXqXqXqXqXeXeXeXqXqXiXqXqXqXqXeXeXeXeXuXnXCXHXNXbXGXJXKXKXGXwXF.M.v.Z.] ! a.b.v.).#XgXgXgXhXhXgX@X{.`.(.(.[.gXHXGXNXvXzXzXzXlXzXlXlXcXlXzXlXzXzXlXzXzXlXzXzXzXcXlXcXlXlXlXlXcXzXkXlXzXcXzXkXzXlXlXlXkXkXcXlXlXlXyXlXyXyXyXyXyXyXwXyXyXwXeXwXwXwXwXqXwX6XqX6XqXqX5XqXqX5X5X6X2X2X2XH.,.G.wX8X9.*.+.m m f J L T 0.4XKXwX> 6 6 z ( FXKXKXHXCXHXCXCXCXZXZXZXCXKXHXqXG.2.<.-.;.-.-.$.#.$.$.+.+.>.+.+.>.+.>.#.+.#.+.+.#.#.#.+.+.#.+.#.#.#.#.+.O.#.#.#.+.O.O.#.+.#.#.O.#.#.#.#.#.#.#.#.#.#.#.#.#.#.-.$.-.#.>.-.( -.( %.,.-.} ,.,.} ,.4.4.4.>XzX+X).(.}.}.|.sXhXhXgXhXgXhXsX{.R.x.] x.] A.ZXKXKXKXKXKXGXLXDXLXDXLXkX*X;.%.<.3.k.k.k.l.G.G.G.K.K.H.G.H.H.H.H.H.*XJ.H.:XP.*XJ.:X:X:X:X:X:X:X:X:X:X>X1X>X1X:X:X1X,X,X:X1X1X:X:X1X1X:X1X:X1X1X1X1X1X1X1X1X1X1X1X1X3X1X1X1X0XY.1X0X1X!.0XY.!.0X0X0X!.0XtXaXvX<X6.T T m M O.h.2XqXeX .{ !.4.. O O X X @ X : : @ @ @ : # % # # % # % % % & ; = ; = = = = & = = = = - = = = = = , = = = = = = = = = = ",
"u u u u p u d i d i d h s d s i a a i a d d s d a a s d d s d a p a c v a v v p b c c c p p v c p c p c b eXnXqXqXqXqXqX0XqXqXqXqXqXqXqXqXqXqXeXqXyXeXqXeXwXwXeXuXuXzXnXCXHXbXbXzX6XF.b.M.n.~ Z.] Z ] c.m.].sXjXjXhXjX#X X{.`.(.'.fXJXKXmXzXzXlXzXkXlXzXlXlXlXzXzXcXzXlXzXcXlXcXcXlXlXzXlXlXlXlXlXcXlXzXkXlXlXlXlXkXlXlXzXkXlXiXlXrXlXkXyXlXyXlXyXyXyXlXyXyXrXwXwXwXwXeXwXwXwXqXeX6X6XqX5XqX6X2XqX5X5X2X2X5X2X,Xk.<.-XIX4X=.+.+.o.o.<.>XPXKXnX1X6 6 7 z ( vXuXHXJXKXHXCXCXCXZXVXHXKXuXJ.2.2.;.-.$.#.-.+.-.$.#.$.:.+.+.+.>.+.+.+.-.#.+.#.#.#.#.#.#.#.#.#.+.#.#.O.#.#.#.O.O.#.O.#.#.#.#.O.O.O.#.#.#.#.$.#.#.#.$.#.#.-.#.#.#.-.-.#.-.-.( -.-.,.W ,.-.} ,.} ,.1.4.4.h.5XaX$X(.(.`.}.@XsXhXhXhXhXdX'.R.x.] x.! A.gXZXCXJXKXKXJXJXJXSXPX4Xe.%.,.2.3.q.k.k.l.K.K.G.G.G.G.G.G.H.H.H.H.*XJ.*XJ.J.*XH.:X=XJ.:X:X:X:X:X:X:X:X1X:X:X>X1X1X:X1X:X1X:X1X1X:X:X:X1X1X:X1X1X,X1X1X1X1X1X1X1XY.0X1X!.0XY.1X0X0XY.1X0X1X!.0X!.!.0X0X!.0X0XpXvXlX=X:.#.2.z.qXyXeXuX..| tX1.. @ O X @ X : : : @ : @ @ # # # % # % % & ; & = & = & = = = = = = = j - , 2 = = = = = = = = = = = = = = ",
"a p u p u u a u h d i d s h i d a a a a a a s h s a a a a a a d a a p y v p a p v t t c 0 c 0 p p p p c z qXnXqXqX2XqX0XqXqXqXqXqXqXqXqXqXiXqXqXeXqXwXqXwXeXeXwXqXuXiXuXvXnXCXnXG...n.f.{ U B Z.' V ' a.v.).#XhXgXgX#X}.}.].(.#XZXKXNXzXzXzXlXlXzXlXlXlXlXlXlXlXlXzXcXlXzXlXzXzXzXzXlXcXzXlXcXzXlXzXlXlXzXcXlXkXlXlXkXlXkXlXkXzXlXlXkXkXkXrXlXyXlXyXyXyXyXyXIXwXwXeXwXqXwXeX6X6X6XqX6X6X6X2X6X5X5X2X5X2X5X2X5X2X3XJ.3.0.4XIX;X6.q.<XxXKXCXiX!.<X> 6 6 q W vXP.1XiXCXKXKXHXCXHXKXNX,Xq.2.<.;.;.-.$.-.+.-.+.#.$.#.+.>.+.>.+.+.+.>.+.#.#.#.+.#.+.#.#.#.#.#.#.#.#.#.#.O.#.#.O.#.#.#.O.O.O.#.#.#.#.#.#.#.#.#.#.#.#.#.#.#.>.#.-.#.#.-.%.-.%.-.%.( ,.%.-.-.,.,.} ,.,.4.4.4.G.7XfX[.(.`.}.}.#XgXhXhXdX'.R.c.] a.! A.dXnXnXZXCXHXKXKXKXxX=X;.,.<.3.e.i.3.q.k.k.k.k.k.l.K.l.K.G.H.G.H.H.H.H.J.H.=XH.:XH.:X:X=X:X:X:X:X:X:X:X:X:X:X:XP.:X:X:XP.1X:XP.:X1X1XY.:X1XY.:X,X1X1X:XY.1X1XY.0X1X1X1X1X1X0X3X!.1X0X!.Y.0X0X0X!.0X0X!.0X~.0X0X0XpXvXwX*X2XuXeXeXzX,XB [ !. .X @ @ @ : : : @ @ @ @ @ @ # # # % # % ; = & ; & = ; = = & , = = = = = = = = = = , = , = = , = = = = = = ",
"p p i p u u u a u i p a h d i a s h a a G h d d d a s d h s a a t a v v p p p v t M p b p b b p p c 0 c b 0XnXqXqXqX2XqXqXqX5XqXqXqXqXqXqXqXqXqXeXqXqXqXwXqXqXqXwXiXeXuXuXuXvXzXG.F. .b c z B E._ S _ x.v./.#XhXgXgX@X`.`.).gXKXSXzXzXzXlXlXlXlXlXlXlXlXlXlXcXlXlXzXcXzXzXkXzXlXcXlXlXcXcXlXlXlXlXlXzXlXzXkXlXkXkXlXlXlXlXlXiXcXyXlXlXyXlXyXkXyXkXwXkXkXwXkXwXrXwXwXwXeXqX6XwXqX6X5X6XqX5XqX5XeXqX2X5X2X2X<X2X2X2X2X,Xz.;.l.8XIXFXKXVXrXrX!.P.,X> , 8 7 M aXz.z.z.z.rXmXKXKXJXuXk.k.:.:.>.$.;.+.$.#.-.#.+.$.>.$.$.+.#.#.+.>.+.+.+.>.$.M #.#.+.#.#.+.#.#.+.#.#.O.+.#.#.#.#.O.#.O.#.O.O.#.O.#.#.#.#.#.#.#.+.#.#.#.#.#.-.#.-.-.#.#.W -.#.-.-.%.%.-.-.} -.,.,.,.,.,.1.4.4.4.:XuXfX).(.`. XdXhXhXdX(.R.x.] ] ! N.sXaXnXnXnXnXVXCXJX1X-.<.0.0.0.0.k.k.h.k.k.k.G.K.q.G.G.G.K.G.H.G.H.H.z.J.*XJ.J.H.z.:XJ.*X:XJ.:X:XP.*X:X:X:X:X:X:X1X:X:XP.1X:XP.1X:XP.1XP.1X,X1XP.Y.,X1XY.1X1XY.Y.1X0X0XY.0XY.0XY.!.3X0X0X!.0X0X!.0X!.0X!.0X0X~.0X~.0XaXuXaXiXuXiXI.[ ' | oX1.: @ @ : : @ @ @ @ @ : : * : j : : ; % & ; & = ; ; = = = j = - = , = = = , = = = = = = = = = , = = = = = ",
"t t t p p u a u p p p u d a a a d a d a s s h s a a s s a d d d v a p a p v c a p p p p p p p p p p u p b qXVX0X2XqX5X0X0XqX0XqXqXqXqX0XqXqXqXqXqXeXqXqXqXeXeXwXqXqXwXiXuXuXuXuX0.K.F q z q x E._ S X.] c./.#XgXgXhX@X`./.XXmXzXzXzXlXlXlXlXlXlXlXkXlXlXlXlXlXzXlXlXlXlXzXlXlXlXzXlXzXlXzXkXlXlXlXlXcXlXkXzXlXlXlXlXkXlXlXlXkXiXlXkXyXkXlXyXyXyXyXkXwXrXwXwXwXwXyXwXwXwXwX6XqX6X6XqX6X5XqX5X2X2X2X5X2X5X2X5X5X<X<X<X>X<XP.:.&.bXFXrXrXrX0X0XP.:X$ , 6 6 M iXz.h.h.h.z.2XvXKXwXk.:.:.>.:.;.;.#.>.$.$.#.$.+.>.+.+.>.+.#.#.+.+.+.+.+.+.+.+.+.+.#.#.#.#.#.+.#.#.#.#.#.#.+.#.O.#.O.O.O.#.O.O.#.O.#.O.#.#.O.#.-.#.#.#.>.+.-.#.#.#.#.-.-.-.%.-.%.-.( -.-.-.} -.( ,.,.,.,.1.,.3.1.K.7XvX).`.|.gXhXgXdX XR.x.] ] ! M.sXaXaXnXnXjXnXVXCXK.-.2.2.h.k.h.0.0.k.q.h.k.k.k.G.k.k.K.l.K.l.K.G.H.*X*Xz.H.H.*X:XJ.P.J.H.:XJ.P.P.:XP.:XJ.P.:XP.:XP.P.1X:XY.:XP.P.1XP.1XY.1XY.1X1X1X1X1XY.0X1X0X1XY.1X1XY.0XY.0X1X!.1X!.0X!.!.0X!.0X0X!.oX0X0X~.0XoX0XtXaXaX1XD.b.E.'.b.!.4.: @ @ @ @ @ @ @ @ * * : # % # % j % % & % & = & = j = & - = = = = = , = = = - = , = = = = = = & = = = = ",
"p t t p u u d u p h i p d i d a a a d a a a s s a d h d a d a s v p v y a v p a v p p p p p b p p c 0 c c 0XnX2X2XqX0XqXqX5X5X0X0XqXqX2XqXqXqXqXqXqXqXqXqXqXqXqXqXwXwXiXiXuXuXyX2.k.G q q q B E._ S X.] c./.#XhXgXhX#X(.(.W.yXlXlXlXlXlXlXuXuXlXkXlXlXlXlXkXlXlXcXlXlXlXcXlXlXlXkXzXkXzXlXzXkXlXkXlXkXzXzXkXkXlXkXzXiXlXkXiXlXkXlXkXyXkXyXrXkXkXrXkXwXwXyXwXwXwXeXwX6X6XwXqXqX5XqX5X6X5XqX5X5X2X5X2X2X5X5X2X<X2X3X<X1X>X:X0.M ,XrXrX0X,X!.Y.,X,X$ , 6 7 b iXz.g.h.g.j.z.eXKXqXk.>.:.>.$.#.$.$.$.$.#.$.#.$.#.>.$.#.$.#.#.+.>.#.#.+.+.>.+.>.+.#.#.+.#.#.#.#.#.+.O.#.+.O.#.#.+.#.#.O.#.#.#.O.O.#.#.+.#.#.#.#.#.#.#.#.#.#.#.#.-.#.-.%.#.( %.-.%.-.-.-.-.-.,.,.-.,.,.,.1.,.1.4.4.H.tX).`.|.gXhXgXdX X^.x.' ] ^ M.fXaXaXaXaXaXjXnXCXk.-.<.2.2.2.k.k.h.q.q.k.k.q.K.k.k.k.G.l.K.H.K.H.H.l.*XH.H.z.=XJ.J.H.:XH.:X*X:XH.:XJ.P.J.P.P.P.:X:XP.P.1X:XP.:XY.1X,X:X,X,X1X1XY.Y.Y.1XY.1XY.0X!.1X1X!.0X1X0X!.0X0X!.0X!.0X0X!.0X!.~.0X!.0XtXoX0XrX+XpXtXT.n.B.`.}.|.N.!.u.* * @ @ @ @ @ @ @ @ @ j % @ # % % ; % ; & = % = ; = j = & = = = = = j = = , = = = = = 2 , = = = = = = & ",
"y t p i p u u u i d p i h d i a d h s h d a h d s s a a a a a d a p p c p a p a p p p p b p p p p 0 t c c qXVX0XqX0X5X2X0X5X0XqX5X6X0XqX5XqX0XqXqXqXqXqXqXwXeXqXqXqXqXwXeXyXuXuX2.K.D q q 8 B ).' 9 X.] x./.#XgXgXgX#X`./.).tXlXuXlXuXlXlXkXlXlXuXlXlXuXuXlXkXlXuXlXkXlXlXlXkXlXzXlXlXkXkXlXlXlXlXlXzXkXlXkXzXkXlXkXcXkXzXlXlXlXyXkXkXkXyXlXkXwXyXIXkXwXIXrXwXwXwXwXwXwX6X6X6XeX6X5XeX5X2X5X5X5X5X5X2X2X<X2X2X2X<X2X>X,X:X0.O.I.!.!.~.,XY.Y.z.,X& > > 6 c eXz.>.>.>.g.h.eXKX5X3.:.+.$.;.$.#.$.#.-.#.-.#.+.#.+.$.#.#.$.+.#.#.#.+.+.>.+.#.+.+.+.#.#.#.#.#.O.O.#.O.M #.#.O.M #.+.#.O.O.#.#.O.O.#.#.#.#.#.O.#.#.#.#.#.#.#.$.#.-.$.#.%.-.%.-.%.( #.-.-.-.-.( -.,.,.} ,.,.,.1.1.2.T.oXR.`.|.gXhXhXdX XC.x._ ' V M.#XiXrXiXaXaXaXnXZXk.-.<.2.0.h.0.0.k.3.k.q.k.q.k.k.k.l.z.l.l.k.G.l.z.H.z.H.*Xz.*XH.H.H.J.J.H.P.:Xz.P.P.J.P.P.P.P.P.P.:XP.P.P.P.Y.:XP.Y.:XY.Y.Y.,X,X1X1XY.1XY.1XY.1X!.!.1X!.!.!.1X!.1X0X!.!.1X!.0X!.0X0X!.tX0X~.0XoXtXtX!.D.b.V.`.|.|.}.M.oX..* * @ @ @ @ @ @ @ * * : : j * % ; j % & ; j ; & & = = = j = = = = = - , = = = 2 = , = = = = , = = = = = ",
"p t u u u p p u d h d i i p d h a d d s a a a s a s h s a a i a v t v y p a v a p p p p p p p p p 0 c c c 0XnX2X2X2X5X0X5X0X0X5X0X6X0X5XqXqX5XqXqXqXeXqXqXqXqXqXqXwXqXiXiXwXuXwX2.z.b 7 q q V E.' N X._ a.].#XhXgXgX#X`./.E.tXlXlXkXuXkXlXuXuXkXlXkXkXlXyXlXlXlXlXcXuXkXlXlXlXlXkXkXkXkXzXkXlXlXcXlXkXlXzXkXkXzXlXlXkXiXkXiXkXkXkXkXkXkXyXyXkXyXyXyXwXwXwXwXwX7X6X6X6X6X6X6X6X6X5X5X5X5XqX2X5X5X2X4X4X2X<X2X2X<X<X<X1X>X:X0.O.I.Y.,XY.Y.Y.Y.z.,X$ & > 6 c iXh.1.>.>.>.h.eXLX2X2.>.$.$.$.#.$.$.+.#.$.#.#.$.#.#.+.$.#.>.+.+.+.+.#.+.>.+.+.+.#.#.#.+.#.#.#.#.+.#.#.O.#.O.#.O.O.O.#.#.O.#.O.#.O.#.O.#.#.#.#.#.#.#.#.$.-.#.>.+.#.#.-.-.-.#.-.%.-.-.-.-.-.-.,.-.-.,.,.,.,.,.,.1.1.I.+XR.].}.gXhXgXfX).C.x.X.] S M.#XrXiXiXtXiXaXaXZXz.-.>.2.h.0.h.0.0.q.q.3.k.k.k.k.k.k.k.z.z.l.z.l.H.z.z.=Xz.H.H.H.H.H.H.P.H.z.J.J.P.J.J.J.J.J.P.:XP.:XP.:XY.1X:XP.Y.P.1XY.,X,X,X!.,X1XY.1XY.Y.Y.,X!.0XY.0X1XY.0X0X!.!.0X!.!.~.0X~.0X0X0X~.oXoX0XtXoXL.n.M.C.|.|.|.|.|.A.oXu.* j * : @ @ @ @ @ * @ % j * % % & % = & & = = j ; = = = - = = = = = = = = = = , = = = = = = - = = = , & ",
"p t u u u u u u u p p i d i i d a h s h d h d h a d s d d a a a y v t v v p p p p v p p b p p p p p t c v 0XnX2X5X0X0X2X2X5X5X0XqX2X5X0XqX2XqXqXqX2X2XqXqXqXqXqXqXeXqXwXeXwXuXwX2.K.D q 7 q C E.' N X._ a.(.@XhXgXhX#X`.^._.6XyXyXyXkXkXkXkXlXkXlXyXlXlXlXlXkXlXlXyXcXlXuXcXkXlXkXlXzXkXlXkXkXlXlXlXkXlXkXkXlXkXkXkXkXlXlXkXiXlXkXkXrXkXyXlXwXyXyXwXwXwXwXwXrX7XwXwXwXqX6XwX5XeX5XqX5X5X5X2X2X5X2X2X2X2X2X<X<X2X2X,X>X>X:X0.M z.!.Y.,XY.Y.Y.,X,X+ % > > 8 eXz.1.>.>.g.h.eXLX2X2.$.$.$.$.$.#.$.>.$.-.-.+.#.+.#.#.#.#.+.$.#.+.+.+.+.+.+.+.#.+.#.+.#.#.+.#.#.M +.#.O.#.#.O.O.O.O.O.O.#.O.O.O.#.#.#.#.O.#.#.#.#.#.#.#.#.#.#.>.+.-.#.#.#.-.#.-.%.%.( -.-.%.-.,.-.( -.-.,.,.,.1.1.F.oXR.].|.gXgXhXdX XC.c._ ] S M.#XeXrXrXrXrXrXaXVXz.#.;.<.0.0.h.0.h.h.3.k.q.q.k.3.k.k.k.l.l.l.l.z.z.*Xl.l.H.l.K.H.K.H.K.H.H.:XH.I.H.I.J.J.P.P.P.J.P.P.P.P.:XP.Y.:XY.,XY.Y.,X!.Y.,X,XY.1X!.,X0X!.Y.0XY.0X!.!.tX!.!.1X!.!.0X0X0X!.0XoXoX!.tX!.0X~.!.F.d.V.`.|.|.|.|.|.|.N.oX..j * * @ @ @ @ * @ @ * % % % % % & & & ; ; & & ; = & & = = = - - = = = = , = - j = = 2 = = = = - & = = = ",
"y p t u u p p u p u p p i a d i s h a a s a a s a a h d h s d s y v a p p a p p p p p a p p p p p 0 t t b 0XnX2X2X2X0X2X2X2X2X5X2X0X5XqX2XqX2X0X2XeXqXqX2XqXqXqXqXqXqXwXwXiXyXwX2.K.D q 0 z N ^.] l _ _ a.].@XgXgXgX#X`./.C.tXyXuXkXuXuXuXyXkXyXuXlXkXyXyXlXlXkXkXcXuXuXkXlXlXlXlXcXkXkXlXkXkXlXkXlXkXiXiXkXkXlXlXkXkXkXlXkXkXkXkXrXyXkXyXwXyXwXkXwXwXwXwX7XwX7X6XqX6X6X6X6X6X2X2XqX2X2X5X5X2X2X4X2X<X4X<X2X<X<X>X<X,X,X=X0.M I.,X!.!.,XY.I.I.P.$ % > > 8 tXz. .>.g.g.j.0XKX5X2.;.#.>.+.>.+.>.$.$.$.-.-.$.#.+.$.#.#.$.#.+.+.+.+.#.+.>.+.#.O.+.#.#.#.#.+.#.O.#.+.#.O.#.O.M #.#.O.#.M #.O.O.O.#.#.#.#.#.#.#.#.#.#.#.#.#.+.+.#.#.+.-.#.#.-.W -.#.-.( -.-.-.,.-.,.-.-.,.,.1.1.1.L.oXR.(.|.gXhXgXdX).R.c._ _ S M.#X0X0X0X0X0XrXaXnXk.#.;.2.2.2.2.3.0.2.q.3.k.h.q.k.k.k.k.k.k.H.k.l.H.l.H.z.*XH.H.H.K.K.H.K.P.H.H.H.P.I.J.J.P.J.P.T.P.P.P.P.Y.P.Y.P.Y.,XP.P.,XY.,X,XY.Y.0X1X!.Y.0XY.0XY.!.0XY.!.!.tX!.tX!.0XoX!.0X!.oX!.tXtX!.oX!.n.N.C.}.|.@X@X@X@X@X_.u.M.l 1 j * @ @ @ * @ * @ * * j @ % j & & & = j & = j j = j = = = = j = - = = , = = - = = = , = , & j = - = = ",
"p t u u u p u u a u i p d i h d i d h s d h a d h d s s d s d h v y v a a p v a p p b p p p p c p p z c c 2XnX2X2X2X2X2X0X2X2X0X2X2X0X5X0X5X0X5XqX2X2XqXeXqX2XqXqXqXqXeXiXqXiXqX2.z.b 8 q q V E.] 9 ! _ a.R.@XgXgXgX#X`.(.%X3XyXkXyXyXkXuXkXuXkXkXyXuXkXlXyXyXlXyXlXyXcXyXcXkXyXkXiXkXiXkXiXkXkXkXkXkXkXlXyXkXyXlXkXkXkXiXkXiXkXyXkXyXIXrXlXwXwXwXIXrXwX7XrX5X7XwX6XqX6X6X6X6X5X5X5X5X5X2X2X5X<X2X<X2X<X2X<X<X2X<X<X>X>X:X0.o.K.~.I.!.,XY.I.I.,X$ + , > 8 eXz.1.>.>.g.h.0XKX,X2.;.;.#.;.$.$.+.$.+.#.+.#.-.#.#.#.#.+.+.#.>.+.+.>.#.+.+.+.+.#.#.+.#.O.M #.O.O.O.O.O.O.O.#.+.#.#.+.#.#.O.O.O.#.#.#.#.O.O.#.#.+.#.#.#.#.>.+.+.#.#.>.#.W -.%.-.%.-.-.-.#.( -.-.-.-.,.,.,.,.,.1.,.I..XR.].|.gXhXgXdX(.C.x.X._ V b.#X0X0X!.0X0X0XpXZXk.#.>.2.2.0.h.2.3.0.h.q.3.q.q.h.k.k.k.z.k.l.z.z.l.z.z.l.z.l.H.z.G.H.K.H.H.H.I.K.H.J.J.J.J.J.T.P.P.P.P.P.P.P.:XY.P.Y.,XY.Y.,XY.Y.,XY.Y.Y.,X!.Y.!.!.0X!.!.!.!.0X!.!.!.0X!.!.tXoX!.0XtX!.~.tXoX!.d.R.'.|.#X#X@X@X@XU.D.u.S w 1 * * * @ * @ @ * * @ * * % * % # & % & & = & = ; = = = j - = & , j = , , = = = - - j = = , = = = j = & ",
"p t p t u p u u d i d i p a a i d i d a i a d i a d d s s s h d a a u a a d a p p p p p t c t p p 0 8 p a 0XnX2X2X2X2X2X2X2X2X2X2X2X2X2XqX2X2XeX2X2X2XqX0XqXqX5XqXqXqXqXwXeXwXeX0.z.B q q l x E.] N X.X.x./.@XgXgXgX#X`./.E.0XyXyXyXyXkXyXlXyXyXyXlXyXlXyXlXlXyXlXyXkXyXkXyXyXlXyXlXlXkXkXyXlXkXiXkXiXkXkXyXkXuXkXkXyXlXyXkXuXyXkXwXkXkXwXwXkXwXwXIXwXwXwX7XwX7X7X5X5X7XrX5XrX5X5X5X5X5X5X5X,X5X5X<X2X,X<X<X2X<X<X>X>X:X*Xk.T I.I.,X,XI.I.I.I.,X> > > > 8 eXz.g.>.g.j.j.2XLX2X2.&.-.$.#.$.>.+.$.>.+.#.#.>.#.#.#.#.#.#.#.+.#.#.#.+.#.+.+.M +.+.+.+.#.#.+.#.+.O.M #.#.#.+.O.#.O.O.O.O.O.O.O.O.M #.O.#.#.O.#.#.#.#.+.#.#.#.-.#.#.#.#.#.%.-.-.#.-.%.( -.-.-.-.-.-.-.,.,.,.,.1.1.L..XR.].[.gXhXhXsX XC.x._ _ V M.#X0X0X,XY.0X0XtXnXk.#.<.2.2.2.2.2.h.:.k.k.k.k.h.k.h.k.k.k.k.k.k.k.k.k.K.k.l.K.l.K.K.K.H.K.H.I.H.K.J.J.I.K.J.J.P.P.T.P.I.Y.Y.P.Y.P.Y.Y.Y.P.Y.,XY.Y.Y.!.!.!.,XY.0X!.Y.0XoX0X!.oX0X!.!.!.!.tX0XoX!.0XoX0X0XoXoXoX!.n.).`.@X#X#XsX#XA.b.u.Z w w 1 > * * @ * * @ * : * * > $ & & & & & & & & j = & = = - , = = - , = j = = = - = = = = = = , j - = = = & ",
"e u u p u u u u u u u i u i p p a a i i s a i s s i h s h d d s p a a p a p d a a v p c c c p 0 p p p c c 0XvX,X1X2X1X1X1X2X2X2X0X2X2X2X2X2X2X2XeX2XqXqX5X2XqXqXqXqXqXqXqXwXeXwX2.K.M 8 q q B /.] 9 X.X.a.(.@XgXgXgX#X`./.%X0XyXyXyXyXyXyXyXyXyXyXyXyXyXyXkXyXlXyXlXkXlXlXlXkXkXlXyXyXlXlXkXyXyXkXkXkXkXkXuXyXkXuXyXlXyXlXyXyXkXwXkXwXwXwXwXwXwXwXrXwX7X7X5X5XrX5X7XrX5X4X5X>X5X5X5X5X5X5X>X5X5X2X<X<X<X<X<X<X,X<X,X>X>X*Xk.M I.~.I.I.~.~.,XI.I.$ $ % > 8 rXz.g.j.j.j.j.rXGX,X2.-.;.-.$.$.$.#.#.+.+.>.#.+.+.O.#.#.+.#.+.#.#.+.+.+.+.+.+.>.+.>.+.O.O.M #.O.#.#.O.O.O.#.M O.#.#.M O.O.#.O.O.#.#.O.#.O.#.#.#.#.#.O.#.>.#.#.#.#.#.-.#.-.#.-.-.#.%.-.-.-.-.-.-.( -.>.-.,.} ,.1.1.I.OXR.].|.dXgXhXfX).C.x.X._ N b.+X1XI.I.P.,XY.rXZXk.#.>.>.2.2.3.2.0.h.k.h.:.k.:.k.k.:.k.h.k.k.k.k.k.K.k.z.K.z.K.G.z.K.K.K.K.K.J.H.K.J.K.I.J.I.J.P.P.P.P.P.P.P.P.Y.P.P.Y.Y.1XY.!.,X!.Y.,XY.!.!.Y.!.!.!.Y.!.!.1XoX1XoX0XoX!.oX!.tXoX0XoXoX!.tXoX0Xn.(.}.@XsXsXsXZ.c.] S 9 9 w 1 > * * * * * @ * * * * $ * & & & & & & & ; = & & = = j & = = j = = - , j - , = = = 2 = - j = = = & = = ",
"u p t t 0 u u p u u p d u a a a i h d i d h d s d d h d d a h s p a p p a p d d p p p p c t c t t z 0 p c 0XvX1X,X2X2X<X1X2X2X1X2X,X2X2X,X2X2X2X2X2XqX2X0X6X2XeX0XqXqXqXqXqXwXqX2.F.M q 9 q V E.] 9 X._ c.].@XgXgXgX#X`./.%X3XyXyXyXyXyXyXyXyXyXyXyXyXyXyXlXkXyXyXyXyXkXyXyXkXyXkXyXkXyXyXlXkXkXIXkXIXiXyXkXkXyXyXlXyXkXyXkXyXyXwXwXwXkXwXwXwXwXwX7XwX7XrX7X7X5X7X5XrX4X5X5X5X5X,X5X5X,X,X5X5X>X<X<X<X<X<X<X<X>X>X,X>X,X*Xk.O.z.~.I.,X~.I.I.I.,X$ + > > 4 0Xz.g.j.j.j.j.qXJX<X<.-.$.$.-.$.#.$.$.+.+.#.#.+.+.#.#.+.#.O.#.+.#.+.#.>.+.+.+.+.>.M +.O.#.O.O.O.O.O.O.O.O.O.O.O.O.+.#.T #.T O.O.#.O.#.#.#.O.#.#.#.#.#.#.#.#.#.O.#.#.#.#.#.W -.-.#.#.-.-.( -.-.>.( -.( ,.-.,.,.1.1.L.OXR.`.[.gXhXgXfX XR.x._ X.V b.+XP.P.I.I.I.I.rXnXk.#.<.>.2.2.h.h.0.h.:.h.<.k.k.k.:.k.k.k.k.h.k.k.z.K.k.k.K.G.k.K.K.K.K.K.K.K.K.K.K.J.K.J.P.I.J.I.P.J.I.I.P.Y.I.Y.Y.Y.P.Y.Y.,XY.Y.Y.Y.Y.!.0X!.0X1XoX0X!.!.1XtX!.oX0XtX!.0XoXoXoXtXoX!.oXoXtXoXoXb.].}.@XsXdX#XZ.u.S 9 9 w w 1 > * * * * * * * * * * * * * > & & & = & j & = j - = & j - & , j - = , j = , & j - - - = = j = - - , & ",
"t u p t p p u p h d u i p p u a d d d a a i h i h s s i s a h d a a i v p a a p a a c p t c t c c t p t v 0XaX1X1X>X1X1X<X,X1X<X2X2X,X2X2X5X2X2X2X2X2X2X5X0XqX2XqXqX5XqXqXqXeXqX<.I.C 7 q z V E.] N X.X.x.].@XgXgXgX#X`./.Z.tXyXwXyXyXyXwXyXyXyXyXyXyXyXyXyXyXyXyXlXyXyXkXyXyXkXyXyXyXyXyXyXwXkXiXiXIXkXkXyXyXkXyXyXyXyXyXyXyXyXkXwXwXwXwXwXwXwXwX7XrX5X7X7X5XrX5XrX7X5X5X5X5X5X5X5X>X5X5X>X,X5X<X<X<X<X<X,X>X<X>X<X:X:X*X6.#.I.,X~.,XI.~.I.I.I.$ $ % > 8 rXz.g.j.j.j.z.0XGX<X<.;.$.-.+.#.+.>.#.#.+.#.#.+.#.+.#.#.+.#.#.#.+.#.#.M +.+.>.+.+.+.+.#.O.O.O.#.O.O.O.O.#.O.O.#.O.O.O.O.O.#.O.O.O.#.O.-.M #.O.O.#.#.O.#.#.#.#.#.#.#.#.#.-.#.#.#.#.-.W #.-.#.-.-.-.-.-.( ,.>.,.,.1.T.OXR.`. XgXhXgXsX(.C.x._ _ V M.+XP.P.z.z.I.z.0XnXk.#.-.2.2.2.2.2.2.h.:.k.k.>.k.h.k.h.k.h.k.k.k.k.k.h.k.k.k.z.K.G.K.K.K.K.K.K.K.J.I.K.I.I.K.K.I.J.I.Y.I.P.P.P.Y.P.Y.Y.Y.Y.Y.Y.Y.!.Y.!.!.!.Y.Y.!.!.Y.!.!.!.oXY.!.!.oX!.!.oX0X0XoX!.oXtXtXoXoXoX!.N.`.}.#XdXdXsXV.' S S 9 9 w 1 * 1 * * * * * * * * * > * & & & & & & & - = & = = = = = - , = = = & = - - - j = , = j = , - = = j & = ",
"u u u u u u u u u u p a p i p p i d a d h d a d d s h d h h d s t c t y p p p p p p p p p p 8 c t t z 8 c 0XzX,X,X<X1X,X,X<X1X1X,X,X2X2X2X<X2X2X2X2X0X5XqX2XqXqX2XqX0X5XqXqXqXqX>.I.U 7 q q B R.] 9 X._ c.].@XgXdXgX@X}.(.E.2XiXwXyXwXyXyXwXyXyXyXwXyXyXyXyXyXyXyXyXyXkXkXyXyXyXyXyXyXyXkXyXyXyXIXkXiXIXiXkXyXyXwXkXkXwXyXyXIXyXwXwXwXwXwXwXwXwX7X7XwX5XwX5X5XwX7X5X5X5XrX9X5X5X5X5X>X5X5X,X>X>X<X<X<X<X<X>X<X<X>X>X>X:X*Xk.m z.,X~.~.I.,XI.I.I.> + $ > e 0XI.j.j.j.j.L.rXJX>X:.-.$.$.-.$.#.#.$.>.+.#.#.+.+.#.#.M +.+.+.#.#.O.#.#.+.+.>.M +.+.>.O.#.O.O.#.O.O.O.M O.O.O.M O.O.O.T #.O.#.O.O.T O.#.O.#.O.#.#.O.#.#.#.#.#.#.#.#.#.#.-.#.#.-.W #.-.-.#.-.%.-.-.-.( ( ,.,.>.1.1.I.OXR.].|.gXgXgXfX(.R.x._ X.V b.+XK.z.z.I.z.I.0XnXk.+.:.<.<.2.2.2.h.h.h.<.k.k.2.k.h.2.h.h.k.h.k.k.h.h.K.k.k.F.k.k.K.z.K.z.K.K.K.K.K.K.J.J.K.P.I.I.P.P.P.I.Y.I.Y.Y.Y.Y.Y.Y.Y.Y.!.Y.!.Y.!.!.!.Y.!.!.!.!.1X!.oXoXY.tXoX!.oX0XoXtXoXoXoXoXoXoXoXpX!.M.).{.#XdXdXsXB.' S 9 9 w w 1 1 1 * * j j * * * * * * * > & & & & & = & = & & j - & & = = = = , & 2 - = , j - = = , = = = , & = & = ",
"u t u u t 0 p u p u u p p a i a d i i i d i h d h i d s d s d h v t y v y v p p p p a p p c c t c 8 4 c p 0XaX:X>X,X,X>X>X,X,X<X2X>X<X,X,X2X2X2X2X2X2X2X2X2X2X2X0X5XqXqXqXqXqX5X:.K.C q q l V E.] 9 X._ c.].@XgXgXgX#X`.^.).0XwXwXwXwXwXwXwXwXwXwXyXyXwXwXyXyXyXyXwXyXwXyXyXyXyXlXwXyXyXyXyXyXyXIXiXIXyXyXyXyXyXyXyXwXwXyXyXyXwXwXwXwXwXwXwX7XwX5XwXwX5X7XrXwX5X5X5X5X5X5X5X5X5X5X,X5X>X9X,X>X5X>X,X>X>X>X<X>X,X<X,X>X:X*X0.M z.~.I.,XI.I.~.I.I.# + $ $ 8 eXI.j.L.j.j.L.0XJX<X>.$.-.#.#.$.#.#.$.+.+.#.+.>.+.O.#.>.+.#.#.+.#.+.#.+.+.+.M +.+.M +.O.#.O.#.O.O.O.O.#.O.O.O.+.#.O.O.O.O.T O.O.O.#.#.#.#.O.#.#.O.#.#.O.#.#.#.#.#.#.#.#.W #.#.%.#.-.#.#.-.( -.-.-.-.-.-.,.,.} 1.1.U.OXR.].|.dXgXhXsX(.R.x._ _ V b.#XK.z.z.z.z.z.,XnXh.#.>.>.>.2.2.2.<.:.k.h.<.h.h.2.0.h.k.2.k.k.h.h.k.k.k.k.F.q.K.k.K.K.k.K.K.K.K.K.I.I.K.I.I.I.J.K.I.I.I.Y.I.I.I.Y.I.P.Y.Y.Y.Y.Y.!.Y.Y.!.Y.!.!.!.!.1XoXoX!.1X!.oX!.oXoXtXoXoXoXoXtXtXoXtXtXoX+X!.n.`.}.#XdXgXsXB.' Z S N N w 1 1 j 1 1 * j * * * * * * > * & & & & & & = = = = = = = j - = , = , = = & , = - = , = - , - j = = = j = ",
"t u u 0 u u u 0 p i p u u p a u h i a d i i i i d h d i d d s h t v t v v y t c p p p p p p t c p 8 t c c 0XaX,X,X:X:X>X,X>X:X,X,X<X<X,X<X2X2X2X2X2X2X2X2X2X2X0X5X5XqX5XqXqXqXqX>.K.C q x z V E.] N _ _ x.`.@XgXgXgX#X`./.%X0XqXwXwXwXeXwXwXwXwXwXwXwXwXwXwXeXwXyXwXyXwXyXwXyXyXyXkXyXwXyXyXyXyXiXyXyXyXyXyXyXyXyXwXwXkXwXwXwXwX7XwXwXwXrX7X7X5XrX7X7X5X5X7X5X5X5X4X5X5X5X>X5X5X,X5X>X>X9X5X5X>X,X>X>X,X>X,X>X>X>X>X:X:X*X2.M I.I.,XI.~.,XI.I.I.$ + $ > 6 rXL.j.L.j.D.L.0XJX>X;.$.$.-.$.#.#.#.#.#.#.#.#.#.#.#.#.+.+.+.M #.+.+.O.+.#.+.+.>.+.+.+.#.+.O.O.O.O.#.#.#.+.T O.O.#.O.O.O.T #.M O.O.O.O.O.O.#.#.#.#.#.#.-.M #.O.R #.#.#.#.#.#.-.-.%.-.-.-.W ( -.%.-.-.( ( ,.} -.,.1.U.OXR.].|.gXjXgXfX(.C.x._ X.V M.+Xz.h.z.z.z.z.Y.nXk.O.>.<.h.2.2.2.h.h.>.2.h.<.h.2.h.2.k.2.h.k.h.k.h.k.h.q.K.K.h.K.h.z.K.K.K.K.K.K.K.K.I.K.T.I.J.T.I.I.Y.I.I.Y.Y.Y.Y.Y.Y.Y.Y.!.Y.!.Q.!.Y.!.!.!.!.!.oXY.oX!.oX1XoXoX0XoX!.oXoXoXoXoXoXoXoXoXoX+XY.M.(.'.sXgXdXsXB.] Z N 9 9 9 w 1 1 * * j * * * j * j * * * & j & j = & j j = = j & = , = = j , = , = , - = - , - = j j - - = = = - = ",
"p u u t u u p u u p u u i p p a d i d i d a a d i a a i h h s d v t v p p v v p p a p v p c c t 0 c 8 t 0 3XaX:X:X1X:X:X>X,X:X:X>X,X,X<X,X<X,X,X2X,X2X2X2X2X2X2X2X0X2X0X2XqXqX2X>.I.M l 8 z V /.] 9 X._ x.(.@XgXgXgX#X`./.E.2XwXqXwXwXwXwXwXeXwXwXwXwXyXwXwXwXwXwXyXwXyXwXyXwXwXwXwXwXyXwXwXyXwXIXyXyXwXIXyXwXyXkXwXyXwXwXwXwXwX7XrX7X7X7X7X7X7X7X5X5XwX5X5X5X5X5XrX5X5X5X5X5X>X5X5X>X5X,X>X>X>X>X<X<X>X>X<X,X>X,X:X>X=XH.k.O.,X~.,X~.I.~.I.I.Q.> + $ > 8 rXU.L.j.L.L.L.rXJX:X-.$.$.$.#.$.#.+.#.#.#.#.+.+.#.M +.#.+.+.>.O.O.#.#.M #.+.+.+.M #.+.M O.O.O.#.O.M O.O.O.O.O.O.#.M O.O.O.#.O.O.O.#.#.#.#.O.#.O.#.O.#.+.#.#.#.#.#.#.#.#.#.W #.W #.W -.-.-.%.-.( ( -.-.-.-.>.>. .1.Y.OX/.].|.dXgXgXsX(.R.u._ _ x b.+Xh.h.h.j.j.z.Y.nXk.O.-.<.2.>.2.<.>.2.2.2.<.h.2.h.2.k.2.k.h.2.k.2.h.h.q.F.h.3.K.k.F.K.k.K.K.K.K.K.I.K.K.I.I.K.P.I.I.T.I.Y.I.Y.I.I.Y.Y.Y.!.Y.Y.!.Y.!.!.!.!.!.!.!.oXY.oX!.!.oXoX!.oXoXoX!.tX!.oXtXtXoXtXoXpXoXpXoXb.'.}.sXdXgX#XB.] Z S N N w 1 1 j 1 * 1 j * j * j * * * > & 1 & & & = & & = = & = - j & = - = & , , j - , j j - , , = = j = & = = & ",
"t t t t c t p t p u u p p p u p i d a u a i p a d s d h s d i i p p p v p p p p p p M p p p p p t 0 8 p M 0XrX>X:X:XP.:X:X:X,X:X,X:X:X,X>X<X1X<X<X1X3X2X1X2X2X2X2X2X2X2X2XqXqXqX;.I.U l z l x E.] N X.X.c.(.@XdXgXgX#X`./.E.3X6X6X6XwXqX6XeX7XwXeX7XwXwXwXwXwXwXwXwXwXwXwXwXwXwXwXwXwXwXwXyXwXwXyXyXyXwXwXyXwXwXwXwXwXwXwXwXwXqXwXrX7X5X7X7X5XrX5X7X5X5X5X5XrX5X5X5X5X5X5X5X>X5X>X5X>X5X>X,X,X5X>X>X>X>X>X>X:X>X,X>X:X:X*Xk.O.z.~.,X!.I.~.I.I.I.@ + % $ 8 tXU.L.I.L.f.L.rXmX:X;.+.+.+.+.#.#.#.#.+.#.#.O.#.#.O.#.O.#.#.O.O.#.O.O.+.+.+.+.#.O.O.O.M #.O.O.O.O.O.O.O.#.+.#.O.O.O.#.O.O.O.O.M #.#.T M #.#.#.O.#.#.#.#.#.#.#.#.#.#.#.#.W ( -.-.#.#.#.W -.-.-.W W -.-.( ,.} ,.1. .U.OXR.`.|.dXgXgXsX).^.x._ X.V b.+X4.h.>.h.h.h.I.nXl.O.>.<.<.>.2.2.2.2.h.2.2.h.2.2.h.>.2.k.h.h.3.h.h.q.k.h.k.k.F.k.k.K.z.z.K.z.K.K.F.I.I.K.I.I.I.I.I.I.I.I.I.Y.Y.Y.Y.Y.U.!.Y.Q.Y.!.Y.!.Y.oXY.!.!.Y.oX1XoXY.oXtXoXoXoXtXoXoXtXoXoXoXoXpXoXtX+XoX!.b.].{.sXdXgXsXm.] Z S N 9 9 1 1 1 1 1 1 * * 1 * * * 1 * 1 * , & & j & & = = j & j - j - = = , & , = , = , = j , j , , j = , & & = = ",
"t p t e t 8 c t t t u u t p u p a i p a u p i a d h s h d h s d v y p y p p v t p p 0 p p p 0 p p 8 8 p 8 ,XrX,X:X,X:XP.:X:X:X:X,X:X:X,X:X,X:X1X3X,X<X1X<X2X2X2X2X2X2X2XqX2X2X5X>.z.C q 7 z V /.] N X.X.x.(.@XgXdXgX#X`./.E.0XqX6XqX6XwXwX6XwX6XwXwX6X6X6XwXwXwXwXwX7XeXwXwXwXwXwXwXwXwXwXwXwXwXwXwXwXwXwXwXwXwXwXwX7XwXwXwXwX7XwX7X7X7X7X5X7X5X7X5XrX5X5X5X9X5X5X5X,X5X5X>X5X>X5X,X>X>X9X>X>X>X<X>X>X:X,X>X>X:X>X>X:X=X*X:.M I.!.~.,X~.I.~.I.L.O + % $ 8 0XU.U.f.Q.Q.L.rXmX:X;.>.>.+.>.+.#.#.#.+.#.O.#.O.O.O.O.#.O.T #.O.#.#.O.+.>.+.M O.O.O.O.#.+.O.O.O.T O.O.O.M O.T O.O.O.M O.O.O.O.#.O.+.#.O.#.#.+.#.M O.#.#.T R #.R #.W #.#.#.#.#.W W -.#.-.#.W -.-.-.-.( -.,.-.} } 1.U.OX^.(.|.gXgXgXsX].R.x._ _ N M..X4.h.1.>.h.h.I.nXz.T ;.<.>.<.2.>.2.1.2.2.1.2.>.h.2.h.h.h.2.h.2.3.h.h.h.k.h.q.F.h.K.z.z.F.K.K.z.I.z.K.F.I.K.K.I.I.T.I.Y.T.Y.I.U.I.U.Y.Y.Y.Y.Y.!.Y..X!.oXY.!.oX!.oXoX!.oXoXoXoX!.oX!.oXoXoXoXoXoXtXoXoXoX+XoX+XoXN.(.{.dXdXgXsXB.a.X.S N N 9 w 1 1 1 1 * * 1 j * * * * * j & j & & & j = & - = = = = = = = = = , j = j , , 2 - - - , - - = - , = , , ",
"t t t c t 4 t t t p p t p u p i u a u u a u d i i d i d d h d h p p a p p t v p p p p p p p p p p 8 8 p c 1XuX:X:X*X*X,XP.:X,X:X:X:X:X:X:X:X:X,X,X<X1X<X,X2X<X2X2X2X2X2X2X2XqX<X-.F.C q z z C /.u.9 X._ x./.@XgXgXgX#X`./.Z.0X5X6X6XqX6X6X6X6X6XwX6X6XwXwXwXwXwXwXwX6XwXwXwXwXwXwXwXwXwXwXwXwXwXwXwXwXwXwXwXwXwXwXwX7XwXwX6XqX7X5X7XrX7XrX5X7X7X5X5XrX9X5X5X5X5X5X5X>X5X5X>X>X,X5X>X>X5X,X9X,X>X:X>X:X>X:X>X>X:X>X:X:X:X*Xk.M I.,X~.~.I.!.,XI.Q.$ + % $ 7 0XQ.U.Q.L.L.Q.rXGX=X;.+.+.#.+.+.>.#.+.#.+.+.O.>.M #.O.R #.#.O.O.O.O.O.O.#.#.+.+.#.O.O.O.O.O.M O.O.O.O.#.T T O.O.T O.O.O.#.O.O.O.O.#.M O.#.#.#.#.#.O.O.#.#.#.#.#.#.W #.#.#.#.#.#.#.-.( #.-.#.#.-.( -.( -.( >.} ,.1.L.OXR.`.[.gXjXgXsX(.R.x._ X.N M..X4.1.2.1.1.g.,XnXk.O.$.>.2.2.<.2.1.<.2.2.h.2.h.2.h.h.k.2.h.h.h.h.2.3.h.h.h.h.k.h.k.z.K.F.z.F.K.K.I.I.I.F.I.I.K.I.I.T.I.I.U.Y.Y.U.!.!.U.Y.Q.Y.!.!.Y.!.oXoX!.Y.oX.XY.oXoXoXoXoX!.oXoXoXoXtXoXtXoXoX+XoX+XoXpX+XoXM.(.}.sXdXdX#XB.] _ S N N 9 w 1 1 1 1 j 1 * * * * * 1 * > * 1 & & & = = j j = j & j = 2 , = j = , , - = , = = , , = = - = j , , & , ",
"c t t t t c t t t p t t t t a i a u a a i p i d d h d i d s d i a p t p y v p p p p p p p 0 p p 8 p p 8 c ,XrXP.,X*X,XH.:X*XH.,X:X:X:X:X:X,X:X>X>X,X<X,X<X,X,X<X,X2X2X2X2X2X0X2X-.I.E x z x V E.] 9 X._ x.(.@XdXdXgX#X`.^.).1X5X6X5X6X6X6X5XeX6X6X6XqX6X6X6X6X6XwXwXwX6XeX6XwXwXwXwX6XwXwXwXeXwXwXwXwXwXwXwXwXwXwXwXwX7XwXwXwX6X7X7X5X7X5X7X5X5X5X5X5X5X5X5X>X5X>X5X5X>X>X5X>X5X9X,X>X>X9X,X>X>X>X>X>X:X>X:X>X:X:X>X=X:X*X:.m z.~.I.,X~.,XQ.I.L.@ O % $ 8 rXQ.U.f.Q.Q.f.~.mX*X>.>.+.#.+.+.+.+.+.M >.+.+.+.#.O.O.O.O.O.O.O.O.O.#.O.O.#.+.#.#.M O.O.O.#.#.O.T T O.O.O.T O.O.T O.#.O.#.M O.O.O.#.#.#.O.M #.+.M #.#.#.#.R #.#.#.#.#.#.( ( #.#.#.#.#.( #.-.( #.-.( -.} ( -.-.,. .L.OXR.].|.gXgXgXsX].R.x._ Z N M.XX1.4.>.1.1.g.z.nXl.O.>.:.>.1.>.<.<.1.1.2.>.2.1.2.2.>.>.k.>.2.h.2.h.h.h.q.h.h.K.h.F.K.h.z.F.z.K.K.F.K.K.I.I.I.I.T.I.I.I.Y.I.Y.I.Y.Y.Y.Y.Y.!.Y.Q.Y.oXoXY.Y.oXY.oX!.oXoX!.Y.oXoXoXoXoXoXoXoXoXoX+XtX+XtX+X+XoXtXoXM.`.{.dXfXgXsXB.] _ S S N 9 w w 1 1 1 1 * 1 1 * 1 * * * > > & & 1 > & j = & = = = - j & = = - = , = - j = - - j , = , j - = & = = = ",
"t t t t t t t 8 e t t t i t p p u a i p a p i u d h d s h i p a a a p p p p p p p p p p p p 0 p c t 8 t t ,XrXH.,X*XH.:XH.,X,X*XP.:XJ.:X:X:X:X:X,X:X:X:X,X,X<X>X<X,X2X2X2X2X0X5X-.I.U l l z x R.u.9 X._ x.(.@XdXgXgX#X`./.E.,X5X2X5X5XeX6XeX5X6X5XqX5X5X6X6X6X6XwX5XwX7X7XwX6XwXwXwXwXwX6XwXwXwXwXwXwXwXqXwXwXwX7XwXwXwX6X6XwX5XrX8X7X5XrX5X5X5X5X5X5X5X5X>X5X5X5X>X5X>X5X,X5X>X,X>X>X>X>X>X>X>X:X>X:X>X:X:X-X:X:X:X:X*XUXk.M I.~.,X~.,X!.I.I.U.$ + % % 8 ~.Q.Q.Q.Q.f.Q.rXAX*X:.+.+.>.+.M ;.+.;.+.+.+.>.+.+.+.+.#.O.O.O.O.O.O.O.M #.O.O.O.M O.O.O.O.#.O.O.M #.O.T O.T O.O.T M +.O.O.#.O.T O.O.O.O.O.O.#.#.M #.#.T #.R R #.#.#.#.#.#.#.#.#.( #.W W -.W -.( #.-.( -.( ,.} }  .U.OXR.].|.dXgXgXfX).R.x._ X.N M.XX1.,.>.,.1.g.I.nXk.M ;.<.>.<.1.1.2.1.2.2.1.2.2.2.4.k.h.h.2.h.2.2.h.3.h.h.k.h.h.K.h.h.F.z.F.z.K.I.I.K.K.I.I.T.I.I.L.I.I.Y.Y.Y.U.U.Y.Q.Q.Y.!.!.U.oXY.Y.!..XY..XY.oX!.oX.XoXoXoXoXoXtXoXtX+X+X+XoX+XtXoXoX+XtXpXoXb.(.{.dXdXdXsXB.a._ Z S N 9 w 1 1 1 1 * * 1 * 1 * 1 * * * j > & 2 & & , j = & & , = = , & - , = j = - j - , 2 = , - - j = , , = = & ",
"t p 8 t c e v t v t t c p p i i a u y p a u u a h d h p d h i p a t p a p p p p p p p p p p 8 p 8 8 z 8 8 ,XrXJ.H.,X,XH.H.*XH.,X*XJ.:X:X:X:X:X:X:X:X:X,X>X>X,X,X,X<X,X<X<X2X2X5X-.L.A q z z Z E.x.9 X._ x.`.@XgXgXgX#X`.E.E.0X5X5X5X5X5X5X5X5X5X6XqX6XqX6X6X6XqX5XwX5X5X5X7XwX6X6XwX6X6XwXwX6XwXwX7XwX6X7XwX6X6X6XwX5X5X5XwXwX6X5X7X5X5X4X5X5X5X5X5X5X5X5X5X5X>X>X5X>X5X>X>X>X>X>X>X>X>X>X>X*X>X=X>X=X=X>X:X:X:X>X:X*X:XH.:.M ,X,X~.,X~.Y.!.U.L.$ + $ $ 8 0XQ.Q.Q.N.Q.Q.rXAX*X>.+.+.+.+.+.+.+.M #.+.+.M +.M #.+.O.O.O.O.O.O.O.O.>.+.O.+.#.+.O.O.O.O.O.O.O.+.M O.O.T O.T T O.O.T M O.#.M O.O.O.O.M O.#.#.O.O.O.#.#.#.#.#.#.R #.W #.W ( #.#.#.#.-.-.#.-.-.-.( ( -.} -.( ,.}  .L.OX/.].|.gXgXgXsX`.R.] X._ N M._.} 1.( ( >.>.K.nXk.T -.>.<.>.<.>.<.2.>.1.2.2.1.1.2.:.>.>.h.2.h.h.h.h.3.3.h.k.h.h.h.h.K.K.h.F.z.z.F.F.I.F.F.F.I.I.I.I.U.U.I.Y.Y.Y.Y.Y.Y.Q.Y.Y..XY.oXoX!.!.oX!.oXoXoXoX!.oX!.oXoXoXoXoXoXoXoXoXoX+XoX+X+X+X+XoXoXb.(.{.dXgXdXsXB.a._ Z N S 9 w w w 1 1 1 1 * 1 * * 1 * 1 1 * 1 & * , j j = j j - & , = j , j , = - 2 = , = , & 2 j - = = , & & , , , ",
"t t t p t p e t t t t t t p t p p i a u u u u a d i p i d i d i a p p a p a p p p p p p p p p 0 t c t c c P.rXH.H.H.*X,XH.,X,XH.P.:X:XJ.*XP.:XP.:X:X:X,X:X:X,X>X<X,X>X,X,X2X2X2X-.I.E z x z V E.x.9 X._ x.(.@XdXdXgX#X`./.E.,X5X5X2X2X5X5X5X5X5X5X5X5XeX6X5X6X6X5XwX6XeX5XwX5XwX6X6XwX6X6X6X7X6X6XwX6X6X7X6X6XwX6X7X5XwXwX5X5X5X7X5X4X7X5X5X5X5X5X5X>X5X5X,X>X5X5X>X>X,X>X>X5X>X>X>X*X>X>X*X>X,X>X=X>X:X=X:X=X>X:X*X:X*XH.:.M z.~.!.~.!.!.Y.I.L.+ + $ $ 8 ,XQ.Q.Q.Q.Q.Q.~.mX*X+.+.+.+.+.>.+.#.O.O.O.O.O.O.O.O.M O.O.O.O.M +.O.O.M +.+.#.#.O.M O.M O.O.+.O.+.O.O.O.#.O.O.T O.T O.#.T O.O.O.O.#.T #.#.M #.#.#.O.O.#.T R #.R #.#.#.W #.#.#.W #.-.#.#.-.%.( #.( -.( -.( -.>.1. .L.OX/.`.|.hXgXgXsX'.R.x.X.X.V M._.>.>.( ( >.>.z.nXk.T -.-.>.>.<.>.2.>.<.1.>.>.1.2.2.h.>.k.<.h.2.h.h.3.h.h.h.h.h.h.K.h.F.F.z.F.K.K.F.K.L.I.T.I.T.T.I.I.Y.I.U.U.Y.U.Y.Y.Y.Y.!.!.Y.Y.!.oXY.oX!.oX!.!.oX!.oXoXoXoXoXoXoXoXoXoX+XoX+XoX+X+X$X+X+X+XoXb.(.{.dXgXdXsXM.x._ Z S N l w 1 1 1 j * 1 1 * * 1 * * 1 * * & 1 & > , & & , j , j = , = , & = , , & , , j - , = = & 2 = , = = = = & ",
"t p t t t t t t c y y c y y i p i p a i a a u i h d h d h d i d p t a p p p p p p p p p 0 p p p 8 t 8 8 c P.rXJ.,XH.H.H.H.H.H.H.:Xz.H.:XP.:XJ.:X:X=X:X:X:X:X:X:X,X>X,X>X<X,X2X<X$.L.~ z z x C /.] 9 _ _ a.(.@XgXgXdX#X}./.W.,X2X2X5X5X2X2X5X5X5X5X5X5X5X5X5X6X5X5X5X5X6X6X6X5X5X6X6X6X6X6X6X6X7X6X6X6XwX7X6X6X6X6X5XwX5X5XwX5X5X5X5X5X5X5X5X5X,X5X5X>X5X5X>X5X>X5X>X5X>X>X>X>X>X>X>X>X>X,X>X>X*X=X>X=X:X=X=X=X:X:X:X*X*Xl.k.M z.~.!.!.!.!.!.U.N.O + $ > 8 ~.Q.Q.W.Q.Q.N.rXmX*X>.+.>.+.#.+.+.M O.O.O.O.O.O.#.+.+.O.+.M O.O.O.O.O.+.+.M +.O.O.+.#.#.#.O.M O.M O.O.O.M O.T O.T O.T O.O.O.O.M #.T #.O.#.O.O.O.M O.O.#.R #.#.W #.W #.#.#.#.W #.-.W W -.W #.( -.-.( -.( >.( ( }  .L.OXR.`.|.gXgXgXsX(.R.u._ Z N M.W.>.>.( ( >.>.K.nXk.M ;.-.<.1.<.1.1.1.2.1.2.1.2.1.1.h.>.>.h.<.h.h.>.h.3.3.h.h.F.h.h.F.h.z.F.F.z.F.K.F.I.F.I.F.I.L.I.I.U.I.Y.Y.U.Y.!.U.U.!.U.Q.Y..X.XY..X!..X!..XoXoX.XoXoXoXoXoXoXoXoX+XoX$XtXoX$XtX+XtXoX+X+XoXM./.{.dXdXgXsXV.a._ Z S N 9 1 w 7 1 1 1 1 * 1 * * 1 1 * j 1 , > & , j , = j = & - j = j = , - j = - j , , = = , , , , , & 2 = & , = ",
"t t t t t t t t t t y t p M r t v y t p y a v t t t y v p p i p s p d i p p p p p p p p 0 p 0 p 8 8 t 8 M I.rXH.H.H.:XH.,XH.H.H.:X:XH.:X*XP.P.H.,X*X:X:X:X:X:X:X:X:X:X:X,X>X2X,X;.z./ x 9 B V E.s.N X._ x.(.@XdXdXgX#X`.(.E.1X<X2X2X2X5X2X<X5X2X5X5X5X2X5X5X5X5X5X5X5XeX5X5X5X5XrX5X7X5X5X6X6X5X7X5X7X5X7X5X5X7X5X7X5X5X5X5X5X5X5X5X5X5X5X9X5X5X>X5X>X5X>X5X>X>X9X>X>X>X>X>X>X*X>X-X>X*X>X*X>X>X=X:X=X=X:X=X=X*X,X*X,X*Xz.:.M z.0X~.!.!.!.!.I.N.$ + $ $ 8 ~.Q.Q.Q.Q.Q.f.tXVXH.;.O.#.O.O.O.O.O.O.O.O.O.O.O.T O.O.O.O.O.T T O.T T T O.O.O.T O.O.O.O.T O.O.O.T O.T O.+.T O.T O.O.T O.T T O.O.T W O.M #.O.#.O.T #.T #.W #.#.#.#.R #.) #.#.#.#.#.>.#.>.W ) #.>.#.-.( -.( ,.( 1. .L.OX^.`.[.hXgXgXsX).R.a.X.Z N M._.} ) ( ( ( ( z.vXk.L -.-.>.>.;.>.1.1.2.,.1.<.1.1.1.2.1.1.h.h.2.h.3.3.h.h.h.h.h.h.F.h.F.F.z.F.F.F.K.F.I.F.T.L.I.I.L.I.I.Y.U.Y.U.Y.!.U.Y.Y.Q.Y..X!..X.X.XY..X!.oXoXoX.XoXoXoXoXoXoXoX+XoXoX+XoX+XoX+X+X+XoXtX$XoXM.(.{.dXdXgXsXV.x._ Z S S 9 w w 1 1 1 j * 1 * 1 1 * * 1 > & & & > & = j = & 2 = = 2 , & 2 , = , , , j , = , = , j = , = & , = = , & ",
"p t t t t p t p r M p t t y y p t v p p v y t t v t p t i i p i d h u p p u p p p p p p p p c 8 M 8 8 p t I.rXH.H.H.H.H.H.H.H.,Xz.:X:Xl.H.,X*X:XH.,XH.,XH.,X:X:X:X,X:X:X,X,X<X,X;.L.A z B B Z /.a.9 X._ x.(.@XdXdXgX#X`.(.%XY.<X<X2X<X<X2X5X5X<X<X5X5X5X<X5X5X5X5X5X5X5X5X5X5X5X5X5X5X5X5X7X7X5X5X5X5X5X7X5X7X5X5X5X5X5X5X5X5X5X5X5X5X5X5X5X>X5X5X>X5X>X>X>X>X5X,X>X>X>X>X>X>X>X>X,X*X>X*X,X>X*X=X>X=X=X*X:X*X:X:X=X*X:XG.:.+.I.~.!.!.!.!.!.L.N.$ + % $ 8 ,XQ.Q.Q.Q.Q.Q.~.VXG.$.#.O.O.O.#.O.O.#.O.O.O.O.O.O.O.T T O.T T O.O.O.O.O.T O.T O.O.T T T O.T T T O.T O.T M O.L O.T T O.T T #.T O.O.O.T O.#.O.#.T #.R O.R #.O.R O.W #.#.O.#.O.) W #.R #.#.#.#.#.#.>.#.( ( ( ( } }  .L.OX/.`.|.gXgXgXdX].R.a._ Z N M._.( ) W R ) ( z.aXk.T -.-.<.1.1.<.<.,.,.1.2.1.1.2.<.1.2.1.2.1.4.1.h.h.3.4.h.h.h.h.h.z.h.z.F.F.z.F.F.I.F.I.F.F.I.L.I.Y.U.U.I.Y.U.U.Y.Y.Q..XY..XY..XY.Y.oXoXoXoX.X.XY.oXoXoX.XoXoX+XoX+XoXoXoX+XoXoX+XoX+X+X+X+XoXb./.{.sXgXdXsXB.x._ Z S N N 7 7 1 w 1 1 1 1 1 1 * 1 1 * 1 1 1 1 > > , , j , & j & & = j & = = j = - = 2 - j , = - = = , , = = & = = ",
"8 t p t t t t t t p t p t t p y t y y v t t v v p i p i u d i p u a a p p p d u a p p p c t t t p 8 8 p t I.rXG.H.H.H.H.H.H.H.H.z.:Xz.:X*XH.H.P.H.H.P.P.H.:XH.,X,XH.:X:X>X:X2X>X;.L.^ b B B ^ /.u.9 X._ x.(.@XgXgXgX#X`./.Z.1X<X<X<X<X2X>X<X2X<X<X2X<X2X5X2X5X<X5X5X5X5X5X5X5X5X5X5X5X5X5X5X5X5X5X5X5X5X5X5X5X5X5X5X5X5X5X5X5X5X5X5X5X5X5X>X5X5X>X5X>X5X>X>X>X>X>X>X>X>X,X,X-X>X*X>X,X*X*X>X>X*X=X=X:X=X:X*X:X*X*X*XH.*XG.<.M I.~.~.!.~.!.!.L.L.+ + + $ 8 ~.U.Q.Q.Q.Q.f.~.VXH.$.+.#.O.O.O.O.O.O.O.O.O.T O.O.O.T T O.O.O.T T T O.T O.O.O.O.T O.O.O.T T O.O.L O.L O.T T O.T T L O.O.T T O.T W #.T T O.T M R #.O.O.#.R R O.#.W #.#.#.#.#.#.( #.#.#.( #.( W #.( ( -.( ,.-.(  . .L.[.^.`.@XhXgXgXdX].R.] _ X.N M._.) ) W I ) W z.aXk.T -.-.>.-.,.1.>.<.>.1.,.1.,.1.1.1.2.2.4.2.h.4.2.4.3.h.h.h.h.F.h.h.j.h.h.F.z.K.F.I.F.I.F.I.I.I.T.L.Y.I.U.Y.U.Y.Q.Q.Y.Y.Q..XY.Y..XY..XY.oX!..XoXoXoXoXoXoXoX$XoXoXoX+XoX$X+XoX+X+X+X+X+XoX+XoXS.(.'.dXdXgXsXV.a._ Z S N 9 w 7 1 1 1 1 1 * j 1 1 * * 1 * j & 2 > , > & > & & 2 j = = , , & , & , j - j = , , , = - j = & & > , & = ",
"p t t t t p t p t t p t p r M y y c y y y v t t p p i p p i p a p p u p a d u p p p t p 8 c t z 8 p 8 p M I.rXz.H.H.,Xz.H.H.H.H.*Xl.:Xz.H.P.H.H.H.,X*X*X*XP.*XH.H.:X*X,X:X:X>X,X-.L.~ z x B Z E.] 9 X._ x.`.@XdXdXgX#X`.^.%XY.<X,X<X>X>X<X<X<X2X<X<X<X<X<X<X2X<X<X<X5X<X5X5X<X5X5X5X5X5X5X5X5X5X5X5X5X5X5X5X5X5X5X5X5X5X5X>X5X5X>X5X>X9X5X>X>X>X>X>X>X>X>X>X>X>X>X>X>X-X9X>X*X>X>X*X>X-X>X*X*X>X=X=X=X*X*X*X*X:X*X:X*XH.G.<.M I.tX!.~.0X!.!.L.N.X + $ $ 8 !.Q.Q.f.Q.Q.Q.rXmXH.#.#.+.O.O.O.O.O.O.O.O.T O.O.T T O.T O.T T O.O.T +.O.T T O.T O.O.O.T O.T O.T O.T O.T T T T O.L O.L O.T T O.T O.T T T O.#.T #.#.M #.#.R #.#.R #.#.W ) #.W #.#.#.( #.#.( #.>.( -.( ( -.( ( } ,. .L.OXR.(.|.hXgXgXdX).R.] Z _ N M._.) ) I ) W W j.aXk.R -.-.>.,.,.,.,.,.1.>.<.1.1.2.1.1.1.4.1.2.1.1.h.4.h.4.h.h.h.h.j.z.F.F.F.z.j.I.F.F.F.F.I.L.L.L.I.I.I.U.Y.Y.U.U.Y.Y..XXXY.Y..XY..X.XoX.X.X.XoX.XoX.XoX.XoXoXoXoXOXoXoXoX+X+X+X+XoX+X+XoX+X+XoXN.(.{.dXdXgXsXZ.x.' Z S N l 7 7 1 w 1 1 1 1 * 1 1 * 1 * 1 * 1 > , > & , & j j & & 2 = j & 2 = 2 , , , , , , , j = j = = , = = = & = ",
"t t t t p t t t t p p y y p y p t t v t t t v y p y p a u p u p i p p p p p p p t p p p c e t 0 8 p 8 8 t ,XrXH.z.H.H.H.z.H.H.H.z.*Xz.:XH.H.H.H.H.H.,XH.H.H.,XH.:XP.H.:X:X:X:X:X$.L.~ z C C Z ).] l X._ u.(.@XdXdXgX@X{.^.C.1X<X>X,X<X2X<X<X<X<X<X>X<X<X<X,X<X2X<X5X5X<X5X5X5X5X5X5X<X5X5X5X5X5X5X5X5X5X5X5X5X5X5X5X5X5X5X>X5X>X5X>X>X5X>X>X5X>X>X9X>X>X>X>X>X>X>X>X,X>X>X>X*X>X*X,X*X,X*X*X*X*X=X=X*X*X:X*X*X*X:X*X*X*Xl.:.M I.~.!.~.oX!.!.L.L.O X # $ 5 !.U.Q.Q.Q.L.L.~.nXH.+.O.O.O.O.O.M +.O.T O.O.O.O.T O.O.O.T T T +.T T T T T O.M T O.T O.T #.O.L o.T T T L O.O.L O.O.M O.T O.T T T O.T #.O.T #.R R R T #.#.R #.W O.) #.#.O.O.W #.) O.) #.#.( #.( #.( ( -.-.( ( (  . .L.OX^.`.@XhXgXgXsX].R.] X.X.l M._.( E I I I I h.aXk.R -.>.-.,.,.,.>.>.,.,.1.2.1.1.1.2.2.1.1.2.h.1.h.h.h.1.h.h.h.h.h.z.h.z.F.F.F.K.F.F.F.L.L.L.I.L.I.U.I.U.I.U.Y.Q.Y.U.Y.Y.oXXX!.Q..XXX.XY.oXoX.X.XoXoXoX.XoXoX$XoXoXoX$XoX+XoXoX+X+X+X+X+X+X+XoXM./.'.dXdXgXsXM.x._ Z S N l 7 7 w 1 1 1 1 1 1 * 1 1 1 * 1 * & 1 & > , j 1 & = & , j j 2 = & = - , & = , = 2 & , = , = & & = = & = = ",
"t t t p 8 t p t t t t p p y p y t v t v v v t t u i u u u i a u i p u a u a p p p p p p 8 c p 0 p 8 t 0 p z.0Xz.H.H.H.H.z.H.H.z.:Xz.*Xz.z.H.H.P.H.H.H.H.P.H.:X*XH.:X:XH.*X:X,X:X#.L./ x B B ! /.] 9 X._ x.(.@XdXdXgX#X`.^.%XY.>X:X>X>X>X,X>X,X>X,X<X<X<X<X<X<X<X<X,X<X>X5X,X,X5X5X<X5X5X5X<X>X5X5X5X>X5X5X5X>X5X5X9X>X5X>X5X5X9X5X>X5X>X5X>X9X>X>X>X>X>X>X>X>X>X9X,X*X>X,X*X>X*X-X*X-X*X-X*X*X*X=X*X*X*X*XH.H.*XH.*XH.H.l.:.M I.tX~.~.!.!.~.L.f.O + $ O t !.Q.U.Q.L.~.f.,XnXH.#.O.O.O.O.O.O.O.O.O.L o.T T O.L T T T L T M T L +.T O.O.#.T O.M O.O.M L O.T T T L O.M m O.O.M O.o.T T T T T T T T T T R R R #.#.R R #.R #.T R #.#.#.#.#.#.W #.#.O.( #.( #.-.( W ( ( ( } } }  .L.[.^.(.|.hXhXgXsX).R.x.Z Z N B._./ ) E I ) ) h.uXh.T -.-.>.-.,.,.1.,.1.>.,.,.,.,.,.1.1.1.2.1.1.4.2.1.h.g.h.g.h.h.j.j.j.F.j.j.F.F.F.K.L.F.I.I.L.T.L.I.U.U.Y.Y.U.U.Y.Y..XU.U.Y..XXX!.!..XoX.X.XoXoX.XoX.XoXoXoXoXoX+XoXoX+X+X+X$XoX+X+X+XoX$XOXoXN./.'.dXdXgXsXB.a.' Z S N 9 9 7 1 1 1 j 1 j 1 1 1 * * 1 1 1 1 > , > > = & , j , , = & , = 2 2 j , 2 - j 2 = , , - j 2 = , = & = = > ",
"t t t t p t t t t y t y y p y p y t t v y v v t p p t u p u p a d p u p u p p p p p 8 p p 8 t 0 p 8 p 8 0 I.rXk.z.H.G.z.G.H.G.H.z.z.H.*X*XH.l.H.H.H.:XH.H.H.z.:Xz.:XH.H.*X:X:X:X-.L.^ C C C Z ).] 9 X.] u.(.@XgXgXgX#X(.^.Z.Y.>X>X:X>X:X>X>X>X>X>X>X>X>X>X>X<X<X>X<X<X5X>X5X>X5X>X>X5X>X>X5X<X5X5X>X5X5X>X5X>X5X5X5X5X5X5X5X>X5X>X>X>X>X>X>X>X>X>X>X*X>X*X9X>X,X>X*X*X>X*X-X*X>X*X*X*X,X*X*X*X,X*XH.*X:X*XH.*X*X*XH.*Xl.l.;.M Y.oX~.~.~.~.!.L.N.@ X $ $ 8 !.L.L.f.L.L.~.rXnXl.#.O.#.O.O.O.O.O.O.O.O.O.L O.M O.L L o.T T +.O.T T O.T T T O.L O.+.L O.O.M O.L T T T T T L T T L L O.O.O.M T T T T #.R T #.R #.R T #.R R #.#.#.O.T #.O.#.W #.O.#.) #.W #.( W -.( -.-.( } ( }  .L.[.R.(.[.hXgXgXdX].C.] Z X.l Z._./ I U U I M g.iXk.T W -.( >.,.-.1.,.>.<.1.1.>.,.1.1.2.4.1.1.h.1.h.h.4.4.h.h.j.h.j.h.F.j.z.L.z.F.F.F.I.I.L.L.I.L.Y.L.U.Y.U.U.U.!.Q.XXY.U.oXY..XY..X.XoX.X!.oX.X.XoX.X.XoXoXoXoXoXoX+XoX$XoXoX$X$X+X+X$X+X+X+XoXM.(. XdXdXgXsXB.x._ Z V S 9 w 7 7 1 j w 1 1 1 j 1 1 1 * * 1 1 & > > > , > & j , j = 2 & = j & , - = , - = 2 j = , - = & , & & = = & ",
"t t t t t p p t p p p p y y p y t v y y t t t t i a a u a i u u h u u p d 0 p u p p 0 p p p p 8 8 p 8 t M z.2Xz.H.z.z.G.G.z.z.G.H.l.l.z.z.H.z.*XH.z.z.H.H.*Xz.H.*XH.P.:Xz.:X,X:X-.L.| M C C _ (.] 9 X._ x.(.|.dXgXdX#X`.^.%XP.>X,X>X:X:X>X:X:X>X>X>X,X>X,X>X>X>X>X<X>X>X>X>X<X>X>X5X>X5X>X,X5X>X5X>X>X>X5X>X5X>X>X>X>X>X>X>X>X>X>X5X>X5X>X>X>X>X>X>X>X>X>X,X9X*X>X*X>X*X>X*X*X>X>X*X*X*X*X*X*X*X*X*X*X*X*X*X*XH.H.*X*Xl.k.;.M U.oX~.~.~.!.~.L.L.@ X % # 8 Y.L.L.I.L.L.f.!.nXl.#.O.O.O.T O.+.M O.O.T T o.O.O.T L T T T T o.M T T L L O.T L O.L M O.L O.O.T T L T L L L O.T L O.O.L M O.O.R T T T R R R #.R T R #.R #.W R #.R ) R R ) #.#.#.) W #.W -.( -.W ( W ( ( >.( ( } } L.OX/.`.@XhXhXgXsX).C.x._ Z N M._.E ) U U M M g.iXk.T -.>.>.,.>.,.,.-.1.,.>.1.<.1.,.1.1.1.2.1.1.2.4.1.h.1.h.h.h.j.h.j.h.z.j.z.F.F.F.F.F.F.F.T.L.L.I.U.T.U.I.Y.U.U.Y..XU.Q.Y.XXY..X.XY..X.XXXoXoXoX.XoXoXoX$XoX$XoX$XoX+XoX+X+XoX+X+XoXOX+X+X+X$XM./. XdXdXgXsXB.x._ Z S N N w w 7 1 1 1 1 1 1 1 * 1 * 1 * 1 & > 1 , 1 & , 2 = j & , = j 2 = j , j , = j 2 & 2 = , j = , & , = = & , ",
"t p 8 t 8 t p t t t p t y t t M y i a i p t v v u a u a u a u u p p t p p t t p t p p p 8 8 p p 8 p 8 8 M z.rXk.z.l.l.z.UXz.z.l.H.z.l.z.l.H.H.z.H.H.H.H.H.H.H.H.=XH.H.z.:X:X:XH.-.U.| C C C ! ).] 9 S ] c.(.|.dXdXgX#X`.^.%XP.:X:X:X:X:X:X>X:X:X>X=X>X>X>X>X:X>X>X>X>X>X>X>X>X>X,X>X>X>X5X>X4X>X>X5X>X>X>X5X>X5X5X>X>X>X>X>X>X>X>X>X>X>X>X>X>X>X,X9X*X>X>X>X>X*X*X>X*X>X*X*X*X*X*X,XUX,X*X*X*X*X*X*XH.*X*X*XH.*XH.&XG.G.l.&.M I.+X~.~.~.~.~.L.f.O X + $ 8 Y.L.L.L.L.L.L.!.mXl.#.#.O.+.O.M O.M +.+.o.L T O.L T O.O.L L L L O.T L T O.T o.T T L L T T T L T T T L O.M L R T T L L L T L T T T T T T R R O.O.R #.#.R R W #.R #.W #.#.#.W #.#.O.W W ( #.W #.#.( ( #.( } ( } } } D.[.^.(.|.hXgXhXsX).R.] X.Z N Z._.E E U U U I g.rXh.T ( -.-.} ,.,.} ,.,.,.,.,.1.2.1.<.1.1.2.1.h.1.h.1.h.g.g.h.g.g.h.F.F.j.F.D.F.F.F.I.K.L.I.L.I.L.U.T.U.T.U.U.U.T.Q.Y.U.Q.!.XXXXQ.oX.X.XY.oX.XoX.XoX.XoXoXOXoXoXoX+X$XoX+X$X+X$X+XOX+X$X+XoXOX.XM./.{.fXdXgXsXB.x._ Z V N l w w 7 1 w 1 1 j 1 j 1 1 1 * 1 1 * 1 & , & > j , , & j j 2 , = 2 , j 2 , , 2 = = j , 2 = 2 & 2 & = = & = ",
"t t p t p t t t p t y t M r y r p y t p y a y y u u u i u u a u t t p p p p p p p p p p p p p 8 p 8 8 p 8 I.,Xz.UXz.z.l.z.z.l.k.l.l.z.l.z.z.l.l.H.z.G.H.z.H.z.H.z.*XH.J.H.H.:X:X-.N.[ Q C C _ '.] 9 X._ x.`.@XdXdXdX@X(.^.Z.Y.:X:X:X=X:X:X=X=X:X:X:X:X=X=X:X>X=X>X>X>X>X>X>X>X>X>X>X>X>X>X,X>X>X>X>X>X5X>X>X>X5X>X5X>X>X>X>X>X>X>X>X>X>X>X>X>X>X9X,X>X>X*X*X>X*X>X*X*X*X>X*X*X,X*X*X*X*X*X*XH.*XH.*X*X*XH.UXH.*XH.l.H.l.l.$.M U.+X~.~.+X~.~.L.N.@ + @ $ 0 Y.z.j.j.j.j.f.Y.nXl.$.O.O.+.M +.+.O.+.M O.O.L L T L T L T T O.L L T T T L T T T T T O.T L L T T L T T L O.T T L T L T T R R R R L Y T T O.R R R O.R R W O.R R W #.R #.W W #.#.#.) #.#.#.( ( #.( ( ( ( W ( } ( } } L.OX^.(.@XhXhXhXsX].R.] _ X.9 Z.W.~ U U M U U 1.eXk.R #.>.( >.-.>.>.>.,.( 1.>.1.,.1.1.1.1.2.4.1.h.1.h.1.h.h.1.h.h.h.h.h.F.j.z.F.F.F.D.L.L.F.F.I.L.I.U.Y.U.U.!.Y.Q.Y.Y..XQ.Y.Q.!.XX!..X!..X.XoX.XoXoX$XoXoXoXOX+X.XoXoX+XoXoX+X.XoX+X+X+X+X$X+XoXM.).{.dXgXdXsXB.x._ ! S N N 9 w w 1 1 1 1 1 1 1 1 j 1 * 1 * 1 & 1 > , > j & > 2 , & = j 2 & & 2 = = j = 2 j - , & = 2 = = & , & , & ",
"t t t t p t t p t t t p y t y t i p i p p v t t u u u u u u u u p y p p p p p p p 8 p p p p p 8 p p 8 p t I.,Xz.z.z.l.z.k.z.l.z.z.k.l.z.l.z.z.k.z.H.G.z.H.z.H.G.:Xz.z.H.H.z.:X*X-.A.[ E A C _ '.] 9 S ] x.(.@XdXgXgX@X(.^.Z.P.=X:XH.*X:X:X:X=X:X=X:X=X:X:X=X:X:X*X,X*X,X,X>X>X*X>X>X>X>X>X>X>X>X>X>X>X>X>X>X>X>X>X>X>X>X9X,X>X>X>X>X>X>X>X>X>X*X*X,X*X*X>X*X*X>X,X*X,X*X*X*X*X*X*X*X*X*XUX,X*XH.*XG.*XG.H.G.H.UX*XG.G.l.k.;.M Y.+X~.~.+X~.~.L.n.@ X $ $ 8 I.j.j.j.j.j.j.Y.nXl.>.O.O.O.+.O.L M +.L O.o.O.T O.o.L L T T L O.L L T L T T T T T T L L L L L L L R L L L T L R L L R R R R R L Y T R R T T R R W R T R R #.R #.R R #.W R #.R ) #.#.( W W #.( ( ( ( W ( ( ( ( } } L.[.^.].@XhXhXhXsX).R.] Z X.x Z._./ E U C U U >.eXk.R -.( -.,.-.-.,.>.,.,.,.-.,.1.,.,.1.1.1.1.4.1.1.1.h.h.g.g.h.h.j.h.j.h.F.j.F.F.F.F.F.F.L.L.L.L.U.T.U.U.Y.U.U.U.Q.U.Y.XXXXQ.$XQ.XXXX.XoX.X.X.XoX.XoX.X.XoXoXoXoX$X+XoX+X$XoX+X+X$X$XoXOX+X+XOXM./.{.dXdXgXdXB.x._ Z S S 9 9 7 7 w w 1 1 1 1 j 1 * > 1 * 1 > & > , > > , , , & 2 & j & = j 2 & 2 , - = , , = 2 & 2 & & = = = & & = ",
"t t t t t t t t t p t y p p t t t y p i y y y c p i u u u u 8 u p p t p p t t p p p p 8 8 p 8 p 8 p 8 8 p z.,Xz.k.k.z.0.k.k.z.0.k.k.z.l.z.l.k.k.l.z.z.G.G.H.G.z.l.z.*XH.H.:X:X*X-.W.x.C A A _ '.] 9 X._ x.(.@XdXdXgX#X`.C.%XY.=XP.:X*X*X*X=X=X=X=X=X:X=X=X:X=X:X>X*X>X*X>X>X>X,X>X>X*X>X>X>X>X>X>X>X>X>X>X>X>X>X>X>X>X>X>X9X>X*X*X,X*X>X>X*X*X>X*X>X*X9X*X*X*X*XUX,XUX*X*X*X*X*X*XUXH.*XUXUXH.*XH.*XH.*XUXH.*XG.l.H.G.l.k.&.M U.+X~.+X~.~..XL.N.@ + $ $ 0 I.j.g.j.j.j.j.I.vXl.$.O.O.M +.T O.T T O.L L M O.M L L T L L L L L T T T L T L L L T L L R R R L L L L L L L L L T L L R L K R T T P T T O.M #.R R #.R #.R #.W #.R W R #.#.T ) #.R R >.( #.( ( W #.) #.( W } } }  .D.OX^.`.|.hXhXhXsX].C.u.X.Z x E.E.C C U D M U ( eXh.R -.>.>.( } -.>.-.>.} ,.1.,.>.,.1.1.,.1.1.1.1.g.1.g.1.h.h.g.g.h.j.h.F.j.F.z.F.F.L.F.L.I.T.L.I.L.I.U.T.U.U.Y.Y.XXQ.Q.U.!.!.T.XX!.!..X.X.X.XoX$XoXoX+XoX$X+X.X+X$XoXoX$X+XOX+XoX+X+X+XOXoX+XoXM.R.'.dXgXgXsXB.x.' _ S N N 9 7 7 1 1 1 w j 1 1 1 1 1 j 1 1 > 1 1 & > 2 & > 2 j & j , 2 = , = j = & & 2 , = 2 & 2 = 2 = 2 & & , = & ",
"t t t t 8 p t t t t t t y t p t y u u t u i i u i u i u u u u u y t p t p p p p p p p p p p 0 8 8 p 8 p M z.,Xz.k.z.0.z.z.z.0.z.k.k.k.k.k.k.k.z.l.z.k.k.z.z.l.H.z.H.l.H.z.:X:X*X-.W.s.^ A Z _ '.[ 9 X._ u.(.@XdXdXgX@X X^.C.T.-XH.:X*X:Xl.:XH.:X=X:X*X:X*X:X*X*X*X,X*X>X>X*X>X*X*X>X*X>X,X>X>X>X>X,X>X>X>X>X-X>X,X>X>X>X>X*X>X>X9X9X*X,X*X>X>X>X*X>X*X*X*X*X*X*X*X*X*X*X*X*XH.*X*XUXH.*XH.*XH.UXUX*XG.H.G.*Xl.H.l.l.l.l.0.$.M Q.+X~.+X~.~.~.U.f.@ X $ $ t I.g.g.j.g.g.g.Y.nXl.$.O.T L +.T T M +.L T L O.O.L T L L L O.M L L L L M o.L T T L T L R L L L R K L R L R K L R L L L Y L Y R L Y L R R R R T R W W #.R R #.R R W W #.W #.W #.#.) R W W ( W ( ( #.( ( W } W E }  .L.OX/.`.|.hXhXhXsX).C.] X.X.N Z._.E U U D C M ( 0Xh.R -.( -.,.-.,.( -.} ,.,.,.,.>.1.,.>.1.1.2.1.1.h.>.h.g.g.g.h.h.h.F.h.h.F.F.F.F.L.I.j.L.L.I.L.L.I.U.U.I.U.Q.U.!.T.T.XXQ.XXXX!.XXXX!..X.XoXoX.X.XoX.XOXoXoX+XoX+X.XOXoX+XoXOX+X+XOX+X+X+X$X+X.XM./. XdXdXgXdXZ.x.' _ S N l 9 7 7 w w 1 1 1 1 1 1 * * 1 1 * > 1 > & > , , j & 2 & 2 = 2 & j = j 2 j 2 , , & , = 2 2 = , & , , = & = ",
"8 p t t t t t t t t t p t t y t u u u a u u u u u u u u u p u u t p t p t p t p p 8 p 8 p 0 8 p p 8 8 p M z.,X0.z.0.k.0.0.z.0.z.k.k.z.2.h.k.k.k.k.k.k.z.l.k.l.z.l.z.H.z.l.z.H.H.#.W.b.~ A A _ '.s.9 X._ x.(.|.dXdXgX@X(.^.%XT.*X:X=XH.*X:X*X*X=X*X*XH.*X:X*X*X:X*X*X*X*X*X>X*X>X,X*X>X>X-X*X>X*X>X>X*X>X*X>X*X>X>X*X>X*X*X>X*X>X*X,X*X9X*X>X*X*X*X*X*X*X*X*X*X*X*X*X*X*XH.*X*X*XH.*X*XUX*XUXUXH.H.UXG.G.*XUXG.G.l.l.l.l.0.&.m U.+X+X~.+XoX+XL.N.@ X + $ 8 I.g.g.j.d.>.d.z.nXl.-.+.O.T O.L O.+.L O.L T L M T L T L T L o.R T L T O.O.M o.L T T L L R L L L L L L L K L R M L R L K L L R R R R R R R R T T T R R R W R R R #.W R R W ) R #.W W #.#.#.W W ( W W ( ( ( } } { } D.[./.`.@XhXhXhXsX].R.] _ Z N Z._.C C M D D U } 0Xh.R ( ( >.( >.>.,.>.,.>.-.>.>.,.1.,.1.1.1.1.h.1.1.g.1.1.h.h.g.j.g.j.j.g.F.j.F.F.F.F.L.F.I.F.L.I.U.T.U.U.U.T.U.U.Q.XXY.Q.T.U.XXXX!..X.XoX.X.XoX.X.X.XoXoX$X.XoX.X+XoXOXoX$XOXoXoXOXOX+X$X+X+XoXM./. XdXdXgXsXB.c._ ! V V N 9 w 7 7 1 1 1 1 1 j 1 1 1 1 * 1 > > 2 1 , 1 > & & , 2 & 2 & 2 & , , & , & , , , = , = & 2 & , = & = & , ",
"8 t 8 t t t t p t t t t t t p t t t u t u i a t u i u u u t u u p t p p t p p t p 8 p p p p p p p p t p M z.,Xz.z.0.0.z.z.0.0.0.z.0.0.z.k.k.k.k.k.k.k.k.k.k.z.l.H.l.l.l.z.*XH.H.( W.m.~ E A _ {.u.9 S _ x.(.|.dXgXgX#X`.^.%XP.=XJ.z.*X=Xl.:X*X*XH.*X*X=X:X*X=X*X*X*X*X*X*X*X*X*X*X*X*X-X*X>X*X,X>X*X>X*X*X,X*X,X>X*X*X>X*X-X>X*X*X9X*X*X*X*X*X9X*X*X*X*X*X*X*X*XUX*X*X*XUXH.H.UXH.*XH.UX*X*XUXH.*XG.G.H.G.G.H.G.l.H.l.k.q.$.M Q.+X+XOX~.+X.XU.f.O X $ @ 8 F.g.1.d.>.>.d.I.nXl.#.O.T T L L T T M L T T L o.L L L L T L L L L L L m T L M L T M L L L L L L L L L L Y K L K L L L K Y L M R R L Y R R T R R R R R #.R R R R #.R #.W W R #.W W W #.( W #.( ( W #.) ( ( ( } } } L.OX(.`.@XgXhXhXdX].C.] _ X.S Z.).A C C M D M ( 0X2.R ( -.( ( ,.-.} ,.( -.,.-.,.1.,.1.,.1.1.1.h.g.1.1.h.g.1.h.g.g.h.F.h.j.g.F.j.F.D.F.F.F.L.I.L.I.L.L.U.Y.U.Y.Q.Y.Q.T.XXQ.XX!.XXXX!..XoX.X.XoX.X$XoXOXoX.X+X+X$XOXoX+XoXoX+X+X+X+X+XoXOX+XoX+X.Xb.(.{.sXdXgXdXV.x.' ! S N N w 7 w 1 1 w 1 1 1 1 * 1 1 * * 1 1 * , > > , > , j 2 > 2 > 2 & 2 , , > , j , , j , j = 2 & = & = = & & = ",
"t t t t t t t 8 t p t t t y t t t p i u i t t i t u u t u t u u t p t t p t p p p p p 8 p 8 p 8 8 p 8 y M z.,X0.0.z.0.0.0.0.z.z.2.z.0.0.k.k.k.k.k.k.k.k.k.k.k.z.z.l.z.z.l.z.H.H.( _.B.^ ~ A _ {.] w X._ x.`.@XdXdXdX@X`.^.Z.Y.J.J.:Xl.z.:Xl.H.H.*X*XH.H.*XH.H.*X*X,X*X*X,X*X*X*X>X*X,X*X*X*X*X*X*X*X*X>X*X*X>X*X*X>X*X*X,X*X*X,X*X*X*X,X,X*X*X*X*X*X*X*X*X*X*X*X*XH.*XUXH.*X*XH.UXUXH.H.UXz.H.UXG.G.G.UXG.G.G.H.l.l.l.l.0.$.m U.OX~.+X+X+XOXL.N.@ O $ $ 8 z.>. .) >.>.) z.vXz.+.O.O.T L O.L T o.O.L L T L L T L L L L L T L L L L L L T L L L L L R K L R K R K L K R K L K K Y L R T R Y L R R T R R R R T W T R R W #.W R W R R R W R #.W W W ( W W ( W ( W ( W ( / ( } | D.[.(.`.@XhXhXhXfX/.C.] _ X.V Z.W.A U M z B M ) 0X2.L ( ( ( -.( -.>.>.,.( >.,.} ,.,.1.1.1.1.>.1.1.1.g.1.h.h.g.1.h.g.g.F.F.F.F.F.F.F.L.I.L.L.L.L.L.U.I.T.U.U.U.U.U.U.!.U.!.U.XXU.XXXXQ..XoX.XoX$X.X.XoX.XoXOX.X+XoXOX$XOX+XOX$XoXOXoX+X+X$X+XOXoXM.(.{.sXgXdXdXV.x.' ! S S l 9 w w 1 1 1 1 1 1 1 * 1 * 1 1 > 1 > > & > > , > 2 & , > 2 & j = j , = , = , = = = 2 & & 2 = & , = & = & ",
"t t t t t t t t t t t t t t t t p t p y t t p y t u u i t u u u p t p t v c 8 y p 0 t p p p p 8 p 8 0 p p z.,Xh.z.2.0.>.z.0.z.0.0.k.z.2.0.0.z.0.z.0.z.0.z.0.k.z.l.k.k.k.z.z.*Xl.( _.V.[ ~ A _ '.s.9 S _ u.(.@XsXdXgX#X`./.%XT.*XJ.H.H.H.H.H.H.H.J.H.*X*XH.*X*X*X*X*X*X*X*X*X*X*X*X*X*X,X*X*X*X*X*X*X*X*X,X,XUX,X,XUX*X,X*X*X*X*X*X*X*X,XUX*X*X*X*X*XUX*XUX*XUX*XH.UXUX*XUXUX*XUXH.H.UX*XUXz.H.H.G.UXG.G.l.G.l.l.l.l.l.k.6.+.M Q.+XOX+XOXOXOXU.f.* X * * 8 F.1.) >.) ) g.z.uXl.-.O.L L o.T M T L L T o.L L L L R L L L L L R R M L M O.L L L K L K R L Y L L R K K K K Y K K K Y K Y L R L R Y R R R R T R R R W R T R T W R R W W R W W W W W W W ) W W ( W W ( ( ( / } { } D.[./.`.@XhXhXhXsX/.C.x._ Z V M.W.^ C b z x M ( 0X>.T ( -.( ( -.( ( ,.( -.-.} ,. .>.>.1.1.1.1.1.1.1.g.1.g.h.g.h.g.g.j.j.j.F.D.z.F.F.F.F.L.F.L.L.L.T.U.U.U.U.Y.Q.Q.Q.Q.Q.Q.U.XXXXQ.oXXXXX.XoXXXoXoX.XoX.X+XoX+X$XoXoX$X+XoXOX+XOX+X+X+X+X+X$X+XoXc.].}.sXdXgXdXB.x._ X.S S l w w 7 1 1 1 1 1 1 1 1 1 1 * 1 1 1 * > 1 1 > > > > , , & , j 2 & , j , & , , & , = j - & 2 , , & = & = & ",
"t t 8 t t 8 t t t t 8 t t t t t t p t t p y y p u u t t t p h u t p t p e t t c p t 0 8 p 8 p 8 8 p 8 p p z.,Xh.0.z.2.z.0.0.0.>.2.2.2.2.z.0.0.z.0.0.0.z.0.z.k.z.z.0.l.z.l.l.*Xz.) _.C.] ` A ' '.u.9 X.X.x.(.@XsXdXgX@X}.^.%XI.H.H.H.G.H.l.G.H.l.l.*Xz.*X*Xl.H.H.H.UXH.*XH.*X*XH.H.*X*X*X*X*X,X*X*X*X*X*XUX*X*XUX*X*X*X*X*X*X*X*X*X*XUX,X*X*X*X*X*XH.*XH.UXH.H.H.H.*XH.*X*Xz.UXH.UXH.z.UXH.UXUXUXG.G.l.H.l.G.l.l.l.l.k.5.k.+.M U.+XOXOXOXOXOXU.f.@ X @ @ 6 3.( ( M ) #.>.z.aXl.$.O.L O.L L O.L L L L L L L L o.M L L L L L M L L L R o.M L L R L L L K K M L K K L L R K K R K Y Y K R K R L R R R R Y Y R R R R R R W W R R W R R #.#.W W W W W R W ( W W ( W ( ( ( } W } } L.[./.'.@XhXhXhXsX).V.] _ _ V E.).M C B M M b ( 1Xh.T ( -.( -.>.>.-.>.,.>.} ,.,.,.,.>.1.1.,.1.1.1.g.1.g.g.1.1.g.g.h.F.j.z.F.D.F.D.F.L.F.L.L.L.I.L.U.U.I.U.Y.U.U.U.Y.U.!.Q.XXXX!.U.XX!.XX.X.X.XXX$XoX.X$X.XOX.X+XOX$XoX.X+X+X$XoX$X.X+X$X+X+X+X.XM.].|.sXdXgXfXZ.v._ _ S N l w w w 7 w 1 1 1 1 1 * 1 * 1 1 * & 1 > , , > 2 , , > 2 , & & 2 2 = = j , j = , , , , = , , & = & & , = & ",
"8 t 8 t 8 t 8 t t t 8 r t t t p t t t y t p y p t t u u t u u u y t p t t t t 8 t p p t p p 0 p p 8 p 8 t z.z.k.0.0.2.0.2.z.>.z.2.2.2.z.z.0.0.z.2.z.0.z.z.0.z.0.k.k.k.z.z.l.H.l.) ).^.a.` ~ _ {.x.9 X._ x.(.|.dXgXgX@X{.^.%XT.H.H.G.G.l.l.H.l.H.*Xl.l.H.l.*Xl.*XH.H.H.H.H.H.*XH.*X*X*X*X*X*X*X*X*X*X*X*X*X*X*X*X*X*X*X*X*X*X*X*X*X*X*XUX*X*XUX*X*XUXH.*XH.*XUXUXUXUX*XUXUXH.H.UXUXUXz.UXUXUXz.z.l.l.l.l.UXz.l.G.l.k.k.k.k.+.M Q.OXOXOXOXOXOXU.f.$ : * * 8 4.( ( >.>.M ) z.uXz.$.O.O.L O.o.o.L L T O.L L L L L L L L L R L L m L L L L L L L L R K Y M L K Y Y L R K K K K K Y K Y K K R Y M K Y P Y R R R R R R W R R R T W R W R W M ) W W W W ( W W W ( W ( ( / ( ( { ....L.[.(.`.@XgXhXhXdX(.C.] _ _ V Z._.^ C M b b z ( 0X2.L ( ( ( ( ( ( >.( ,.( -.,.,.} 1.} 1.1.1.1.1.1.1.1.1.1.g.g.h.g.j.j.j.F.j.j.F.z.D.I.F.I.L.L.T.U.L.I.U.L.U.U.U.U.XXQ.T.XXY.T.XXXXoXXXXXXXXX.X$XoX.X+X.X.X+X.XoXOXoXOX$X$XoXoX+X+X+X+X+XOX+XOXoXM.].|.sXdXgXdXC.c.] X.S N l 9 7 7 1 1 j 1 1 j 1 1 1 1 * * 1 * > > , > > & , > , > j 2 , , & 2 & 2 & 2 = j - 2 & = 2 = = & = = = = & ",
"t t t t t t t t t t t t r t t t t t t p t y t t a t t t u t 8 u p t t p c t t c p 8 0 0 p 8 p 8 8 t 8 p t z.I.2.>.z.2.2.2.2.0.0.2.z.2.0.2.0.2.2.z.2.0.0.0.z.0.z.0.z.k.0.l.z.UXz.} )./.c._ ~ ' {.[ l X._ x.`.@XdXgXgX@X`.^.%XT.H.H.l.K.K.G.G.l.l.z.l.H.l.z.*XH.l.H.UXH.UX*XUXH.*XH.H.H.*XH.UXH.H.H.*XH.*XH.*XUX*X*XH.UX*XUX*X*Xz.*X*X*X*XUXH.*XUXH.UXH.UXUXz.UX*XUXz.UXz.UXUXUXz.z.UXUXl.z.UXUXUXl.G.l.l.l.l.l.l.l.l.k.k.:.+.M Q.OXOXOX@XOXOXQ.z.$ : @ @ 8 4.( W M >.>.) z.aXl.$.O.m O.L M O.L L L M L L L M L L L L M L L L K R L M L L M R K K L K L K K K K K K K Y Y Y K K R K Y K I Y Y Y R Y Y R R R R R R R R R R W R W R W R W R R W W W W W ) W W W ( W W ( / W } } N.OX/.`.@XhXhXhXdX/.C.a._ ! V V.E.C C z z z M W ,X>.L W ( -.-.( -.( -.( ,.>.} ( ,.>.1.1.>.1.1.1.g.1.g.g.1.h.h.g.g.h.g.h.j.D.j.F.L.F.F.L.F.L.L.U.I.L.U.U.T.U.U.Y.U.U.U.XXQ.XX$XQ.Q.XX!..X.XoXoXXX.X.X.X.XoX$X$X+X.X$XOXoXOXoXOX+X$X+XoX$X+X+X$XoXb.].}.dXdXdXdXB.c._ Z S V l w w 7 1 w 1 1 1 1 j * 1 * 1 1 * 1 > > 1 , > & 1 , > , > 2 & 2 & j 2 & 2 , j , = = 2 & = & , 2 & & & = & ",
"r t t t t r t t p r t t t t t t t t y y y r t t u t u u t t p u u u u u t t t p t p 0 t c 8 t 8 t 8 8 8 M z.z.h.2.2.2.z.2.2.2.0.2.2.2.2.2.2.2.z.2.z.2.z.2.z.z.0.0.z.0.0.k.l.z.UX} './.v.' ~ ' '.u.N X.X.x.(.|.dXgXgX@X}.^.Z.T.H.H.l.K.k.z.l.l.l.l.l.z.l.H.z.l.l.z.UXz.UXH.UXH.H.*XH.UXH.*XH.H.H.*XH.H.UXH.H.UXH.H.UXH.H.UX*XH.H.*X*XH.UXH.H.UXH.UX*XH.UXz.UXUXl.z.UXl.UXz.z.UXUXl.l.l.l.l.l.UX0.l.l.l.l.l.l.k.l.l.k.7.5.2.O.M Q.@XOXOX[.OXOXQ.f.@ @ $ $ 4 g.) R W W ) W z.aXk.$.L o.L T L T L L L L K L L L m L K K K K K L L M L L L K L K K K K R K K K K K K Y K K K L M Y R K R I R K R Y K Y Y R Y R I R R R R R R W I W W R W W M W W E W R ) W W ( W ) W } E } } ) ) L.OX/.(.@XhXhXhXdX(.C.] _ _ V E.E.A C b b z b W ,X2.R ( W ( -.( ( -.( ,.( ,.>.} ,.} } 1.>.,.1.1.1.1.>.g.g.1.g.g.g.g.j.g.F.g.F.D.F.D.D.F.L.L.L.L.L.L.L.U.U.U.U.U.U.Y.U.Q.U.XXQ.XXQ.XXoXXXXX.X.X.XoX$X$X.X.XOX+X$X.X+XoXOXoXOX+XOX+XoX$X+XOX+X+XoXM.].|.dXdXgXdXV.c._ Z S S l w 7 7 1 1 1 j 1 1 * 1 * 1 1 1 * 1 > & > > , > 1 , > , , j 2 & 2 2 j , = & 2 & 2 = = = & & = = = = & = & ",
"8 t 8 r t 8 8 t 8 t t t t t t t t t t p M r y p t t t t u t t t p t t t t t p t 0 t t 0 4 c 8 c 8 t 8 M 8 z.H.>.2.2.2.>.>.2.2.0.2.2.2.2.2.2.2.2.0.2.2.2.0.0.2.z.0.0.z.z.0.z.H.z.)  X(.B.' ^ a.'.u.9 S ] x.(.@XdXgXgX#X}.^.Z.J.K.K.K.l.l.l.K.G.k.k.l.l.l.l.l.l.l.UXH.UXH.l.H.z.l.z.UXH.UXUXH.UXH.z.UXH.H.UXH.UXH.H.UXUXH.z.H.UXUXUXUXz.*XUXH.UXH.z.UXUXz.UXUXz.l.UXl.l.l.UXUXUXz.l.l.l.l.l.UXz.UXl.l.0.k.k.l.l.0.k.k.k.k.0.#.M W.[.@X@XOXOX[.U.f.@ @ $ @ 8 1.R ) I R R ( I.uXz.$.O.O.L L L L L L L R L L L L L L L L L K K m L R M L K K K K R K K K K K K Y F Y K K K Y L I K K K I K R F R Y R Y K Y Y R R R R R W R R R R R R W R W R W W W W ( W W W W W W ) W ( / }  .d.N.|.(.`.|.hXhXhXdX(.R.a._ _ V M.E.C C z b z x W Y.h.R W ( -.) -.-.( ( ( -.-.>.-.>.1.1.1.1. .1. .1.g.g.1.h.>.h.g.g.h.j.F.g.F.j.F.F.F.F.L.F.L.L.I.T.U.T.U.Y.U.U.U.XXU.XXY.XXXXXXQ.XX!.Q..X.X.X.X.XXXXX.XoXoX.X.XoXoXOX+X.X$X+XOX+X+X$X+X+X+X$XOXoXb.`.|.dXdXgXdXZ.c.] Z S N l 9 7 7 1 w 1 1 1 1 1 1 1 1 * * 1 * 1 > 1 > > , & , j j , , & & j & 2 , = 2 & 2 = & 2 2 & 2 & 2 & & = & = ",
"t t t 8 t t t r t r t t 8 p t t t p t p p t y t t u t t t u t t t t u 0 p t t 0 0 p c t t c t 8 p 8 t 8 t h.H.k.2.2.0.>.0.2.2.>.2.2.2.2.2.2.2.2.z.2.2.0.2.2.2.2.0.z.z.0.0.z.z.UX} {.`.B.] ` a.'.[ w X._ x.`.|.dXdXgX@X{.(.%XK.H.l.z.K.k.l.k.k.k.z.l.k.k.l.l.l.k.z.UXz.UXl.H.UXUXz.UXUXH.z.UXUXUXUXUXUXH.UXUXz.UXUX*XUXH.*XUXUXH.z.*X*XUXz.*Xz.UXz.UXUXz.UXz.l.UXUXz.UXl.l.l.l.l.l.l.l.l.0.l.UXz.l.l.l.l.l.l.q.l.k.7.0.k.2.+.M Q.@X@XOX@XOX|.U.f.$ @ $ $ 8 >.E R W I I ) z.iXl.#.o.L L L L L L L L K K L L L M L L n K K M L K K L K K Y R K K L K K K K K K K L M L K F K Y M K K R K K R R I R Y K Y K R R R R R W W R R W W R R R R W W ) R W W W W W W W ( W / ( ( (  .| N.[.^.`.|.hXhXhXdX).C.x._ _ V E.E.C C z z b b W P.2.M ( ( ( -.( ( -.>.-.} >.>.} ,.}  .,.>.1.1.1.1.1.1.1.g.g.>.h.g.g.g.F.F.g.F.D.D.D.F.D.L.L.L.U.L.L.U.I.U.U.Y.U.U.Y.U.Q.XXT.Q.Q.Q.XX.XXXXX.X.XoX.XoX$XOX.X$X.X.X$XoX+X+X+XoX+X+X+X+X+XOX+X$X+X.Xf.].|.dXdXgXfXZ.v.' Z Z N N 9 w 7 1 1 1 1 * 1 * * 1 > > * * > 1 * > , & > 2 & 2 j & j 2 2 & 2 & 2 & & , , 2 2 j , 2 = & & , = & = & ",
"r 8 t 8 t t 8 r r 8 t r t t t t p t t t t t t t u t t p u y p u t p u t t t p t t 8 t t 8 8 z t p 8 8 8 8 z.H.>.0.>.2.2.0.>.2.:.2.>.2.>.2.2.2.2.2.2.2.0.>.z.z.2.0.2.0.0.k.l.z.l.{ {.{.C.u._ a.'.u.9 S ] x.(.@XdXgXgX#X X^.Z.T.K.K.l.k.l.k.k.z.l.k.l.l.l.k.l.l.l.UXz.UXz.l.l.UXz.H.UXz.UXUXz.z.UXz.H.UXz.H.z.H.UXz.UXz.UXUXz.UXz.z.UXz.UXUXUXz.UXUXl.l.UXl.UXl.l.l.UXz.UX0.l.l.l.l.l.0.UX0.l.0.l.l.0.q.l.0.0.l.0.0.k.0.0.k.+.M W.@X[.|.@X|.OXU.j.@ @ $ * 8 >.W R M ) W W z.eXk.+.O.L O.T L L L L L L R K m L m L K L M K K m K K K K K K K K K F L F K F K Y K K Y K Y Y K F Y K R F R I R K Y K Y Y I Y I R I R I R I R R I R W M ( W W I W W W W W ) W W ( W / / ( / { )  .N.[./.`.@XhXZXhXsX(.R.a._ _ V V._.C x z z z z I P.1.L W -.( ( -.>.( ( ( -.( -.>.} ,.,.,. . .1. . .1.1.g.1.g.g.g.g.g.g.g.g.F.j.F.D.z.L.L.F.I.L.L.T.U.L.U.U.U.U.U..XU.U.Q.Q.U.XXXXQ.XXQ..XXX.X.X$X.X$X.XoX.X+X+X$XoXOX.X.XOX$XOXOXOX+X$X+X+X+XOX.Xc.].|.dXdXdXsXZ.c.' ! S N l 9 w 1 w 1 1 1 1 1 1 1 1 > 1 1 1 1 * > , > 1 > > j , , 2 & & , 2 & 2 = 2 2 = j = , = = = , 2 & , , = & = ",
"t r 8 t t r 8 t t t t 8 t t p t y t t t p t t t t c r t u u t t u t u u u 5 h 0 u 8 u u p 8 t 8 8 8 8 p p j.z.>.0.2.2.>.2.>.2.0.2.2.>.0.:.>.0.0.0.0.2.2.2.2.2.0.2.z.2.0.0.z.z.l.>.E.].E.x._ a.'.u.9 X.X.x.(.|.dXgXgX#X}.^.%XT.G.k.l.k.k.k.k.k.k.k.k.k.q.k.k.k.k.z.l.l.l.l.l.l.z.l.l.l.l.z.UXl.UXUXUXz.UXUXl.l.l.z.l.l.l.l.l.z.UXUXUXUXz.l.l.l.l.l.l.z.UXz.UX0.l.l.l.0.UXz.UX0.UX0.UXz.0.l.0.0.l.0.l.0.k.l.0.l.l.0.0.0.0.:.o.M W.@X|.@X[.|.@XU.f.$ X $ $ 0 >.I I M I W W h.eXk.#.L o.L L R M L L L L K K K K K K n L M H n K K m K K K K K Y K K K K K K K K Y F R K Y Y F K K Y F L Y F Y K M R Y I Y I K R R R I R I Y Y I R I W W W I E R R ) W W W W ) W ) E W { ( } } | L.|.(.`.@XhXhXhXsX/.R.a._ _ Z Z.E.C x z z z z M J.>.M ( ( -.( -.-.( -.} ( ,.} >.,.} } 1. . .,. .1.g.>.g.g.1.1.g.g.g.j.j.F.g.F.D.F.D.L.F.L.L.L.F.L.T.T.U.T.U.U.Q.U.Q.XXT.U.XXQ.XXXXXXXX.XQ..X.X.XoXXX.XOX.X$XOX$XOX.XOX+X.X+X+XOX+XOXOX+X$X$X#X.Xb.].|.dXdXgXfXC.v.] X.V N 9 w w 7 w 1 1 j 1 1 j 1 * * 1 > > > 1 > 1 1 & > , > > 2 & 2 , & 2 & j 2 = j 2 = 2 = , , j & = & & , , & & ",
"8 t t t t 8 t t 8 t t r 8 t r t t t t t t t y t t t t t t u p t t t 8 u u u 0 h 0 u u 0 8 p 8 p 8 t 8 8 t h.z.2.>.2.2.:.:.2.2.>.>.2.0.>.0.>.2.>.>.0.>.2.2.2.2.2.2.2.z.2.0.k.l.k.>.W.].E.c.' a.}.[ w S u.u./.@XdXdXgX@X}.^.Z.K.i.K.k.k.k.k.k.h.q.k.k.k.l.k.k.w.k.l.k.k.k.z.l.l.l.l.l.l.l.l.UXl.z.z.UXUXz.z.l.l.l.UXl.l.l.l.l.UX0.UXz.z.UXUXz.l.l.l.l.l.0.UX0.UXk.0.l.z.0.UX0.l.0.l.0.0.UXl.0.l.0.l.0.0.0.0.0.0.0.0.l.0.0.k.+.M Q.|.@X|.@X@X|.A.j.$ + > $ 8 >.W R R W ) M h.eXq.O.O.L L L L L L L K L L K K K K K K K F K K K K F F K K K K F K K K F K F F L K K K M K F K Y I K Y I K Y I Y R I Y K Y I R I R I Y Y R W R W R W I I R W W W I W I W W E W W ( W E } { / |  .N.[.(.`.|.hXhXZXsX).R.a._ ! V V.E.C M z z c z R P.>.v R ( ( ( ( ( ( ( -.( ,.-.} ( ,.-. .,.1.,.1.1. .g.1.1.g.g.h.4.g.4.F.j.g.D.F.D.F.F.L.L.L.L.L.L.U.U.U.U.U.Y.T.Q.T.Q.XXXXU.XXU.XXQ.XXXX.X.X.X.X.X.X$XoX.X.X.X.X+X+XOX$XOX+XOX+X$X+X+X+X+X+XOX.Xb.].|.dXdXgXdXC.v.] _ Z S N 9 w w 1 1 1 1 j * 1 1 * 1 * 1 1 > > > > > , > , & , , j j = 2 & = 2 = j - & , & 2 , = = & , = > & = = & ",
"r 8 8 r r t 8 r t r t t r t 8 t t t p t y y t t t t t t t t t t 5 h u u h 0 h 8 5 p 8 u t 8 t 8 t 8 8 8 8 h.z.:.:.>.>.:.:.>.>.:.:.>.>.2.0.2.0.>.2.0.0.>.0.0.0.>.>.0.>.0.0.0.l.z.d.}.}./.c.' s.}.u.9 S ] x./.@XdXgXgX#X}.^.Z.F.K.k.k.k.k.k.k.k.k.h.k.k.q.k.k.0.k.0.l.k.l.l.0.l.l.k.l.l.k.l.z.UXz.0.l.l.l.UXl.l.UXz.UXz.UXz.UX0.l.l.UXUXl.0.UXUX0.UX0.0.UXUXl.UX0.0.UXUX0.0.l.l.0.0.l.l.0.0.l.l.0.0.k.0.l.0.l.0.0.0.z.0.0.h.m M _.|.@X@X|.|.@XQ.d.$ @ $ $ 8 >.W R I R I W h.qXk.+.L L L L L K L L L K K K L K K K K K n K n F K F K K K I K F F K K K F Y K F K Y K Y F R K I K Y Y F K Y K Y Y Y I I K Y R I R I R I R I Y I I I R E I W R W W W ) W W W W ( E ) { W / / } ..N.|./.`.|.hXhXhXsX(.C.a._ ! V Z.).C x z 8 c z R I.<.M W #.( ( -.( -.( ( >.( ,.( } ,.>.,.} 1. .1.1.1. .1.g.1.g.1.g.g.g.F.g.D.F.D.F.D.L.F.L.L.I.T.L.L.U.U.U.U.U.Q.U.XXU.XXQ.Q.!.Q.Q.XX.X.X.X.XXXXXXX$X.X.X.XOX+XOX.X$XoX.X+XOXOX$X+XOX+X$X+XOX+X.Xb.R.|.gXdXgXfX X).u._ X.N 9 w 7 1 1 1 1 1 1 1 1 * 1 * 1 * > > > > > > , > > & 2 , , 2 j 2 & 2 2 & , 2 & , , & = 2 = 2 = , 2 = = & & ",
"8 r 8 t 8 t t r t 8 t t t t t r t t t t p t t t t t r v t p t t h u 8 u 8 u u u p p 8 t p 8 0 0 8 8 8 t t k.z.:.2.2.:.>.:.>.2.:.2.2.:.>.>.:.>.0.>.>.2.0.>.0.>.0.0.0.>.2.>.0.z.0.d.}.|./.v.a.a.}.u.w X.X.c.(.|.dXgXhX@X}.^.A.K.K.k.k.k.k.0.k.q.h.q.k.q.k.0.k.k.k.z.k.k.0.k.k.k.l.l.l.0.k.l.0.l.l.z.UXz.0.z.0.l.0.l.0.l.0.UX0.l.l.0.0.z.l.UX0.z.UXz.UX0.z.0.z.0.l.l.0.l.0.UX0.0.l.l.0.l.0.0.l.0.l.0.0.0.0.k.0.0.0.0.0.0.0.h.M M Q.@X|.@X|.|.|.U.g.$ @ $ > c ) I I M I W M 1.eXk.O.T L L R L L K R K K L K K n K K F n K F K F K K M F K F K K K F K F K K K K K F F K K F I K I K K I Y F Y F F Y K Y I Y I R I R R I W R I W W I E R W I W E I W R W I ) W E W / W / ( { {  .U.[./.`.@XhXhXhXsX/.R.a._ ! V E.E.C z z z z z M K.>.n W W ( ( ( ( -.-.( ( ,.( >.>.} >.} 1.>.1. . .1.1.1.1.1.g.g.g.g.g.g.g.F.j.F.F.D.F.F.L.F.L.L.U.L.U.T.U.T.U.U.U.U.XXT.Q.XXQ.XXQ.XXU.XXXXXX.XoXXXoXoX.XOX.X+X.X+XOXOX$X+X$XoX+XOX+XOX+X@X+XOX$Xn./.|.gXdXgXsX(.|. Xv._ S S 9 9 7 1 1 j 1 * * 1 1 * 1 * 1 > > 1 > > > 1 > , 1 & , > & 2 & j j & 2 = & 2 , = j 2 & 2 & j & = , j & = ",
"r t 8 r t 8 t 8 8 t t t t t t t t t t t t t t t t c t p t t i t 0 u t u u t u u 5 p 8 p t 8 8 t 8 8 t 8 M >.z.>.>.:.>.:.:.>.>.>.>.:.:.>.:.>.>.:.:.2.0.>.0.>.>.0.2.0.0.2.2.0.0.z.) }.}.`.m.] a.}.] w S X.v.^.|.gXgXgX#X}.(.Z.T.i.h.k.q.k.h.q.k.0.0.k.h.0.k.k.k.0.0.l.k.0.l.0.k.0.0.k.z.l.0.l.l.0.UX0.z.0.UX0.UXz.0.l.z.UX0.0.UX0.l.0.l.0.l.0.0.z.0.UX0.l.0.0.UX0.0.0.l.0.l.0.l.0.0.0.0.l.0.0.0.0.0.0.0.0.0.0.0.0.0.0.0.>.:.+.M _.|.|.|.|.@X|.U.n.$ @ > > 8 ( R I R W M W h.0X0.O.L L L L L K L K K K J L K F K M K K n F K n K K K K H F F K K K L M K F F K K F K F K R I K K I Y R Y I K R I Y Y I R I R R I R I R I I R R E R R W I W W I W W W E E W E E ( / ( / } } ) | A.[.(.`.|.hXhXhXsX/.R.a._ ! x Z.).C x z z z z U K.>.F R ( ( -.( ( ( ( ( ( } } } >.,.>.,.} }  .1.1. . .1.d.1.g.1.g.g.g.j.j.j.D.F.D.D.D.L.F.L.L.T.L.L.L.U.U.U.U.U.U.XXU.XXT.XXXXXXXXQ.XXQ..XXX.X.X$X.XOX.XOX$XoX.XOX.XOX+X$XOXOX+XOX+X$X+XOXOX$XXXb.^.|.gXdXgXfX^.^.{.|.B.X.S l w 7 1 1 * 1 1 1 * * 1 * 1 * > 1 > > > , > , & & 2 & 2 = 2 & 2 2 & 2 & , = j , 2 , & & j & , & & & = & ",
"r 8 t r 8 r r 8 t t 8 t t t t t t t t t t t t p t r t y t i t p h u 0 u u u 8 u p 5 t 0 u 8 8 0 p t 8 8 M >.z.:.:.>.:.>.>.:.:.>.:.>.>.:.>.:.0.>.:.>.>.:.>.:.0.>.>.>.>.0.0.>.z.0.d.|.|.].S.] s.}.u.9 X.X.u.(.@XgXgXgX@X}.^.A.K.K.z.k.k.3.k.3.q.h.h.0.0.k.k.0.0.k.0.0.k.0.k.0.0.k.k.0.0.l.l.0.0.UXz.0.l.0.0.l.0.l.l.0.0.l.0.l.0.z.0.l.l.0.0.l.l.0.0.0.l.0.0.l.0.z.0.l.0.0.l.0.0.0.l.0.0.0.l.0.0.0.0.0.0.0.0.0.0.2.0.0.0.0.0.+.M W.|.@X@X|.|.|.U.d.$ @ $ > z ( I U I M ) M h.qXh.O.L L J M L K L K L M M K K K F K F n K F K F H M K K K F K K F K K I K K K F F K K Y F K K Y F K F F I K I K Y F K Y I K I I I R R E R E E E R I W I W I W I ) M E W W E E ( W E / / E {  .d.L.|./.`.@XhXhXhXsX/.R.a._ ! V V.).C z z z z z U K.-.b ( W ( ( ( -.( ( -.( -.( -.} ( } ,.} 1.>. .>.1.g.>.1.g.1.d.g.g.g.g.D.F.j.D.F.L.L.F.L.L.L.L.L.U.U.T.L.U.U.U.Q.U.U.U.XXXXU.XXQ.XXXXXXXX.XXX.X.X.XXX.XOX.XOX.X+X$XOXOX+XOXOXOXOXOXOX+X+XOX+XOXn.^.|.gXfXgX#X^.C.C.^.|.)._ 9 w 1 w 1 1 * 1 > 1 * * 1 * 1 * > > > > > > 1 > 2 & & j j , 2 & & , > 2 , j = , & 2 2 & , 2 & = & & & = ",
"8 r r 8 r 8 r t 8 8 t t t t t t t t t p t a t t y c e t t t t t t t 8 t 8 h 0 u 5 0 u t u 8 t t 8 8 8 8 r >.z.>.>.:.>.:.:.>.+.:.:.>.:.>.:.:.>.:.>.:.>.0.:.:.>.:.0.>.0.0.>.2.0.0.d.}.|.'.B.] x.{.] 9 X.] x./.@XgXgXgX#X}.^.Z.K.h.k.h.q.k.3.0.q.0.0.0.q.0.2.k.0.0.0.0.0.z.0.z.0.k.0.k.0.0.0.l.0.0.UX0.l.l.l.z.0.0.0.l.0.0.0.l.0.l.0.0.l.l.z.l.0.UXl.l.0.l.0.0.l.l.0.l.0.0.0.0.0.0.0.0.0.l.0.0.0.0.0.0.0.0.0.:.0.0.0.0.0.0.:.+.M Q.@X|.@X|.@X|.XXg.$ @ > > 8 -.I R M I W W h.5X2.O.L L M L K m K K L J K F n K K K K n F K F F F F F K K H K F F K F K K F K I Y F F F K F F I F Y K I Y M Y I K R I Y I I R I I R I R I I R E R W R I I W W W W E W E E ( E ( / / ( / ) { { | N.|.(.`.|.hXhXhX#X/.R.a.! ! x Z._.C x z 8 z z M z.-.b W W ( -.( -.( >.( } ( ( ( ( ,.>.} ,.(  .,. .1. .1.1. .g.4.g.g.g.g.D.j.D.F.D.D.D.L.F.L.L.L.L.T.L.L.U.U.U.Q.T.Q.XXU.XXU.XXXXXXXXQ.XX.XXX.XXXOX.X$X.XoX.X$XOX.XOXOX+X+X+X+X$X+X$X+XOXOX+XOXOXn.^.|.dXgXgXsX X^.C.B.B.$XN.7 w w 1 1 * * 1 * 1 * 1 * 1 * > > > > > > > > > 1 > 2 & j , 2 = j , , > j , j , j , > , , > & j = & & = ",
"t 8 8 r 4 r 8 r r r t t 8 t t t t t t t t t y t t t t t t p t t u u u u u 5 u 5 p 5 5 0 0 8 8 8 8 8 8 8 p >.z.:.:.>.:.>.>.:.>.:.>.:.>.:.:.>.:.>.:.>.:.>.0.>.0.>.>.0.>.>.0.2.z.0.| }.}.}.C.u.c.'.] 9 S X.v.^.|.gXgXgX@X}.^.A.K.i.h.k.k.3.q.h.h.0.0.h.h.0.0.2.2.h.0.z.0.0.0.0.0.0.0.0.0.k.0.0.0.z.0.0.0.0.0.0.0.l.0.0.0.l.l.0.0.0.0.l.0.0.0.0.0.0.0.0.0.0.l.0.0.0.0.0.0.l.0.0.0.l.0.0.0.0.0.0.0.0.0.0.0.0.0.0.0.0.0.0.0.:.>.+.M Q.|.|.|.|.|.|.A.g.$ @ > > 0 ( M I I M I I >.0X2.T m L L L K K K K M H K K K F F K F K K F K n K K H K F F K F K F K F F K F K F K K F I Y F K Y F I K I Y I R I F Y I R I I I I I I I W R I R E R E R ) I E I W R E W W E W E E ( / / / ) |  .U.{.(.`.@XhXhXhXsX/.R.a.! ! V V._.V z z z z z b z.-.M W W ( ( ( ( ( ( -.( ( -.>.} ( >.} } >. . .1. .1. .1.g.4.g. .4.4.F.j.j.j.j.D.F.L.F.L.L.L.L.L.L.U.U.T.U.T.U.XXU.Q.Q.U.XXU.U.XXQ.XXXX.XXXXXOX.X.X.X.X.XOX.XOX+X$X+XOXOXOXOXOX+XOX@XOX+XOXOX$Xb.R.@XgXdXdXdXsX X^.C.v.^.c.w w 1 1 1 * 1 > > * * 1 > * > > > > > > > > , > , , > 2 & > , j 2 & , 2 = & 2 = & & , , , & & 2 & & & & ",
"8 4 t r 4 r 4 r 8 e t t t t t t t t y t e u t u e u u t t t u u t 0 0 t t t t 8 8 t t 8 p 8 p t t 8 r 8 M >.k.$.:.>.$.;.;.>.>.:.>.$.>.;.>.:.>.+.;.:.;.;.:.>.<.>.2.>.>.<.,.2.3.2.n.}.|.}.R.x.a.[.] N X.X.c./.@XgXgXhX@X}.C.A.K.k.h.k.k.h.0.k.h.0.h.0.3.3.0.3.2.3.:.k.0.2.:.k.k.:.2.k.:.k.6.k.k.:.0.0.0.0.0.0.0.0.0.0.k.0.6.k.6.k.0.0.0.0.0.0.0.0.l.0.0.0.0.0.0.0.0.0.0.0.0.0.0.0.:.k.:.k.:.k.0.:.<.0.0.0.<.0.2.2.<.0.2.<.;.o.G _.|.|.|.|.|.|.A.d.$ @ > > 8 ( I I I F I U 4.1X2.P K L K H K H K F H K K K K K K M n K K M K H K F F K F H Y H F K F K K F F F F F F I F F Y F F P I F I P P I I P I Y P I I I Y I I W I I W Y I Y E W I / E I W I W / W / E E / ( / / { ) | | L.|./.`.@XgXhXhX#X(.R.a.! ! x V.).A z z x z q b z.#.b W ( ( ( #.( ( ( ( -.( ( ( ( >. .} >.} 1.}  .>.1.d.1.g.1.g. .g.g.g.d.j.D.D.F.D.F.L.L.L.F.L.L.U.L.U.L.U.U.U.XXU.XXU.XXQ.XXXXXXQ.XXXXXX.X.X.XOXXX.XOX.XOX+XOXOXoX$XOXOX+XOX$X+XOXOX+XOX@X$XOXn.^.{.dXdXdXdXdXsX|.C.v.).x.w w 1 j 1 * 1 1 * 1 * 1 * * > * > * > > > > > > , > , > & 2 , & 2 > , , & = 2 & 2 , , 2 & , & & & = & & ",
"r 4 4 8 4 8 e 8 4 t 4 8 t 4 t t t t u t u u t e u u e u u u u u t t t t p 8 t y p t 8 p 8 8 8 8 8 8 8 8 y >.2.>.;.$.>.>.+.>.$.#.$.>.$.>.$.>.;.>.-.>.>.>.>.:.>.-.;.-.;.>.,.<.2.<.n.|.}.|./.v.m.'.] 9 S ] c.(.@XhXgXhX@X}.^.A.F.F.k.h.0.q.h.h.0.0.0.3.0.q.2.0.3.2.k.2.2.h.k.k.:.k.0.:.k.2.k.:.k.k.0.0.k.0.0.0.0.0.0.0.0.0.k.:.k.6.0.0.0.0.0.0.0.0.0.0.0.0.0.0.k.0.0.0.0.0.0.0.0.0.k.:.k.:.0.:.0.k.0.0.<.<.0.0.<.0.0.<.<.<.%.g G _.|.|.@X|.|.|.W.| $ @ > > 0 ( M F M M I U ,.1X<.P M L n K K M K n K M K F F K F K F K F K K M F F K F K F F F F K K F F K F K G P G P Y F I K F I P I F I I K Y F I I F E I I Y I I Y I I I I W Y W I W I W E E / E W E W ( / / / ( / { } } ..A.[./.(.@XgXgXhXsX(.R.a.! ! x Z.).C z q z 0 z b h.#.b W W W ( W ( -.-.( ( ( ( >.-.} ( ,.} ,. .>.1. . .1. .1.g.1.g.g.g.g.j.g.j.D.F.D.D.L.D.L.T.L.L.T.U.L.U.U.U.U.U.U.U.XXU.XXU.XXXXXXXXXXQ..XXXOX.X.X.X$XOXoX.XOX+XOX+XOXOX+XOXOXOX+XOX+XOX+XOXOXN.)./. X#XdXdXsXsXsX[.c.(.x.w w 1 1 * 1 * * * * > > * 1 > > > > > > > > > , > , > , > , > , = j j = j , & , & , > & > & & & j & % & ",
"r 4 8 r e 4 t 4 e e t t 8 y t t t t t t t u t u u e t t e u u 5 t t t p t t p 8 t 8 t 8 t p 8 t 8 t 8 8 M >.z.#.>.+.+.;.>.$.>.;.:.>.;.-.;.>.;.;.>.$.-.-.:.;.;.-.-.>.-.-.;.-.} @...|.}.}.'.V.v.'._ 9 S _ c./.@XhXgXgX#X}.^.b.4.h.h.3.h.h.0.h.q.h.h.0.2.2.3.0.2.2.:.2.k.:.:.h.k.:.:.k.2.k.:.k.k.:.0.0.0.0.0.0.0.0.0.0.0.0.:.k.:.k.0.0.0.0.0.0.0.0.0.0.0.0.0.0.0.0.0.0.0.0.0.2.0.0.:.6.:.k.<.2.0.<.<.2.2.0.<.<.2.<.:.:.<.%.H s K A.@X|.|.|.|.|.W.| $ @ > > 8 ( I M F U I M E k.<.P J L M K n K K K K K F K n F F K F K K F F F F K K F F K Y H F K F F K F F K G I F F I F F I F P I P Y I P I I F F I I P I I E Y I I Y I W I W E E R E W I W E E E W E E / / / / ) { { | | ..N. X/.`.|.hXgXhX#X/.R.a.! Z x E.).C z z q 0 z x 2.W b I W W ( -.( ( ( ( ( ( ( -.( } ( } >.} } >.} 1. .1.g.>.d.g.g.g.g.g.g.g.j.D.D.D.D.D.D.L.L.L.L.L.L.L.T.A.U.U.U.U.U.Q.XXU.XXU.Q.XXQ..XXX.XXX.XOX.X$XOX.XOX+XOX.X$XOXOXOXOX+XOX+X@XOX@XOXOXOXOXA.M.B./.{.@XdXsXsXsX@Xx.(.b.1 w j 1 * * 1 j > * * * > > * > > * > > > > > > > , > , & 2 & > , 2 & & j & 2 & , j & > & & , , & & = % ",
"4 8 4 4 4 t 4 e 8 e 4 t e e t t t t t t t t u u t t t t t u t u t t t 8 t t t 8 8 t t 8 8 8 8 p 8 8 4 8 t >.0.>.$.>.>.$.#.;.+.;.>.+.+.>.;.+.>.$.;.-.;.-.-.>.>.-.#.;.-.-.-.T *.&.} {.|.|.}.'.E.{.] 9 S X.x./.#XhXgXhX#X X(.S...1.4.4.2.h.h.0.3.3.h.2.3.2.2.2.2.2.k.:.:.k.:.:.:.k.k.:.:.k.2.:.:.k.0.0.0.0.0.0.0.0.0.0.0.0.2.:.:.k.0.0.0.0.0.0.0.0.0.0.0.0.0.0.0.0.2.0.2.0.0.:.0.:.k.:.:.k.6.2.<.0.<.6.<.0.<.<.<.<.;.;.T H P %.;.;.n.[.|.|.|.|.W.| $ $ > > 0 W U U M U D z +.&Xe.%.L F K F n K F n F n K K F K K F K F F K F K F K F K F F F F F F F F G F F F F F F U P Y F P I F F I I F Q P I I Y I I I I Y I I Y E I W I E I E E E E I E E ( E / / / / / / ( / { ) { | | s.M.^.(.`.@XgXgXhX#X/.R.] ! Z x E.).A x z z x x M ( L b M I W W ( W ( ( W -.( } ( ( ( >.( } ( >. .1. .1.>. .g.>.g.1.d.g.g.g.g.j.j.F.D.F.L.D.L.D.L.L.L.U.U.T.U.U.U.U.XXXXU.U.XXXXXXQ.XXXX.XXXXX.X.X.XOX.X.X.XOX.XOX+XOXOX+X+XOX$XOX+XOX+X+XOXOX$XXXb.b.x.v.^. X|.#X#X#X[.x.(.x.w 1 1 * 1 * * * * 1 * > * * > * > > $ > > > & > > > , = > , 2 , , & 1 = = 2 & , & & 2 2 , > & & & & % & ",
"4 4 4 8 r 4 e r e r t e t t t t y t t t t t t 5 t e u t u t t u c t t t t p t t t t 8 p p 8 8 8 8 8 8 8 M >.>.#.>.#.>.#.>.+.>.>.+.$.>.#.>.+.;.>.>.>.-.#.-.-.-.>.-.-.#.R P &.y.y.@.N.}.|.|.|.}.}._ 9 S X.x.(.@XhXhXhX#X}.'.(.V.b.|  .4.4.3.h.3.3.2.2.2.2.2.2.2.2.>.:.h.:.k.:.:.>.:.:.2.2.:.k.:.:.2.0.0.2.2.:.0.0.0.0.:.0.:.:.k.k.0.>.0.0.0.0.0.0.0.0.:.0.2.0.0.0.0.2.0.:.0.0.2.0.:.2.:.:.0.<.<.<.k.<.<.<.2.:.;.:.#.m T ;.4.b.A.n.2.,.n.[.|.|._.{ @ $ 1 1 q W M D b b b 0.-X-X9Xi.$.R K K K F K K K F K F F K F K Y F F K F F I K F F K F F F F K P F F F F P G I G F F F P F I F I F F F I I I I Y I I I Y I I I I E I I E I I E I / I E E E E / / / / / ( / { { { | | | x.C./.(.(.`.@XgXgXgXsX(.R.] ! ! x E.).C x z B ~ E 6.p.8.m b b F I W ( W ( W -.( ( ( } -.( ( >. .} >.>. . .1.g. .1.g.g.1.g.g.g.g.D.D.D.D.D.L.D.L.D.L.L.T.L.L.L.U.U.U.Q.U.U.XXU.Q.U.U.XXXXXXQ..XXX.XOX.X.XoXOX.X+XOXOXOX+X+XOXOXOXOX+X@X+X+X$XOXXXN.' _ ] [ ] x.B.(. X@X@X Xc.(.x.1 1 j * * * * * * 1 * * > * > > > > > > > > & > > > , , 2 j , , , j & > 2 & j = , , & = = & = j = % & % ",
"t 4 4 4 8 4 4 8 r 8 4 t 4 t 4 t t t t t t t t t t t 5 t t u u 5 e t c t t 8 8 t t 8 t 8 8 t t 8 t 8 8 8 y >.2.#.+.$.>.$.#.+.+.$.:.#.>.$.+.>.-.#.+.#.#.-.#.-.#.#.#.T M O.8.p.p.9.&Xw.N.'.}.|.}.}._ 9 S X.x./.#XhXgXhXgX@X{.`.(.^.B...} 1.1.4.4.3.2.h.h.2.2.2.2.2.k.:.2.2.>.:.k.:.>.k.:.6.k.:.>.k.2.2.0.2.2.0.0.0.2.0.2.0.k.:.:.:.0.0.0.0.:.0.:.0.0.0.:.0.0.:.2.:.:.0.0.2.:.2.:.0.:.0.2.2.<.<.<.2.;.:.h.:.;.;.#.M M $.,.n.^.{./.V.B.n.4.} N.|._.~ $ * 1 1 0 W b M U -.&X;Xe.W 2.-X-X6.O.K K K K F F K K K K K K F F K K F K F F F F K F F F Y F F G F F I F G F F Y I I F I I F F I I I P I I F I I I I Y I I I W I I I E I E I I E I E E E E E E / / / / { / ) | | | s.B./.(.(.(.(.(.#XgXgXhX#X].R.] Z Z V E.).^ ~ ` | <.p.;X;X9X;X&.J a G I W ( W ( ( ( ( >.} ( >.} } 1.>. . .1.>.d.1.>.>.d.g.g.g.d.g.g.j.D.j.D.D.D.L.D.L.L.L.L.T.U.U.L.U.U.U.U.U.U.XXXXXXXXXXXX.X.X.XOX.X.X.XOX.X.X.XOX+XOXOXOXOXOX+X+X+XOX+XOXOXOXA.] Z S S Z X.[ ] u.S.^.{.|.).u.).x.1 1 * 1 * * j * * * * * > > * * * * > * * > , & = , > & & 2 & j , & , , = j & 2 , > , & j & & & % & & & ",
"8 r 4 4 4 4 4 r 4 t t 4 4 t r 8 t t t t e u 5 h u 5 u h u e u 5 t t e e t t 8 t t t 8 t 8 8 8 p 8 8 8 8 y >.2.>.+.>.+.+.+.>.>.$.>.#.+.$.-.-.>.#.-.#.#.-.-.W #.T M m r.p.p.i.&X9X9X9X*Xj.Z.|.|. X_ w S X.x.(.#XhXgXgXhXgX#X|.`.(.(.C.v.| ,.1.1.1.h.2.2.2.1.2.,.2.k.>.:.2.:.k.:.:.2.:.2.2.h.:.:.:.2.2.>.0.2.2.2.0.0.:.:.0.:.k.:.k.:.0.0.:.0.0.0.:.0.0.0.>.0.0.:.0.:.2.:.:.:.0.:.0.:.2.:.0.2.<.:.2.>.:.:.+.-.L K +.&.| m.`.{.`.{.`./.V.B.L.1.} d...@ $ 1 1 0 ( b T w.;Xy.-.W ,.E } K.<X&X<.O.K K L F K n F F F F K F K F F K F F F F F F F F G U G F F G G D I F F F F F U I G I Q F F I Q Q P I I I I I I I I I I I I U U I E E E I E E E / E / / / / / { / / | | ..m.^.(.(.`.`.`.|.#XgXhXgXhX#X/.V.' ! Z x Z.).^ d.4.p.;Xp.w.e.w.;X9Xy.*.H G D I W ( ( ( ( ( ( ( ( } } } } 1.1. .1. .g.d.g.1.g.1.g.4.g.D.g.D.D.F.D.T.D.L.D.T.T.N.N.L.U.U.U.U.A.U.Q.Q.XXU.U.XXU.$XXXXXQ.OXOXXXXX.XOX+X$XOXOXOX+X+XOX$XOXOXOXOXOXOXW.b.! S S S S Z X._ _ _ u.c.^.}.).u./.x.j 1 * * * * * * * * * * * * * * > > * > > > , > & , , > & & = j & 2 j , , & 2 & & 2 & & = & & = % & & & ",
"r 8 4 4 r 8 r 8 4 r 8 t t e t t 8 t t 5 u 5 u t e u 5 t u 5 h u t t t t t t t p 8 8 t 8 p t 8 8 t 8 r 8 y >.>.+.>.+.+.>.>.+.+.#.+.+.>.#.$.#.+.#.#.#.#.$.#.T L n *.y.p.l.i.<X7XIX7X4X9X9Xi.D.XX_._ w N X.x./.|.gXhXhXgXgXgXgX@X|.`.(.(.Z.x. .1.} 1.2.2.2.2.2.2.2.>.:.k.>.:.k.>.k.>.2.2.:.:.;.k.k.:.2.:.2.2.:.0.:.2.0.:.2.:.k.:.:.0.>.0.2.:.0.>.0.:.:.0.0.2.:.0.:.2.2.:.2.2.:.2.:.2.:.2.:.<.:.2.<.:.:.;.O.L o.&.-.s.^.}.'.`.`.`.`.`.`./.C.%XD.1.{ X * 1 1 q W 0.-X;X0.-.-.( ( } / /  .J.<Xl.;.R T R K Y F K F K F K F F I I F F F U F F I U G F U F Q D I F F F I U I F G Q I F I I I F I K I I I Q Y I I W I I Q I I E E I E E U E E E / E / / E / / / | | | s.v.C.`.`.(.{.`.}.#XdXhXgXgXdXgX@X/.V._ Z Z l Z.[.g.i.p.y.q.e.w.e.q.5.w.;X;X6.J c v F W ( ( ( >.( } (  .>.>.)  . .>. .1. .1.>.g.d.g.g.g.g.g.j.D.j.D.D.D.D.D.L.N.L.L.L.U.U.U.U.U.U.Q.Q.U.U.Q.XXXXU.XXQ.XXOX.X.X.XOX.X.XOX.XOX.XOXOXOX+X+XOXOXOXOXXXA.' S Z Z Z Z _ ] x.V.).c._ [ x.C.S.[ ^.x.* 1 j * * * * * * * $ * * * > > * * > > > > > > > > 2 & 2 2 & & 2 & & 2 & 2 2 > j & , , j & & & & & & % ",
"4 4 4 4 4 4 r 8 4 t 4 t 4 t t t e t r t t t t 8 t t t t u 5 t t t t t t t t 8 t 8 p 8 8 t 8 t 8 8 8 8 8 8 #.>.#.-.#.#.#.#.>.>.#.#.#.#.#.>.#.#.#.#.T #.O.R M o.8.p.UX3.K.4X8XIXIX7XIX8X9X9Xy.y.tXN 1 N Z ] C.`.|.dXgXgXhXhXgXgXfX@X}.].(./.M...{ } ,.1.4.2.1.2.2.:.:.h.:.:.h.:.:.k.;.:.;.:.h.:.>.2.:.2.2.2.>.0.:.<.2.<.<.<.0.h.:.:.0.2.:.0.0.:.0.0.0.:.:.2.2.:.0.:.2.0.:.2.:.>.0.2.<.<.<.<.<.:.:.:.+.m L &.;. .V.`.}.`.`.{.`.`.}.`.`.'.'.B.n.n.q @ 1 w 7 9 1X2Xy.6.<.<.( ( W { ( { ` ` d.P.=X7.#.R I Y F P I F P F F Y F I F G U U F U U F U U D U G G U G G U U U U G I I G F I I I I G F U U I P Q I I U I U U E U Q E E U E E E E E E E / / / / ~ { | | b.V.(.(.(.}.}.{.@XdXhXgXgXgXgXgX@X(.R.c.Z Z Z l c.W.*Xp.q.q.e.q.e.i.e.q.e.e.p.;Xp.*.s c b I W W ( } ( }  .( ) ,.1.>. . .1.) g.g.>.1.g. .g.D.g.g.D.D.j.D.D.D.L.F.L.L.N.L.U.U.L.A.U.U.Q.U.XXXXU.XXQ.XXXXXXXX.X.X.X.X.XOX.XOXOX+XOX+XOX+XOXOX+XOXOXA.s.Z Z Z X._ ] c.V.{.|.@X@XR._ _ ' ] [ X.x.N * 1 * * $ $ * * * * * * > * * * > $ * > & > > & > & , , & , > & 2 & j & = , j , , 2 = = = = & & & & & & ",
"4 4 4 8 8 r 4 r 8 e e t t 4 e t e e 8 t e e e t t t 5 t t t h u t t t t 8 t t 8 t 8 t t p t 8 t 8 8 4 8 p >.>.#.#.#.#.#.O.+.M #.>.+.#.#.+.#.#.#.+.O.R M n &.y.&X2.h.J.-X4X8X8X7XIXIX8X9Xp.;XP.} 1 7 l S _ x.R.`.'.#XgXgXgXjXgXjXgX#X|.}.`./.^.v.{ ( ,.,.2.1.1.<.>.h.<.>.>.<.h.<.:.>.:.h.:.:.;.k.0.:.:.:.:.2.:.0.2.<.<.>.2.:.<.<.:.:.:.0.:.>.:.:.>.0.:.0.0.:.0.:.2.:.:.:.:.2.:.:.<.<.<.;.<.>.;.$.M M +.r.>.M.(.}.{.`.{.}.{.`. X{.{.{.^.M.b.^ 1 > * w w 9 7 C n.A.K.5.0.,.,.{ / { ~ | [ ' [ n.T.G.<.O.Y Y F F F G Y F G F F U I G F F F F F F U F F U U G D U U G I G I G D I I G I G I U I I U I Q F E I I I U E U E U E U E A E E E ~ E / ~ / { { | | s.V./.`.(.}.}.}.|.sXhXhXgXgXhXgX#X|.(.^.v._ Z S V N l ^ s.F.9.w.q.w.q.e.q.e.e.2.<.e.p.;X8.L c D G E ( ( ( ( } }  .)  . . . .>.g. .>.g.d.g.g.g.d.g.d.D.D.F.D.D.D.D.N.L.L.T.L.L.L.U.U.U.U.U.%XU.U.XX%XXXU.XX.XQ..XOX.XOX.XOXOX.XOX.XOX.XOXOXOXOXOX_.b.X.S _ _ ' ] c.C.}.|.#XsXsX|.C.] ' ] ] S S w * * * * @ @ $ $ @ $ $ * * * * > > * > * > > , > > > , > & j , 2 & & & = , , j = = & = j j j & & = & & & % ",
"8 4 4 4 4 4 4 8 e 4 4 8 4 t t 8 t e t t t e t t h 5 t e t t t 5 t t t t t t p 8 8 t p 8 8 p 8 8 t 8 4 8 M +.h.+.#.#.O.#.#.#.O.#.+.#.M O.#.+.M +.O.M v L 8.y.q.d.j.K.=X>X4X8XIX8X7X8X9X9X9X3.j @ 1 7 9 S ! _ a.V.].`.|.sXgXhXgXgXgXgXdX@X}.`././.Z.b.{ ( ,.,.2.1.>.;.>.;.;.h.;.;.:.;.;.h.>.:.:.:.>.:.2.0.0.>.>.:.<.<.<.<.:.<.>.<.>.0.:.:.:.:.2.:.2.:.0.:.:.:.0.>.:.2.:.:.:.:.:.0.<.<.;.;.:.&.O.M +.&.;.f.^.}.'.`.`.{.{.`. X`.}.{.).B.b.s.l * * 1 1 w k w 9 w l ' V.N.g.2. .} { | ` [ [ [ ' a.a.N.I.i.&.W Y I I P F I Q F F F U U U F U D D U U U U D F U G U F U G I G I I G I I Q G I I U F D I I I U I U E U E U Q E Q Q E E A A E ~ / ~ / { ` ` s.v.C.(.`.'.'.}.|.#XgXhXhXgXgXgXdX@X]./.R.v._ Z Z S N l 9 7 V ] d.i.i.9.e.e.0.2.<.<.,.,.,.6.&Xp.=.n d z I W / ( ( (  .1. .} 1. .1.g. . .g.d.1.4.g.g.D.g.D.j.D.D.D.D.L.D.L.L.D.L.A.T.A.U.U.U.U.T.Q.Q.U.U.XXXXXXXX.X.XXXXX.XXX.X.X+XOXOXOXOX$XOXOXXXN.[ S _ _ u.c.B.C. X@X#XdXdX#X|.C.x.' c.v._ N l w * * * * @ $ $ $ $ @ * @ * $ * $ $ * > $ > & > > , > & , & & , , & j , & , & j = j & 2 , & = & j & & & % & ",
"r 4 4 4 4 4 4 r 4 4 t e t 4 4 t e 8 t e 8 e t 5 e u 5 t t t t 8 t 8 t 8 8 8 t t t t 8 8 8 t 8 8 8 8 8 8 r >.>.#.>.M #.#.#.#.#.#.O.O.>.+.M #.#.M v n r.y.w.d.d.D.K.H.J.=X9X8XIX8X8X8X5Xk.w X X j 1 7 N S Z _ ' ] v.E.].}.@XgXgXgXgXgXhXjXsX@X'././.^.B.[ } } ,.1.<.h.<.h.>.:.-.h.h.:.>.:.:.h.:.>.2.:.:.>.:.:.:.0.2.<.<.<.<.:.<.<.:.:.>.:.:.0.:.>.:.:.:.>.:.>.:.:.:.:.>.0.:.:.>.:.;.;.;.$.O.M T :.k.g.M.].`.`.'.'.`.{.`.{.`.}.`.C.m.b.V > * 1 1 w 9 l S S N 9 9 9 N c.Z.b. . .| [ ' [ ' ' ' a.c.m.B.L.K.3.W I I I I F I F I U F F U D U F U F D I F U U D U G U G D U I G U U I U F U U U I I U E U U U Q Q E Q I E E Q E E A E / E ~ / / ` ` ` | b.R./.(.(.`.}.|.#XgXhXhXgXgXhXgX#X|.`.^.B.] X.X.Z Z Z V N 9 7 1 7 Z [ ..h.e.0.<.<.,.<.,.<.,.,.,.q.&Xy.*.H c D Y ( ) } } ) 1.>. .>. . .1.1.d.g.1.g.g.d.g.j.g.D.D.D.D.D.D.L.D.L.L.L.T.A.T.U.U.U.U.XXU.U.XXXXQ.XXQ.XX.X.XXX.XOXOXXX.XOX.XOXOX.XOXXXA.] _ X.] u.v.B.C. X|.#XgXgXsX#X}.C.c.x.B.v._ N k S w * * @ * @ @ @ $ $ $ $ * * * $ * * > $ > & > > & > & , > , 1 & j 2 , & 2 , & , & = 1 & & = & & = & & & ; & ",
"8 4 4 4 8 r 4 4 4 e 8 e 5 e t 5 8 e t 8 e e 5 t t t e 5 e t 5 u 5 t e u t t t 5 t t 8 t 8 t 8 r 8 8 4 8 t >.>.+.#.R O.#.#.O.#.O.O.T T +.#.+.M M o.y.y.1.n.b.n.n.F.K.J.=X>X4X9X9X4XG.u   . O $ $ 1 w S ' _ _ _ _ ] u.V.(.].|.#XgXgXhXhXhXhXgX#X}.'.(./.R.b.{ } ,.1.,.1.,.;.>.:.<.;.;.h.:.2.:.:.:.2.:.:.:.>.:.>.0.>.:.<.:.<.:.>.:.:.:.>.:.>.>.:.:.>.:.:.2.:.:.:.:.:.:.:.:.>.:.:.:.$.$.#.Y P ,.,.i.b.(.`.{.`.{.`.{.`. X`.{.{.Z.B.v._ 1 j w w w w 9 N } 4.S N N N N l l ^ B.E.M.n.a.x.] ] ] u.x.B.C.^.^.C.U.K.<.W Q F I F F U I F F U U F U D U U D U D I D U G U U U D U U D U U I I I U U I U U U Q U Q U Q E U C E C C E E ~ A E ~ / ` { ` [ x.B.^./.(.`.`.}.@XdXhXhXgXhXhXhXsX|.`./.C.x.] X.X.Z Z X._ Z N 9 w 1 > * 9 ! a. .2.2.,.&.,.,.-.,.} } ,.1.i.p.9.+.d G D E ( ( (  . .1. .1.d.>.1.d.g.g. .g.g.g.j.n.j.D.D.D.D.D.L.D.N.T.D.A.T.L.U.U.A.W.U.Q.U.XXU.XXQ.XXXXXXXX.X.X.XOX.XOXOX.XOXXXOXA.b._ _ ] u.c.B.^. X|.#XdXhXgXsX@X'.B.m.R.V.] S N N V S 9 * @ * @ @ @ @ @ @ @ $ $ $ $ $ > $ $ > $ > & > & > , > > & & = , & 2 & j & = j = & j = & j & & = j & & & & ",
"r 4 4 8 r 8 8 r 4 e 4 r t 5 e t e e e e e t 8 t 8 e u t 8 t t t u t t 8 t 8 t 8 8 t 8 t p t 8 8 8 8 8 6 p M >.#.#.#.#.#.W O.T O.M O.L L M M t.=.y.h.s.M.S.b.n.F.F.i.&X;X&Xp.-X=Xn .   X X X $ $ 1 ~ 0XaXU.s.[ _ ' _ ' c.E.].}.@XdXhXhXhXhXZXhXsX|.}.].(.(.C.b.} ( 1.,.1.h.-.>.h.h.:.$.>.>.2.>.>.:.>.:.>.:.:.:.:.<.:.:.>.>.:.:.:.>.:.:.:.:.:.>.:.+.:.:.:.>.:.>.:.:.>.:.>.:.:.:.>.%.K K %.e.i.u.^.`.{.`.`.{.`.{.`.`.{.{.^.B.m.] l j 1 w w w 9 9 { 3XxXIXF.~ N N l N V x N a.R.R.M.c.x.x.x.c.B.C.(.(.`.`.(.Z.L.F.,.W Q Y E I I Q I F U U U U D D U U D U D D U U G U U U D U U U U U U I Q C U Q U U U U E U Q E Q Q E E E E A / ~ ~ ` ` [ ] S.^.).(.(.(.}.|.sXgXhXgXgXhXhXdX@X(.(.R.v.u._ _ X.X.X.X.N.iXJ.~ l 7 1 1 > * 1 N a.[  .,.,.} %.-.,.%.,.,.,.} 1.G.p.=.J d v U W ( (  .}  . . .g.1.d.1.d.g.d.g.j.j.j.D.D.D.D.D.L.D.L.L.D.L.L.N.U.U.U.T.U.U.U.Q.U.XXQ.U.XXQ.OXXXOXOX.XXXOXXXXXXXOXXXN.] _ ' u.v.S.C.(.|.#XgXhXhXdX#X|.R.m.R.R.v.Z S V S N N Z l @ @ @ @ @ @ @ @ $ $ $ $ $ $ * $ $ * > > $ & > > , , > = > & , > , & j & 2 2 & & 2 & , , & j = & & & & & & ",
"4 4 r 4 4 4 4 4 8 4 4 8 8 r e 5 t e t t t e e t t t u 5 h e t 5 e t t t 5 u t 5 t 8 8 8 8 8 8 8 8 4 8 6 p #.>.+.#.O.#.O.O.O.O.L T L m M f *.y.w.d.m.B.Z.M.N.n.F.h.i.i.e.i.G.} : . X . X X X $ 1 F.aXKXKXCXoXM.[ _ ' _ ] a.m.^.`. X#XgXhXhXhXhXZXgX#X|.}.(.(./.B.s.} ,.1.>.2.;.>.>.:.:.>.:.2.0.:.>.:.:.2.>.:.>.:.>.:.:.>.:.;.;.>.:.:.>.:.>.:.:.:.>.:.>.:.:.:.:.>.:.>.:.:.:.>.+.M J W 5.w.u.A.(. X`. X`. X`.{.`.{.{.).V.m.x.Z 1 1 w w w 9 9 S T.uXtXoXU.Y.:Xg.X.S V N V N l Z m.R.V.v.v.S.B.R.^.(.`.{.}.|.}.(.Z.T.4.} W E I E F I U U U D Q D C U D U U U U D U D U U U U U U Q U D U Q U Q U C E Q E U U C E C A C E A A A / ~ / ` ` [ v.R.(.(.(.(.(.|.#XgXhXgXgXhXhXgX#X{.`.^.B.u.u._ _ X.X._ x.A.aX7XK.K. .B w 1 1 > * $ 7 ! ] [ } ,.%.} %.( ,.} }  . ...4.G.w.*.m c D I ) ) }  .1. .>. .g.1.d.4.g.g.d.j.j.D.d.D.D.D.D.D.L.L.T.L.L.L.U.U.A.U.U.XXU.Q.Q.U.XXXXXXXXXXXX.XXX.XOXXXOXXXXXW.] _ X.u.x.S.C.^. X#XdXgXhXdX#X@X).V.R.^.V.] Z Z S S S N ! iX-Xh $ $ : : O O @ @ @ $ $ $ $ $ $ > > $ > & > > & > & , & , , & , & 2 , > & = j j = = & & = = & & & & & & & ",
"8 4 4 4 4 8 r 4 4 e r r 8 e e e 8 e 5 t 5 5 t e 5 e t u 5 t h 5 8 t t 8 t 5 0 t 8 t t t t 8 8 8 8 8 8 8 t #.>.+.#.R T #.O.M O.M M m y g y.l.j.f.V.Z.M.M.M.b.D.u.F.<.2.G.,.j   X . . . . . X M ,XiXvXKXKXLXZXsXA.x._ ] ' ' ' x.B.].'.|.#XhXhXhXhXhXhXsX@X{.`./.^.^.M.| ( >.;.>.>.>.k.>.:.:.>.>.:.>.:.>.:.:.:.>.:.:.:.>.;.;.;.;.-.>.:.+.:.:.:.:.>.:.:.:.:.>.:.:.>.:.+.:.>.+.+.+.M <.q.4.S.(. X X(.`.`.`.`. X{.{.(.C.B.v._ 9 1 w 9 9 9 9 S F.tXtXQ.XXfX@X(.%X!.T...Z S V N N N N ' V.C.V.C.^.(.(.`.`.}.}.|.|.|. X^.A.F.4.W I E E Q U U Q U U Q U U C U D D Q U D Q D C U U D Q U U C U E Q U E U U Q Q C A E C Q E E A ~ E ~ ~ ` ` s.x.V./.(.(.(.(.{.@XdXhXhXgXhXhXgX#X[.(./.V.x.u.] ] X.X._ x.Z.OXfXcXe.4.P.,Xg./ 9 1 1 * > $ $ l _ u.` } ,.W ( ( } } } { ......n.F.2.+.v b b W ) (  .>.d. . .g.g.g.d.g.g.d.D.j.D.D.D.D.D.D.L.n.L.L.N.T.L.T.A.U.U.U.A.%XU.XXU.XXQ.Q.XX.X.XXXXXXXXXXXQ.b._ _ u.x.S.V.^. X@XdXgXhXhXsX@X[.C.C.).R.x.X.X.Z S N N Z D.aX2Xw.IX& : : : O O @ $ @ $ $ $ * $ $ $ $ * * & $ > & > & & & > & 1 , > , & & 2 , & , = j & , j = & & = & & & & ",
"r 4 r 4 4 4 r r 8 r r r 8 8 r r t 5 t e e 5 t 5 t t t 5 5 u e u e t t 8 u 5 u 8 5 u 8 u 8 8 8 8 t 8 6 6 p R -.O.M O.O.M T M L n n g *.y.h.s.V.Z.M.M.M.M.M.b.n...,.k.3.5     .   . X   . 7 z.rX!.!.VXKXKXJXPXuXfX$XB.] ] ' ] ] ] v.C.`.].|.dXgXhXhXjXhXhX#X@X{.(.^.^.C.b.{ } ,.,.,.1.<.,.1.,.<.,.;.,.;.,.<.>.:.-.;.-.<.-.-.;.-.;.:.:.>.:.:.+.:.:.:.>.:.;.>.;.>.+.;.,.%.%.P P r.9.3.n.C.(.(.(. X(.`.`.`. X{.(.C.B.B.a.N 1 7 w 9 9 N N | 0XtXXXXXsXZXhX@X|.|.|.[.XXL.[ Z S S N N N N ] R.R./.`.`.'.}.|.}.|.|.|.@X@X}.).L.h...E E E E U Q C E U C U U Q U U Q D U Q D U Q D U C U Q U E U U Q E Q Q E Q Q A Q A A E A E A E ` ` [ u.m.^.(./.(.(.`.@XsXgXhXgXhXgXhXdX|.]./.C.v.x.u._ ] X.X.x.C.'.+XiXbXxXq.4.Y.3X1XF.| B 1 $ 1 j * @ * N _ ' ` ( ( } } { } | ....s.b.x.n.F.4.o.k G Q W }  . . . .g. .4.g.g.d.j.j.j.j.D.D.n.D.n.L.L.F.N.L.L.T.U.L.A.U.U.A.U._.U.XXXXXXQ.XXXXXXXXXXXXXXN._ _ ] x.S.B.C.(.@X#XgXhXZXsX#X[.R.V.^.^.S.' X.X.X.Z N Z n.tXiXi.P i.8X% @ X : : : @ @ @ $ $ $ * * $ $ * * > $ * & & > , & , = & 1 & 2 , j & , & & & j = & 2 > & & = & & & & & ",
"8 4 r 8 4 4 8 4 r 4 8 r t r t t 5 e t 5 8 t 5 e e 5 5 t u 5 t 5 t 5 t 5 8 5 8 t 5 8 8 u 5 8 8 5 8 8 6 6 p R >.O.O.T T O.m n n m *.y.6.d.m.V.V.M.M.V.M.M.N.n.} q.q.v         . . .   * 3.rXrXI.I.eXHXKXKXLXDXPXkXiX#X[.b.a.] ] ] u.x.B./.`.{.#XdXhXhXhXjXjXgX#X}.{./.R.^.V...{ ( ,.,.,.,.<.,.,.;.,.;.,.<.-.;.>.<.,.<.;.>.;.-.;.-.+.>.:.+.>.+.>.+.$.:.$.;.+.;.#.:.%.%.W P %.e.y.u.B.(.(.(.(.(.(. X(. X{.`.^.S.S.b.Z w 7 w 9 9 N S ` T.tXoX%XfXZXCXZXhX@X|.#XsX#X|.[._.b._ X.S S S N N Z c.R.(.'.{.}.|.|.|.@X@X@X@X@X|.(.A.T.F...E E E E Q U Q U Q C U C Q U C D Q U C U C Q U U Q C U C Q U Q Q E C C E E A E A A A A ` ` ` [ c.C././.^.(. X|.#XgXhXhXhXhXhXgX@X}.`.^.B.c.u.] u.X.X.u.B. XOXtXvXNXNXzXq.4.Y.3X3X3XI.d.^ l 1 * 1 * * @ 1 S a.' ` { ) { { | | ....b.v.B.S.n.4.,.J H G E } }  . . .g.d.d.g.D.d.j.n.D.D.D.L.D.L.D.D.N.T.N.L.N.L.U.U.U.U.Q.U.XXXXU.Q.Q.XXXXXXXXXXXXA.b._ ] u.v.B.C.(.|.#XgXhXhXgX#X|./.R.R./.B.u._ _ _ X.Z V x.oXjX1X,.W H G.6X# @ X X @ : @ @ $ @ @ $ @ * * * $ * * & & > & & > > & & & & , & , , & j & 2 & = j & & , , & & & & & & & ",
"4 8 8 r r 8 4 r 8 r r 8 8 t 8 r 5 e t t e t 5 t 5 t t 5 5 e u 5 5 t t 8 5 u t 8 u 8 8 8 t 8 8 t 8 8 6 6 0 O.>.T L L M m a v o.8.0.d.f.m.V.M.M.B.M.Z.M.b...3.G.W +   . . . X     X E 0XiXI.z.I.Y.aXHXKXKXDXPXxXPXcXwXpX@XE.c.u.] ] ] a.c.V.(.'.|.#XgXhXhXhXhXhXdX@X{.`././.^.M.| } ,.,.,.,.,.,.<.;.>.;.;.<.;.>.-.;.-.;.>.-.-.;.-.+.>.>.+.>.:.$.:.>.;.>.>.$.>.>.+.Q o.%.e.w.3.b.^.(.(.(.(. X(.(.(.(. X(.B.B.m.' 9 7 9 9 9 k Q Z n.tX+X_.$XhXZXZXZXZXgX@X@XsXgXhXdX#X|.[.Z.c._ Z Z S S N N _ V.(.'.|.|.|.@X@X@X@X#X@X@X@X{.).A.T.n.{ %.E E E C A U C U C Q C U C C U Q U U Q C Q U Q Q Q Q C C E A A A A A A A E A ` ` ` ` ] B.(.(.(.(.(. X@XgXhXgXhXhXhXgX#X|.}./.V.v.u.u.] u.X.] v.).[.+XvXNXNXNXNXzXK.1.P.3X3XtX0X1XI.s.Z 9 1 > * * * * 7 ! a.[ [ | | | ....b.v.B.C.C.C.%Xu.4.%.G s Q W  . . ...g.g.g.g.D.g.d.D.D.n.D.D.F.D.L.L.L.L.L.U.U.A.A.U.U._.U.U.U.Q.Q.XXXXQ.XXXXW.N.] ] u.S.B.C.(.{.@XdXgXhXZXdX@X{.R.R./.R.v.] ' _ X.X.Z ] Q.pX2X3.@.P +.J *X7X: @ X @ @ @ @ @ @ $ $ $ $ $ $ * & * & * * > > & > & & 1 , j = 2 & & & 2 & , j = 2 & j & & & & & & & & & ",
"r r 8 4 4 8 r 8 r 8 8 r r r 8 r t t 5 5 t e t 5 e e 5 t u 5 5 h 5 h 5 5 t 8 t 5 8 t u 8 8 8 8 8 8 8 6 6 8 M #.M M M n v t.=.y.4.f.m.M.M.m.M.Z.M.M.M.f.g.i.<.2     . . . .     b ,XaX0XF.I.I.I.,XaXKXKXKXDXPXPXPXxXPXcXqXfX[.V.x.x.] ] a.x.v.R.`. X@X#XgXhXhXjXhXhXsX@X{.(./.^.C.b.{ / } ,.>.1.,.,.,.,.-.>.-.;.-.>.;.-.-.-.;.>.-.>.:.+.>.+.:.>.+.+.$.+.+.;.#.+.M %.=.i.e.b.C.(.(.^.^.(.(.(.(.(. X(.C.C.B.c.N w 9 9 l N V X.u.!.pXXXXXgXCXZXhXZXZXCXdX|.@XgXZXhXZXhXdX@X|.).Z.u.' Z Z S S N S a.R.`.}.|.@X@X#X#X@X#X#X#X@X|.{.^.A.N.u.{ E E / A A E C Q C Q U Q U C C Q Q U U E C E Q Q A A E A C E A A E A A A X.` ` [ S.^.(.(.(.`.}.@XsXgXhXhXhXhXhXdX@X'.`.R.m.c.u.] ] ] _ v.^.{.$XaXNXmXnXNXvXNXzXq.4.Y.3X2X2X2X0X0XY.D.[ N 7 1 * * * $ $ l a.a.[ [ ....b.b.S.C.^.^.(.).^.%XN.4.W G G E }  . . . .d.j.d.j.j.D.D.F.F.N.D.D.D.D.D.N.T.N.L.L.U.U.U.U.U.Q.W.Q.Q.W.XXXXQ.N.s.' u.v.S.C.^.`.@X#XgXhXhXgX#X|./.E.]./.B.x.] ] _ _ _ a.A.#XtXk.%.P P o.P H -X6X# @ X X X @ X @ @ @ $ $ $ $ & * * & * & > & & & & , , & & = j & , & = = j & & 2 = & , & j = & & & & & & ",
"8 4 r 4 4 4 8 r 8 4 r 8 r t t 8 e 5 t t 5 5 5 5 t 5 5 t 5 e 5 5 u 5 5 h 8 5 8 u 8 t t 8 8 8 8 8 6 8 6 6 t T #.n m v n *.y.5.f.c.m.M.m.M.M.M.M.M.b...q.0.0       . . . . X 8 P.aX0Xz.z.I.I.I.I.,XaXKXKXJXFXPXPXcXcXxXPXcXwXpX#X_.m.a.a.a.u.u.u.B.^.(.{.@XdXhXhXhXhXhXgX#X|.'././.^.B.u.} ( -.,.,.,.>.;.,.,.-.-.,.-.;.-.-.-.-.>.#.:.+.+.>.+.>.+.>.-.#.#.-.M O.O.:.8.i.u.S.^.(.^.^.(.(.(.(.(.(. X^.C.C.v.Z 9 9 9 9 9 S Z ] Y.pX$XXX#XZXZXhXZXhXCXZXdX@X}.|.sXhXhXhXhXhXhXsX|.}.^.b.] _ Z S S V N ! v.R.].|.@X@X#X@X#X#X@X#X@X@X|.`.C.A.n.../ / ~ E A A A E Q C A Q C U C E C Q U C Q A Q E Q A A A A A A ~ A ` ` ` ' c.C. X`.(.(.{.|.#XgXgXhXhXhXZXdX#X}.`./.B.c.x.] u.] ] x.Z.{.OXtXbXBXbXNXnXNXNXNXzXl. .I.1X0X0X0X2X2X0X1XY.n.^ l 1 > > * $ @ 1 Z x.a.s.b.b.m.V.^.^.^.(.(.(.(.^.Z.n.4.*.G D E }  .1.d.j.j.n.j.D.d.D.n.D.D.L.n.L.L.N.L.L.A.L.A.U.A.U.W.Q.Q.Q.XXQ.Q.A.u.[ u.S.B.^.^.(.|.@XdXhXZXgXsX@X`.R.].].V.x.] ] ] _ _ ' M.OXoXT.,.@.P P o.P O.J -X7X$ O O X X O O O $ @ $ $ $ * * $ $ * $ & & & & > & , > > , j = 2 & , & j = , j , & , , & & & = & & & & & ",
"8 4 8 r 8 r r 8 r r 8 r 8 r t r t 5 t 5 e t t t 5 t t 5 t 5 t 5 h 5 5 8 5 u 5 u t 8 8 8 8 8 8 5 8 8 6 6 8 M M v y o.=.5.d.b.m.M.M.m.m.M.M.M.M...3.q.P O         . .   @ h.aXrXI.z.I.L.z.z.I.I.!.ZXKXKXJXDXxXxXcXPXPXcXxXbXcXeXpX@XE.m.a.x.] ] u.x.B./.`.[.#XgXhXhXhXjXhXdX#X}.`.).^.%XM.../ ( } ,.,.,.>.,.-.>.-.-.>.-.;.-.-.#.-.+.>.>.+.>.+.>.+.#.#.R T +.:.l.l.T.u.%X^.^.^.(.(.^.(.(.(.(.^.C.C.Z.u.9 9 9 l 9 N S ' L.tX+X_.$XhXZXZXZXhXZXCXgX@X{.`.`.}.|.sXhXhXhXhXhXhXgX#X|.`.C.v.] _ Z S S S Z ] V.^.{.@X@X#X#X@X#X#X#X#X@X@X X^.Z.M.n.[ / ~ E A E C Q Q A Q A Q C Q A Q A Q E Q A A A A A A A ~ A ` ` [ [ x.V.(.(.(.`.{.|.@XsXgXgXgXhXhXgX#X|.`./.V.v.c.x.] u.] x.B.].|.+XvXFXmXbXnXmXbXNXnXbXvXG. .T.0X0X2X0X0XtX0X0X6X0XL.d.V 7 > * $ @ @ @ w a.c.c.v.V.C.^.(.^.^.(. X(.(.(.^.N.u.} I G Q { d.d.g.j.d.D.d.D.D.D.D.D.L.L.D.L.L.L.A.L.U.U.U.U.U.U.U.U.W.U.A.n.u.u.b.B.C.(.`.{.|.sXhXZXhXdX@X|././.].^.v.u.a.] ] ] ] M.[.#XY.2.%.P P P T o.T +.T 5XkX# O X X X O @ $ @ $ $ $ $ $ $ $ & & * & & & & > , & & , & & & & = j j = = j = = , & > & , , & > = & & & ",
"r 4 4 8 r r 8 r r 8 8 r r 8 r 8 5 t t 5 5 t e t t 5 t t 5 t 5 5 5 5 8 u u 8 5 8 8 t 8 5 5 8 8 8 6 8 6 6 8 v a n =.y.2.f.M.M.m.m.M.M.M.M.M.b.} e.;.2             . @ ) rXiXP.z.I.I.z.I.I.I.I.,XrXJXKXKXJXPXPXxXPXPXcXcXPXxXPXPXcXiX+X[.V.x.] ] ] ] u.x.C.(.`.@XdXhXjXhXhXhXhXsX@X{.(./.^.Z.n.| ( ( ,.,.>.;.,.-.-.-.-.-.>.-.-.-.-.>.+.+.>.+.>.+.>.T W T #.:.l.k.s.S.^.^.^.^.^.(.^.(.(.(.(.S.C.%Xu.S 9 N N N N N S n.tXfXXX$XgXCXZXhXZXZXZXhX#X|.(.(././.(.}.|.@XsXhXhXgXgXhXgXdX@X}.`.C.x.' _ Z S S S ! c.R.].{.@X#X#X#X#X#X#X#X#X@X|.(.R.B.n.n.| ` / ~ E A A Q A Q C C Q A Q E C Q A Q A A A A A A ` ` ` X.u.S.^.(.(.(.{.}.@X#XgXgXgXhXhXgXsX|.`./.C.v.c.x.u.] ] ] m./.{.OXaXbXAXbXmXNXNXVXNXVXNXmXzX0.} F.1X2XtX2X0X6X2X0X0X0XqX!.z.s.x w * * * * : @ V c.m.m.R.^.^.(.(.(.(. X(.(. X(.R.b.4.W K F E ) d.d.j.g.n.d.D.D.D.D.D.D.L.D.T.N.T.A.U.A.A.U.W.W.U.U.U.n.u.] u.B.C./.(.}.|.#XgXZXhXgXsX@X]./.`.(.m.x.] ] ] ] ' x.).@XtXK.-.O.P P o.P P T %.&.-XKXqX> X X X X X O @ O $ @ $ $ * $ $ $ & & & & & & & j = & & = & j = & , , & & j = j & , & , & , & & , & & & ",
"4 8 4 4 8 4 8 r 8 r r 8 r t t r e e 5 t e 5 5 5 5 t 5 5 e 5 t 5 5 u 5 5 8 e u 8 8 8 t 8 8 t 8 8 8 8 6 6 5 i *.y.l.d.f.m.M.m.M.M.m.b.b.f.| 6.6.u     .         O M 0XiX,Xz.z.z.I.z.I.I.I.I.!.rXFXKXBXKXKXNXxXPXxXxXPXPXxXPXxXcXPXxXyXiX@X_.m.a.] ] ] ] u.v.^.`.'.#XdXhXgXhXjXhXhX#X@X}.`.(.^.Z.n.{ ( ( ,.>.,.,.-.-.-.-.-.-.-.-.#.+.>.>.+.+.M +.M R #.:.9.k.s.f.M.C.C.C.^.^.^.^.^.(.^.C.S.%XS.u.w 9 9 N N N V s.oXjX+XOX#XhXhXhXhXhXZXZXsX@X X`.(.^.$X+X_.`.`.}.|.#XdXhXhXhXhXhXjXfX@X'.^.B.x._ _ Z Z Z Z _ v.^.`.|.@X@X#X#X#X#X#X#X#X@X{.(.C.Z.b.d.| { ~ ~ / A A E A A C E A A A A A ~ A A ` ~ ` ` ` ' ] S.C.(.(. X`.}.|.sXgXhXhXhXgXgXdX@X(.(.C.v.c.x.x.] u.] v.R.'.@XaXNXDXnXVXNXVXnXmXbXnXbXnXuX<X=XJ.L.T.Y.3XtX0X6XtX6XtX0X0X0XrXY.L.[ N w * * * * @ 1 ^ m.B.C.^.(.(.(.(. X(.`.(. X X(.V.n.} W F I )  .d.g.g.D.D.D.n.n.L.D.n.L.N.L.N.L.L.L.U.U.U.U.U.n.u.[ u.S.C.^.(.{.|.#XgXZXZXhXdX@X'./.`.'.V.c.a.a.] ] ' a.Z.@X+XY.2.#.K P P P P T P %.G.xXLXaXI.% X X X X X O @ @ @ @ $ $ $ $ & * * * & > & & & & j & & 2 j & , = j & = , & 2 & j , , > , & > & & & & & ",
"8 4 4 4 8 4 r 8 r r r r 8 8 r r t e 5 e e t e t t 5 5 t e 8 5 e e 4 8 4 4 e 4 8 t 8 8 e 8 8 8 8 8 8 6 6 t *.p.1.s.B.B.M.S.M.M.M.M.b...<.5.m X         .   . z I.aX0Xz.z.I.I.I.z.z.I.P.Y.rXVXKXbX,XK.:XvXKXAXxXxXPXPXxXPXcXxXPXPXPXPXcXwXpX@X).x.] ] ] ] ] u.m.^.].|.#XgXhXjXgXhXhXgX#X|.}.].R.R.N.u.<.W ,.,.,.-.,.-.-.-.( -.-.-.-.-.#.W W W W W <.9.w.F.a.c.m.B.C.R.^.C.^.^.^.(.V.B.R.C.a.l l N N V S S X.T.aXpX_.#XgXhXhXhXhXZXZXgX@X X}.(.^._.dXvX4X3XoX X(.`.`.|.#XgXhXhXgXjXjXgXfX|. X^.S.u._ X.X.S S X.] V./.{.|.#XsX#X#XsXsXsXsX#X|.'./.V.M.n.u.1.} / E Q A A A A A A A A A ` A ` A ` ` ` ' ] u.S.(.^.(.(.}.|.#XdXhXgXhXgXgXdX@X{.(.C.B.c.x.] ] ] ] x.R.].|.pXNXmXbXnXVXbXmXnXVXvXNXVXvXyX>XG.2.J.yX0XU.Y.rX0X0X0X0XeX0XqX0X0XiXtX!.N.s.x > * * * * @ 9 a.S.^.^. X(.(.(. X(. X(.(. X(.^.S...} Q U E | d.g.d.D.D.D.D.D.L.L.L.D.L.A.L.A.U.U.A.L.N.u.{ u.b.B.^.(. X{.@XgXgXZXgXsX@X'.R.].`.C.c.] ] ] ] ] ] v._.#X!.K.-.K F R P P Y T M 0.IXGXbXiX.XU.O X X X X X X @ @ @ $ $ $ $ * $ * : j * & & & & & & & > j = 2 j = & & j = j , j & > , , > & & & > & & & ",
"4 r 8 4 r 4 4 r r 8 8 r r t 8 t 5 t e 5 5 5 5 u 5 e 5 5 r 5 t 5 e t t t t 8 t 8 t 8 8 8 8 8 4 8 6 8 6 6 y y.) s.M.M.M.M.M.M.M.b.u.4.e.*.;     .     . . > j.0X0XI.z.z.z.I.z.z.I.I.Y.0XjXHXSX0Xh.:.;.<.h.2XmXJXAXPXcXPXxXPXPXcXPXcXPXPXPXcXyX+X@XV.] ] ' ] ] ] x.V.R.].@XsXhXgXhXgXgXhXdX@X}.`./.R.E.N.4./ ( ,.} } ,.( } -.-.( %.W #.W W T W ;.w.&XH.s.a.x.c.v.B.B.C.C.^.^.^.C.S.C.).c.Z l N V V V S X.n.tXfX[.@XgXhXhXhXhXZXZXgX#X|.{.`.(. XfXmX6X4.i.4.J.!.XX).(.(.`.|.#XhXjXgXjXgXjXfX#X|.{.C.v.u.X.X.X.Z S X.c.R.(.{.@X#XsX#XsXsXsXsXsX@X|./.^.B.N.D.u.} { ` ~ A A A A A A A ` Q A A ` ` ` _ u.B.^.(.(.(. X X@XdXgXgXgXhXhXgX#X|.(.^.B.c.u.u.u.] ] ] v.(.|.+XvXMXmXNXNXBXNXVXNXNXNXVXnXzX2XG.,.E U E 3.yXuX0XI.Y.0XeXtX0XtXeXtXeX0XiXiXrXY.N.^ l 1 > * > @ * S u.S.C.(.`.(.(.(.(. X(.(.'.`.(.^.b...W I D / | d.D.n.D.D.n.D.n.N.L.N.T.L.L.N.N.T.u.{ X.u.B.C.(.`.}.@XsXgXhXhXdX#X|.E.R.].^.v.u.u.] ] ] ] v._.@XpXP.2.O.K Y Y K P P Y W =XPXPXeXpX+XQ.A.O X X . X X X X : @ @ $ @ $ * @ % * & & > & & & , , , & & , & & & 2 , = , & , & , , & & , & , & & & & & ",
"4 4 4 4 8 r 4 8 8 4 8 8 8 r r t e 5 5 e 5 5 h 5 5 e 5 e 5 5 5 t 8 e 4 8 8 t 8 e 8 e 8 8 8 8 8 8 8 6 6 6 y y.( b.M.M.M.M.M.M.b.4.y.=.r               $ ) !.rXI.z.z.z.z.I.z.z.I.P.rXaXHXJXyXK.;.>.-.#.#.;.<.K.eXFXGXxXxXPXcXPXPXPXPXPXxXPXPXxXkXiX#X[.m.] ] ] ] ] ] c.C.(.}.#XgXgXgXgXgXjXgXsX@X]./.R.Z.Z.n.} W } ( >.-.-.( ( } W ( W W W ,.6.w.&X4.] a.a.a.x.v.m.B.C.C.C.C.S.S.%XZ.Z l x V V V S ! n.tXpX$X$XsXhXhXhXhXZXhXhX#X|.`.`.(.).#XZXyXK.} } ,.} ( 4.K.Y._.(.(.`. X@XsXhXhXhXgXgXhXfX#X X(.C.u.u._ X.S X.Z ' v.^.(.|.#XsXsXsXsXdXsXfX#X@X{.(.R.C.M.n...{ ~ { ` ~ A A A A ` A X.{ ` _ ] S.^.(.).(. X X|.sXhXhXgXhXhXhX#X|.`.(.C.v.x.u.u.] ] ] x.^.}.+XjXSXNXnXvXVXVXNXNXNXNXZXmXNXiX=X<.E F I I I U W H.yXuX!.U.0XeXtX0XqXiXtXtXiXiXtXiXrXQ.b.Z 9 > > > > : w X.u.V.C.^.(.(.(.(.(.(.(.(.`.`.(.C.b...E K I { ....D.n.D.D.L.D.N.L.N.N.A.T.D...` u.S.C.^.(. X|.sXgXhXhXgX#X|./.R.].^.B.u.u.] ] ] _ a.R.@X+XY.k.#.M T I F Y L Y H 2.IXDXwX~.+X~.~.W.U.O X . X . X X @ : @ @ $ * @ $ # * % * % & & & & & & & & & & , & & j = j & 2 & 2 & 2 = & > & & & & & & > ",
"4 8 8 4 4 4 4 4 4 r r r r 4 r 8 e 5 t 5 e 5 5 5 t 5 t 5 5 e 5 5 t 8 8 4 e 8 t 8 8 8 e 8 8 8 8 8 8 6 6 > J y.) M.B.M.M.M.N.u.2.e.t.    .     . . . z I.0X,Xz.z.K.I.z.I.z.I.Y.rXrXVXHXzX:X1.;.#.O.O.T T O.-.-.2.:XuXJXDXPXPXPXPXPXPXPXPXPXPXPXPXcXIXpX@X).c.] ] ] ] ] x.v.R.].|.#XgXhXgXgXgXhXgX#X|.].^.C.Z.A.i.` ( ( ( -.( ( W W W ( ,.<.i.;XK...' ] ' ] ] x.c.v.S.B.B.B.S.%X^.u.N N V V Z Z S b.oXpX$X[.#XgXZXhXhXhXZXhXdX@X{.{./.(.$XhXlXJ.4.,.,.} } ( ( W } 3.J.!._./.(.`.{.@XfXhXjXgXjXhXgXsX@X{.(.B.x.] X.X.X.X._ ] B.(.{.|.#XfXsXsXdXsXsXsX#X|.`./.^.B.N.D...` ` { ~ { X.` ` ` X.[ ] x.C.(.(.(.(. X|.#XhXhXhXhXhXgXdX@X}.`.^.S.x.x.x.] ] ] c.R.{.@XfXVXAXVXVXVXVXNXNXnXVXvXnXNXaX6X3.W U U I G F I U I U -.=XzXeXU.Y.0XtXtX0XeXiXtXtXiXtXtXrX!.N.a.Z 9 1 > j j j w _ v.B.^.(.(.(.(.(.(.(.(.(.`.`.(.B.x...( F I  .n.D.n.N.D.N.L.n.L.N.D.u.{ ] v.B.^.(. X X@XdXhXhXgXdX@X[././.].C.c.] ] ] ] ] ] B.[.@X!.k.;.T R O.M Y P Y I %.9XPXkX~.pX+X+X+XQ.L.Q.O X . . X X X X : : @ @ % * # * % * % % * & & & & & = j = j & & , & , & & & , = j & > , & , > & & & & & ",
"4 4 4 4 8 r 4 4 r r 8 r t r r 8 5 e 5 e 5 t 5 e 5 5 5 e 5 5 t t 4 8 e 8 e 8 e 4 4 t 8 4 4 8 6 4 8 6 6 6 o.y.{ M.M.v.M.n.4.0.@.&   . .   .   . $ j.rXrXz.z.I.z.I.z.I.I.I.Y.rXnXKXVX:Xh.-.-.O.O.o.L O.T T T #.-.>.h.3XnXSXPXxXPXPXPXPXPXPXPXPXPXPXPXIXyXfX|.Z.c.] ] ] ] ] x.B.^.'.@XsXgXgXgXhXhXhXdX@X|.].^.R.Z.n. .W ( ( ( W W W ( <.w.&XG. .] ' _ ' _ ] ] a.x.c.v.c.v.C.R.c.V l V V V Z X.[ Y.aX+X_.$XgXZXhXhXhXhXZXgX@X{.`.(./._.hXNX3Xh.,.,.%.} W W ( W ( } / } 3.1X.X)./.`.].{.#XgXhXhXhXgXjXgX#X$X X(.S.u.] _ X.X.X.] v.R.`.{.@XsXsXsXsXdXfXsXsX@X|.{.(.R.Z.L.g.u.{ ` ` { ` X.{ u.u.S.).(. X`.}.|.#XgXhXhXgXhXhXgX#X|.(.^.B.v.x.u.u.] ] x.C.].|.fXVXFXVXVXmXmXVXnXNXnXNXnXVXbXyXH.,.I U F U U D G U D U I I U 2.wXvX0XL.!.rXiXtXtXiXiXiXtXiXiXiXpX!.f.' V 7 w j 1 j * 9 ] v.C.^.(.(.(.(.(.(.(.(.(.`.`.^.B.b...W Q /  .n.n.D.N.L.N.n.D...[ v.C.^.(.`. X@XsXhXhXgXdX#X|.R.R.`.R.v.x.] u.u.] ] v.).@XoXK.<.O.Y M R R R O.M O.UXcXxX0X~.+X+X~.~.~.Q.Q.Q.$ X X . . X X X X @ @ @ : @ * # % @ % * % & & & & & & = & & j , = j = j j & , & > = & & , % > % , & % > ",
"4 4 r 8 4 4 4 4 8 8 r 8 4 8 r r t 5 e 5 e 5 t 5 5 e e 5 e 5 5 5 e e 4 8 4 8 8 8 8 8 8 8 8 8 8 8 8 8 6 6 t.y.| M.M.n.4.e.&.5             . O E 0XrXz.z.I.I.z.H.z.I.I.P.0XnXJXHX0Xh.-.+.O.O.T M O.L T L T T O.O.#.-.<.G.iXBXSXPXxXPXPXPXPXPXPXPXPXPXPXcXIXiXfX[.B.a.] ] ] u.u.c.V./.{.#XdXjXgXhXhXhXhX#X@X{.(./.C.Z.n.} } ( ( } ,.0.&XG.F.[ _ _ _ _ _ _ ' ' a.x.x.x.V.).v.! l N V N Z Z _ N.pX#X_.$XdXZXhXhXhXhXZXhX#X|.`.(.^.).fXZXqXF.4.,.} } } W W W W E W W W W { ( K.!._././.`. X|.#XgXjXjXgXjXgXdX#X|.{.^.S.u.] X.X.X.u.u.S./.'.}.#XsXfXsXsXsXsXsXsX@X}.].(.C.A.n.i.| ` { { ` u.u.^.(. X X{.}.@XdXgXhXgXgXhXgX#X|.`.(.C.S.c.u.x.x.u.x.B.`.|.#XjXVXVXVXVXVXVXVXVXmXVXNXVXNXiXP.1.I U U U G F G U G D U F U I I I U l.lXaXY.Q.0XtXiXtXiXtXaXiXiXpXtXiX0XU.c.^ N w 1 1 1 * * N u.S.B.^.(.(.(.(.`.(.{.{.`.}.{.^.S.b.{ E E } n.F.D.n.F.u.u.x.S.^.(.(.{.|.#XgXhXgXdXsX@X]./.]./.B.a.a.] x.] ] ] E.@X+XP.1.O.L I Y R R W W R 6.7XPXqX!.+X+X+X~.OX.XOX!.N.Q.O X . X . X X X X @ : @ : * * : # j % * * & & = j = & & = j = & = & & , & , j , = , > = % > , > & & $ % ",
"4 r 4 4 4 4 4 4 r 4 4 r 4 r 8 r 5 e 5 e 5 t 5 e 5 5 5 5 e 5 5 e r 8 e e r 8 8 4 4 8 4 8 8 6 8 8 6 6 6 6 o.y.{ n.u.3.6.s .     . . . . . M Y.rX!.j.z.P.z.I.z.I.I.P.0XiXHXJXiXz.-.$.$.O.M T L T L L T O.L L O.O.T #.#.-.2.:XaXFXDXPXPXPXPXPXPXcXPXPXcXcXxXIX7XtX#X).v.] _ ] ] ] x.v.R.`.[.#XgXgXgXhXhXhXhX#X|.`.(.R.C.N...} } q.G.;XK.n._ ' _ _ ! _ _ _ ' ' ] ] v.).V._ l x V V V S _ f.tXjXXX_.sXhXZXhXhXhXZXhXsX|.'.(.^.^.#XVXyXJ.4.<.} } ( %.E W Q Q W Y W E W W W W / ,.J.!._.(.`.`.{.@XdXjXhXhXjXgXhXdX#X|.`.C.S.u.u.X.X.X.] x.V.(.`.|.#XsXfXfXfXsXsXdX#X|.}.(.^.C.A.n.u...u.u.B.(.(. X`. X|.#XgXgXhXgXgXhXdX@X`.(.C.S.x.x.x.x.u.u.v.).}.@XfXVXBXVXVXVXVXVXVXnXNXZXVXVXaX<X2.W U Q F U D G D D D D U D U F F M U W I >.>XvXtXQ.!.tXiXpXpXiXiXiXaXiXaXpXaX!.N.x.X.9 1 w 1 1 * 1 X.c.m.C.(.`.(.(.`.{.(.{.'.{.}.{.R.S.b.{ E / u.F.u...u.S.^.(. X X X@XgXhXgXdXsX@X].R.].].V.c.u.u.u.] ] ] S.$X$XY.k.-.Y F Y R Y T R M +.-XPXrX!.Q.+X+XOX~.~.OX~.~.Q.U.W.O . . . . X . X X X : : @ : * * * % * # % % & & & & & j & = j = & j , & j , = & & > > , > & > = % = > % ",
"8 8 4 4 4 4 4 4 8 4 8 4 r 8 t 4 5 e 5 5 e 5 e 5 e t 5 e 5 e 5 4 4 e 4 8 8 r 8 8 4 8 8 8 8 8 8 6 8 6 6 2 t.y.} K.G.P @   . . . . . . 7 H.rX0Xz.z.z.I.z.z.I.z.P.Y.tXVXKXvXJ.-.#.O.O.M T o.L L L L O.L L O.O.L T O.T O.#.$.,.h.2XvXGXPXcXPXPXPXPXPXPXPXcXcXcXcXIX5XfXOXC.v.u.] ] a.a.x.m.^.].@XsXgXgXhXhXhXhXgX#X|.(.^.C.A.T.G.-XP.n.x.] ] ' _ _ ! _ ! _ _ _ c.C.^.a.N x N V V Z Z ' Y.fXoX_.#XhXhXhXhXhXhXhXdX@X{.(./.R.$XZXbX:X4.1.,.} ,.W W T W W W P W Y E P Y I E W W ( / g.T..X(.(.`. X|.$XgXhXjXgXgXgXgXsX@X}.(.B.v.u.u.X.X._ u.v.C.].|.@XsXsXsXsXfXdXdXdX#X|.`.(.C.%XA.n.S.^. X X(.(.|.@XdXhXhXhXgXhXgX#X{.(.^.S.v.x.u.x.u.] c.^.{.|.pXVXFXVXVXVXVXVXVXVXNXVXNXVXNXqXk.W I I U F D F D D D G D F D F D F D U U M I I M 2.wXnX~.Q.~.iXiXiXpXaXtXpXiXaXiXaXrXQ.M.c.V w 1 1 1 * * 9 ] v.B.R.`.(.(.(.`.`.{.{.{.}.}. XR.S.b./ E } [ u.Z.(.`.{.}.@XsXhXhXdXsX#X|./.].].R.v.a.u.] ] ] ] c._.#XoXK.,.Y K Y K Y Y R R -.UXcXxX,X~.OX+X+XOX~.OX.X~..X~.Q.U.Q.$ X . . X . X X X @ @ @ @ * : % : % % j $ j & & & & & = & & = & & , & & = & , & & , % > = > > % > > % & ",
"4 4 4 4 8 4 4 8 8 4 r 4 r 8 8 r r 8 r r r y 4 8 r t t 4 4 4 t 4 4 5 5 5 5 5 5 8 5 6 8 8 8 8 4 8 8 6 8 6 p 9.z.g.> . . . . . . . # h.rXrXI.z.z.I.K.I.I.z.P.Y.0XnXKXVX3X2.-.T L L L L L L T L O.L L T T O.L T O.L O.T O.T #.#.>.z.eXBXFXbXxXPXPXcXcXcXcXcXcXcXcXIX4XqX#X_.V.c.a.] ] a.x.x.V./.'.@XsXgXgXhXhXhXhXdX@X{.(.C.A.T.T.m.B.c.u.] _ _ _ _ X._ _ ] V.).c.S 9 N V S V V _ L.fXpX_.$XgXhXhXhXhXhXZXgX@X{.`./.^._.hXMX5XF.,.,.,.} W W W W Y W W Y T W P P E P Y Q W E W W / } F.Y.[.'.`.`.}.|.#XgXhXjXgXgXgXgX#X|. X(.S.v.u.] X.X.u.u.B.^.].|.#XdXsXsXsXdXdXgXsX@X}.]./.C.C.(.(. X`.}.@XdXgXgXgXgXhXgXsX|.(./.V.v.x.x.a.a.] x.V.(.|.#XZXHXFXVXVXHXVXVXVXVXVXVXVXZXuXJ.-.I I I F F D D D G D D D D D D G D F D F U F F U I I W l.lXaX~.Q.0XpXiXtXaXtXaXtXaXaXtXaXtXQ.Z.a.V w 7 1 1 j 1 Z c.m.V./.(.(.'.`.{.{.}.}.|.}.}.`.R.v.[ u.B.^.{.{.{.|.#XhXgXgXsX#X@X(.(.].).m.x.x.] u.] ] a.Z.#XtXT.2.%.K F K M L R R R 0.8XPX5XQ.~.OXOX.XOXOX~.~.OXOX~.~.!.U.Q.@ . . . . X . X X X @ @ : @ : % @ % * % % % % % j j % j & = j & j = & j = = j = & 2 & & & , , & & & $ & ",
"r 4 4 r r 4 4 r r 4 8 r 8 r r r 8 r r 8 8 r t 4 4 4 4 t t 4 t 4 5 6 5 5 5 5 8 5 8 5 5 8 6 8 8 6 8 6 6 6 6 6 > X X X . . X . X ) 0XeXY.z.z.I.I.z.K.I.I.P.0XnXJXHXqXk.-.#.T L L L L L L L L L L L L O.L L L T L T T T O.M L #.#.-.,.P.uXVXPXxXcXPXPXcXcXcXcXIXIXIX7X4X6XiXfX_.V.a.] ] ] x.x.v.R.`.|.#XgXgXgXgXgXhXgX#X|.`.^.V.^.`./.B.x.] _ _ _ _ _ ' v.^.S.Z l N N N S S Z s.oXfX_.OXdXZXhXhXhXhXZXgX#X|.{.`.R._.fXSXwXK.4.} ,.} W W W W W W W Y W Y Q Y Y E Y Y P E Y Y E E W E W ,.K.oXXX(.`.`.{.@XsXgXgXjXgXjXjXfX#X|. X^.B.x.u.u.X.] ] c.V.(.].|.#XsXfXdXdXdXdXdXsX@X}.(.(.`.`.{.|.sXgXhXgXgXgXgXsX|.(./.C.v.x.x.] ] ] ] m.^.|.#XnXSXVXVXVXVXVXVXHXVXVXVXVXVXNX2X3.W I I U U D D G D D G D G D G D D D D Q F D F U F F F I I M -.>XvXpXQ.~.rXaXiXaXiXaXaXiXaXpXaXaX+X_.V.a.x w w w 1 j 9 ' v.B.C.(.`.'.{.{.}.}.}.|.}.|.}.R.S.^.{.{.}.}.@XdXhXgXdXsX#X'./.'.'.V.c.u.u.] ] ] ] V.$XfXY.h.%.G Q L L I I I R -.9XcX7XY.Q.OX~.Q.~.~.~.Q.OX.X~.Q..X.XQ.A.W.@ . X . . . X X : X X : @ : * @ * @ % % % * % j % % & ; & & = & & = & , & & & , & , > & & & & & & & & & ",
"8 r 4 8 8 4 4 4 4 4 r 4 r r 8 8 4 4 r 8 4 8 4 t t r 8 4 4 4 4 8 5 5 5 5 5 5 8 5 8 8 6 8 8 4 6 8 6 8 6 6 8 > $ $ $ O O O X M 1XaX0XF.I.z.z.z.z.I.I.P.1XaXBXKXuXH.>.-.T R L K m L L L L L L L L T L L O.L O.T L O.O.L O.m L L T +.O.#.h.,XvXmXPXcXcXcXcXkXIXIXIXIX7X8X8X4XqXfXOX).m.a.' a.a.x.c.B.R.].|.sXgXgXgXgXgXhXgX#X}.|.@X|.(.C.c.] ] _ _ _ x.^.Z._ l N N N S S Z ` Y.fX$X_.#XhXhXhXhXhXZXhXsX|.}.`.(.).+XZXzXT.4.,.} } W W W W O.W P Y W Q P W P Y Y Y I Y I I Y I Y E Y W E W / 4.T.oX[.(.`.].{.@XfXjXjXgXjXgXgXfX@X|.`.R.S.u.u.X._ ] u.v.R.].}.@X#XdXdXdXdXgXgXdX#X|.}.}.|.#XgXjXgXgXgXgXdX@X`.(.C.v.x.x.a.] ] a.v.C.{.@XjXHXHXVXVXHXVXHXVXVXVXVXVXCXVXeXK.W I I U D D D D G D D D D D G G D G D D D G G D F F F I F F F R I I h.wXnX~.Q.oXiXaXaXaXiXaXaXaXaXaXaXaX~.E.B.' l w w w w 1 N a.m.V.^.'.{.{.{.|.}.|.}.}.|.}. X}.}.}.@XsXgXgXdXsX#X|./.(.}.C.x.u.u.] ] ] ] v.[.#XtXF.;.R G G G M M M M I q.kXcXI.Q.OX~..X.X.X.X.X.XQ.~.Q.~..XQ..XQ.A.Q.X . . . . X . X X X X : @ @ : * : j @ % % % % % % j & & = & = & j & , = & j & , & = & & & & & & & & & $ ",
"4 8 4 4 4 4 4 4 4 r 8 r 8 r r 4 8 t 4 r t 4 4 r 4 8 r 4 4 e 4 e 5 5 5 5 5 8 5 6 5 5 8 6 6 8 8 6 8 6 6 6 6 6 1 > $ $ $ M P.aX0XI.z.I.z.I.I.I.I.I.,XtXVXKXvX:Xh.O.L L L K K L K J R M L L L L L L L L L T L L T L M T L O.T L L L O.O.T -.z.0XvXmXxXcXIXkXIXIX8X8X8X4X9X4X9X>X0XfX[.R.c.a.] ] a.a.c.V./.{.@XsXgXgXgXgXgXgXsXsXsX|.{.^.S.u.] _ u.C.E.u.N N N S N S Z _ L.+X$X[.+XgXhXhXZXhXZXZXdX@X}.}.`./.OXhXbX1X4.4.} } %.W W O.O.W W P W T P Y Q P P Y P Y I Y P Y I Y I Y I Q W E E W } 4.Y.XX(./.`.`. X$XfXjXgXgXjXgXgX#X|.}.(.S.u.] u.] X.] a.m.R.].}.#XsXdXdXdXdXgXgXdX@X@XdXhXgXgXgXgXdX#X|.(.^.B.c.x.u.] ] ] a.B.'.@XgXCXHXCXCXVXVXHXCXVXHXVXVXVXVXuX:X,.I I I U D D D D D D D D D G D D D G D G D F D F F M U F F F F U U I R I ( l.zXaXQ.Q.oXaXaXaXiXaXaXaXaXaXaXaXaXXX^.v.X.9 w w 7 w w ! v.V.R.(.}.{.}.|.}.|.|.}.|.}.}.|.#XdXdXdX#X#X|.(./.`.).S.u.] ] ] u.] a.E.@XtXP.2.T G D G D G M M M -.4XcX<XL..X~..X.X~..XQ.~.~.Q.OX~.Q.OX~..X~.Q.U.W.O . . . . . X X X : X @ : @ : * : % % j % j * % % % & & j & & = = & & j = & & & & j & , , & & * & $ & & ",
"8 4 r 8 4 4 4 r r 8 r 8 4 t r 8 r r 8 r 4 4 8 r 5 e 5 5 8 e e 8 5 5 8 5 5 5 4 8 8 4 5 6 8 6 6 8 8 6 8 6 8 8 b 6 % 8 z.rXrXI.I.z.I.z.I.I.I.I.,X0XnXKXGX2Xh.-.T R L m K K m K K K L M L L L L L L O.L L L T L T L O.L L L L L O.L M O.L O.O.>.z.eXvXbXxXkXIX7X8X4X4X9X9X-X>X-X=X>XtX#X_.m.a.] ] ] a.a.c.V.].}.@XdXdXgXgXgXgXgXsX@X|.`.C.u.x.V.^.v.S N S S V S S _ N.tX+X_.@XsXhXgXhXhXZXZXgX#X}.`.`.^._.dXNX2XF.4.,.} ( W W W W W Q T Y W P Q I Y P P P Y P P Q P P I P F Q I P E Q E E E W { ( F.!.XX).(. X`.|.#XgXhXgXhXjXgXgX@X|.`.^.v.u.] ] ] ] ] c.V./.`.|.#XdXgXgXdXgXgXgXgXhXgXgXgXdX#X@X`.(.B.v.x.u.] ] ] ] m.(.|.sXCXHXCXCXVXVXHXVXHXHXVXVXVXHXvX3X1.W I Q F F D D G D G D G D D D D D D D D F D G F F F D F F F M U U F M F U R W U ) <XvXrXQ.Q.pXaXaXaXaXaXaXaXaXaXnXjXpX_.R.c.V 9 w w w w 9 ] B.R.R.'.}.}.}.|.|.|.|.|.#XsXgXdXsX#X@X(./.'.(.B.u.u.] u.] ] ] B.OX$XY.3.-.F F U F D F I p M UXkXrXL.Q.Q.~.Q.~..XQ.~.Q..XOX.X~..X~..XQ..X~.Q.W.W.O . . . . . X X X X : : @ : @ * @ % % : : * % j % % % j & & = j & & & & & 2 & & & , & = = & & & & % & % ",
"r 4 4 4 4 4 4 8 4 8 4 4 4 4 4 4 r 8 r r 8 t 4 r 5 5 e e e 4 8 4 5 5 4 5 8 6 5 5 5 8 8 8 8 8 8 8 6 8 8 8 z M #.M h.rXaX,Xz.I.I.I.I.I.H.I.Y.0XrXGXKXqXK.-.T L L K L K K n M L K L L R m L L L L T M R L L L L L L L L L L L L M T o.L L O.T O.-.2.J.eXbXbXkX8X8X4X9X<X-X-X*X;X*X*X*X<XiX#XE.v.] ] ] ] a.a.c.R.].|.#XdXdXgXgXgXsX@X|.(.C.C. XZ._ N S S Z S Z Z n.oXfX$X[.sXgXgXgXhXhXZXhX#X{.}.].`.).#XZX0XF.4.} } } ( W W W Y W Y W P P W P P P P P Q P F Q K P K F I I I P I F I I P I I I E { W } K.!._.^.(.`. X@XsXjXhXgXgXjXgXsX@X}.`.R.v.u.u.] ] ] x.v.C.`.`.|.#XdXdXdXgXgXgXgXgXgXsX@X{.(.R.S.x.] u.u.] ] x.R.{.#XhXHXHXCXHXCXHXHXCXHXVXVXVXCXVXiXz.W U U F D D Q G D B G G D D G c D c D G F F b D F G G D M F F F F F F F I U U U I R W I 2.qXnX~.U.~.aXaXaXaXaXaXaXaXaXaXaXaX+X).V.a.S 9 9 w w w N a.R.R.(.}.|.|.}.|.#XhXhXgXsX#X@X X(.].'.C.u.] ] _ ] _ _ c._.#X!.K.<.W F U F b F U U b k.7XkX,XL.Q.Q.~.Q..XQ..X.XQ.~.OXQ..X.XQ..XQ.~..X.XU.L.W.X . . . X . . X X X @ X : @ @ @ # * * % j % % % j % % % & & & & j & 2 , & & 2 & & & & & & > & % & & $ & ",
"4 4 4 8 4 4 8 r 4 r r 8 8 r r 4 8 4 r 8 r 8 r 8 e 5 5 5 5 e 4 r 5 5 5 8 5 5 5 6 5 5 8 6 8 6 8 6 8 8 8 c b R z.nXnXrXz.I.I.I.z.I.I.I.I.Y.rXFXKXzXK.>.T R L M J L M n K L K K M L J L L L L L M o.L L L L L L L R O.L L L L T L L L L o.M m O.O.O.-.h.:XuXbXzXIX9X-X-X=X&X&X&X&XG.&XUXG.5XjXOXV.x.' ' ' ] a.a.m.R.`.|.#XdXgXgXdX@X|./.'.(.a.V V S Z Z Z Z ] U.jX$X).#XgXgXhXhXhXZXgX#X|.].].(./.$XhXzXJ.i.} ,.} W W W W E Y W W Y P Q P P P Y P P F P F P P F F K P P P F P F I F F Q P I E I E E Q E 4.T.!.).(.`.}.}.#XgXhXjXgXgXjXgXsX|.}.(.V.c.u.u.] u.] x.m.^.`.{.@XsXgXdXgXgXgXdX@X}.(.^.B.x.u.u.] ] ] u.B.(.|.gXCXHXCXHXHXCXHXHXVXHXVXVXCXCXuXJ.( I U U D D D D G D D D D c G D D D D D D G b F F F D F F F F F F F F F F F M I F U I I I W I E k.wXaX~.Q.pXaXaXjXaXaXjXaXaXaXaXaXpXOX/.m.' N 9 9 9 9 w ! v./.E.).|.|.|.#XhXgXsX#X|.(.`.`.^.c.] ] ] ] ] _ x.).@XoXP.0.W K I U F F U Y v W -XzX2Xf.Q.~.Q.Q.Q.Q.Q.~..X.X~..XQ..X~.~..X.X.X~.Q.~.Q.W.W.X X . . . . X X X X @ : : @ @ % @ % % * ; % * % % & j & j = & & = & = & j , & & & & & & & & & & % & & & ",
"4 4 4 4 4 r 8 4 r 8 4 4 r 8 8 r r 4 8 r 4 r 4 r 5 5 e 5 5 5 5 4 5 4 5 5 5 6 8 5 6 5 6 8 4 8 8 8 8 8 8 c M 2XKXnX,XL.I.I.I.I.I.I.I.Y.0XVXKXbX:X>.W T L L L n K H m K K n J L J K M L m L L M L L L L L T L L L m M o.L L L L L L L L L O.M L O.M O.#.>.z.0XzXvXyX4X=X*X&XG.&XG.w.i.w.i.w.G.tX+X_.m.a.' _ ' ' ] a.B.(.`.@XsXdX#X|.'.'.B.! N Z S Z Z Z X.N.pXfX_.@XdXhXgXgXhXhXhXsX@X'.].]./.[.gXDX2X4.1.} ,.( ( W W Y W W Y Y Y T W P T P P P Y Y I P P P F P F P F P F K F P F P F I I Q I I Q I E E E / 4.Y.XX).(.`. X|.#XgXhXgXgXgXhXgX#X|.`.^.S.x.u.] ] ] ] x.B./.].}.@XdXhXgX#X|.`./.B.v.x.u.u.] ] ] v./.|.sXVXHXHXHXCXHXHXHXHXCXHXVXHXHXVX1X,.E I D Q U D D D D D D D D D D D c D D D v c D D D b F b F F b F F F F F F F F F F F U U I M R I W I ( =XvXrXQ.oXpXjXaXaXjXaXvXjXaXaXjXaXpX[.).m._ S 9 l N 9 N ] R./.(.}.|.@X#X#X@X(./.`./.m.] ' _ _ _ X.] V.@XfXP.q.;.P U F F I U U M Y l.IX7Xz.f.~.~.Q.Q.Q.Q..XQ.Q.Q.Q.Q.Q..XQ.Q..XQ.~..XQ.Q.~.Q.L.W.X X . . . . X . X X X : : : @ : : * : % % * % % % % j ; & & & , & & j = & , > & 2 & j & > & & & & & & $ ",
"4 4 4 8 4 4 4 r 4 r 4 4 r 8 r 4 5 5 4 5 5 e 5 5 e 5 5 5 5 5 5 5 4 5 5 8 4 5 5 6 4 4 6 6 8 6 8 4 8 8 0 6 h.qX,X0XI.I.z.I.I.I.I.Y.0XnXKXFX,X,.#.T L L n K K n K M m K n L M K L n J L L L n L K L L L L L L L L L L L L L L L L L L L L L m T L T T T #.#.2.H.eXuXzX6X=X&X&Xw.w.w.q.w.q.w.w.q.H.tX+XE.v.a._ _ _ ' ' c.V./.(. X{.'.R.] Z Z Z Z Z X.X.b.oXfXXX[.#XhXhXgXhXhXhXgX@X{.].].R.[.dXSXwXF.1.1.} } W W W W Y W E P I Y T Y Y Y P P F P P K K K K F P K P G H F K F K F P G F F I F F I Q I Q Q W E E } K.!.XX(.(.{.}.@XsXgXjXhXgXjXhXdX$X|.`.C.v.a.] ] ] ] ] x.C./.(.{.@X@X`.(.R.S.x.u.] u.] ] c.R.|.#XhXJXJXHXHXHXHXHXHXHXHXCXCXHXCXiXh.Y W U U D D D B D G D D D D D D c D c D D D b G D D F b D F b F F b F F F F F F F F F F U I U I I I R I W U 1.2XvXtXQ.oXaXaXaXaXjXaXjXnXaXjXnXaX+X).R.c.! N N N l 9 S v.^.E./.'.[.).^./.(.B.a._ ' _ ' _ _ v.OX#X0Xl.:.T Y I M R M I I M :.8XIXH.D.Q.Q.Q.Q.Q.Q.Q.Q.Q.Q.Q.Q.Q.Q.Q.Q.Q.~..XQ.~.Q.~..XQ.U.A.W.$ $ . . X . X X X X X X @ @ @ @ @ @ @ % % % % * % j % j % j & & & & & & & & & > & & & & & = & & & $ & $ ",
"4 4 4 4 8 4 4 8 4 8 r 8 8 r 4 4 e 4 e e 5 r 5 5 5 5 5 5 r 5 r 5 r 8 5 5 5 5 5 5 8 8 8 8 6 6 8 8 8 6 8 6 M W >.rXI.I.z.I.I.Y.,XaXGXKXqXh.-.T L n M m M n n K n K n M L J J K m K L n J K L K L L L L L L M L L L L L M L M K L L L L L L L L L L L L T R W -.h.,XiXuXyX-Xl.l.w.0.0.0.e.0.e.e.e.e.:XpXOXE.c.a.' _ _ _ ' c.V.^.V.x.! Z Z Z Z ! X.u.U.aX+X_.@XgXhXgXgXjXhXgX@X|.].`./.).#XCXuXJ.4.1.,.} W W E W W E Y Y Y Y Y Y Y Y P P P I P P K K P K J G F K K K K K F K P K G K F P F P F I P Q Q Q I Q E E A  .J.tX_.(.`.{.|.@XsXgXhXhXgXjXgXfX@X{.(.V.c.] ] ' ' ' ] x.C.(././.^.B.x.u.] ] ] ] x.C. X@XgXHXJXCXHXHXHXHXHXHXHXCXHXHXHXvXJ.-.I I U D D B D D D D B c c D D c D D D D D c b G D D G b G G b F F D F F M F F F U M M I U F F F I I I I I R W E I h.qXvX~..X+XjXaXaXaXjXaXjXnXaXjXnXaX+X'.E.a.S N l N l 9 Z V./.R.R./.(.R.a._ _ ' _ _ ' x.%X#XtXJ.<.#.M Y I M R M M M #.-XcX-Xj.U.Q.Q.U.Q.Q.Q.Q.Q.Q.Q.Q.~.Q.Q.~.Q.Q..XQ.Q..XQ..XQ.Q.~.Q.N.W.O $ . . . . . X X X X : : : : @ @ # % * * % j : % % % % % % % j = j j = , & & , , = > = & & = & & & & & ",
"4 4 4 4 4 4 4 4 4 4 4 4 4 4 4 r 4 5 5 5 5 r 5 5 5 5 5 r 5 5 5 5 e 6 e 4 5 5 5 8 4 8 4 8 8 4 6 8 6 8 6 6 b ( g.0XY.z.I.Y.0XiXCXJXuXH.>.T R K K H n v n K M n K n K n K K K K n L n K K K K J M J L K M L J L L L L L L L J R L L R L L L L L L L L O.L T o.T O.>.K.1XiXkX4Xl.w.q.e.e.<.2.2.e.3.e.0.i.1X+X[.V.a.' _ ! ! ! _ ' _ S Z Z Z X._ u.U.fXfX_.OXdXZXhXhXhXhXhX#X[.].]././.OXZXvX:X4.,.,.} ( W W W W W Y W Y W Y Y Y Y Y P P P P P P Y Y K G K K K K G G H K K H K F K G K K F F Q Q F F F F Q I Q U E E E / h.1X$X).(.`.{.|.#XdXhXjXgXgXjXjX#X|.}./.B.x.] ] _ _ _ ] c.B.m.v.u._ ] ] ] u.B. X@XdXCXKXCXHXJXHXHXHXHXHXHXHXHXJXCX6X4.I I U Q D D D D D b D D D D c D D D c D D c D D D D D b G G b G b F D F b F F D F F F F F F I U F U F I U I Y I M R ) E / z.uXaX~.~.pXjXaXaXjXnXjXjXjXjXjXnXpXOX).V.' V V N N N N ' V.R.V.x.! _ ! _ ' ' x.Z.@XfX1X0.@.R R F M R R R M M l.IX8Xj.f.Q.Q.Q.Q.Q.Q.Q.Q.L.Q.Q.Q.Q.Q.Q.Q.~.Q.~.Q..XQ.Q.Q..X.XQ.Q.U.N.W.X X . . . . X X X : : X X @ @ @ @ $ # % # j % % % j % % & % % j & & j & & & & & & & & > & & & & & & & & ",
"4 4 4 4 4 4 4 4 8 4 r 8 8 4 r 8 r e 5 5 5 5 r 5 e 5 4 5 r 5 5 5 4 4 8 8 6 5 5 6 4 6 8 6 8 8 8 6 6 7 6 6 M #.>.rXI.I.,XrXZXHXzX:X1.O.O.M K n v H n K n n n K n F M K M L n n K K K M m K K M L L K L J L L L K K R m L J L K L L M L L L L L L L m M T T O.M O.O.T <.K.1XuXwX-Xe.e.2.6.<.<.<.6.6.e.0.2.k.0X+XW.a.' ! ! Z Z Z Z Z X.X._ _ N.pXfX_.$XsXhXjXhXhXhXhXfX@X{.{.]./._.gXCX5Xh.,.,.} } W W W W W W Y Y T Y Y Y P Y P P K P Y P K K K K K K K K K H K K J K H F F G K K G F K K F F P I F G G Q P Q I U Q E Q } T.0X$X(.(.'.}.|.#XgXjXhXgXhXhXgX$X X{.R.v.x.] ] _ X._ _ _ X._ ] ] u.v.^.@X#XZXJXJXHXJXHXHXHXHXHXHXHXHXHXCXuXK.( E I I G D D D D D D B D c D c D G c D D c c G b c G b c D b b D b G G b b F F F b M F F F F F F F U F F I M I I I I I I R W E ( :XvXpXQ.pXjXaXnXjXaXnXvXaXjXjXnXjXpX[.].m._ S N N N l N Z Z Z Z ! _ _ ' m.[.fX0XG.<.T Y K F Y R M I U <.4XIXG.d.Q.Q.Q.U.Q.~.f.Q.Q.Q.Q.Q.Q.Q.Q.Q.Q.Q.Q.Q.Q.Q.Q.Q.~.Q.Q.~.Q.~.U.U.W.O X . . . X . X X X X : @ X @ @ @ # * # * @ % % * % % j % & % = % & = & & 2 , = & & = & & & & & & = $ & ",
"4 4 4 4 4 4 4 4 4 4 r 4 4 8 4 4 5 5 5 r r 5 5 3 4 5 4 e 5 5 5 4 e 4 6 8 4 8 8 4 8 8 6 8 8 8 6 6 8 6 6 6 M M g.0X,XrXaXHXvX:X,.W T L L n n M M v n F n M n K n n H K n K K M K n M L n L K n L K J K K L L m n L L L L K L L K L L m L L L L L L L O.L L T L L T T T -.2.H.qXlX5Xq.<.<.<.<.<.<.<.<.2.e.e.6.J.oXOXM.a._ X.Z Z _ ! ' ' b.oXfXOX_.#XgXhXhXhXhXZXgX#X X{.`././.#XCXuXK.4.} } ( W W W W E W Q T T Q T Y P P P P P P Y F Y K K P K K K K H H K K H K K H F F H K K K G H F G K G F F F G I F F Q F Q U Q Q E /  .T.oXXX/.(.}.|.@XsXgXhXhXgXhXgXgX@X}.'.C.c.] ' _ X._ X._ _ ] x.V.[.#XgXHXKXHXJXHXJXHXJXHXHXHXCXHXHXvX:X1.W E I D D D D G B G B c D z D D c B B D d D D c c D c G c G b b G G b G c D F M b F M D F F D F D F F U F I I I I I I I M I R I W W E g.qXaX0XQ.pXaXjXaXjXaXjXjXnXjXjXnXjX+X[.E.c.! Z S V N N S Z Z ! ! a._.#XtXJ.2.O.K Y F K F M K F +.=XIX:Xj.f.Q.Q.Q.Q.U.U.Q.U.Q.Q.Q.Q.Q.Q.Q.Q.Q.Q.Q.Q.Q.Q.Q.Q.Q.Q.Q.Q.~.Q..XU.L.W.X . . . . . . X X X X : @ : @ @ : * # * # % * % % % % % j % % j % % & & & , & & = & & & & % % % $ & $ & ",
"4 4 4 6 4 4 8 4 4 4 8 4 4 r r r 4 5 4 5 5 5 5 5 5 4 4 4 5 5 4 5 4 8 4 4 4 6 4 8 4 8 6 6 6 6 8 4 6 6 6 , M M g.tXaXVXVX,X1.-.T R L n n M n n n n n n n F n n K n m n M n n K m K m n L M m L K m M L K J M L L L M J L n J L M J L L M L L L L M L L L L L L o.O.L T T T -.h.:XuXyX-X0.<.<.<.;.<.,.<.<.2.q.e.e.:XpXQ.a._ _ X._ _ a.U.sX#X[.@XjXhXgXgXhXZXhXsX|.}.`.(./.OXZXzX=X4.} } } W W W W W Y Y W Y Y Y Y Y Q P P Q P Y P P P P P K L K P K K K K K K K H H H K H K G G H H G H G K G H F F F F G Q F F I G Y Q U E E E 1.Y.oX X(.`. X|.#XdXhXhXgXjXjXgXfX@X}./.B.] _ X.X.Z _ ' v._.#XdXCXKXJXHXJXHXJXHXJXHXHXHXHXJXVX2X3./ E I U D D D B G D c D c D c c D c B v c c D d c c G c G b c c G b b b G G G v b b G F b F b F D F F U F F U U F F I M I I I I I I I E ) ) ) K.aXpX!.Q.pXnXnXnXjXnXaXnXaXaXjXjXaXXX].C.a.Z S S N S Z Z ' Z.#XjX3XG.<.Y P K I Y M R I I k.7XeXz.j.Q.Q.L.Q.U.U.U.U.U.Q.L.Q.Q.L.Q.Q.Q.Q.Q.Q.Q.Q.Q.Q.Q..XQ.Q.Q..XQ.Q.Q.L.N.W.: .   . . . X X X X X X X @ O @ : @ : : % @ % # @ % ; j % % % j & j & & & & & > & & & & & = > > > = & & ",
"4 4 4 4 4 4 4 < 4 8 r 4 8 r 8 8 5 5 e 5 r 5 5 5 r 5 5 4 5 5 r 5 4 t e 8 4 8 6 4 8 4 8 6 6 8 6 6 8 6 6 , M M z.CXnX1Xh.#.O.L K K n n v n v n M n n n K n K M n n n n n K n n K m K n K m m K M m K J n K K J m L m L M J L K L n M L L L L L m R M L L L L L L M L L L L M T <.z.3XzXwXp.<.<.<.-.<.$.<.<.2.0.l.e.w.4XfXA.X.X._ X.Z.@X[.[.dXhXhXgXhXZXhXgX@X}.'.(./._.dXNX3XF.} } } W W W W W I I Y W Y Y Y Y P Y P P P P Y P Y K L L K K K K K K K K F H K K H F H H H H H H K G G F G H F K H F F F F G F Q G Q P Q U U E E / / F.1X$X).`.`.{.|.#XgXZXhXgXhXhXgXsX|.`.^.u._ _ _ ' B.+XfXVXJXJXHXHXKXHXJXJXJXHXHXHXHXCXiXK.} W I U U D D v D D D c B c D c c D 0 c c v B c B G c c c b G c G b b G G c b c G c G b b F F G b F M F F D U F U F U U I I I I U I I I I R E E ) )  .2XnX+XQ..XjXjXaXnXjXnXjXaXnXjXjXjX+X[.).B._ S S Z ! a.[.fXeX>Xq.-.W Y Y I R R R R <.4X8Xz.j.f.Q.L.Q.Q.L.L.Q.U.U.~.L.Q.L.L.Q.L.Q.Q.Q.Q.Q.Q.Q.Q.Q.Q.Q.Q.Q.~.Q.Q.Q.Q.Q.N.W.@ . . . . . X X X X : X @ X : : @ @ * % @ % * j j % * % j % j % % j & = , & , & = & = & > > > # & & $ > ",
"6 4 4 4 4 4 4 6 4 4 4 4 r 4 r 4 e e 5 5 5 e 5 4 5 4 4 5 4 5 4 4 4 4 6 4 4 8 8 4 8 6 8 6 8 6 8 5 6 6 6 , M R >.H.2.T M o.m M M m M n n v n n v n M v n n v n H K n F n n K n M n K n m n M m n L M m J M L m K M L L n L n M K L L m m L m L L L o.L L L L L L T L L L o.L O.M #.1.H.iXzX4Xw.<.;.-.,.%.,.;.<.:.*XIX4X+XA.S X.X.] V.].|.gXjXgXgXhXhXdX#X|.}.].(. X#XVX6XF.,.} ,.W W W W W Y I W Y Y Y Y Y P Y Y P P P P P K K K K K K K L J K K K H K K H H H K H F H G H H H H G J H H G G H F F G K F F F F G F Q G G Q U Q E E E { K.oX[.(.(.}.}.@XsXhXhXhXhXZXZXjXfX@Xv.Z _ _ ] +XCXJXJXHXHXHXHXHXHXHXHXHXHXHXHXvXP.,.E E I D D D D B B D c c B v D c B c D D c c c d D d c c G D c c b b b b c c D b b b G c G F b b b F F F F F F F F F U F U I M I M I M I I E I E I I ( ) ) z.eXjX~.Q.+XjXjXnXjXnXnXjXjXjXaXjXpXQ.E.v.Z X._ Z A.ZXLX5Xk.2.-.%.T W R R R -.*X8X=Xh.f.L.I.Q.f.L.N.U.U.L.U.U.f.Q.L.Q.L.Q.~.f.Q.Q.L.Q.Q.Q.Q.Q.Q.Q.Q.Q.Q.Q.Q.Q.Q.L.U.W.@ . . . . . X X X X X : @ : @ % @ @ : # j # : % % % : j ; % % % & & & & & & > & > % > > % = = > > % > % ",
"4 6 4 4 4 4 4 4 4 4 4 4 8 t 4 t 5 5 5 5 5 5 5 4 r 5 5 4 4 5 e 4 4 5 5 5 8 6 5 6 5 6 6 5 8 6 8 6 6 6 6 > M T n o.L R K n n n n b M n n v n v n n v n n M M v n M F M m K n n M K m n M J m n L n M m m m M m L L m m M J L m L L M L L L m O.m L L L M m L L L L L L L L L o.L T L #.2.P.uXkX-X0.<.<.%.,.-.<.9XbXaXW.].E.x Z _ _ V.].@XgXjXgXhXgX#X|.}.}.`.(.#XhXkXT.1.,.} } W W W E Y Q I Y I Y Y Y P P Y P I P P K P P K P F P K P K K H K K K H H P H H P H H H f G H H H H H G G H F F H F H K F G G G G D G Q F D U U U U U E E / 4.Y.oX_.(.].}.}.@XgXCXZXCXCXHXhX[.x.l S S X._.aXJXKXHXHXHXJXHXHXHXCXJXJXVX2X1.W I I Q D D D D D c G c D c B G B D c k G c c c c c c b b c c v b c b c v b c c G v c G b G b b b b b F b D D D F F F D U U G U I I I F I I I I I I E W ) E ) ) ) H.zXjX.X.XpXjXnXjXjXnXjXjXjXjX+XE.C.v.N S X.S M.oXzXKXvX:X2.-.-.#.W ( k.8X9Xq.d.L.L.L.L.L.U.L.U.L.U.U.U.U.L.Q.Q.L.Q.U.Q.L.Q.L.Q.Q.Q.Q.~.Q.Q.Q.Q.Q.Q.Q.Q.Q.Q.f.Q.W.> $ X X . . X X . X X @ X @ @ X @ @ * * * : % j % % % % % * j % & & & & & & & & & > & & , & > > # % % > ",
"4 4 4 4 4 4 4 6 4 4 4 r 4 4 4 4 5 e 5 r 4 5 5 5 5 4 4 5 4 4 5 5 4 6 5 5 5 5 8 5 8 8 6 8 6 6 6 6 6 6 6 , M >.t v &.L b n b n M n v v v n v v M m n n n n n n n n n n n v n K H n m n m n m M m M m m M m J M L M m M m L m L M J L m m M M M m L L L L o.M o.M L L L L L m M L L M L R #.3.1XkX7XUX<.;.-.l.7XiXOX}.].].E.N S X.] R.].@XjXgXjXdX@X|.}.`.`.$XhXvX:X4.} } } W W W W Y W Y Y Y P Y Y Y P I K P P K K F Y K K P K K J K K K J H J H K K H H H H G H H H H J G H G H H H H H H H F H F H v F G G H G G G G G U D F Q U Q Q E E E F.tX.X].].}.}.|.dXCXHXHXpXZ./.] w N S Z ).M.Y.aXHXKXCXHXJXHXHXJXJXiXK.( W E Q U D D D D D c B B c 0 D c d c c c c c c c c c c c b c c b c c b c c b c G D c c c b b v F b F D F b F F D F U D F F F U G U F U I I I I M I E I I E I E W ) ) ) 1.3XnXaX.XOXpXjXnXjXnXnXjX+X'.'./.v.N N Z N E.).( P.MXKXvX>Xz.2.k.4X8Xl.g.d.N.L.N.L.L.N.L.L.N.U.U.L.L.U.U.N.L.Q.L.Q.f.Q.Q.Q.Q.L.L.Q.f.Q.Q.Q.Q.Q.Q.Q.Q.Q.Q.I.f.W.> $ X X . . . X X X X @ : @ @ : : % @ % % % # : @ j @ j % % % % & & & & & & & & & = , $ > $ % , > > $ & ",
"< 4 < 4 4 4 4 4 4 4 4 8 4 4 4 4 5 5 4 5 5 e 4 5 4 5 r 5 e 5 5 4 5 5 6 8 5 5 5 5 5 8 6 8 6 8 6 6 5 6 6 1 K -.7 7 t &.L v K v b n n v v M n M v v v n n v n M n n n H n n n v n n M n M n m H n K m M m m m m M m m L m M m M M L m L L L o.m M L m L o.M o.m o.m L L M o.L m L m L L L O.T >.z.6XkX8X;X9XqX.X}.|.}.V.].E.S S u.X.R.].@XhXgXhX#X`.`.(. XgXNX3X4.4.,.} } W W W W Q Y Q Y Y Y P P P P P P Y P I Y K K K K K J K K K P H J K K H H H H H H H H H H H G H H H H f G H F H F H H v H G G F F H G H H G H G G G G U G Q D Q Q U Q E ( J.tXOX].`.|.dXHXhXQ.a.a.R.] j 9 9 ! ).n.d.L.0XnXKXKXHXHXJXbXP.,.W W U G D D D D c D D c D D D c c B c c c D k c c c c c c c c c c c c c c c c c c d c c G c v G c b G b F b F F b F F F D D U F G U F I I F I I I I W I E I ) U W E E / ) } | h.wXnXpXXX+XjXhXnXjX[.[.@X'./.v.N S Z l R.A.q U } 1XGXKXBXuXwX-X;.d.D.L.N.L.L.j.L.L.L.L.L.L.L.U.N.U.L.L.U.N.L.Q.Q.Q.Q.L.L.Q.Q.~.Q.Q.Q.Q.Q.Q.Q.Q.Q.Q.Q.L.f.W.O X . . . . . X X X : : X @ : @ @ @ % @ : * % * % j % % j % % % % j & & j & = & & & > & , & > > > % & > ",
"4 4 6 4 4 4 4 < 4 4 4 4 4 4 4 4 e 5 e 4 5 5 5 r 4 5 5 5 4 5 5 5 5 5 5 5 8 6 6 8 6 6 8 8 8 6 8 6 6 6 6 > K ( ^ ^ z p *.O.v M n v v v n n v n M n M v v n n n n n n v M n n n M n m n m n n M n n m m M M M m J m m M m J m L m m L m m m L M m J m M M o.M L M L L J o.M L L m L m m M L m L #.,.H.8X4XQ.|.|.|.].m.a.].E.k S u.X.R.].@XgXjXgX@X`.^._.ZXiXT. .4.} } W E W W Y W Y W P Y Y P Y I P P I Y K Y P P K K P K Y K K K J H H H K H J H n H H H H H J f H f H n n n H H H H H H H H H G H v n v G H G F v G G G G G G D G D U D B C Q Q E 1.5XaXXXhXVX.Xb.a.a.' E._ * 9 9 V Z.s.) ..j.L.0XZXKXFXqXi.( W I U D D D D D c D d d B d k c c D c c c c d c c c c c c v c c c c c c c c c c v c c c b c c b c c b b b b F b F b b b b F F F D U G U U F I I M I M I I I I I I E W E W / ) )  . .P.zXaXOXOX+X+X(.|.#X#X]./.m.V V Z l V.M.8 z b I 4.0XKXNXk.) d.j.D.D.D.D.L.L.L.f.N.L.L.L.L.L.U.L.L.Q.L.U.L.L.Q.L.Q.f.Q.U.Q.f.L.Q.Q.L.Q.Q.Q.L.Q.Q.Q.L.Q.Q.@ . . . . . X . X X X X @ @ @ @ @ @ @ : : % # * # % % * % % j % % % & & = & & & = > & = > > % > % > & & ",
"6 4 < 4 4 4 4 6 4 4 4 4 4 4 4 e 4 e < e 5 5 r 4 5 4 4 5 4 5 4 5 5 8 5 5 6 8 6 5 8 8 5 6 8 6 6 8 6 6 7 , m ) a.c.! B z #.+.d v n v M v n n v v n m n v n n n v M n F v n n n v n n n n m n m n n n m M m m M M m M J m M m m L m m L n m L M J L L M m L m L L L m L L L L M o.M L m M J K K L T #.Y M.|.|.{.R.a.] ]  X^.S S u.X.R.].@XjXgXhX#X(.C.Z.P.4. .} } W W ( W Q E P Y P P I P Y Y P P P Y P K P P K P P K K K K K H K H H H H K H H n H n H H H K H H H H H H H s H v H v H H H H G H G F H G v v F H G H H G G G G G D G D D D B D Q Q Q E J.ZXtXn.a.' ^ A V E.X.* w w x m.^ ) ) )  .g.F.3X:X1.W I I D D D D D D B d D c c c k D c D 0 c c c c c c c d c c c c c b c c c b v c c c c c c c c v c v b G b b b G v D b F F b b F b F D U U D U F M U I I M W I I I I I E I E E ) ) W ) }  .g.qXbXOX/./.{.#XfX@X'.(.v.S S Z l Z.M.6 q 7 z M ) P.k.M d.d.j.j.L.D.D.f.D.L.N.D.L.L.L.L.L.L.L.U.L.U.L.L.Q.f.Q.U.U.N.Q.U.U.U.U.f.Q.Q.Q.Q.Q.Q.Q.Q.L.N._.O . . . . . . . . @ X X X @ @ X @ @ * % * % % * # : j % * % % % & & & # & & & & , > & > % , % > > % > % ",
"4 6 6 4 4 4 4 4 6 4 4 4 e 4 8 4 5 4 8 r 8 5 8 r 4 5 5 5 5 5 5 5 5 5 6 5 5 5 5 8 6 5 8 6 6 8 8 6 6 6 7 , b -.| a.c.^ C D o.#.s s n v v v M n v n v n M v n v n v n v n v n n n n n M n M n M M n m n n m m m m g m m m m m M M m M m L M J M m M L m m L L M m m M J o.m m o.m L M o.n L L n L L T M Z.}.R.v.a.a.' u. XC.S S S u.R.].@XgXgXhX@X(.C.B.u.} } } } W E W Y W Y E Y Q P P Y P F P P F K F P K K K K K K L J L K J H L H H H J H J H H n H J n H H f H H f f H H H H H G H G f f H G f n n n F G H G v G G G v G v v D G D D D D D B D D U ~ OXM.` ^ V V C V V.S * 1 1 l c./ E E / )  .4.K.h.W I G D D D c c z d D D 0 D k c c D 0 c c c c d c c c c c p c c c c p c c c c c c c c p c c c c c c c b c b b b G b G G b b F F b D D D F F M U M U F I I I I I E E I E E E E I ) E ) / ) )  .d.oX_.R.].#XdXsX#X{./.v.V N Z l B.M.1 8 7 6 q c 3.O.M d.j.d.j.f.D.D.z.L.L.j.L.D.L.N.N.L.L.L.L.U.f.L.U.L.L.L.L.Q.Q.L.N.U.U.Q.Q.Q.L.Q.Q.L.L.~.Q.L.N.W.O . . . . . X X . X X @ X @ @ @ @ @ @ : % @ % : j % % % : j % j & $ & & & & & & & > & & > > > % % > $ > ",
"4 6 4 4 < 6 4 4 4 4 4 4 4 4 4 4 8 4 5 4 r 5 4 4 5 5 5 5 5 5 5 5 6 5 5 6 5 6 6 5 8 5 6 8 8 6 6 6 6 6 6 6 8 m <.d.a.m.' A D L @.n v v v v v v M v v n n n v M n M n n n M n n n v n n n n v n m n n M n M M m m M M m M M m m m m M m m m m m L m m M L m M o.m M L m M m L M L L m m L m K K K K R n A.E.a.a.' ' ' ]  X^.S S X.X.R.].@XhXgXgX@X(.C.B...} } } E W Y W Y W Y Y P Y P K P P P P F P K P F K K K K K P J J F L H H H H H K H H H H H J m n H n H H H G f H H H n n n f H v f H n f H n v v H G v v G G v v G G G v G G G c D D D D D D D I Q.n.V A C B C V B.S @ 1 j 7 a.~ U I I I E ( h.3.Y G G B c D d D d c k D z d d D c c d c d c c d d c d d c c c c c c c c c c c c p c c c c c c c c c b c c c G b b v D b F F M D G U D F D D U U U F M M I I I I I I I I E I U I E E ) E ) )  .d._.^.R.].@XsXsX#X'.(.m.V V Z l M.M.1 7 6 6 8 8 >.O.v ) j.j.D.j.D.D.D.D.j.L.L.L.L.z.L.L.L.N.L.L.L.L.L.Q.L.U.U.L.Q.N.Q.L.Q.L.L.L.Q.Q.L.~.L.f.Q.z.U.W.@ . . . X . . X X X X : @ @ @ @ @ @ @ * : j % * j % % * % % % j % & & & & = & > , & > > > > % > > % > % ",
"4 < 6 4 4 < 4 4 6 4 6 4 4 4 t 8 r 4 e 8 4 4 8 4 4 4 4 5 5 5 5 6 5 5 5 5 5 8 8 5 8 8 8 6 8 8 8 8 8 7 6 6 6 7 +.0.d.s.c.a.V D H O.m v n n n n n v n v n v n v n a n b v n b n M n v n n n v n n n n m n n n n m n m m m m m M M m m m M m M m m M m o.m M L m L L m L L L L m m M L L M L L n K L L n N.V.^ ' ' ^ _ '  X%XS X.X.u.C.].@XhXgXgX#X(.V.B.../ / ( W E W E P E Y Y Y P Q P K Q F P P K K K P K K K P K K K J K H H H H J J J H J K H H m H n H H H H f n n n n f H n n n n H H G H G H v G H v v H v v H G v v v H b b b G G c c D k G B D C Q.n.B B B z z x m.V X 1 * 7 ' I U U U I I W 2.2.F B c v c c B D 0 c c d c 0 B 0 c c c c k p k D 0 d d k c p c c c c p 0 c c c c c c c c v d c c c c v c v c c b b D b G b b F D D F D D F D F F U U U F I I M E E I I E I E ) / E W E ) E / ) d._.).R.`.@XdXsX#X{.(.m.S V Z l B.M.6 6 6 1 6 8 -.O.b ) d.j.j.n.D.j.D.D.j.f.D.F.f.L.f.L.L.L.L.L.L.L.L.f.L.L.N.L.L.U.L.U.N.U.L.Q.Q.f.Q.f.Q.Q.Q.f.N.W.O . . . . . . . X X X X X : @ @ @ % % % % @ % % : * % % % j % % & & & & & & , > > > > & , % > > % > > % ",
"4 6 6 < 4 6 4 4 4 4 4 6 4 4 4 4 5 5 5 5 5 4 4 4 5 5 5 5 5 5 5 5 5 5 5 5 5 6 8 6 5 8 8 6 8 8 8 8 8 6 6 7 6 7 9 W 5.h.d.c.a.C b H +.o.s H v n b n n v v v n v n n a n n n n a n n n n n n v n n n M g m n n M n n n n m m m m M m L m n m m m M L m m m o.M m L m M o.m L M L m M m L M m L m J K T n N.M.^ ' _ ^ ! a.'.E.S X.X.X.R.].@XhXgXgX@X(.C.S...E } W E W E Y W P P P Y Y I P P Y P F G P K P K K P K K J H H H H J K H H L m n L n m m m H n n n n K n n n m n n n n n n f G f H f H H f G f v H v H v v v v n v v b b v v D b c b b c c c D U Q.b.z B z q z x m.x . 1 * 1 ' Q D D D M U I 2.1.M c c 0 D c c c B d 0 B d d k c c 0 c 0 d d d d d c d c d c t b c c 0 c c t c c c c c c c c v c c c v c c c c b G b b D b b b D b F D D G F D U F U D U F I I U I I I E I I E I U ) U E ) / } d._.^.^.`.@XdXsX#X{.(.S.S S Z l V.M.1 6 6 > 6 6 W L b ) g.d.j.j.D.j.j.j.j.j.L.f.D.D.L.L.N.D.f.L.f.I.L.L.L.L.L.N.L.L.U.U.N.U.Q.L.f.Q.N.U.U.U.U.z.N._.$ X X X . . . . X X X @ : @ @ @ @ % # * * # @ % j * % % % & & & & & & & = > % , % > = > > % % > % % > $ ",
"< < 4 4 4 4 6 < 4 < 4 4 4 4 4 4 5 3 5 5 4 4 r 5 4 4 4 5 5 5 5 6 5 6 6 8 8 5 5 t 6 8 6 8 8 5 w 8 7 7 7 6 w w w l ) UXK.d.s.' ~ M b L H F v n b n n M n v v v f v M M a n m M a g n v v n n v n n g M M g M g M m n n M n M n n n M m M m M m m m M m M m m M m m M m L m m L m m n L L K K K M K L n M.Z._ _ ^ ! ^ ' '.E.S S X.u.V.].OXgXgXgX#X/.C.S...} E E W Y W Y Q Y Q P Y P P Y P F K P P P K F K P K K J G H K H H H J K m m m m n m m M n H H m n n n n n n n n n n n n n H J H f G f H G s H v H v v v G v v v v v v v v b v b c b b c c c c F A.d.x z l x z l M.N . * * > ^ U b D M D U I ,.<.F z c D 0 0 D k d c c 0 d 0 c d 0 c c c d d d c 0 0 d d d c c c c c c c c c c c c c c t c c c c c c b c c c G b b D b b b F F b F b F G D D F F U M U I U M I I U I E I I E E E ) U ) E E ( { | _.^.^.{.@XdXsX#X{./.B.S V Z 9 V.M.> 6 1 6 7 6 #.L b )  .g.d.j.j.N.j.f.f.j.j.L.D.D.j.L.j.L.L.L.f.L.N.L.L.N.L.L.L.L.L.L.U.L.L.L.Q.U.Q.U.L.U.Q.j.N.W.$ X . . . X X . X X X : : : : @ @ @ : # * % ; j % % % % & % # & & & & & > % > > > > % % > > > % > > % > ",
"4 6 < 6 4 < 4 4 4 6 5 < 4 4 4 4 5 5 5 5 4 5 4 4 4 5 5 5 5 5 5 5 5 5 5 5 5 6 8 w 8 8 8 8 6 8 8 8 8 7 8 7 7 7 l N ! s.<X=Xd.| { U ^ A v F v v n n v v v v n n a v n n a n M a a M v n M n M n a M M g M g g M a g n M n n n n n n n m M m n M m M m m M m m M m m m m m m m L L m n L L L M L n n T n N.M.^ ! ! ! ! ' ].^.S S X.u.R.].@XhXgXgX#X(.C.S.} } / E E E Q Q P Y P P P Y P F P K P F P K K K J J K J K H n L n K H H H J m m n n m m m n n n m n n n m n n n n n n n n n f H f G f H G f G G f v s H n v v v v v v v v b v c v v v b c c c b D Q.d.z z z z 7 x m.N X * @ > ! M b D M M z I 2.;.b 0 c 0 d c 0 d c k c d d c c d d d d d k d 0 d d 0 d k d c 0 0 c c c c c z c c c z c c c c c c 0 v c c b b c b G b b G D b F G D F b D D D D U U U F F U I I I U I U E E I E E E / ) E ) / ) | _.^.^.`.@XdXdX#X|.(.v.Z V V l V.M.> 7 > 6 > 6 W m v )  .g.j.d.d.j.j.j.f.j.j.D.j.L.D.D.D.D.z.f.L.z.L.D.L.D.L.N.N.L.N.L.L.N.f.U.U.L.L.N.U.L.U.z.N._.$ . . . . . . . X X : X : : @ @ @ @ % * # # % : % % * % & & % & & & & & % > % > , , > > > > % % > > > $ ",
"6 4 4 4 4 6 4 4 4 4 4 5 4 4 4 4 4 3 r 5 4 4 4 4 5 5 5 5 6 5 6 5 5 5 6 6 6 5 5 6 6 8 8 8 7 8 w 7 8 7 9 w 9 9 N ! ' B.Z.1X8Xh.~ U ^ ^ H F n F v b v v v v v v M v n a M a n n g M n v n n f a n g f n g M n f m M n n n M m n n n n m n n m m m m M m m m m m L M m M L M m m M L J M n m K n L L M v M.M.! ! ^ ! ! ^ '.E.S S S u.R.].OXhXjXgX@X/.C.B.u./ } W W P W P Y Y P P P Q P P F P K P K K K K K H H H J H L m J L H H L H n M m m n M m m n n n n n n n n n n n n n n n n f H H f G f f f f f f v f v s s v v n v v b v v v v v v v b v c v c D W.s.l z q z 8 x a.9 . * @ $ ! U b B z z M I -.>.v c d B 0 0 d k c d 0 0 B d 0 k d d 0 c d k p d 0 c d 0 d c p c c t c 8 c t c c t c c c c d c c v c c c v c c b b b b c b b b b D D D G D D F F D U F M U I I U I I I I U E I E U E U E ) E ) | ).^./.`.@XdXsX#X{./.m.Z Z ! l Z.Z.1 6 1 1 6 6 R O.n )  .d.j.j.d.j.j.j.j.j.D.f.j.j.D.n.D.D.f.z.f.L.L.j.N.L.j.L.L.L.L.L.L.L.L.L.N.L.L.L.L.L.L.f.N._.$ . . . . . . X . X X : : @ @ : @ * @ % @ j % * * % # j & $ & & & & & & = % > % > $ > % % % > > % % > % ",
"< < < 6 6 4 4 6 4 4 4 5 6 5 4 5 4 4 4 4 4 5 4 4 6 4 4 4 4 4 4 4 5 6 4 5 4 8 8 6 8 6 w 8 7 8 w 8 7 q q 9 9 l S ! a.).@XXXpXL.` / ~ ^ G F G F v v v v v v v v v M v a v n a f M n M g n n n M f f a n g a M f g M n M n n n n n n n n m M m M n m m M m M m M m M m M M m M m M o.L n K K M m m m L n N.c.! ^ ! ! X._  X^.S S X.u.C.].@XhXgXhX@X^.C.B...{ E W W E I P P P Y P P P K P K P P P K L L H H K H H H H n m L m m n m M m m M m m m n M M n n n n n n n n n n n n n H n f H f H f H s G s s f s f s H s v v v v v v v v c v c v v c p c v b M W.d.z q q z 8 x f.9 X $ O $ ~ b z b b b b U <.-.v c d d k k d 0 q p d d d 0 c 0 0 0 d d 0 d 0 d q d d d 0 t z c 0 z b 0 c c 0 c c z c c c c c c c c c c c c G c c b b b b b b F b D G D D D D D D b b U F U U U U U U E I I U E ) ) E E E { ( | _.^.R.`.@XdXsX#X|.(.S.Z Z ! l M.V.> 6 > 1 > 6 R L v ) d.g.d.j.g.d.g.g.d.j.j.d.d.D.j.D.D.D.L.j.D.D.L.N.j.L.L.L.N.D.L.L.L.D.L.L.L.L.L.L.N.L.U.j.N.E.$ . . . . . X . . X X @ : @ @ @ * : @ @ : % : * : % j % % & & % & & & & % % > , % > % > % > % > > % > % ",
"6 6 4 4 < 4 4 < < 6 4 , 4 3 4 4 4 4 5 4 4 5 5 6 5 5 4 4 5 4 4 6 5 5 6 5 6 5 6 8 8 5 8 8 8 8 8 q q 7 9 9 l N Z _ v.@XgXdX Xv.[ W ~ ~ F F n b n v v v p v a v a a a M v v M g a n g M a a a n n a M g M g a g M f a m M a n n M n M n n n n n m M n n m m m m m m L m m m m m M m m M m M L m M M L n M.M.V ^ ~ Z X.X. X%XS S X.X.V.`.@XhXgXgX#X(.C.B.../ / W Q W I E P Q P Y K Q I P K K K L L K K K J K P J J H n L n m L L m m m m J n n m n n m m n n n n m n n n n n n n f n G f f f H s f s s H f f v s s s n i v v v v v v v a v c c v v v c b b A.s.q l q 7 z z a.9 . @ O O V b b z b b z b -.-.G 0 0 d d d d d d 0 k 0 d d 0 0 c d 0 0 d d d 0 d 0 d 0 d c p 0 c 0 0 b p z c c 0 p c t c p c c c c c c c c c c c G b D b b D b D c D G D D D F F U U M U M U U U U U I U U E C U U E / E / { { )./.^.`.@XdXdX#X|./.B.Z Z Z l E.M.> 7 > 7 > 6 W m v ) 1.d.g.d.g.d.d.g.j.g.d.j.D.j.D.d.d.D.L.j.D.D.j.j.N.D.D.f.L.D.L.j.L.L.L.f.f.L.L.L.L.f.L.j.N._.$ . . . . . . X . X X X : : @ @ @ : * % % % j % j % * % $ % & & & & & & $ > > % > = > % > % > % $ > > $ ",
"< 4 < 4 < 6 4 6 4 4 3 3 4 4 4 5 3 5 5 5 4 5 5 5 4 5 4 8 4 5 4 5 5 6 6 5 8 5 6 8 8 5 8 8 8 w 8 8 q 7 9 9 l N Z ' m.@XgXdX|.B.' E / ` Y G F v b v v v v a n a a v n n a n M g M g a M a M f n n a M a a n n f n n g M m g M n n n n n n n n M n m M m m m m M n n m m m M m m m m L m m m m n M m M v N.f.^ ! ^ Z ! '  X^.S S X.u.V.`.#XhXgXhX#X^.C.B.u.W / E W Y I Y Y P Q P K P P K L K K K L K H J K J H K H H n J M L n m m m n n n n n n m n m n m n n v m n n n n n n m f n n v H H s H f f G f s G H s s s v v v v v v v a v d v d v v p c v c b W.s.z q q z 8 x a.7 . @ O @ V b z b z c z D -.-.c 0 d 0 0 p 0 0 0 0 d q 0 d 0 d 0 0 d p k q d 0 d 0 d 0 c 0 c c p p c b 0 z p p c c c 0 c c c c p p c c c c c b c c c D b b D D b D D G D F D D D D F D D U U U U U U U I U E I E E / E ) E / .._.^./.`.@XdXdX#X}.(.S.X.Z ! l V.E.7 1 > > 7 6 R L v )  . .g.) g.g.g.g.d.g.j.j.d.d.j.j.f.j.j.j.j.D.D.D.D.D.j.D.L.L.N.D.L.D.L.f.I.f.L.f.L.L.L.j.N.E.$ . . . . . X . X X X @ @ X @ @ @ % # * * % % * % % j # % > > $ & % % & % % % > % > > % % % > > % > % > ",
"< 6 6 4 < 4 4 < < 6 5 4 3 4 4 2 4 3 5 5 5 2 5 5 4 4 4 4 5 4 6 5 5 6 5 4 8 6 8 6 8 8 8 w 8 8 9 q 9 9 9 l N N Z ] m.@XgXdX|.S.' I [ ' Y F b F v b M a v v v v v v v y v v a n a a n g g M f n a M f g M a g M n a M a n n n v n n v n n v n n n n n n M n n n m M m M m M m m M m m m M M m m m m M v M.c.V ! Z ! ! '  X%XS X.X.X.V.`.@XhXgXgX#X).C.S.u.} W E Q W Q Y P P P K P P K P J L K L K J K K J H J J J L m m m m m m n L m m m K n m n n m n n n n n n n n n n n n n n n n n H f H f H H f f f s s s f G n y v v a v v v a v v v v p v v p v M A.| 7 q q 7 z z a.9 . @ X @ C b c b z b c b -.%.G 0 0 d 0 0 0 d 0 d 0 d 0 0 0 d 0 0 d 0 0 d 0 c 0 d 0 d 0 z p 0 c 0 0 0 c p c p 0 0 c c p c c c c c c c c c D c c b c b b b b b D c G D D D D F D D D F U M U I U I U E U U U E I M E E E / / | ).^.R.`.@XdXdXsX|./.S.Z Z Z l Z.E.1 7 6 > > 6 R m v (  . .d.g.d.g.d.g.g.d.j.d.j.j.d.j.j.D.j.f.D.d.D.d.D.D.D.D.d.D.j.D.j.N.j.L.z.L.L.z.f.j.f.j.N.E.$ . . . . . . . X X X X X @ @ @ @ @ : : * % # j @ % j % % ; > & & & > % > > = % % > % > > % % $ > % > $ ",
"4 6 < < 4 < 4 6 < 4 4 < 6 4 < 4 5 5 5 5 3 5 3 5 5 5 5 6 5 5 j 5 5 6 5 5 8 6 8 8 8 8 6 8 w q 8 9 9 9 9 N N S ! ' m.@XhXdX|.B.' E s.c.K F F b v v c v a v v v a v a v s d f f n s g a M M g a g a n y n n g M g f M g n M f M g g f M n m M g M a m M g m n m M m m m m n n n m m m M M n m n m m m n f.b.^ ! Z ^ Z _ '.E.S S X.u.S.(.#XhXgXgX#X(.C.B.u.} W Q E Y Q W P P P Q J P P P H P P P H J K m m L m n m K m m m m J m H n H m J n n J n n H H f J f H n n f f n n n n n n n n a n n v a n v n a v v g v a v v a v v v a v v v v v v v v p c v b A.s.8 8 7 8 x 8 s.7 X @ X O C c z c z c z M R #.b z t c 8 c c z 8 0 p 0 0 p 0 z t c c 8 c t c 0 t z 0 c 8 c c t z c c t z t c z z 0 c z p b b c c b c z c c c b b b z b b D c D b D D D D D D d D D G D D G U U F U U U U E U E U E / E E / A | Z.^.^.`.@XdXsXsX X(.m.! Z V l E.Z.1 7 1 > 6 6 T L v )  . . .g.) g.g. .>.g.) g.g.) g.g.g.g.d.j.j.d.j.j.j.d.D.j.D.j.f.L.j.j.j.f.z.f.L.j.L.j.L.j.M.E.$ + . . . X . X X X X : @ : @ @ @ * % @ % % * % # : j & % % % & & & % & j & & & % & & % > % & & $ & % % ",
"6 < 6 4 6 < 4 4 4 4 4 6 4 4 6 4 3 5 6 5 5 3 5 3 5 5 2 5 5 5 r 5 5 5 5 w 4 6 8 6 5 8 w 8 8 8 7 q q 9 9 N N V ! ] m.#XhXgX|.m.] E c.M.I U F b v v v d a v p v v a a v v v s a n s M a g a y M M n M g g M y M M g n a n n f f g M g M a n M m m g m n n M n n m n m M M m m n n n n m m m m M m M M v M.s.V Z Z ^ ^ ! '.E.S S X.u.S.(.$XhXgXgX@X^.C.B.u.&.E E W Y P P Q P P P P J P H P P H J J P L L L n m L m M m K K n n n m m n m n n n n f n f f H f H f n f n n n n n n m n n n n n n n n n n a n g v v m y v g g a a v v a v v a c d a v c p v b N.d.x x 8 8 7 x a.w . @ X O C c c c c c z M #.-.v 8 c t c t 8 z t 0 0 0 z p 0 8 c 8 c c 8 z t 0 c t c c 8 c 8 c 8 t z c c c c t c c p b 0 c p z p z c b b c c z M c b b b c c c b D c D D D D D G D G D G D D U F D I U I U U U E U E E E E { .._.^.(.`.@XdXdXsX|./.B.! V Z l E.E.7 6 6 6 > > T m p ( )  . .) g.d.) g.d.d.g.g.d.g.d.d.g.d.j.j.d.j.f.d.j.j.j.n.j.j.j.j.j.f.j.L.j.z.j.j.f.j.j.j.N._.$ + . . . . . . . X X : X : @ @ @ @ : $ % * % % * % % % j % j & & & & & & & & & > % & > > % % > > & % > ",
"6 4 < 4 6 < 4 6 6 4 6 < 4 4 4 4 3 3 3 3 3 3 w r 5 5 5 5 5 5 6 5 6 5 5 5 6 8 6 8 8 w 8 8 w 7 q q q 9 9 N N S ! ] m.#XhXdX|.B.] A M.V.U U D b v c a c c v d v v a v a a a a v a f M g y M g g a g g M y n f f f f M M g g M a g M f f f n g f M M n n g M m M m m n n m m m m n n m n n n n M m M m v M.c.^ Z Z Z ! ! '.R.w X.X.u.C.(.@XhXgXgX#X(.%XS.u.E } W W P Y Q P P J P P J H P H H J J H P L m K J m m m m K n m m n J J f H m n n H f J n H J f J f H H f n f n n n f n n f n n n n n a n v n n v g y n v v g n i a v a a a v a v v v p v v p M W.^ 8 8 7 7 7 7 s.7   O X O C z c 0 b 0 p b R O.v z c 8 8 0 8 t 8 0 p p 0 0 p c t t c 8 c t z 0 0 z t z c t z c c 8 z 8 c c 8 c v 0 c p b 0 b c c c c c M p b c 0 c b b b G c G d z D D c D c D D D D D D D D F U U I U U U U C E E U E A / { | ).^.^.`.@XdXdXsX|.(.V.! Z ! l E.E.7 7 > 1 7 > T m v W  . .) d. .1.g. .d.1.) g.g.g.g.g.g.g.d.j.g.g.j.j.g.g.d.j.j.N.j.j.j.j.f.z.f.z.j.f.f.j.j.j.N.).$ . . . . . . . . X X X X @ @ @ % : * : : * # j % % j % % % & & & % j j j % & & $ > % > > > # $ > % $ > ",
"< < < 6 4 < 4 < < 4 < 4 4 < 4 4 3 5 r r 3 3 3 5 2 2 5 5 j 5 5 5 5 6 6 6 8 5 5 w 6 8 7 8 q q 9 9 l 9 9 N V S ! ] m.+XhXgX|.S.] ~ M.E.E C D G c v c v a c v v a d v a v a s a n a a f n n n M M y a y g M m y M a g f y M g g M g g M f g f n g f f n m g n g M n n n m n n n n n n n m n m m m n m v M.s.V A V ^ Z ! '.%XS S X.u.C.(.#XhXgXgX#X/.S.Z.u.} E Q W Q Y P Y P Q P P P P H J P P P J H m J J H L m m L m J n n m H n H m n H n f J n n f H f f f f f H n f n n n n f f f n n n n n a n n v g v v v n v v v n v n a a M a a a v a a v p p v x N.s.8 7 q 8 7 7 s.9   O X X B c z 0 0 p z M T O.p t 8 t z t c 8 c 0 8 0 0 0 0 8 c c 8 c 8 z t c c t z c 8 c 8 8 c c c t z c 8 z 8 c p z p b p b p b 0 c p c c b c c b z b c c z B D c c D c D D D D D G G G U D U D D Q U U U E U C ) A ) E / ` ).^.^. X@XgXdX#X|.(.C.! Z ! x E.E.7 6 6 1 6 > L m b E )  . .>. .>.d.)  . .g.) ) d.g.) d.g.d.g.d.g.d.j.g.d.d.j.j.d.j.D.d.j.z.f.j.j.j.j.j.j.f.j.N.E.$ . . . . . . X X X X X X @ : @ @ @ : # * % * : * * % % j % % % & & & % % & j % & % > % # > > % $ $ > $ ",
"6 < 6 < 4 6 6 4 < 6 < 6 4 < 6 4 3 5 3 w 5 3 w 3 5 5 3 6 3 5 5 6 6 4 4 8 6 6 8 8 8 w 8 w 8 7 9 q 9 k N N S S ! ] v.@XhXdX|.B.] E Z.E.C U D D G s v c v c a v v v v a a v v a a n g y M a n a a g n a n M y f M g g M M a g a M g n n a M n f n v M g n f M g n n n n n n n n n n n n n m n m m M M a b.a.V A A V Z !  XZ.N S u.X.B.`.$XhXgXgX#X^.C.S.u.%./ W Q P Y P Y P P P P H J P P J H H P H L J K J J J J H m n m m n n H n n n H n H m f m J f J G J f f H n f f n f n f n n n n n n n a n n n f g a n f n g v a f a f a a v v t v v p v p v v c M.s.q 7 8 7 8 7 s.7 $ O X X M p x z M q x b M +.v 8 0 8 z z t p 8 c 8 8 p 8 c z t 8 c 8 c 0 0 0 0 0 z p 0 c 8 c c c t z t z c c z c c c c z c c c c p b z z c b b b b b c D c z c D c D d D B B v D D D D U U D D U U U U C U E E M ^ E I ~ ~ | ).^.^.(.@XgXdXsX|.(.C.! Z ! l E.E.7 7 1 1 1 6 R n c W )  .) 1. . .1. . .>.) d.>.g.>.d.g. .g.d.g.g.d.g.g.g.j.j.d.j.g.g.g.j.j.j.d.j.j.j.j.j.j.d.N.E.$ X . . . . . . . X X O @ @ @ : @ @ @ * % j % @ % : j & & % % % & & & & & & & * & & & & > % % > > $ > $ ",
"6 < 4 < 6 < < 6 4 4 4 4 6 < 4 4 3 3 6 3 3 3 r 3 5 j 6 5 3 w 5 r 8 8 6 6 5 8 8 6 8 6 8 7 q 9 q 9 9 9 9 N N S ! ] m.#XZXgX|.m.] ` Z.E.A U Q G c G b a v a v v a a v v a a f v v a M g g a a n a M a n a n M f a n a g g g M g f g n a n f a v g g m a n g n n g M M n n n n n n n n n n n m n m m m v f.s.C Z V Z V ! '.E.S S X.u.V.`.#XhXhXhX#X^.C.C.u.*.W Q W W P Q Y P P P P H P J J P J P P J J H J H H J H H m K K m J H J f J J n J m f f H f f f f H f f f n n H f n f n f g n g a n n v g a v v n n f a v y v n a a a f f v y v v a v p v y c b N.s.7 8 7 7 7 7 s.7 O O O X x M 0 0 0 p p b O.$.v p p 0 8 0 8 0 8 8 p p 0 c 8 t c c 4 t 8 p 0 p 0 0 0 p z c c 8 8 8 c c z t c 8 c 8 8 c z c 0 0 z b b b 0 c c c z b z b c c c D d d B c D D v D c c D D G b D D U D U D U U U U C E E E ^ E / ` ).R.^.`.@XgXdX#X|.(.C._ Z Z l E.E.7 8 6 1 1 , L K c W ) )  .)  .) )  .) d.) >.)  .d.>.) g.) g.g.) g.g.d.g.d.j.j.d.g.d.d.j.f.j.j.j.j.d.d.j.j.j.A._.$ X . . . . . . X X X X X X @ : @ $ % @ : : * % % * % & % & j j & & & & & & & > & & > $ % $ > $ % % % > ",
"< < 6 < < < 6 < < 6 6 < 6 < 4 < 3 5 j 3 5 3 5 6 3 j 5 5 5 5 5 3 5 5 8 4 6 8 6 8 8 7 7 8 7 q 9 q l 9 N N V S _ ] m.#XhXgX|.B.] ` Z.E.A Q D D c d v v d d d d a d p a a a a a a v M y g M n a a g n y n g y M y a a M g M g M M g m n n g n a v n n g f M f m M m n n n n n m n n n n n n n m m n L v b.s.V V S C Z ! '.).N S X.X.B.`.@XhXgXhX@X(.C.B.u.} { E Q P W P P P P P H P P J J H H J J J L J K J J H J H m J K m n n J m n J n f J n H f J H f J f f J H f f n n n f n n v n v n n g n n n n a n f a s f n y n n a n a a y v v v v y v a t v x N.) 7 7 8 6 6 7 s.x . X . X x 0 0 M 0 0 0 c M O.p p 8 8 p 0 z 8 t 0 p 0 0 8 t 8 t 8 c z 8 c 0 p p 0 0 0 0 8 c c z c 8 t z t z c c c c t c c c c c 0 b c z z b b c b z c c B d k c D 0 c D c D D D D D D D U b D D D U U C C U U U U E E / ~ / | E.^.^.`.@XgXdXsX|.(.C.! Z Z x E.E.7 7 6 > 6 1 L m v E ( ) } ) )  .)  . .) )  . . .1.d.>.d.) g.) g.d.>.g.>.g.d.g.d.g.g.g.g.j.g.g.j.j.d.j.g.d.g.N.).$ . . . . . . . . X X O : : @ @ @ @ # @ * % j % % * % % & & % j & & & & & & & , > & $ & > % % > % > > $ ",
"4 6 < 6 6 < < 4 4 < 4 < 4 4 4 6 5 3 5 5 3 5 3 5 5 5 3 5 3 5 5 w 8 6 5 8 6 t w 6 6 8 8 7 7 q q 9 9 B l N N Z ! ] m.$XZXgX|.B.u.` Z.C./ Q B D D d c d d v a v v v a v a v a v a g a n y g y M n y M g M y g n g n a g a n a a f a a n a n a n n n f M n f n f g a n n g n n n n n n n n m n m m M L v s.[ C S V S V ! ).E.S S u.X.V.].#XhXgXhX#X^.C.B.{ E W W W E P Q P P H P J P P J H J P K J J H J H H J H H H J n n J m J n m f n H J f J f J f J f f J f f f n n f n f n n f n g n g v n a n a n f f f n f n v n n a n a n a g v y v v v v y v v M f.s.6 z 7 7 6 7 s.7 . X X O b M 0 8 p x 0 M M $.b 0 p 0 p t 8 p 0 0 8 8 p t z c 4 c 8 8 c 8 0 0 0 0 0 p 0 c 8 8 c 8 c t z z c 8 z t z z c z 0 0 c b z z c 0 c z c z c c z D 0 D c c D B D B d D c c D D D D D U D D D U D U M A C U A C ) / ~ [ %X^.^.{.#XgXdXsX|.`.C._ Z X.l Z.E.7 7 1 6 1 1 K m d W ) ) )  .) )  .>.)  .>. .)  .)  . . .1.) g.)  .) g.d.>.g.>.g.g.>.d.d.g.d.g.d.d.j.j.g.j.>.N.E.$ . . . . . . . X X X X : : @ @ @ @ * % # * : * % % @ j * & % & & & & & & & & & & > > > $ > % > $ % > $ ",
", , 4 , 6 , 6 , 6 < < 6 < 4 4 4 5 3 3 3 w 3 3 3 6 3 5 6 5 6 5 4 4 8 6 5 6 w 5 8 6 8 7 8 7 q 9 9 9 l N N V Z ! ] m.#XhXgX|.B.u.` Z.E.A C D D D c c v v d s s s s v v p a i v a a n a n i y n a M a a a a a g g a a g a g M g a M v v v n n g y m n n n f s f n f n n g n n n n n n n m n n n m m M v s.[ x C S C S S  XC.S S X.X.C.`.@XhXgXhX#X^.C.C.[ } E E W O.P Q J Q P H P P H J J P H H J J H J H J J H H J H H H J J H f J J n m n f J f f H f J f J f f J f n f H f J f s v n v n g v n g f n f f f f f s n s n s g s s s v v y v y g M M y M p f.| 8 7 7 6 1 > s.w   @ X X x c 8 c 8 0 c c M +.v t 0 0 8 8 t c 8 c 8 4 c 8 8 c 8 8 8 c 8 c z 0 8 z 0 p 0 8 c 8 c c z 0 0 c z t z c 8 c p c c c c c z z b x b c c z c c c D c c c z G D 0 c D G z D D D b D D D D U B U U C C U Q E C / I / ~ | E.R.^.`.@XgXgXsX|.`.C.! Z ! l Z.Z.7 7 1 2 > 7 L m b E ( ) ) >.) ) ( ( ) } (  .)  .) 1. . . . . . . .d.>. .d.>.g.) g.g.g.g.) g.g.g.g.d.) g.d.>.N.W.$ X X X . . . . . X O O @ : @ @ : : # * @ @ j : j % % * j % j % & & & & = > % > > % % > % > > % > % > $ ",
"4 4 , 4 3 3 < 4 < 4 6 4 4 4 , 4 3 r 3 3 r 3 r 3 j 3 3 5 2 4 6 5 5 6 8 6 5 8 8 8 w 8 8 w 7 q 9 q 9 9 N N S Z _ ] m.OXZXgX|.B.x.` Z.Z.^ E U D D v v v d d d G d d v i a a v g v a a v i n M f g a g g M g a M a M g M n y y n a g g n a n v v n v a n a n m n n n f n n n f n n m n n n n n m m m m c s.| C V C V S S  X%Xw S u.u.V.`.#XhXhXhX#X(.C.B...E } W Q T W P P P P P P J P J J P J J J P J P J H H J J H J J J H f J J H J H m m J f J f J f f J f J H f H f H s f f n J n g g n v g n v f f f n f s f H f f a f s s n s y n v a M a y y p a M N.^ 6 7 6 7 7 1 a.9   X X O b b 8 z z 0 8 M M $.v 8 t p 8 z 0 8 8 8 t z 8 z t t 0 c 8 8 0 t 8 0 c 8 0 0 0 z 8 z t 8 c 0 c 8 c 8 c c z c z c 8 z z z c z z c c c z z c c z z c z D D 0 D 0 D b z D z b D D D D B U D D D U U U C U E C C ^ / ~ [ E.^.^.{.@XgXgXsX|.(.V._ Z Z N Z.).q 7 6 1 6 6 m m c W ) E ) ( ( ) ( ) ( )  .( ) } } ) >.)  .)  .1. . .>.d.1.>. .g.g.)  .g.g.g.d.) ) g.g.g.g.>.N.].$ $ . . . . . X X X X X @ @ : @ @ * : : % % % % : * % % % % j % & & & & > % > % % > > % % > % $ $ > % > ",
", , 4 , , 3 4 , 6 < 4 < , 4 4 4 3 3 3 3 3 3 3 3 5 5 3 5 5 5 5 5 5 6 5 6 6 6 8 8 8 w 8 w 7 q 9 9 N 9 l N V S ! ] m.#XhXgX|.B.u.[ Z.E.~ E C D D c c d d v s s s s v a a a a a v a v n v v a a M a M y g M g M a g a M g M g M g a v a v g g v n g g v n n n n f n n n n f n n n f n v n g n m n m m v s.| N N C V S Z  XC.S S X.X.V.`.#XhXgXhX#X^.C.C.[ } W Q W Q P P P P P J J J H J J J J P H J H J H J J J H J J H H J J J J J J m m n J J f f H f f H f f J f f H J g f J f f n n g n n n f f f f f f f f f f a f f s s f s g f a y n g a a a t c M N.) l 7 6 6 7 7 s.7   X X X M z c 0 0 0 0 b M +.p c 0 8 t t 8 z t 8 t c 8 8 c 8 z z t z t c 8 t 0 8 c 8 0 z z 8 c z 8 8 z t z c z z t z t 8 z z c c z z t z z c c c z z c D c c c B c z D z c c D D c M B b D M B D U D U D U E U C E A U A ~ | E.^.^.{.@XgXdXsX|.(.V.X.Z ! N V.E.7 7 1 6 1 > L m c R ) ) ( ( ( ( / ) ) ( / ) ) ) ) }  . .)  . .>.>.) ) >.1.d. . .) g.) ) >.g.>.g.g.>.) g.>.>.f.W.$ . . . . . . X X X X O X @ : @ @ * * % * % * % * % * % & & & * & & = > % % > % > % % > % > % > $ > > % ",
"< 6 , , 6 , , 4 < 6 < 6 4 6 , 4 w 3 6 6 5 6 3 w 3 5 5 j 5 6 4 w 5 5 8 6 8 4 8 8 8 7 8 8 q 9 q l 9 N N N S Z _ ] m.+XhXgX|.B.] _ Z.E.~ A U D D c c v d v v s d s a a a f a a a n v y g v a a g f a n y M g y a g a a a g a a f f g v n v v g g v g n f n v n H f n n n f n f f n n n n n n n m n m v s.` N B B N C S  X%XS S X.u.C.`.#XhXgXgX#X/.B.Z.u.W } Q O.P Q P P o.Q J P P P J P J H J H P J J J J J H J J J J J J J f f J f m m m H f J J J g J J J f H J m f H f f f H f g n n g g g f f n f f f f f f s a n f s f a s s a n a a y M a a v c M N.^ 8 7 7 7 > 7 ] 7   X . X z c 8 0 p 8 0 p T #.v 8 0 p 0 c 8 8 t 8 z 8 8 8 8 8 t 8 t 8 8 8 8 z 8 0 0 p z t t 8 z t z c t z c 8 0 c 8 c z c z 8 c z c c z z c z c c c z c z z b z d D D c c D c b B D D D D D D D B U D B U C U C U A U ^ / ~ ` E.^./. X@XgXdXsX|.(.C.Z Z _ l M.E.7 q 1 1 6 1 L m c M E W ( / E ) ( ( ( ) ( ( ( ( ) ( ( ) ) >.) )  . .>. .) >. .1.>. .1.g.>.) d.>.g.) g.) d.>.f._.$ . . . . . . . . X O O X @ @ : : % @ % : % : * % : j % $ & # & & & $ $ > $ % > % > > $ $ > > % > % > $ ",
", 6 < , 6 < , , , 4 , 3 4 , 4 4 3 r 3 5 r 3 3 5 3 r 3 3 3 5 5 5 6 5 8 6 8 6 6 w 8 7 8 8 9 q q 9 9 N N N V Z _ ] v.#XZXgX@XB.] [ Z.E.~ E Q Q G G v d d v s s s d a d s s a s a a v y a n a a a a a M y g g a M M M g g M a M g a v n g v f f n a n n a n f n n n a n g n n f n f n n n n n n m m L a d.| N B B N S Z '.^.S S u.u.C.`.#XhXhXhX#X(.C.C...%.W E W W @.P P P P P J J P J J P J J J P J J J H J H f J J f J J J H J J m J J f J f J H f f f f J f f f g g f H f J g f f f f m n n g n g f f f f f f f f g a v s f s f f a a M y g a a p p M N.^ 8 6 7 7 > 7 s.7   O X + x M 8 0 p 8 0 M M $.p 0 0 8 t 8 0 8 0 z t 8 c c 8 0 t 8 z 8 c 8 z t 8 z 8 c 8 8 z c 8 z 0 z z 8 z 8 z c 8 z c 8 c 8 z z c c c z c z c z c z c c z c c c c z c z z D c B b B D B D B U b D D U C U U C A E A E E ~ [ C.^.(.`.@XgXdXsX{.(.V._ Z ! N Z.E.7 q 1 1 7 > L L c I I ) ) E ) W ( ( ( / W ) ( ( ( ( ) )  .( ) ( ) ) ) >. .) 1. . .>.>.g.) g.>.)  .1. .g.>.>.N.E.O . . . . . . . X X X X @ @ @ @ @ % @ @ % * * % % * * % & & & & * & & % , % > % $ % > % $ > > % % > $ % ",
"< , < 6 , , 4 , , , 4 3 , 4 , 4 3 3 3 3 3 3 w 3 w 3 w 5 w 3 3 5 5 w 6 6 6 8 8 8 6 8 7 q 7 q 9 l N l N N V Z ! ] m.#XZXgX[.B.] _ V.Z./ C B D G k c d d s f a s h a a a a a s v a y v n y a f n a a g a M a g y g y a a a a g a a a n v g g f f n a n g n n n n f n n g n n f m n n n n n n m m M L a | ~ B N N N B Z ).).S S X.X.C.].#XZXhXhX#X(.C.C.u.E E W Q O.Q P P P J P J P J P J J J P J J J J P J J J J J J J J H J f J f J J H J H J f J J H J f f J J f J J f f H f H f J m f f n g m g m f n f f f f f f f f f s f f a a a a f M a a a a p M N.^ 6 7 7 6 7 $ s.7 . X . + M p p 8 0 0 0 p O.$.v t 8 c 0 8 0 8 t 8 e 8 8 0 8 8 z 0 8 8 z z t z 8 8 c 8 0 8 t 8 z c 8 t z 8 z c z c z 8 c z c c z c c z z c z c z c z z c z c c z z z c D D c B c b D b b D D D D C D C U D C U Q C C U A ~ ~ | %X^.^.`.#XgXdXsX|.(.V.Z ! ! N M.%X9 7 6 6 6 > n n c M ) I R W E ) W / ( W ) W / ( ( ) ( ) ) ) ( ) (  .} ( >.) ) >.) >.) ) >.) ) >.>. . .>. .>.N.W.$ . . . . . . X X X X @ @ X : @ : * @ % % : # * % % % % & * & & & & & & $ > % > > % % > > > % > > % $ > ",
", < , , , 4 < 6 6 < , 6 4 < , 6 3 w 3 3 3 5 r 3 3 6 3 5 6 3 6 5 5 8 6 4 w 5 8 8 w 8 8 w 9 q 9 9 9 N N N S Z ! ] m.#XCXgX|.B.] [ Z.Z.A E Q G D d d G d s s k a s d a a a a a a a n y v v a a a a a y g a a M y M n a a g a a n a v a f f f a f f n a n g n f n f n m n f f n m n m m m n m m m m L a | / l N N B V Z  XZ.S S X.u.C.}.#XhXgXhX#X(.C.C...} } W E Q P P P P P H P o.J J P o.J J P J J J J J J J f J J J J f J J J J f J f f J H g J J J f J J f J f H f H J J g J f f f m f f m n f n f n f f g f f a g f a g s s g n a a f g a a a a a M N.{ 6 7 7 > 7 7 s.7 . X . X b 8 8 M 8 8 0 p M +.p 8 0 0 8 8 0 8 0 t z 8 4 t z t 8 t z 8 8 8 t 8 0 8 c 8 0 z 8 z 8 8 c z 8 c z 8 8 8 8 z z z z z c z 8 z z z c z c c c c z z c z c c z z c D z c c z b D z b U b B D D C D Q U Q C E C E A / ~ [ C.^.(.`.@XgXdXsX{.(.V.Z ! _ l Z.E.w q 7 1 6 7 m n c M E W E ( ) R W ( E W W ) ( W / ( ( W ( ( ( ( ) ( ) >.) >.} (  .>.) >.>.) g.>.>.>. .>.) >.N.W.X . . .   . . X X X X X X @ @ @ @ @ : % * j % % @ % % * & & & & & * & > $ = > % > % > % % % > % $ > % > ",
", 6 , , , , , , , 4 , 3 3 6 < 4 3 6 3 6 5 3 3 3 w 5 3 3 3 6 5 5 6 5 8 8 5 8 6 w 8 w q 7 q 9 9 q 9 9 N N V Z _ ] v.#XZXhX|.B.] ` B.Z.{ A Q D D G d d s d a s d s s a a a g a a v y n n y a f g a M g M a y M g g a n g M a g M g f f a f g n f f f n f n f n f f f f f m n n f f n n n m m m m m L v | A B N N B N ! ).).w S u.X.C.`.#XhXhXhX#X(.C.C.u.%.W P O.P W P P P o.P J P J P J P J J J J J J H J J H H J J J J J f J J J J J J J f J H J J f J f f J f J J f g J f J f J f J f m f f f f f m f f f f n f f n a g f s f s a n n a a a a n a a v f.^ z 8 7 7 > 7 ^ 7 . X X X z M 8 8 8 8 0 p T $.b c 8 8 c 8 8 p 8 8 8 z c 8 8 8 0 8 8 8 c 8 z z 8 z 8 z 8 8 z t z z 8 8 z 8 c z z z c z 8 8 8 z c z c z c c 8 z c z z z c c z c z c D c z c c c B M z D b B B B M D D D D D C C D C C C E C / ` %X^.(. X@XgXdXsX|.(.B.! Z ! N Z.E.9 7 6 6 7 6 m n c R W I I W E R E E W E I ) W ) E W ) W ( W ) ( ( ( ( ( ( ( ( >.) ) >.) ( >.) ) ) >.) ) ) -.N.E.X . . . . . . . . X X X @ X @ @ @ @ @ * # : @ % % * * % & $ & $ & % & > > > % > % > % $ % > $ > % % > $ ",
", < < 6 , , < 6 4 , < 6 < 4 3 6 3 3 4 4 2 4 4 4 5 5 6 3 3 w 5 6 8 6 6 8 4 8 8 6 8 8 7 q q l q 9 l 9 N N V Z _ ] m.#XZXgX|.B.] _ Z.M.E E Q D G d d d d s d s s d a a a a y f a a a v a a a a f a y g a a g n a a a v f f a f a f f f f f f f f f f f f f f J f J f f f m f f J n H J f H J f J J P s  .A l B x N x Z '.Z.N S u.X.C.}.#XZXhXhX#X(.C.B.u.} W W @.Q P P P P P t.P J P J Q t.o.J J P J J J J H J P J J f J J J H J H m J m J m J m m m m m t.m m m m f J f J f J f J f J f m m f f f H g f H J f f f f f f s g s f f a g a a n a n v v i m N.^ 7 6 7 7 7 7 ^ 7   O X X z c 5 8 8 c 8 0 M &.a 8 8 p 8 8 0 8 0 8 z 4 8 t 0 q 8 u 0 q u 0 q q 8 q 0 0 0 q 0 0 0 0 0 k 0 q q q 0 0 z q d z 0 z c z c z c z c z c z c z z c z c z c c z b b M z B b B b B B b b B C D D D D C U C C E A E ~ A ` E.^.(.`.@XgXdXsX|.(.V.X.Z _ N V.).7 8 7 1 6 7 H H c M R W E I ) I I ) I ) I ) I ) W ) W W W ) W W W ) ) ( W ( ( ( ) >.( #.( ) ( ) ) ) >.>.>.( f.%XO . . . . . . . O X O O @ @ X @ @ @ % : : % % j % j * % & # # & & % & & % > % % & % & & & * $ > % > # > ",
", , , , < , , , , < 6 < < 6 3 3 4 4 2 4 4 4 6 3 3 3 3 6 5 3 5 3 4 6 8 8 6 8 7 8 7 8 7 7 q 9 9 9 l N N S S Z ! ] m.#XZXhX@XB.u.' V.M.E A B D B v v c d a s s a a a n a a a a a a a a a n a a a p a a a a M y a n f a f a a f g f a f f a f f f s f f f H v g f f f n m f f m J f H f J H J J J P P a { A B N N N V ! ).).S S X.u.C.}.#XhXhXhX@X(.C.A.u.%.} Q P P P P P P o.Q J P o.P o.J J J J t.J J J J J J J J J J J J J J J J J J J m J J J m m m m m m m t.m J f J f J f J f m f J f m m J f g H f f f f f f f f f f f f f f n a n g g n y y i v n f.) 7 7 7 7 > > s.1 . X . . c v 8 z 4 8 8 p T &.M p 8 8 8 0 8 8 t e z z 4 q q 8 u 8 q 8 q 8 0 0 0 0 0 q q q q q 0 q 0 0 0 q B 0 q 0 0 z z c z c z 8 z z c 8 z z z 8 c z c z z z c c z z b z b M z z b B b D D B D D D B Q C M C C C C C U A / ` E.^./. X@XgXdXsX|./.V.! ! ! N Z.E.9 7 7 6 6 6 J J c I I E I W W I E W W I W R W ) W I ) I E W W ) W W W ) ) ( ( ( ( ) ( ) ( >.>.) >.( ) ( ) W f.A.O . . . . . . . . X X O X @ @ : @ @ @ @ * * : : @ : % * * & * & & & * & % % % > % * * & & & & > > # $ $ ",
", , , , 6 , 6 < < 6 6 < 4 6 6 6 2 2 4 4 3 5 2 5 5 j 5 j 5 6 3 w 6 5 8 6 6 w 8 w 8 7 7 q 7 9 9 l 9 N l N V Z _ a.m.#XZXgX|.B.] ` B.M.E Q Q B G c c s d s s d d a a a a a a a v a a v a a a a a g g a M a M g g M a n f f n f f a f f f g f f f n H f f f n f J J m f f H m H f J f J f J J J J H o.a { A z x B N C Z (.%XN S X.X.C.}.#XZXhXhX#X(.C.C.u.&.Q W P W o.Q P o.o.t.P P J P o.o.P J P J o.J J J J J J J J J H J J H J H J J m m m m m m m m m m m m m m f J f J f f f J m m m m m J g f J f f f f f f f f f f f f f f f n g a n a v v v v y v f.^ 6 7 6 6 7 7 ^ 1 . X X X z t 8 8 8 8 0 p T +.M p 8 0 0 8 p 8 8 8 8 8 8 8 8 8 0 q q 0 8 0 0 q 0 0 0 q q 0 q q q q q q q q 0 0 z 0 z z 0 z 8 8 z c c z 8 z c z c c 8 z c z c z b z z b b z M z z z D b B z D B D D D B D U B C C C E C ^ ~ / ` Z./.(.}.@XdXdXsX{.(.V.Z _ ! N Z.).q q 7 7 6 7 J H c M E I M E E I W I W I I ) I W I W R E ) W W ) ) ) W W W W W ( ( ( ( ( ) ( ) ( ( ( ( ) ( ( f.A.X X . . . . . . . X X X @ X @ @ @ @ @ $ % @ * # % % % % & $ * & $ & & & & $ > % & & & & $ $ & $ $ & > # ",
"6 , < 6 , < , , , 6 < , , 3 < 3 4 4 2 2 4 2 4 3 5 5 3 5 5 3 6 5 6 6 5 6 8 8 6 8 7 q 7 q 9 q q 9 9 9 N N V Z _ ] m.#XCXgX@XB.] [ m.M.E Q D D c d d d s d s h s d a a a a a a y v y g a a a f a a a a g g y a y g g f a a a g f f f f f f f f f f f f f f f f f f f m J f f f J f J H J J J H J J J a ( E l V N B N !  X).N S u.X.C.}.#XhXgXhX#X(.C.B.u.W W W W P W P P P Q o.J t.P J J J t.P o.J P J J J J J J J J J J H J J J t.J J J J J J m J m m m m m m m m J J J f J J J f m m g m g J f J H f J g J f J f f g J f f f f f n y v g v g n y n n M f.) 7 7 6 7 7 7 ^ 7 . O . . c p 8 8 8 8 8 t T &.p 8 0 8 8 8 8 8 0 4 z t z q q 0 0 8 0 q q 0 q 0 q q 8 q q 0 q q q 0 z 0 k k 0 0 0 z 0 q d c c z z z z z c z c c z c c z z z b z z b z z z z z b B D D x b b B D B D B Q D C U M C C C C A A ~ [ Z.^.(.{.#XdXdXsX{.(.B.! ! _ l Z.%X9 q 7 6 7 6 L L c I I R W I I W I E I I W I W I ) R ) W I W W I R W W W W ) W W W ) W ) ( ( >.( ( -.( >.( W f.E.X X . . . . . . X X X O X @ @ : @ @ @ # : % # % * * * % & & & # * & * % & % > % & & $ $ & & & * & $ > $ ",
"< , , , , , 6 < 6 , < < 6 3 4 , 3 3 3 3 2 5 3 5 3 3 w 5 6 5 6 6 6 w 5 8 6 8 8 7 6 8 w q 9 q 9 l 9 N 9 N S Z _ a.m.sXZXgX[.B.u.` M.v.E Q Q G G c c s d a a s s h a a a a y g v y v y v y a a a a a g f a a n a g f f a g f f f g f f f f g a f f s g f f f J m f J f J f m f J f J H J f J J J J o.p / Q l N x B V ! '.Z.N X.X.u.C. X#XhXgXhX#X(.C.C.u.@.E %.Q Q P P P P P J P P t.Q J J P P t.P o.m J m J J J J H J J J J o.J J J m o.m m m m J t.m t.m t.m m M g m m H J J f J m m m m m t.m m f J f J g f J f g f f f g s f f n g v g v a n v v y v j.^ 7 6 7 6 7 7 ^ > O X X $ t p 8 p 8 8 8 8 O.&.p 8 c 8 z 8 z z 4 8 z 6 8 u q 8 q q 0 8 0 0 8 q q q q q q q q q q q q q 0 0 0 q B q 0 z z z z c z 8 z z c c z z c z z c z z b z z z z b z z D b z D z b B B D B D D B Q C D Q D C C C A E A ~ | C.^.(.`.@XgXdXsX{./.B.X.! _ N Z.E.q w 8 7 6 8 P J d F I I I E M ) M R M ) W I I W I R W W ) R I W ) I W M W ) W W W ) ) W ) W ) W ) ( W ( W R f.W.. . . . . . . . X X X O X : : @ @ @ @ @ * @ % * % j @ # $ * & & $ & & % & & > % % % % % % $ > $ $ % > $ ",
", , 6 , , , < < , 3 4 6 , 3 , 4 3 5 3 w 5 2 2 6 5 5 r 5 5 2 5 5 5 6 5 6 w 8 6 8 w 8 7 9 q 7 9 9 N 9 N N S Z _ a.B.#XhXhX|.S.u.` v.M.E Q D k c d s d d a d h s a a a a y v y y v y v g v a g g a a a a a g a a f f f f f f f f f g f g f m g f f H g f J f f f J f f f H m m J J f J J J J o.P J o.d ( U z N B N N Z  XE.S S X.X.C.`.#XhXhXhX@X(.C.C.u.W W W P @.P P o.P P P o.J o.o.o.o.P t.J J L m L o.L m o.L J J J J J J J J o.m J m o.m J J m m m o.m o.m t.J m J J t.J J J m J m m m m m m J f J f J f J f J f f f f J f s n n g v g v n g v g v f.) 7 7 6 7 6 6 ^ 1 X X X O M t 8 8 8 8 8 p L $.v 8 8 e 8 8 8 8 8 8 4 z 4 8 q q u 8 0 0 0 q q 0 q 8 q q q q q 0 k q q q q 0 q q 0 z 0 z z z 8 c z z z z c z z z z z z 0 c b z z z b b z z B z B z B D B b D z D B B Q B D B C C C E C C A A / ` E.^.(.{.#XgXdXsX|.(.B.! ! ! N E.E.9 q 7 8 7 w P J d F F I I M E I I I W R I M ) I R E I I M W ) R I W W ) I R ) W ( I W W #.) #.( ( ( W ( ) ( f.Z.+ . . . . . X X . X X X @ @ @ @ @ : % * : % % @ : * % j # % % $ # & $ & & $ $ > % > % % % > % % & $ % $ ",
", , 6 < , < 6 < < , , 3 3 3 , 6 5 j 3 3 3 6 3 3 j 5 6 3 5 6 5 6 6 6 6 8 6 8 8 7 7 8 q 7 9 9 9 l 9 9 N N V Z _ a.B.#XZXgX|.B.u.` v.b.Q Q D c G d d s s s s s s s a p a a y v y v y y y v a i a g a g g f g a a n a a f a f f f f s f f n f f f n g f f J m m g J J f g J m m J f J H J J J J J P L p E I z x x V C X. XC.w S u.X.C.`.#XZXhXhX#X(.C.B...%.E W W P W o.P P o.P o.P P o.J P P J P t.J o.J J o.J J J o.J J o.o.o.J o.J J J J m m m o.o.m m o.m m t.m J J J t.J J t.J J m m m g m m m J g g J J f f f f f f H f J J g m a n g g v g v v v v d.^ 6 7 7 6 7 7 ^ 1 . X X O c p 8 8 8 8 p 0 L +.c 8 z 4 8 8 4 8 8 z z 4 z 8 q 8 q 0 q 0 0 8 q q q q q q q q q q q q 0 q B 0 q q 0 z q q 0 c z c z c 8 z z z z z z c b z z z z b z z z z B b D z z z B b b b B B D D B C B D B D C C C C A A ~ ~ C.^.(.{.@XdXdXsX}.(.B.Z _ _ N Z.%Xq 9 7 7 7 6 L L c U U I I I I W I I I I I I I W I ) W I I W I ) R W W W W W ) W W ) W ) W W W ( ) M W ( W R f.E.. . . .   . . . X X X O : : : @ @ @ @ # : * * % j # % * j % * % $ & & % % # > # $ > % % > $ $ > $ > % $ ",
", 6 , , , , , , 6 , , 3 6 , , 4 3 5 6 5 3 3 5 3 6 5 3 6 5 3 6 5 6 4 8 6 8 6 6 8 8 7 6 q q 9 q 9 9 N N N N Z _ a.m.#XZXgX[.B.] ` v.b.Q Q D D d d d d d d d h h s a a y a v y v y n v v y a a a a a a a a f g a g g f f f f f f g f f f g m f f f J m f f g m f J f J J J g m m J J J J J J J J P o.p W I l N z N N X. X%XS S X._ C. X#XhXhXhX@X(.C.Z.u.%.%.Q P P o.Q P o.o.J P J o.J P t.o.P J P J J o.o.L J m o.J o.J J J J J J o.J J o.t.m o.m m t.m m t.M o.m J t.g J J J g J m m t.m t.m m m J J J f J J f t.J f J g H f g m g g n v n g v n a n n d.) 7 7 6 > 7 6 ^ 1 X X X . c p p 8 8 8 8 t L &.b 8 e z 8 t z z 8 8 8 z 4 q u q q 0 8 q q q q q q q q q q q q q q q q q q q 0 q z z 0 z z z z 8 z z z z z z z z c z x z b z z z z b B z M z z B M b B B B B b B C B B D U B Q C C C C A C A ^ ` Z.^./. X#XgXgXsX{.(.B._ Z _ N Z.).9 q 8 7 8 8 o.T c F U I I I M I I I I I I I I I R I M W I W R M W I I W I W M W I W R W ) W ( W W ) W W W R d.E.X . . . . . . . X X X O : : @ @ @ @ @ : @ # * : @ # * % @ @ j % & % % & % > % > > % $ & $ % % $ $ % $ > ",
", , < 6 6 < , , < , < , , 4 , 4 5 3 5 5 3 5 3 3 5 r 5 5 5 2 5 6 8 6 8 6 8 6 w 8 8 7 8 9 q 7 q 9 9 l 9 N N Z _ a.m.+XZXgX|.B.] ` M.c.I D D D v c p d a a i a a i a a a a y a a a a a a g a a i a g a g a a a g f f n f f f f f f f f f J g J J f H J f J m g J f J g f H m J f J J J J J P o.J J o.p W D z N x B N ! '.%XN S X._ C.(.#XhXgXhX@X(.C.C...W E W @.P o.o.o.P P P o.J P P o.o.Q t.P P m o.J J J o.o.J o.J o.m o.m o.m J J o.m m J J J m m o.m o.m M t.J J J J J J J m m J J t.m m m o.f J J f f m g m g m g J f m f f n n n g m n f a y n n d.C 8 7 > 7 6 6 ^ >   X . X c c 6 8 8 8 8 8 L &.c 8 8 e 8 8 8 u q q 8 q 8 q 8 h q q q q q q q q q q q 7 0 q q q q q q q z 0 q q z 0 z q z B 0 B 0 z z z z z z b z z z b z B z z z z B z z D z d B B B B D B D B B D B B Q B Q C C C C Z ~ A ~ ` C.^.^.`.#XdXdXsX|.(.V.X.! _ N E.Z.9 q 8 8 8 7 O.L z F I U I U I I I M I I I I M I R I I W I R I E R I I W I W W I I ) W W M ) W W R ) R W E W f.E.X X . . . . . X X X O X O O @ @ : @ @ % % @ @ % * % @ j $ & % # > $ & $ $ % $ % % > > % > % $ > % $ $ % ",
", , , , , , , 6 < 6 < 6 4 4 4 , 2 2 2 2 3 j 5 2 5 j j 6 5 2 6 5 6 5 6 5 6 8 8 6 q w w 8 7 9 9 9 9 9 N N V Z _ a.m.#XZXgX XS.a.` b.b.E B B d d d p v a p a a p a a a a a a a a a g a a i g i g a a a n g g v n a g a f g f f f f f f f g f f g f J g J f f m m m J J J J m J J J J J L J J J J o.O.p I U l z B N x ^ {.C.S S X.u.C.`.#XhXhXgX#X(.C.B.[ %.W W Q o.Q Q P P o.o.P J J o.J P t.o.P t.o.J L o.L o.J o.L o.J o.o.J o.J J o.m o.o.t.m o.o.m t.m m o.o.t.J o.J J J J t.o.J J m J m m m t.t.J t.J m m o.f J m m m n J m f m g m g g n f n n n v g.^ 7 7 6 7 6 7 V >   X X . c v 8 t 8 8 0 c T &.v 8 c z 8 q q 8 8 u q 8 q 8 q q q q 8 q q q 0 q 8 q q q q q q q q z q z q q q z q z q z z 0 z 0 z z z z z c z z z z z x z c z z b b z B b z z B B c c B B B B D B B D C B C B B C C C C C A A ` Z.^.(.}.#XgXgXdX}.(.B.Z ! ! N Z.).9 q 7 7 7 6 +.o.c M I I M I I I F I I U I M I I I I I I I R I R W I I I W I I R W M W I ( R W I ) I W R W M f.E.X . . . . . . . . O X O O O O O @ : @ * * % # j : j : % % $ $ > > % & $ > % > % $ % $ $ % $ % > $ > > $ ",
", , , , , , , 6 < , < 6 , < 4 6 3 2 3 5 5 5 5 3 3 3 r 5 5 5 4 6 6 6 6 w 6 7 w 6 7 6 7 8 q w 9 9 l 9 N N N Z _ a.B.#XZXgX Xm.] ^ b.a.Q D v d d a d a p a a a i a y a a a a a a g a i a a a i a a f a a g a g g a f f f g f f f f J g H g f m m f J g f J m m m m J f J J m m m m J J J J o.J P o.o.c E U l N x B B _  X%XN S X.] C.`.@XhXgXhX@X(.C.B.u.W W P P W o.o.*.P P o.P o.P o.o.o.P o.P o.L o.o.m o.o.J L o.o.m o.m o.o.J J m o.m o.J o.m m o.m o.t.o.t.m J J o.J m J t.J o.J o.m t.o.m m J J H J m t.m m J g g J J f f n n m n n m f f f g v y d.) 6 7 7 6 7 7 C > . . . . v p t p 8 8 8 t m &.c 8 z 4 6 q 8 8 q q 8 q 8 u q q q q 8 q q q q q 7 q q q q q q q q q q q q q z z q q z z q z q z z z z z z z z z z z z b b z z z z z z B z B z B c B B D B B B B C D B D B B Q C C C C A A A X.` S.^.(.{.#XdXdXsX{.(.B.! Z _ N Z.%XB l q q 8 8 +.o.c M F U U I U I U U I F I I I I U I M I I I I I I I I W M I M ) I R I ) W I W W W W W I R T f.Z.X X . . . . . X . X X O O O @ O : * @ : : @ % : : % * % $ % $ % # & $ % > % $ > > % > % $ $ % $ % $ $ $ ",
"6 , , , , , < , , 6 < , 6 < , < 5 2 5 2 r j 5 3 5 j 6 5 j 5 6 5 6 5 6 6 6 6 6 8 8 7 8 w 7 9 q 9 9 9 9 N V S ! a.B.+XZXgX[.m.] ` c.b.E Q c c d d d u a p p i a a a a y a a a a y a i g g a g a g f g a a g i n n f f g n m g f f g m H f n f t.m J J f J m t.m m J t.J J t.m o.o.o.P J o.P J o.P o.z U M q N l z N Z {.E.S S X.] C.(.#XhXhXgX#X(.C.A.u.%.W W W P *.Q t.Q o.P o.*.o.J P J J J o.J o.o.L o.J o.o.o.o.m o.o.J o.J o.o.o.J o.J J J o.o.m o.m o.M o.m t.J o.J o.J o.J m t.J m m m o.o.J J t.J f o.m t.J m J J f J J J m g m g f f f m n v n d.^ 6 7 6 6 7 7 V > . O . . v p 8 8 8 8 0 8 L &.c z 4 8 z q 8 q 8 8 q q 8 q q 8 q q q q q q q q q q q q q q q q q q q z q q z q z z q q z q B z 0 z z z z z z z z x z z z z z B B B z z B B B B B B k B k B D D B B Q C B B C B B C C A A A ~ ` S.^.(. X#XgXdXsX[.(.B.X.! ! V E.%Xz q 7 8 7 7 +.O.c D U U F M F U F M U U M I M U U U M I I M I I I M I I W I W I I W W I I I ) M M ) I W R M f.Z.X . . . . . X . X X X X O O O @ @ @ @ * @ % * @ * j : * & $ & & $ % & > % > > % % $ % $ > % > $ $ > $ % ",
", , , , 6 < < < , 6 < 6 , < , 4 2 2 j 3 3 5 2 3 3 3 5 5 3 3 5 6 6 6 6 6 8 6 6 w 8 w 8 8 7 q 7 9 9 9 N N V S _ a.B.#XZXdX[.m.] ~ c.s.I B D s d p d d i i y y v y v y v y a g a a g a a y a g g g a g n g n g g g f g f f f g g o.J f g m m m m m J g m m J t.m t.m t.J o.m o.m m J o.J o.J L T o.o.c I D l z B N B ! {.%XN S X.u.C.`.#XhXgXgX@X(.C.C.u.} W W @.Q W *.J o.*.J o.Q o.Q o.J o.P o.P L o.o.o.o.o.L o.o.m o.o.o.J o.o.J o.o.J o.o.J o.o.o.m o.o.t.o.t.o.J J o.J o.J J o.m m m m o.m t.J t.J J J J f m J m g J m m m m J H f J J m m f g n n d.^ 7 7 6 1 7 6 x > . O . + y M p 8 8 0 8 8 O.r.p q q 8 q 8 h w q q q u q q q 8 q q q q q q 8 q q q q q q 0 7 q q z q z q q q z q q q q B 0 B q z q B q z z z z z b z b x 0 B B B B k B 0 z B z B B B B D B B B B B Q B C B B C C C C V A A Z ` B.^.(.(.#XgXdXsX{./.B.! Z Z V E.).l z q 7 q 7 @.+.c M D F F M U U F U U D U M U U M I M U U U U U I M I M M I W M I R I I W M W M ) R W M W M f.A.X . . . . . . X X X X O O @ : @ @ @ * : % @ # * % * % @ > $ $ $ % > > $ % % > $ $ > % % % $ $ % > > $ $ ",
"< , , , , , , , , < < 6 , 6 4 , 3 2 3 6 2 5 2 5 6 5 j 3 3 6 5 5 5 6 6 8 6 8 6 8 6 7 7 7 7 7 9 9 9 N 9 9 N Z ! a.m.#XZXgX'.v.] ~ s.b.I D c d d a a p a a v y y v y g y v a y g y a a g a a a a a g a y v g n n g f n f m J J f m m m m n J g f t.J J J J m m o.g J J J J o.m o.m J o.o.J o.o.o.o.o.c U M l l x x V ! {.%XN X.X.] C. X$XhXhXhX#X(.C.B.} ;.W W P @.o.Q Q P Q o.o.o.o.o.o.o.o.o.o.o.o.L o.L L o.o.o.o.o.o.o.o.J L o.o.o.J o.o.J o.J m o.o.m m o.M m J o.J o.o.J o.J m o.o.m o.J m o.J J J J t.J o.m g o.o.m g o.t.m J f J J J n J f n v v d.C 8 7 7 6 7 6 ^ > . O . + M y 8 p 8 8 8 0 o.r.c 8 8 q 8 8 q 8 q 8 q q 8 q q q q q q q w q 0 q q q q q q 0 z q q q q z q z q q z z B q 0 B q 0 z B z B z B z B z z z z z B z B 0 z B B B B B B B B B B B B B B B B B B B C B C C C V A A Z ` ` B.^.(. X#XgXdXsX|.(.B.! Z _ V E._.z l q q q 8 +.+.z M D U U U U b D U M D U U F F U U M U F U I M U I I I E M I I I R I W I W I I I I I I R R f.Z.X . . . . . . . . X X O X O X @ @ @ : % @ @ % : * % * % % $ $ & $ $ % % $ > > % > % > $ > > $ > % $ $ % ",
", , , , 6 , , 6 , , < , , 6 < 4 2 2 2 3 3 j 3 2 3 5 5 6 w 5 5 j 6 6 6 6 4 8 6 6 7 8 8 7 q w 9 9 9 N N N N V ! a.m.#XZXgX'.m.' ~ b.[ Q D c d d d p a u a v y y v v y g y v y a a g i g a g a a g a a n g g v g n f f g g f m f g g J g t.J m m J J J J J o.J J m t.J o.J g J o.o.o.J o.o.o.o.o.o.o.c M C z l z N B ! }.Z.N S _ _ R.`.@XhXgXhX#X(.C.B.u.} Q %.W P @.P *.o.o.o.o.o.o.o.Q *.P o.P o.o.o.L o.o.o.O.o.o.o.o.o.o.J J o.o.L o.J o.o.o.J m o.o.m o.o.t.o.o.o.J J J o.J o.J J o.o.J m o.m o.t.J t.o.J o.o.o.J m J o.m m J J J J f J m m f n g v d.C z z 6 8 7 z x > . X X O b y 8 8 8 p 8 5 +.=.0 q u q 8 8 8 q 8 8 q q q q q q q q q q q z 7 0 7 q q q q q z z q z 7 q q q q q q q B B q k q B q q z z z l B z z x z z z B B B B B B B B B B c B B k k B B B B C B B B C B C C C C V V A A Z ` S.^./.`.#XgXdXsX}.(.B.X.Z Z V Z._.z z q 8 q 7 @.+.c b U D D D b F U M F U b U U D U b U M M F U U M U I I I U I I I I I R I W I I I W I W I M f.E.X . . . . . . . X X X O @ @ @ @ @ # @ @ @ j @ j # * % * % % $ % % $ % > $ % % $ % $ % $ $ > $ $ $ > > $ ",
", , 6 , , < 6 < 6 < < 6 4 , 6 < 5 2 3 3 3 5 3 5 j 3 2 3 3 3 6 6 4 6 6 6 6 6 6 7 6 6 w 8 7 7 9 w 9 9 9 9 N S _ a.m.fXZXgX).v._ A b.] P G d d d d i a i u y v y y y v y v y a g y a a i a g a a n n g g v v g n g f f m m m g o.f m J J J J t.J J J J t.o.J t.o.o.P o.t.o.o.o.o.J o.o.o.o.o.T o.o.+.b R D l z l B B ! }.E.N S ] u.^.`.#XhXhXgX#X(.C.A.u.%.Q %.P @.Q *.Q o.o.Q @.P o.o.o.o.o.o.P o.T o.o.o.o.o.o.o.o.o.o.L o.o.o.o.o.o.o.J o.J o.o.o.o.o.o.m o.o.M o.J o.o.o.o.o.J o.o.o.t.o.t.o.o.o.J o.o.o.o.o.g o.t.o.m m o.o.g J J J J J J m J m n M d.C 7 7 6 7 6 7 ^ > . . . X v M t 8 8 M 8 0 +.6.d q 8 8 8 q q 8 q 8 q 8 w q q q 8 q q q q 8 z q l q q q q z 7 7 q z q q z 9 B q B q q q z z B q B B q B z B q B z B B z B z k B B 0 B B 0 B k B B B B Q B B B Q B B B B C C C C C V A A V A A ` S.^./.{.#XgXdXsX}.(.V.Z Z ! Z W.).l z q q 7 8 @.@.c U U U D M U U F D U D D M M U F U U F U U F F M U I U M U M I I I I I I M M E I M M I I R f.V.X X . . . . . . . X X O X @ @ @ @ @ % @ % : # j @ % j : % $ % > $ % $ > % > > % > % $ > % $ > % $ $ $ $ ",
", , , , , , , , < , , 3 < 6 , 3 3 2 2 5 3 2 j 5 2 5 j 6 2 2 6 6 6 4 6 6 6 8 6 w 6 7 6 8 w 7 9 9 9 9 9 N N V ! ] m.#XZXgX).c._ A s.s.F G d d d a u a u i a i i i a i g h i a h g y n g y a g g y M g M g m g m g m g m m m t.M t.m m t.t.m m t.M M o.o.t.o.o.o.t.o.o.o.o.o.o.o.t.o.o.+.o.+.o.+.o.+.b R D q l z l B ! {.%XS X._ ] C.(.#XhXhXhX#X(.C.V...( W W W W o.@.o.Q o.o.o.*.P o.P o.o.Q *.o.+.o.o.o.o.o.o.O.o.o.o.o.o.o.P o.o.o.T o.o.o.L o.o.o.o.m o.o.o.o.o.m o.o.t.o.o.o.t.o.o.o.o.t.o.t.t.o.o.J o.o.o.o.J o.t.J o.J J o.t.J J J J J J J H f f ..A q 7 7 7 8 7 ^ > . X X . v a t 8 8 8 t 8 +.:.M 0 8 8 8 8 8 8 z 7 z 7 8 q q q q q 7 0 q z 7 z 0 q q q q q q q 7 9 0 z z 9 z z q B B q B q B 9 z B q 9 B B B q B k z N z B B q B B B k B B B B k B B B B C B B B B C B C C C N C C V A C Z ~ ` S.^./.(.#XgXdXsX|.(.V.Z Z X.V E.).z q 9 q q q +.@.c M b U U D D D C U U b U U M D D D U U b U D U b U F U F U U U U I I I I I I I I I M I M M f.V.. .   . . . X . . X X X : : : @ @ @ * : @ * @ j : % * % * % * % * % & $ % * & % % $ % $ % $ $ $ & > $ $ ",
", , , , , , 4 , , 6 , , , 2 3 , 4 2 2 2 2 3 3 3 2 3 3 5 5 6 3 6 6 6 6 4 6 6 8 6 6 7 7 7 w 7 7 7 7 9 9 l N V _ ] m.#XZX#XR.b.^ E s.[ K d d a a u a u i i i i a i i a a i a a a a v y g v g v g g y g g g g m g m m m g m m m t.m t.t.M M t.o.m o.t.o.t.M o.o.o.o.o.o.o.o.o.o.o.o.o.o.o.o.o.o.+.o.+.b K C l B x B N _ {.R.N X.X.u.^. X#XhXgXhX#X(.C.V...} %.W P %.W P o.*.*.Q Q *.@.o.@.o.o.o.@.o.o.o.o.o.O.o.o.o.+.o.o.o.o.o.o.o.o.o.o.o.o.o.o.o.o.o.o.o.t.o.o.o.o.o.o.o.o.o.o.o.o.o.o.o.o.o.o.o.o.o.J o.o.t.o.o.o.o.o.o.o.J o.J J J J J J J J J J f G ..A w 7 8 7 8 8 C > . X X . b v p p p p p p +.=.p 0 8 z 8 8 x 6 z 8 8 6 z 8 q q q q q 7 z 8 z q q q q l q q z z z z q q q B q q z q q B q B q B z 9 B B q q B B k B B z B z B B B B k B B k B B B B B B B B B S B B B C Q C C C S A V V ~ Z A ` S.R.(. X#XgXdXsX}.(.C.X.Z _ Z E._.B z q q q 7 &.@.c b D D D D D U U b F D b D D D M U b U D M U D F U U M U F M F M I U U M I U U U U F U I M s.M.. . . . . . . . X X X @ : : @ @ * @ : : j : % @ j @ * % % # % * % * $ & * % & * > $ $ > $ > > $ $ $ % $ ",
", , , , , 4 , 6 2 < 6 < 2 2 3 6 2 2 2 3 5 2 3 2 2 3 2 3 2 6 3 6 6 6 6 1 6 6 6 6 8 6 7 7 8 8 w 9 w 9 9 l N S _ ] C.sXsXA.n.[ Z M n.[ H d a p a a i i p i i a i i i i a a h a g h v g y g a a n n g g m g m g m g g m m t.m m m m M t.t.o.o.o.t.o.o.o.o.o.o.o.o.o.o.o.o.o.o.o.*.o.o.+.o.*.+.+.+.+.@.v K D l z z N B ^ {.%XN X._ u.R.`.#XhXhXgX#X`.V.V.u.%.W O.W P @.P @.Q o.@.@.P o.o.o.P P o.o.o.P o.o.o.o.o.o.o.o.o.O.o.o.+.o.o.o.o.o.o.o.o.o.o.o.o.o.o.o.o.t.o.o.o.o.o.o.o.o.o.o.o.o.o.o.o.o.o.o.o.o.o.t.o.o.o.o.o.o.o.J o.J J o.J J P P J P J J H H { V q q 8 8 7 z C 1 . X X . v a t p t 8 8 a +.6.p 0 8 7 q 8 8 z 6 q q z 7 0 q 0 8 q 0 q q 7 z z 7 l q q q z q q q z q q z q 9 z 9 q l 9 z q B 9 B B B B B B z 9 B B q B q z B B k B B B B B B N B B B B B B B C B C C C B S C C A V C A V A ~ _ S.^.(.`.#XgXdX#X|.(.C.Z Z _ V _.).x z q q q q &.@.c U B U D D b U b U M D D D D M U b D D D b U M U D b U U U M U F U U F F U M F M F U U I M f.m.. . . .   . X . . X X X @ @ @ @ : : % * @ j @ % : j : j & $ & $ & * # & & $ * & > $ > # % $ $ $ > $ $ > ",
", , , , , , , , 2 , , < 2 2 , , 3 2 3 2 2 2 2 3 j 5 j 5 2 2 2 6 6 6 6 6 6 6 7 6 7 6 6 7 7 7 7 7 9 9 9 9 N S X.v.fXtXD.n.[ ^ ' c.s.` P s d a u i i u u a i i a i a i h g g a a g y g n m g g g g g m g g m m g m m t.m m m t.m t.o.t.m o.t.M o.o.o.o.o.t.o.o.o.o.o.o.o.o.o.+.+.o.o.+.o.*.+.+.+.&.@.G R D l l l B V ^ {.Z.S S _ ] ^.`.@XhXgXgX#X`.C.B.i.,.} W @.W W W o.*.@.P o.*.P @.P *.@.o.@.P @.O.o.o.+.o.@.o.+.+.o.+.*.o.+.o.o.o.O.o.o.o.o.o.o.o.o.o.+.o.o.o.o.o.o.o.o.o.o.o.o.o.o.o.o.o.o.o.o.o.o.o.o.o.o.o.o.o.t.o.o.o.o.o.o.o.J o.J o.J J J H H ..A q q 7 7 7 z C > . X X . v v t 8 p p t p +.6.p 8 z 8 8 8 8 6 z q 8 q 0 7 q q z q z q q z q q z q q z q q q q l 9 q z 9 q z z z B z q B B q B B B q 9 B 9 B q B B 9 B B B z B N B B k B B B B B B B B N B B S C S B S B C C C V A V A A Z ~ ` v.R.(. X#XgXdXsX}.(.C.X.Z Z V ).%XB B q q q q &.*.c B b b b U B B B b B D b D b B B M D D D U b U b D M U F D D U U F U M M U U U F U F U M m s.M.. . . . . . . . X X X @ X @ : @ @ @ @ @ % @ : j j : * % $ & $ & & $ * & & & $ & # > # > $ & > $ $ $ $ $ ",
", , , , < , , 3 , , , 6 6 , 2 6 2 2 3 6 3 5 j 2 3 5 j 3 6 6 2 6 5 2 2 6 6 6 6 6 6 7 1 6 7 7 7 7 w 9 9 9 N V u.aX6X4...` A ^ [.Z.| { J s a u i i a u u i i i i g i g i a a a h g n g g y m g g g m g m g t.m m m m m g m M t.t.t.M t.o.M t.o.o.o.o.o.o.o.o.o.o.o.o.o.o.+.o.o.+.o.+.o.+.*.+.*.+.+.@.b L B z l z x N ^ {.E.N X._ ] ^.}.#XZXhXhX#X`.C.B.u.%.%.W %.W @.Q *.*.P *.*.P @.o.*.P o.o.@.o.@.o.o.o.o.+.+.o.o.+.o.+.o.+.o.+.o.+.o.+.o.o.o.o.o.o.o.o.o.o.o.o.o.o.o.o.t.o.+.*.+.o.+.o.o.o.+.o.o.o.o.*.o.o.+.o.o.o.*.o.o.o.o.o.J o.J J P o.J J L n v  .C 8 l 6 7 6 z C > . X X . v a u p p t c p +.=.M t 8 8 8 q 8 q q q q q q q 7 z 7 q 8 q q q q q l q z q l q l l z q z z q 9 q l q q B q B q B B q N q B 9 B B B k z N B B B B N B B B B B B B B B B B Q S B C S B C C C V C V A V A V ^ V Z ~ ` S.^.(.`.#XgXdXsX|.(.V.Z X._ Z _.%XB 0 q q q 0 &.&.c b M z M z D M D D B M D z D D D D b D D D D D U U M D M D D b M U b U F U U M b U M b I n s.M.. . . .   . . . . X X X @ X : @ : @ @ : % : : % % * : j # & $ & & $ > % # * > % % $ # $ $ $ > $ $ $ $ $ ",
", , , , , , , , , 3 , < , 3 , 3 4 2 2 2 2 2 3 2 2 2 5 2 2 3 3 6 6 1 6 6 6 6 6 6 6 6 6 7 7 6 7 7 7 9 9 9 l _ tX<X../ A B ^  XN.( 1.I H G a i u i u u i i i i i i i i a i a g a g y g g g n m g m g m m m m m t.m m t.t.m o.t.o.M t.o.t.o.o.o.o.o.o.o.o.o.o.o.*.+.+.o.o.+.*.o.+.*.*.+.+.+.+.*.+.*.&.v m U l l x l C !  XC.N X._ ] ^.}.@XhXgXhX#X`.C.S.4.;.} %.W W @.*.Q @.Q @.P *.P @.P *.P @.o.@.o.+.O.+.+.o.o.@.o.o.o.+.+.o.+.o.+.o.o.o.O.o.o.+.o.+.*.o.+.+.o.o.o.o.o.+.*.o.o.o.o.o.*.o.o.o.o.*.*.o.*.o.o.o.o.*.o.o.o.*.o.o.@.P o.P o.o.o.P o.J J m n | ^ z 6 z z 6 z x > . X X X M n u p u t c a &.:.p 0 8 8 8 8 q 7 8 q 7 q 8 q q 8 z z l q q 7 z q q q q z z z q q l q q q l B B q B B 9 9 B B 9 9 B B z B B B 9 q B z B 9 B B l B k k B N B B B S B N B B B B N B C C B S C C A C C A V V A A Z ` v.^.^.`.#XgXdXsX|.(.V.X.Z _ V )._.B B z q z q r.*.z b D B B b D B B D z D B D z M B M b U D D D M b D D D U D U U D U F U U F b U U U U U U M s.f.. . .   . . . X X X @ X X @ @ @ : * % * * * * j * # % % & & # * % % $ & & & $ $ > & > % > > $ $ $ > $ $ ",
", , , , , 6 , , , 6 , , , , 2 , 2 2 2 3 2 3 5 2 2 2 j 5 6 2 2 6 4 2 6 6 2 6 6 6 6 7 6 7 6 7 6 7 7 7 w 9 9 1XH.E E Q B ~ ^.N./ ,.T  .d.a a a i u i u i i i i i i a a i g i a g g n g g g n g m g g m m g M t.t.m m m m t.M t.o.o.o.t.o.o.o.o.o.+.o.o.+.o.o.+.+.o.o.+.o.*.*.o.+.*.+.+.*.*.+.+.+.*.&.b R b l z z N V ! {.E.N Z _ ] R.{.@XhXhXgX@X].C.S.u.Q %.W %.%.@.@.@.@.*.@.P P *.P o.P @.P @.Q @.o.o.+.o.+.o.o.@.@.*.o.+.o.*.+.o.o.o.o.o.+.o.+.o.o.o.*.o.*.+.o.o.o.o.o.o.+.o.+.o.o.o.o.o.*.*.o.*.o.o.o.o.*.*.o.o.*.o.o.o.o.o.o.o.o.o.@.o.o.P P L m n | x z x 8 7 z z A > . O X . K f t p t c t p &.r.M 8 8 0 x q q q q q 8 q q q q q q q q q q z l q z l q l q q q 9 q l l q q q 9 B 9 B q B q z B B q z B B 9 B l B N B B B B k B N B B B B B B N B N C B C B C C C B S C C C V A C Z A Z A Z Z ` _ S.^.(. X#XgXgXsX|.`.V.X.S Z V )._.B D z q z 0 :.&.c B D b B U b B D z M z D B B C z b B b b B U b D D D M D D U b U b M D U b U U U b D M M M s.f.. .   . . . . X . X X X X @ @ @ @ @ @ : : * * : % : * % & $ % & $ & % $ & & $ & $ > $ $ $ $ $ > $ $ $ $ ",
", , , , , , , , < , < , 2 , 3 3 2 3 2 2 2 2 2 2 3 2 2 2 2 2 6 2 2 6 6 6 6 1 6 7 6 > 7 6 7 6 7 7 6 7 7 7 z <.Q Q Q k ! V.n.W } Y } Q.) a p u i u i i i i i a a i a h i a g g g a y g n n g g g m m m m m t.m m m t.t.m o.o.t.m t.o.o.o.o.o.o.o.t.+.+.o.+.*.o.o.o.*.*.+.+.+.+.*.*.+.+.+.*.&.+.*.+.@.b R D l z x x B ! |.Z.S X._ ] ^.}.#XhXhXgX#X/.S.S.4.i.%.} W %.%.W Q *.@.*.@.@.@.@.@.@.o.*.o.*.o.+.+.+.o.*.+.o.o.o.o.*.o.@.+.o.*.+.+.+.o.o.o.*.o.+.+.o.o.o.o.o.*.*.o.*.+.o.*.o.*.*.+.*.*.o.+.+.o.+.*.+.*.@.o.*.@.o.@.@.@.o.@.o.@.P o.T P o.o.o.o.J M d.C 7 z z q l z V > O O O O R n u a p y c M &.=.a 8 0 q 8 7 q 7 q q 0 7 z q z 7 q z 7 l q q q q q q z q l l z z q z q l z q B q B 9 B q N k l B B B 9 B z k B q B 9 B k N N B B B N B N B B B B N C C C S C V C S C C V C C Z Z C V A Z A A Z X.S.^.(.(.#XgXdXsX|.(.B.Z X.X.Z E._.C z z d z c =.&.c M C B b B B M B D C z D b b z D B b B M D B D b D D D M D b U b U U b M U U b U b U M C M s.a.. . . .   . . . X X X X @ @ : @ : : * % % # % @ j * # * $ $ % $ & $ $ > * & > $ & & % > > $ $ > $ > $ $ ",
", , 6 , , , , 6 , , , < , , 2 , 2 2 2 2 3 2 2 3 5 2 2 2 6 2 6 6 6 2 1 6 6 6 6 6 6 6 7 1 7 6 7 1 6 7 7 1 q F B z k _ Z.| W ( L  .Q.( i v y y i i i i i y y a y g h i g a i a g i g n g g m g m m t.m o.t.m m m t.o.M t.t.o.o.*.o.o.o.o.o.o.o.+.o.o.o.*.o.*.o.+.*.+.*.*.+.*.+.*.+.*.+.&.+.*.+.+.&.$.v L D l l x x C ! '.E.N X._ ] ^.}.#XhXhXhX#X(.V.m...-.%.%.} %.%.%.*.%.%.%.Q *.*.@.@.o.@.@.Q *.o.@.+.+.o.+.o.+.o.*.o.+.*.o.@.o.o.*.o.+.o.+.+.+.o.o.*.o.o.*.o.*.o.o.o.o.*.o.o.*.*.+.o.+.+.o.o.*.*.+.+.+.*.+.+.o.*.P @.o.@.o.*.*.P @.o.o.P o.o.o.L J J | Z l q l q q B V 1 X O O X L m t p p a v a &.6.c 7 q 8 q q q 7 q q q q q 7 z 7 q q q q q q q l q q l l q z 9 B q 9 B q B k l q B k 9 B q B B k B B k B k k B B k N k N B N B N B N B B B C S N B C C C N C C V C C V Z C C A Z A A Z Z A ! X._ v.^.^.`.#XhXgXdX|.(.C.S Z Z Z E._.C B D k c c 6.&.b B z D D D b C z M B b z C B z M B D z B U b B M D b D M D U b D U b U D D M D D U b U M b s.f.. .   . . . . . X . O O @ X : @ @ @ : * @ % * : @ % * : j # & * & & $ % $ % $ > > % $ > $ $ $ $ $ $ $ $ ",
", , , , , , < , , , < 6 , 6 2 3 3 2 2 3 2 2 2 6 2 j 6 2 6 2 6 4 2 6 6 2 6 > > 6 6 1 6 6 1 6 7 6 1 > 7 6 7 z B z _ Z...W ( J  .Q.( a v i y y t i y i i i a y g i g a i g g a g n g g g m g m t.g g t.m m t.m o.t.t.m t.o.M o.t.o.o.o.t.o.+.o.*.o.o.*.*.*.+.+.*.*.*.+.*.+.*.+.+.r.+.*.+.&.*.&.+.&.&.M L D l z l z x ! '.Z.N X.' ] ^.`.#XhXhXhX@X`.B.m. .,.} %.&.%.i.*.Q %.*.*.*.%.@.P P @.@.o.@.*.@.o.o.@.*.o.*.+.+.+.+.*.+.+.+.*.+.*.+.+.o.*.o.*.+.+.+.+.+.*.+.o.*.+.+.*.+.*.+.o.o.*.*.*.*.*.*.+.+.*.*.+.+.*.*.*.@.o.@.@.@.@.Q @.@.o.@.W @.@.T P o.L J [ A B l z z q B Z > X O O O T m a a a i a v :.6.0 0 q q 8 8 q q q q q z 7 z q q z l q q l l z q q k q z q z z 9 9 q q l 9 z z B q l B B B 9 B B 9 l B N B B l B B B B B B B B B N B C N C C B C C S C C C C V C S C A C C Z V A V V Z A Z Z ` _ B.^.(.`.#XgXgXdX}.(.B.X.Z X.V _._.Q D c c c c 8.&.b M b C B z B b z B B b b b D M B b B B z D D D B D D D B b D b D D U b b U U D D U D b M v s.s.. .     . . . . . O X X X @ : @ @ @ * @ * : % j % % % * % * & & $ % & > > > % > % > $ $ > $ > $ > $ $ $ ",
", , , , 6 , , , , 2 2 2 < 6 , , 2 3 2 2 3 2 2 2 2 6 2 6 j 2 6 j 6 2 2 1 6 6 , 6 6 > 6 7 1 7 6 7 7 > 6 1 7 B 0 [ E.d.) ( L } oX,.a a i h y t i y y i i i y a a i i a g a g g g g g n g g t.g m t.m m t.t.t.m m t.t.o.o.o.t.o.o.o.o.o.o.o.*.o.+.o.o.+.+.+.*.*.+.+.*.+.*.*.+.*.*.+.&.+.+.&.&.&.+.+.@.v L D l z z x B ! {.).N X.' ] /.}.#XgXhXhX#X/.B.v. .,.%.} %.%.Q o.%.%.%.%.%.*.@.@.@.o.@.*.o.@.@.@.@.o.+.+.*.+.+.o.o.@.+.+.@.+.o.*.+.*.+.*.+.o.+.+.o.*.o.+.*.+.+.*.o.o.*.+.*.+.*.+.*.+.+.*.+.*.*.*.*.*.+.*.+.*.*.*.%.*.P @.@.@.@.@.o.@.*.O.P @.P P H { ^ C B l x x B V 1 X @ O O R m a a a p a a =.5.v 0 q 7 q q q q q 0 7 q q z 8 z q q q 9 q q z z l z l 9 B l q q B B 9 B q z z l N 9 B 9 B 9 B k B B N B q N k B N B N B N N B B C C N C N C N C N S C S C V A C V V C Z Z V A C Z ~ Z A ! ~ Z ` S.^.(.{.sXgXgXdX|.(.B.Z Z Z Z )._.C F D c c b 5.:.b C B B M B B M B B z b C z B B B z z M B D z D B D U b D b D D M D D D D D F D U D U M M M s.s..     . . . . . . . X X @ X : @ @ @ * : * % @ * * * % * $ & $ & > $ > $ % > $ % $ > > $ $ $ $ $ > $ $ $ ",
", , > 6 , , , , 2 = , - , < < 2 2 2 2 2 2 2 2 2 2 2 2 2 3 4 2 6 2 6 2 6 > 6 6 1 6 6 6 > 6 6 1 6 6 1 1 > 7 z s.E.s. .( K  .oX1.u a i t i y i t i i y y i i i i g i g g i a g n g g g m t.g m m m t.m m m m o.m o.o.t.o.o.o.o.o.o.o.o.o.+.o.o.+.*.*.+.*.+.+.*.*.+.+.*.*.+.+.+.r.*.*.&.+.&.+.&.*.&.&.v O.D x l z N x ^  XZ.N Z _ ] ^.}.#XhXhXhX@X/.B.S.i.,.,.,.,.,.%.%.%.*.Q *.%.*.@.@.@.@.@.@.P @.O.o.@.@.@.+.o.+.*.@.+.+.@.*.o.*.*.+.+.o.+.+.+.*.*.o.*.+.o.*.+.o.o.+.+.*.*.*.+.*.+.+.*.*.*.+.*.+.*.+.+.+.*.+.+.+.%.%.o.*.*.%.@.o.@.@.@.@.O.@.@.@.%.P P [ ! V V B z l C A 1 X @ O @ W m a g v n a n 5.8.d 0 q q q q 8 q 7 q z 9 q 7 z 7 8 q q z q l q 9 q B q l q 9 B B 9 q B 9 B 9 B B q B k l B B l B B B k B N N B N k B B N B C B B N C C C N C S C C C C V C C A V C A V A V V Z ^ V A Z Z ! ! _ _ S.^.(.`.#XhXgXdX}.(.B.Z Z ! Z _._.E D G G b F 9.r.M D B D D C z z B M B B C b b B B D C b D z D B b B b B D B M D B D D D D C U b M D D D M a s.f..     .   . . . X X X O X @ @ @ @ @ : * : @ % % % % * % # $ & $ & & $ & % $ > % $ $ $ $ $ > > $ $ $ $ $ ",
", , , , , , , , 2 - = 2 2 2 2 2 3 2 2 2 2 3 2 2 2 2 6 2 2 3 2 6 6 2 6 , 6 > , 6 6 6 6 6 > 6 6 1 > 6 1 > 1 D ~ c.s.} L ..oX-.v a i e i i i t y i y i i i i a i y g g a g a g g n g g m t.m g m t.o.m M o.o.m o.o.o.o.o.o.o.*.*.t.o.+.*.o.*.o.*.*.*.+.+.*.*.+.+.&.+.r.+.r.r.*.r.+.&.*.&.+.*.&.@.&.&.G *.Q z B x B x ! }.Z.N Z _ ] /.{.#XhXhXhX@X`.V.M.4.,.,.<.%.%.%.%.%.%.%.%.%.%.%.@.@.@.@.P @.*.@.O.@.o.+.*.+.+.+.*.+.+.@.o.@.*.+.+.+.*.+.+.*.+.+.*.+.*.+.+.+.*.*.+.+.+.o.*.+.*.*.+.*.+.+.*.+.+.+.+.+.&.&.+.*.$.*.%.%.%.o.%.%.*.P @.@.%.%.%.T %.@.@.W [ _ ^ ^ C B B V ^ 1 O @ O $ #.m n a f v n n 5.7.v 0 8 0 q z 7 8 l q z q l z 7 z l q q l q q z l q 9 z 9 B B 9 q B q B 9 q B 9 9 B q B k B l N B N B B N B B B N B B N C N N B B C C N C C C C V C C S C C C V A A A V Z A ~ A Z ^ ~ Z Z Z ! _ _ S.^.(.`.sXhXgXdX|.(.B.S Z Z Z ).XXA I U F I I 9.:.D M B B C M B C B b z B z B B b B z B D M B M z B D B M B M D D B U U M B M U D B D D D D F s.s..         . . X X X X X X @ @ @ @ @ * @ * # % * % * % @ $ & * & $ & $ $ $ % $ $ $ % > > > $ $ > $ > $ $ ",
", , , , , , 6 , 2 2 2 2 - - 2 2 2 2 2 3 2 2 2 2 2 2 2 2 2 j 6 j 1 2 6 > 2 6 6 6 6 > 1 6 6 1 6 > 6 > 6 > 7 I z a.n.L  .oX-.a v y h i e e e y u t y i y i y v g a i g g f g f g t.m t.g m m t.m o.t.t.t.t.o.t.t.o.o.*.t.*.o.t.+.o.*.*.o.*.*.+.*.+.+.*.*.*.+.*.*.*.+.*.+.*.*.+.r.+.*.*.*.&.&.&.&.r.r.d =.@.U B B B C ! '.E.N X._ ] ^.}.#XhXhXhX#X`.V.U.-Xi.3.,.,.%.} %.%.%.%.%.*.%.@.@.@.%.@.@.@.@.o.@.@.@.+.+.+.*.@.+.+.*.@.*.@.@.*.+.+.+.*.+.+.+.+.+.*.+.+.*.+.*.+.*.+.*.+.+.*.+.*.+.+.*.*.+.*.&.*.*.&.@.+.$.&.+.*.Q %.*.%.*.%.%.%.@.@.%.%.%.%.,.-.1.u...s.' _ ^ ^ A A ^ 1 @ $ @ $ ( J v m g m n m 9.7.c z 0 q 8 8 q 8 8 q 7 q 8 q z q q l z q 9 l q q B B q B q q B B 9 z N B l 9 B B k N B q N B B B k B N B N B N N B N C B C C S S N C C S C V V C V V C C Z V A Z V V ~ V V Z V A V Z Z ~ ! ~ _ X.S.^.(.{.sXgXgXdX|.(.S.S S Z Z ).XXE I W W ( R y.6.D C D B D B B b C B B M B M B B B M D B D z B B b B D z b B z D B b B b D U B z D D D D D n ) s..   . . . . . . . X X X @ X X : @ : : @ : * : * % : j : & $ & # * # & & > $ % > $ > $ $ $ $ > $ $ $ $ $ ",
", , , 6 , , , , 2 < 2 2 2 2 2 2 2 2 2 2 2 3 2 2 2 4 2 j 3 2 2 6 2 2 2 6 6 > 6 , 6 6 > 6 > > 6 6 > 6 > > 6 K z _ I | Q.&.g a y y t e h t h y y i y i a i y y g a g a g g g n g g m t.m t.m t.m m o.m t.o.o.o.o.o.+.t.*.o.o.o.o.*.o.*.*.o.+.*.*.*.+.*.*.&.&.*.&.+.*.r.+.+.r.+.+.*.*.&.&.&.&.=.8.e.6.G y.8Xi.%.C C C ! {.%X9 S _ ] ^.}.#XZXhXhX#X(.R.C.U.1X&Xi.4.,.%.,.%.%.%.%.%.%.%.*.%.*.@.P @.@.@.+.@.+.+.+.@.+.+.+.+.@.@.@.@.@.@.+.+.*.+.+.+.+.+.+.+.+.+.+.+.+.+.+.+.*.*.+.+.+.+.+.*.@.+.*.+.*.@.&.@.@.@.+.+.+.*.@.@.@.%.@.%.%.%.%.W %.-.,.,.,.n.A.V.V.Q.L.d.| ` ~ ~ ^ 7 @ $ $ > -.o.f m m J J o.&X9.K z q q q q 7 8 z 6 z z 7 q 7 9 q q z q B l q 9 z 9 B B q 9 z 9 B l q B B B B B l B k N B k B N B N B N B B B N B N B N C C N C C C V C S C V V A C V Z C Z V Z C Z Z A Z Z Z ! Z Z ~ X._ _ ' x.B.^.(.}.sXgXgXdX{./.S.S S Z S _.XXE -.,.-.1.-.y.5.C M C M x D M C b x B B B M z C B B B M B B D b B z D D B D D D D D B D B D U M B D C D x M d.s..     . . . . . . X X X @ @ @ @ @ @ : * * % * # * : j j $ * # * & % $ $ % $ > $ > $ $ > $ > $ $ $ > > $ ",
", > , , , < , , = 2 2 2 2 2 2 - 2 2 2 2 2 2 2 2 2 2 2 2 2 6 6 4 6 2 6 , , 6 , 1 > 6 6 > 6 6 1 > 1 > 6 1 7 L b _ n.!.O.a a a y y y e t e h u u y y i i i g y g g g g g g g g g m g g g J t.m o.t.t.o.o.t.o.o.o.o.t.+.t.o.*.*.*.o.*.*.+.*.*.*.*.+.&.*.*.*.&.+.*.&.r.+.r.*.+.r.+.r.&.&.&.:.5.9.w.w.-.E 6.8XcX8Xq.W C ! {.C.9 Z _ ] ^.`.#XhXhXhXdX|.`./.^.Z.T.:Xi.e.e.,.,.r.&.%.%.%.%.%.%.*.%.%.@.@.@.@.+.@.+.@.+.@.@.@.*.@.@.*.@.*.&.+.*.+.&.+.+.*.*.+.*.+.+.*.*.+.+.+.+.*.+.+.+.*.&.@.$.@.@.@.@.@.@.+.$.+.@.$.$.&.@.%.%.%.%.@.%.%.%.%.%.} ,.,.4.N.C.R./.`.)._.U.n.d.| [ ^ 7 $ > > > -.o.m m m o.9.8X7X;X0.n c z q q 0 z 7 z 7 z z l q z q l q q l q z 9 B z z 9 B B B 9 z k B 9 9 B k k l B B N B N B B B N N C B N N V B V B C N N C V C V C V C C Z C V Z A V Z A V V ^ Z A Z Z ! A ! Z ! _ _ _ x.B.^.(.(.`.|.dXhXgXdX{./.v.S N S V _.oX%.<.2.4.d.[ k.5.U C U C M C B D C D z B B B B z z B B B B z B D B D C D D z B D B D M B D D B D D D D U M M ) s..     .     . X . X X X : : @ : @ @ : * # @ : j % * % @ # & & $ & * & & $ > % % $ $ > $ $ > > $ $ $ $ $ ",
", , , , , , , , , , < 6 , , < 6 2 2 2 2 3 2 2 2 2 2 2 2 2 j 4 j 2 1 2 2 , 6 , 6 6 > 6 > > 6 > 6 , 6 > > 8 M c ~ Y.+.g a y t y t e e i h e y e i i y i i a a a y g m g g g g g m m t.t.M t.m t.o.o.t.o.o.o.t.*.o.*.t.*.o.*.*.*.+.*.+.*.+.*.*.*.+.*.&.*.*.&.*.&.&.+.+.r.+.&.&.&.*.&.r.=.l.y.y.:.) a.c.s.( l.7XIX-X-.~  XM.9 S ! ' ^.(.#XhXhXhXhXgX#X X(.^.Z.A.T.H.i.<.<.,.&.;.&.%.%.;.*.%.%.%.%.*.%.*.%.*.*.%.@.*.@.@.@.@.*.@.@.@.*.@.@.@.@.@.@.@.o.@.*.@.@.o.*.@.*.+.+.&.+.&.+.+.&.+.+.*.$.&.+.$.*.%.@.*.%.*.%.*.%.%.%.%.%.%.%.%.%.} &.} 4.n.%XC./.(.}.}.#XsX#XXXN.n.s.[ 7 > > > 1 >.o.m o.5.8XcXIX9X;X;XG.&.G q q q q q q l q q l q l q l l l q B 9 q B 9 z B 9 B 9 B B 9 q N B N B k N B B N B N B N S B N B C C N N B C V C V C V C Z C V C Z Z V A A Z V Z V A Z A Z Z Z ^ Z ~ Z ! _ ! _ ] B.^.(.(.(.`.|.#XhXgXhXsX`.^.v.N S S N _.oX&.q.d.b.Z._.Y.F.D.{ C B D C D B B x z B D B b B B B B D C z B B C z D B B D b B B B b B B B U M C D D D C M s.s.X     . . . . . X X X X X : : @ @ @ : : @ @ % : * * % * * % * % * % % * > $ > % $ > $ $ > $ > $ $ $ $ $ ",
", , , , , , , , , 6 , , , , , < 2 2 2 2 2 - 2 2 2 3 2 2 2 2 2 2 2 2 2 2 , , > 6 6 , 6 6 6 > 6 > > > 6 > 6 J c n t.g f i a t y e h u e u e i i i h i g i y g g g g g g g t.g m t.m m t.t.o.o.t.o.o.o.o.o.o.o.+.o.*.*.o.*.*.o.*.*.*.*.*.*.*.&.*.*.&.*.*.&.*.&.+.*.*.r.+.r.&.&.&.&.6.7.l.UX6.>.s.M././.B.a.~ { K.qX6Xn. Xv.w N Z _ C.(.$XhXjXhXjXhXhXdX#X X(.^.C.T.T.p.e.e.,.<.;.%.%.&.,.&.*.%.%.%.%.*.%.%.%.*.@.@.@.@.*.@.%.%.*.@.@.@.@.@.@.*.*.@.%.@.*.@.@.@.@.@.*.+.+.*.+.+.+.+.+.&.$.+.$.+.+.&.%.*.%.%.%.%.%.%.%.%.*.%.%.%.} %.,.,.} F.A.C.^.^.(.}.|.dXZXZXZXhX+XA.b.a.7 > 1 > 7 >.o.7.8XcXIX4X;X;X;Xp.;X&Xe.O.D 0 0 q q q l q 9 q q q q q q z q l B 9 9 B 9 B 9 B 9 B N B 9 B k B N B B N B B N C B N B C N N N C C S C S C V S A V C C Z Z C A V Z V V ~ A V V ^ Z Z A ! A Z Z _ _ _ ' v.^.(.(.(.(.}.@XgXhXgXhXhX#X/.^.u.9 S S V ).!.d.M.%XOXfXuX<X2.D.F.d.E C U C M C D B B B B B B B B C z b C b D B b C B M B B D B b C U B D B B D D D D D K d.s.X .   .   . . . X . X X : : : @ @ : @ * % % * # % % : % % * % # % * % % % % % $ > % > $ > $ % $ $ > $ > ",
", , , , , , , , , , , 6 , , , < - 2 2 2 2 2 2 3 2 2 2 2 2 2 j 2 2 6 , 2 6 , , , , 6 , > > 6 6 > , > > > 8 L 8 b g a y y i h t e e e e h i i h e y i y i y g g g g g g m m g m m t.m t.t.m o.o.t.o.t.o.o.t.*.+.*.+.o.*.+.*.+.*.+.*.+.*.*.*.*.&.&.&.*.*.&.&.*.&.&.r.+.r.+.*.&.r.5.w.y.7.>.^ m./.].`.}.(.V.a.' ^ [ T.U.).] w N S Z u.(. X@XfXhXhXgXhXZXhX#X|.(.^.C.A.T.T.i.3.<.;.;.,.&.&.%.r.%.*.%.%.%.%.*.%.@.@.@.@.@.@.@.%.*.*.%.@.@.@.@.@.@.@.*.@.@.@.o.*.@.o.@.+.+.+.+.+.&.+.$.+.$.+.$.@.+.@.+.%.%.&.%.%.*.&.%.%.%.%.%.Q %.,.&.} 4.N.S.C.^.^.`.|.#XhXhXhXhXZXZXsX'./.c.9 1 1 7 l n.>XcXkX9X;X&X-X-X-X-X;XG.&X&X6.P B q q l q q z q l l l q l q z z B 9 B 9 B 9 B B l z 9 B B N N B B N N B B N B C N C N C C S C V V C C S V C C C V V V Z V V A V V Z ^ Z ! Z Z Z ! ! A ! ! _ X._ ] u.C.^.(.(.(.`.@XsXhXhXhXhXhXsX{.^.C.X.N S S N )._._.@XgXzX7X-X;Xy.6.,.D.D.) C Q C B M z z b z C b B b b C C z B B b C C z B B B B D C D z B D B U D C M C D F | s..   . .   . . . . X X @ X @ @ @ @ % @ : : * # * @ % j % * % % * * % * % $ % > $ > $ % $ $ > $ $ > $ $ > ",
", > , , , , , 6 6 , < , < < < 6 2 2 3 - 2 2 2 2 2 3 3 j 2 3 3 2 2 2 6 , 6 , , > > , 6 6 , > > 6 > 6 > > 4 M z ^ n t.g y e e u e t e y t e i t i i y y g g i a i g g g g g m t.m m t.M t.t.o.t.+.o.o.o.o.+.*.t.*.*.*.*.*.*.*.*.*.&.*.*.*.&.*.*.+.*.*.&.*.*.&.*.&.r.r.+.r.r.6.l.7.UX2.) f.R.].].'.|.|.].R.V.a.' ^ ..n._ 9 w l S Z X.x.^. X X$XgXhXhXgXhXhXgX@X X(.C.C.T.T.G.i.e.<.r.,.%.;.%.%.&.%.%.*.%.%.*.%.@.%.@.@.@.%.*.%.%.*.%.@.@.@.@.@.@.@.@.@.@.@.@.@.@.@.+.+.&.+.+.+.&.+.&.+.&.+.$.@.&.$.*.%.%.%.%.%.%.%.%.%.Q i.i.%.,.4.u.%XC.C.^.`. X@XdXhXhXhXhXZXhX#X|.`.B.V w 7 1 1 9 U.7X9X&X&X=X-X-X-X-X-X-X-X&X&X&Xw.&.Q B q q l q l q q q l q l 9 z 9 B 9 B l B B 9 k N B N k B k B N B B N C N S B C N C N C C C V C V V C C Z Z Z A Z A A V ~ V ^ Z ~ V A Z ! ^ A Z ! ! ! _ _ ' u.B.^.(.(.(. X|.#XgXhXhXhXgXgX#X}.^.C.u.S 9 N 9 9 E.|.oXvXwX4X9X9X;X&Xw.=.W ,.F.g./ C C C C B C C z C U x C z C M D x C b b C C B B B M B C D D C z D D B B D C K | s.X   .     . . X X . X X X @ @ : @ @ @ * % @ * # * % : * * % * % * % % * % > $ % $ % % > $ $ $ > $ $ $ $ ",
", , , , , , , , , , < , , , 6 , 3 - 3 2 2 2 2 - 2 2 2 2 2 2 2 2 2 1 = 2 , , 6 6 6 > 6 , > , > , 6 > > > 8 M 8 s.a.^ v n i h e h t e h h i y y i i g g y g g g g g g m g m g t.m t.t.m o.t.o.o.t.o.o.o.*.*.t.t.*.*.*.*.*.*.*.*.*.*.*.&.*.&.*.*.&.&.*.*.&.&.*.*.&.+.r.r.:.7.UXk.6. .a.V./.].'.|.@X|.).^./.C.x.g.*X9.0 1 1 9 l N S X.X.x.V./.(.|.fXgXjXgXhXhXhXfX|. X(.^.Z.L.=X&Xq.4.,.,.%.%.&.%.%.&.%.%.%.%.%.%.%.%.@.%.%.@.*.*.%.@.@.@.@.@.@.@.@.*.O.@.@.@.@.@.@.&.+.+.+.:.+.+.+.$.@.@.%.&.@.$.$.&.%.*.%.%.%.%.%.%.} ,.} &.i.u.A.B.C.^.(. X|.sXgXgXhXgXhXhXdX@X'./.m.S 9 w w 7 7 7 l I 2.;X-X-X-X-X-X-X-X-X-X9X;XG.*X&Xe.W B k q z 9 9 q z q B 9 9 z k 9 9 l B q k l l B B k N B B N B N N C N C C N N C S N S C V C V C V A A V V Z A Z Z Z V ~ A Z ! Z Z Z ! ! ! ! ! ` _ ! ' a.S.C.(.(.(.(.|.@XdXhXhXhXhXhXdX@X`./.B.] Z S N N 9 w Z R.).,X4X9X9X;Xp.i.6.&.P f G ..D...I C C C C z z C B D C M x b C z z D C B M B B B B B C B B B D B D C B U M M s.s.X . . .     X . . X X : @ X @ @ @ @ @ @ @ * : % : % * % # * % % * % @ % $ % % $ > $ $ $ $ $ $ > $ $ $ $ ",
", , , > , , , , , , , , , 6 < < j 3 2 2 2 2 2 2 2 2 2 2 j 2 3 j 2 2 2 2 , , , , , , > 6 6 , 6 > > > , > 4 +.v x a.c.a.U J g h e e h u e y y y h y y a y g a g n m g g m m t.m t.m o.t.o.o.t.o.o.t.*.o.*.*.*.*.+.*.*.*.*.*.*.+.r.*.*.&.&.*.*.&.*.&.&.&.*.*.r.&.&.r.=.0.UXUX7.h.s.B.^.(.].{.|.|.(.^.C./.B.n.;Xp.M > 1 1 7 9 l S S X.Z X.] v.^.(. X#XgXgXgXgXhXhXgX#X|.`.^.C.Z.T.*Xi.e.6.r.=.,.,.&.&.%.&.%.%.*.&.*.%.@.&.*.%.%.%.*.@.@.@.@.@.@.@.@.@.@.@.@.@.@.@.@.+.+.+.+.+.+.+.:.@.@.%.@.+.$.$.$.%.%.%.%.%.&.,.%.i.%.&.4.u.S.C.C.R.(.`.|.#XdXgXgXgXgXhXgX#X}.`.C.x.Z N l l 9 9 7 7 1 1 x ( l.-X-X;X;X;X-X-X;X-X-X-X;XG.&XUX<.Y B z z z 9 q l l z B q l z B k l N B B B l N B l N B N N C C N C N N C C N C C C V V C V V V V Z Z A ~ V V ~ Z ! Z Z A ! Z ^ ! ! ! Z ! _ ' ' ] c.C.(.(.(.^.{.@XsXhXhXhXhXhXhX#X|.(.^.v.] X.S S N 9 w w 1 7 x.B.D.&X;Xp.e.6.%.P f G 0 B Q ..d.} D U C C C M M C C B D C B C C B b B B B C D M C D B C D C D B D D C x b ) s.. .     .   . . X X X X X @ : @ @ @ @ % * : % * * % % * * % j @ % * j % % $ > $ % % $ > $ > $ $ > $ > $ ",
", , , , , , , , 6 , , , , < < , j 3 2 2 2 2 2 2 j 3 2 2 3 2 2 - , 2 2 2 > , , , > 6 , , 6 > , > 6 > > > 6 +.a b C a.m.m.] P t.g e h y y y i h i g i y g y g g g g g g m m m t.M o.t.m o.t.+.+.t.*.o.*.o.*.*.*.*.*.*.+.*.*.r.*.*.*.r.*.&.&.&.*.r.*.&.&.*.r.*.&.6.7.7.UXUX0.) f.R.(.`.}.|.[._.Z.A.%XZ.n.J.;X*.$ $ > > 1 7 9 N S X.X._ X._ ] u.B.^.(. X#XgXhXgXgXhXhXdX@X|.(.^.C.A.T.p.i.e.,.r.r.&.%.&.%.&.&.%.&.%.%.&.%.%.*.&.%.%.@.@.@.@.@.@.@.@.@.@.@.@.*.%.%.*.&.&.+.+.&.+.$.+.@.%.@.%.%.%.@.%.%.%.%.%.,.%.;.} Q ;.i.S.%XC.C.^.(.{.#XdXgXgXgXgXhXgX#X|.`./.v.] Z S N N l l 9 7 1 > $ $ > x ( l.-X;X*X-X-X;X-X-X-X-X-X&XG.&Xi.;.U B q B 9 B q B q N q N B 9 9 B l k k N k N B N N B N C N S N C S C C V C V V Z V A Z V A Z Z A Z ^ Z ! A V Z ! Z ! ! Z ! ! ! _ _ _ _ ' b.C./.(.(. X`.|.#XgXgXhXgXhXhXdX|.]./.V.x.] X.Z Z S l w w 1 1 * $ V a.] 4.2.=.O.J H G k S X._ Z _ s.s./ U C C C C z C z C z B D B D D C b C M C C z M C D M B B B D B D M M ^ s..   . . . . . . X X X : X : @ @ @ @ @ @ : % @ % * # * % * % : % j % % * > % $ % $ $ $ + > $ $ $ $ > $ $ ",
", , , , , , , 6 , , < 6 , < , 6 3 2 - 2 3 2 2 2 3 - 2 2 2 2 2 2 , , 1 2 6 , > , , , > 6 , > , 6 , > > > 4 O.M v b M ^ a.V.v.Z H t.g y h y i h h y g g a g g g g m m g t.t.m t.t.t.o.t.o.o.*.t.*.o.*.*.*.*.*.*.*.*.*.r.*.*.*.+.r.&.*.r.*.&.&.&.*.&.&.&.r.r.r.5.9.UXUX7.>.>.E.].].`.|.|.Q.W.A.A.Z.x.F.9X8.6 X $ $ * > 1 9 N ..1XoXm.' _ ' _ _ u.S.C.(.(.$XsXgXhXhXhXhXhXsX@X`./.R.C.T.T.i.i.4.=.,.;.,.&.&.&.%.%.%.%.*.&.%.&.%.%.%.&.%.@.&.%.@.@.%.@.@.@.@.%.*.%.%.+.+.+.:.+.&.$.$.%.@.@.%.%.&.%.%.%.,.%.,.;.} ;.e.u.F.S.C.B.C.^. X@XdXgXgXhXgXhXgXsX|.].^.B.x.] X.Z Z S S Z n.F.N > > > @ O $ > x ,.&X-X;X;X-X;X-X;X-X-X9X=XH.H.G.e.W B B B q B 9 l q N k l B B l B N N B B B N B N C N N C B C V C V C V Z V A V Z V A C ^ V Z A V V ~ Z ! Z ^ ! ! ! ! ! ! ! ! _ ' ' x.B.^.(.(.(.`.|.@XdXhXhXhXhXhXgX#X{.(.^.v.u._ X._ Z S S ] ` 9 1 * * @   1 Z X.A Q o.Q P Q A ] u.v.v.] ! _ x.s.E D C C C C M C C b C B B B x C z C z B B C D C B B B U C C D C b ) s..         . . . X . X X : : : @ @ : @ @ * @ @ * # * % * % @ j % : % * % $ % > + % > $ > > $ > $ $ $ $ $ ",
", , , , , , , , , < , , < , < , 3 - 3 2 2 2 2 2 2 2 2 2 2 2 2 3 j 2 2 , 2 2 2 2 , , > 6 > > , > , > 6 > > 5 D Y M m F / ' f.V.a.C M t.g t y a g g y g g g g g m g t.g t.m t.m t.t.o.o.t.+.*.o.o.*.*.*.*.*.*.*.*.*.r.*.r.*.*.r.+.&.r.*.&.*.&.&.&.&.&.&.<.6.w.y.p.w.2...B.^.^.(.}.@XXXA.A.A.A.b.d.*X;Xv O @ $ $ $ > 7 9 { Y.ZXKXxXsX_.m.a.' ] ' ' x.B./.`.'.@XdXhXhXhXhXhXgX#X|.].(.C.Z.T.*Xi.q.2.,.<.,.;.&.%.&.,.%.%.&.%.%.&.%.%.%.@.%.@.&.@.@.@.%.%.*.*.%.%.*.%.*.%.*.%.%.&.%.%.%.%.%.%.&.%.%.%.%.%.,.;.,.} 4.u.%XC.C.C.^. X|.sXgXhXgXgXgXhXdX@X]./.V.c.] _ _ _ Z Z ' M.$XZXlXk.I > $ @ O X @ $ 7 B <.&X;X*X-X-X-X-X-X;X-X;X*XH.K.K.<.Y B B k k q k 9 N B 9 B k l B N k B N B N B N C S C V C C V A V V V A Z ~ V Z V A Z A Z V ~ A ! Z ! Z ! ! ^ Z _ ! _ _ _ ' ] v.R.(.(.(.(.{.@XdXgXhXhXhXhXhXsX|.`./.V.u.] X._ X.X.! x.^.@XtXD.x > $ $ O X X w S Z C E E ` u.v.m.B.B.B.v._ Z a.s.s.U C C C D b C C B D B C M B B B b C x D B z C C z x U C B D F ) s..     . . . . . X X @ X : : @ @ : * : * : * @ * % @ % j # % * % * % % @ $ % > $ $ > > $ $ $ $ $ > $ $ $ ",
"> , , , , , , , , , 6 , 6 < , , j 3 - 2 2 2 2 - 3 2 - 2 = 2 2 j , 2 2 , j 2 2 j , > , , 6 , > > 6 > > > > > 6 x / #.O.R E a.V./.V.a.U J m i h i y g y y g g g g g m m t.t.m m t.o.t.t.+.+.t.*.o.o.o.*.*.*.*.*.+.*.*.*.*.*.r.*.r.*.&.&.r.&.r.r.&.&.r.6.e.w.y.w.7.} x.C.^./.{.@XOXU.N.U.A.b.s.K.*X#.$ O @ $ @ $ $ 1 B j.aXJXKXFX-X-X+X@XE.a.a.] ] _ ' x.C.(.`.|.#XgXhXhXhXhXhXdX@X X(.^.C.A.P.&Xi.e.<.<.;.,.&.%.&.r.&.%.&.%.%.r.&.%.&.&.@.%.%.%.&.*.%.%.%.%.*.%.%.%.%.%.%.%.%.%.%.%.%.%.%.%.,.%.,.,.;.,.,.<.n.Z.%XS.C.^.`.|.#XhXhXhXgXgXhXgX#X|.(.R.v.u.] ' ' _ X.' m.[.sXCXBXl.6.kXG.7 $ $ X X X O > 9 I w.*X;X;X&X-X-X-X-X-X-X;XH.K.K.i.<.Q B B B B 9 B N 9 B N N k B N N B N C N C N C V V V V V V C Z V ~ V V Z A Z Z A Z ^ Z Z ! ! ! ! ! ! _ ! _ ! _ _ _ ' x.V././.(.`.`.|.sXgXhXhXhXhXhXgX@X`.(.R.v.u.] _ _ X._ x.R.{.[.3XLXiXM._ 1 $ $ O X . @ 9 Z V A x.v.m.B.B.B.B.B.B.x.Z ! s.b.{ U U B M C D B B B C B B D C C B U B B C M C C U C D B C D s.^ .   . .   . . . . X X X : : : : : @ @ @ @ : % @ @ j % : $ & % * : * * % % $ % $ % $ $ $ > $ > $ $ $ $ > ",
"< , = , , , , , , , , , , , , , 2 2 j 3 - 2 j 3 j 3 2 2 2 2 = 2 2 j 2 j , 2 , 2 6 , , > > , > 6 > > > , > 1 , 7 V ^ ~ #.W I s.m././.V.' K o.m a M y g g g g g g m g t.m t.m o.o.t.+.o.t.*.t.+.*.*.*.+.*.*.*.*.r.r.*.*.r.*.*.r.*.*.r.&.r.r.r.&.&.=.7.w.w.w.7.,.u.B.^.(.`.|.@XQ.L.U.A.b.x.D.=X6.j O $ O O $ $ > l | 0XZXKXJXKXJX-X0.4.T.@X|.V.a.' ] ] _ ' v.^.`.{.@XsXgXhXhXhXhXgX#X|. X/.^.%XU.=X*Xi.2.<.r.,.;.&.} r.%.%.&.%.&.%.&.&.%.%.@.%.@.&.*.%.%.*.%.%.%.*.%.%.*.%.@.%.%.%.%.%.%.%.%.;.,.,.<.,.{ i.A.%XC.C.^.(.|.@XdXhXhXgXgXgXgXsX|.`./.B.u.u.] _ _ _ ' v.).#XhXJXKXVXi.*.6.y.=X-.O X @ . O . $ > l -.G.;X;X*X;X-X;X-X;X-X-X-XK.F.K.3.%.Q B B B B B B B N B l N B N N B N C N C N V C V V V Z Z Z V V Z V Z V ^ V Z ! Z ! Z ! ! ! ! ! ^ ! _ ! _ ' _ a.m.^.(.(.(.(.|.#XgXhXgXhXgXhXhX#X{.`./.B.u.X.u._ ] X.u.R.{.|.XX .G.LXPXY.f.a.x $ O O X .   * N ! _ m.C.V.V.B.V.B.B.m.v._ N _ b.f.E C C C D B B D B B C B D B C M B C C D b C C C C M D F { ^ . .   .   . . . . X X : : : @ @ : @ * : * : j j @ # * % # * $ $ j : j % $ $ % $ $ > > $ $ $ > $ $ $ $ $ ",
", , < > , , , , , , < , , 4 < , - 3 - 2 2 2 3 - 2 2 2 2 - 2 2 2 , 2 , 2 2 = 1 2 , > , > , > , , > , > , , 6 7 6 1 x ! ! / ( ) ^ f.R.]./.m.A o.t.g g y g g g t.g t.m m t.m t.o.t.t.*.o.*.o.*.o.*.*.*.*.*.*.r.*.*.+.r.r.*.r.r.*.r.r.*.r.&.*.r.r.8.w.w.w.w.<.d.v.^.(.`.|.@X_.U.I.U.M.s.n.P.e.5 X : O X $ O $ 1 ^ I.aXCXHXHXHXKXMX&X<.( / ..Q.@X].c.] ' a.' ] x.B./.(.|.#XdXgXhXgXhXhXdX#X|.(.^.^.%XT.-Xi.e.<.<.;.;.&.%.&.&.%.&.%.%.%.%.&.%.@.&.%.@.&.%.%.%.%.*.%.%.%.%.%.%.%.%.;.%.;.-.-.,.} %.,.,.<.u.N.%XC.C.C.(. X@XdXhXhXgXgXgXhXsX@X}.(.C.S.u.u.] ] _ ' a.E.@XdXCXHXKXHXNXq.&.6.L O.q.h.z X X X . . X * 7 B 1.*X;X;X*X-X-X-X-X-X-X-X;XK.F.F.3.W B B N N k N B B N B N C N C C N C C S V C Z Z A V V A Z ~ V ~ A ^ Z ~ ~ Z ! Z ^ ~ ! ! ! _ _ _ _ _ ' ] v.C.(.(.(.(.{.@XsXjXgXgXhXhXhXsX|.`.(.B.c.u.] ] X._ u.C.{.|.#XaX=X} 1.cXLX0XQ.M.a.! 1 X X . .   . w Z _ x.B.C.V.B.B.B.v.v.v.a.! V a.M.s.A C C C C C B C B C B B B C C B B C C C B M B C C G ^ s..       . . . . X X X X : : : @ : @ @ : : * @ : % j @ * @ & & % % * % * $ % $ % $ $ % $ $ $ $ $ $ > $ $ ",
", = , = , , , , , , , < , , < , 2 2 2 2 - 2 2 2 2 2 2 2 2 = 2 2 , , 2 j , , 2 2 , , > 6 > , 6 , , > , 6 6 6 c q 1 1 7 ! ' ^ |  .{ s.E.(.].R.a.E o.t.m y g t.g m m t.m t.o.o.t.o.t.*.o.o.+.*.+.*.*.*.*.*.*.*.r.r.r.*.*.r.*.*.r.*.&.r.&.r.6.8.9.w.w.w.6.} c.V./.`.{.|.[.A.D.I.L.a.x.L.F.i X X X X X @ $ $ x z.pXCXHXHXHXHXJXKXmXi.%.W W E ^ N.@X|.R.a.' a.] ] X.v.C.(.`.|.#XgXhXhXgXgXgXfX@X{.(.^.R.U.J.*Xi.3.6.,.,.r.&.%.%.%.&.&.&.%.&.%.%.%.&.%.*.%.%.%.%.%.%.%.%.%.%.%.%.%.%.%.,.%.,.%.,.,.,.4.n.A.^.C.^.`.}.|.#XgXhXhXhXhXhXdX#X'.(.C.S.u.] ] ] _ ' a.V.[.#XZXJXJXHXJXKXvXq.*.5.$.H a @.3.I > . X . . . O > 7 U q.&X;X*X-X;X-X;X-X-X-X-XH.F.F.K.,.Q Q B N B N N B N N C N N S C V S C V Z V C Z V Z Z V ~ Z Z ! Z Z ~ ! ! ^ ~ ! ! ! ` _ _ _ _ ' ] x.C./.(.(.(.(.|.#XgXgXgXgXgXhXgX@X'.(.R.S.u.u.] ] ] u.v.(.|.#XjXGXxX>X,.,.IXKXqX.XXXN.f.a.7 @   . . .   @ 9 Z ' v.V.V.B.B.S.m.v.v.c.] S X.c.b.` C U C C B C B D C C C D C D C C b C C M C M C z ^ ^ . . . .   . . . . X X X @ X : @ @ @ * : : * : * @ j % @ % % % $ % & $ $ $ > % $ > $ $ $ > $ $ > $ $ $ $ ",
"> < , , , , , , , , 6 , , , 3 , - 2 - 2 2 2 - 3 - 2 2 - 2 2 2 2 2 2 , 2 2 j 2 > > , , , , > > , 6 6 , 8 8 -.( B 9 7 > 1 x ' ' ` ..| ` M.R.].].m.) M +.t.g g m g t.m o.t.t.o.o.o.+.t.o.*.*.*.*.*.*.*.*.*.+.r.*.*.*.*.r.*.r.r.r.r.r.&.=.=.7.w.w.w.5.1.u.V./.`.`.}.{.A.L.I.J.u.] n.F.P o . X X X : $ $ l d.0XZXHXCXHXHXHXHXHXKXvXq.W I D U R E d.Q.@X[.m.a.X._ u._ u.B./.}.}.#XgXgXjXgXgXgXdX#X|.].(.^.Z.U.T.i.i.e.=.} =.,.r.%.%.,.,.&.%.%.&.%.&.%.%.%.%.&.%.%.%.%.%.&.%.%.,.%.%.,.%.;.,.} ,.4.D.%XE.R.C.(.{.|.@XgXhXhXhXgXhXgX#X|./.R.S.u.u.u.] ] ] u.m.).#XhXHXKXKXJXKXJXKXvXq.@.e.$.P H s v -.{ l O . X .   . O 1 l ) k.*X;X*X-X-X;X;X-X-X-X-XF.N.F.F.,.W Q C N B V B N N C C N C S V C C V Z A A Z A V V ! Z ~ Z ~ ! ! ~ ! ! ! ! ` _ _ _ _ _ ] a.B./.(.(./.(.|.@XdXgXgXgXgXhXgX#X{.(.^.m.x.u.u._ u._ x.R.{.@XgXJXLXGXbX3X4.,.8XLXqXQ..X~.W.s.a.V 1 .   . .     * l S ] m.V.B.v.m.v.v.c.S.u.X.S ' c.f.~ D C C D C B B B B C B C D C C C B C B C C M ) s.. .       . . X . X X @ X : : @ @ @ : * * : * % * : : j $ $ $ % $ $ $ > % $ $ % % $ % > $ $ $ $ $ > $ $ ",
", , , , , , , , , < , , , , < , j 3 - 2 2 - 2 j - 2 j 3 = 2 2 < 2 , , , 2 2 2 & , , , , , > > > , > 8 8 <.SXeX .C 9 1 1 > 1 Z a.a.^ d.U s.V././.R.a.U L *.t.m g m m t.o.*.t.o.o.o.*.*.o.*.*.*.*.*.*.*.*.*.*.r.+.r.*.*.r.r.*.r.*.r.6.7.w.w.w.w.,.| c.R.(.].}.{.).N.I.T. .[ b.N.} j   X X X X : @ 1 ) Y.jXCXCXCXHXHXHXHXJXJXKXlX2.W Q G D D U M A n.OX@X].v.] ] ] _ _ x.V.(.'.|.sXgXgXgXgXgXjXdX@X|.`.(.C.A.T.T.p.i.<.4.&.<.,.%.&.%.%.%.&.&.%.%.%.&.,.%.%.%.%.%.;.%.%.%.%.%.%.%.,.,.,.4.4.4.A.%XC.^.^.`.|.|.sXgXhXhXgXhXhXsX|.(.^.B.x.u.u.] X.u.u.c.R.|.dXCXJXJXHXHXJXKXHXJXvXq.&.e.@.L H f G a Y ) ^ > X . . . . . * w V 1.G.;X;X&X;X=X;X;X-X-X-X*XF.N.T.4.,.E Q N V C C C V C C V C V Z Z V A V Z A Z Z ^ ! Z Z ! ^ ! ! ! ! _ _ _ _ ^ _ ' ' a.m.^.(.(.(.(. X@XsXgXgXgXgXgXgX#X[.(.^.B.c.] ] ] _ ] u.Z.{.|.dXVXJXJXSXSXDX7X3.,.>XLXwX!..XQ.[.Q.Z.] Z 9 @ .           j l Z x.B.B.S.v.v.v.c.x.c.u.! Z a.c.s.E Q C B Q C B B U C B C D D C B U D C D U { ^ .   .     . . . X X X X X X : @ @ @ @ : : * * @ j : % * > % % $ % $ $ $ > % % % % $ $ > $ $ $ $ > $ $ $ ",
", , , , > , , , , < , , < , < , - 2 2 2 - 2 - 2 2 2 2 2 2 2 2 j 2 , , , , j 2 2 6 > , , , , , > 6 6 , c H.KXKXaXj.C l 7 > > > 7 ^ ^ ^ s.d.s.f.R.]./.V.' M o.o.o.o.t.t.o.t.o.o.o.*.t.*.*.*.*.*.*.*.*.*.r.r.*.*.r.*.r.r.+.r.r.r.6.7.9.w.y.y.0. .c.C./.].}.}.).L.T.K.j.s.a.M.n.0 . X X X X X @ * B F.aXVXCXCXCXCXHXHXHXHXJXJXJXyX<.E G D z D b b M U ) A.|.|.R.x.] u.] _ ] v.C.(. X@XsXgXjXgXgXhXhX#X|.`. X^.%XT.T.T.i.4.e.,.r.<.,.&.;.&.%.,.&.%.%.%.%.&.%.%.&.%.%.%.&.} &.,.%.,.,.,.,.4.n.%XC.^.^.(.}.|.#XgXhXhXgXhXhXdX@X X^.B.v.u.u.u.] ] u.x.C.{.#XCXHXHXHXHXKXJXKXHXKXJXvXq.@.e.<.P J K G H s v E ^ x $ . . . .   . > 9 C 3.*X;X*X;X=X;X=X;X=X-X-XK.n.N.F.3.} E C C S V C V V V V Z V Z V Z Z Z V ! ! Z A ! ! ! ! ! ! ! ! _ ^ _ _ ' ' a.c.C.(.(.(.(.`.|.#XgXhXgXgXgXgXsXOX`./.V.v.u.] ] ] ] u.v.^.|.#XVXJXGXJXJXFXJXSXuXi.W ;XLXyXQ.Q..XQ._.XXW.c.! S 1 .           @ w N _ c.S.S.v.v.c.c.x.c.c.] Z _ a.b.` D C B Q C B C D C C C B C C C C B C b ^ ^ . .     . . . . X X X X @ @ @ @ @ : @ * @ : @ % @ * @ % $ % $ # > $ % $ $ % $ $ $ $ $ $ > > $ $ $ $ $ $ ",
"> , = , = , , , j < 2 2 = 3 2 2 - 2 3 - 3 - 2 2 2 - 2 2 = 2 - 2 , , , , , , , , , , , , , 2 1 & 2 6 6 t k.KXJXJXVXY.^ l 7 1 1 * 1 V ' ' ^ d.| [ M.R.R.R.m.^ b +.*.o.o.o.*.o.t.*.*.*.*.*.*.*.*.*.&.*.*.&.*.*.r.*.&.r.*.&.r.r.8.9.w.y.UX8.,.b.B.^.].].}.'.A.I.K.D.| a.f.b.C X   @ X X X X @ x j.pXVXVXVXCXCXCXHXCXHXHXHXHXJXKXyX,.I H B D D d c B G Q U .._.|.{.V.a.] ] _ ] u.S.^.`.|.#XfXgXjXgXgXjXgX$X|.`.(.^.C.U.P.G.q.3.2.<.<.,.;.%.;.,.%.&.&.%.,.%.,.%.%.,.%.%.%.,.%.,.,.,.,.4.i.B.C.C.^.^.`.|.@XdXgXhXgXgXgXdX#X{.(.C.S.u.u.u.] ] ] x.V.'.@XgXHXJXJXJXJXHXKXJXJXJXJXJXzXq.&.6.<.@.P K K G H K v U / ~ l X . . .     @ > l ~ h.G.&X*X;X&X;X=X;X-X-XJ.F.N.A.F.1.( Q A V C Z C Z V V A Z Z Z ! Z Z ! Z Z ^ ! ! ! ! _ ^ _ _ _ ` ' [ ] u.B.(.(.(.`.}.|.#XgXgXgXgXgXhXdX@X X(.C.S.u.u.] ] ] u.c.R.{.#XZXHXJXHXGXJXGXJXJXSXxXJ.W &XLX8XU.XX_.Q._.Q.[._.E.f.x x $ .           $ 9 S ' v.v.v.v.v.c.x.v.x.c.X.S ] v.a.^ D C C C B C C D C U C C C C C C M ) ^ O .     . . . . X X X X : : : : @ @ @ @ * @ : * @ % * * * % * % % * j % @ * % * $ $ & $ > $ > $ $ $ $ $ ",
", , , , , , , , , , = 2 2 = - = 2 2 j 2 j 2 2 2 2 2 2 2 2 2 j - , , , , , , , , , > , > > , = 2 , 1 5 0 l.KXJXeXzXGXaXj.x 7 1 * * * 9 ^ a.^ ....{ s.B.^.R.R.x.C t.*.*.*.o.*.*.*.*.*.*.*.*.*.r.*.&.&.*.r.r.&.*.r.r.&.r.r.=.9.w.w.y.9.,...B.^.(.].}.}.W.T.J.F.s.' v.M.! $ . X @ X X @ @ 7 d.!.nXVXVXVXCXCXCXCXCXHXCXHXHXJXCXyXG.q.I B D d d B c c c G Q G U n.OX|./.m.] ] u.X.u.x.B.(.`.|.#XdXfXgXgXjXjXfX@X X`.(.R.A.T.J.G.e.<.<.<.;.;.,.&.%.,.%.;.%.&.%.%.%.,.%.,.%.;.,.,.,.e.u.A.Z.C.C.^.(.}.@XdXgXhXgXgXgXdX#X|.`.^.S.x.u.u.] ] ] x.m./.@XdXCXKXJXJXJXJXJXJXJXJXKXJXJXKXyX3.>X<Xe.;.%.L K H H n n M n U ^ Z 1         .   $ 7 V } K.&XH.*X*X;XJ.=X;X-X-X;Xu.S.N.F.1./ A V A Z V A Z Z Z A V A A ~ Z ! ~ ! ! ! ^ _ ! _ _ _ _ ] [ ] S.^.(.(.(.`.}.@XsXgXgXgXgXgXgX#X|.(.^.S.u.u._ ] ] ' u.B.(.@XdXFXJXJXGXGXJXJXGXJXFXGXNX-X2.i.-XuXP.L.Q.Q.Q._.Q.W._.E.f.a.V 1 X             1 N Z ] v.v.v.v.S.S.S.v.v.x.X.Z a.v.s.E C U C C C C C C C C C M C x M ^ ^ . . . . . . . X . X X : : : @ : : @ @ @ @ @ * : % @ % : # $ % * # * @ % % * * # % > $ % $ $ $ $ $ $ $ $ ",
", , , , , , % , , , - 2 2 2 2 2 2 - - 3 - 2 - j - 2 2 2 2 = - 2 , , , , , , , , , , , > , 2 , = , , 6 p l.KXGXqX1X0XvXCX!.` l 7 1 > $ > l _ ' ! .. ...b.R.R.R.B._ v o.&.*.*.*.*.*.*.*.*.r.*.*.r.*.&.*.*.*.&.r.r.&.r.r.5.9.w.y.y.6.{ v.^./.].}.}._.U.K.J.d.s.a.Z.[ 7 X . X X X X @ 1 A L.aXZXZXVXCXCXCXCXCXHXHXCXHXHXCXqXh.-.J +.e.;.G z d d 0 D d D c B D U ~ N.@X}.R.v.u.] X._ u.v.R.(.`.@XsXgXgXfXjXjXjXsX|.}.].^.C.N.T.J.i.3.<.<.,.;.;.,.%.,.,.&.%.%.,.%.%.&.&.,.,.,.} 4.n.%XC.C.^.(.`.@XsXgXhXhXgXgXgX#X@X`.(.B.v.u.u.u.] u.u.v./.|.#XCXKXHXHXHXJXJXKXHXJXJXJXJXKXVX1X1.W $.5XkXG.;.#.T P K F K K v m M E ` S *     .   . X 1 9 Z 4.G.&X&X*X;X;X=X=X-X-XJ.F.b.B.N.3.,.` S Z ~ Z Z Z ~ Z Z Z ! ! ! ! ! ! ! _ _ _ _ _ _ ' u.[ c.C.(.(.(.(.}.|.#XgXgXdXdXgXgXdX@X X/.B.x.u.] _ ] ] ] v.^.|.#XZXJXGXJXGXGXJXGXJXJXFXJXJXDX9X3.Q U I.iX0XI.Q.Q._.[.[._._._.E.a.' V > . .         @ w S _ x.m.V.V.C.C.C.S.m.m.] S _ c.b.[ C U C C C U C C E C C U C M ~ ' .     . . . . . X X X X X X : @ @ @ : * * : % * : @ * : * & * % * * : * & $ & $ $ $ & $ $ > $ $ $ $ $ $ ",
"% , % , , % , , = , , - = 2 - 2 j 2 - 2 2 - 3 2 j - 2 = j 2 2 2 , , , , , , , , , , , , , j , 1 , 6 6 u H.KXFXqX2X:X,X0XZXjXN.^ 7 1 > $ $ > x ' ^ ~ } } s.M.R.R.R.c.N s *.=.r.*.&.*.&.*.*.*.&.*.r.&.r.r.r.r.*.r.r.6.9.w.y.w.5.W x.C./.(.'.{.'.A.K.P.F.[ a.V.s.l O . O O X X X * x d.rXVXCXVXCXCXCXCXCXCXHXCXCXHXCXiXk.R J +.o.a s <.0.Y B d B 0 c k c c D B D E ..A.|.[.V.x.u.u.X.] x.v.^.(.{.@XfXgXjXjXgXjXgX#X{.'.`.^.Z.L.J.i.i.4.<.<.<.;.,.;.%.,.,.,.;.%.,.,.,.,.,.,.T.Z.%X^.^.^.(.|.#XgXgXgXgXgXgXdX@X}.(.C.S.x.u.u.u.] u.c.C.{.#XhXKXHXHXHXHXHXJXJXJXJXHXHXKXJXiXh.%.T H G G i.lX6X6.O.O.P K K M L n M M F / ' l .   . . .   $ 7 S { K.H.&X&XJ.;X=X-XJ.-X-XJ.n.v.Z.n.4.} ` Z ~ A ! V ^ Z ! Z ! ! ! ! _ ! ! ! _ ` _ ] ] c.S.^.^.^.(.`.|.#XgXhXgXgXgXgXdX#X X(.^.S.u.] ] ] _ ] u.C.{.@XgXJXJXJXJXJXJXJXGXJXGXJXJXGXNX3X4.k B C C | !.rX!.L.Q._.Q._._.)._.].E.a.! 9 $             * l S ' B.R.^.^.^.R.C.B.B.v._ V a.m.b.` / A C Q C C C C C C C U ~ ^ .       . . . X . X X X X @ @ @ @ @ @ @ @ * : * j j : j # * # & % % % * $ & $ & % & $ $ > # $ $ $ $ $ $ ",
", = = = , = , = = , 2 2 - 2 , , 3 - - j - 3 2 - 2 < 2 , - 2 = 2 , , , , , , < > , , = 2 j = , 2 > 6 6 t *XKXJXeX2X:X:XH.P.iXCXpXs.x > > > $ @ 7 ! ' ^ `  .} s.E.R.R.V.' k J r.r.r.*.*.r.*.r.*.r.r.*.r.&.r.&.r.6.7.w.9.w.w.-.[ V.(.(.(.}.'.A.T.J.K.d.a.M.M.V . . X X X . + $ x d.0XjXVXCXZXCXCXCXCXCXCXCXCXCXCXaXH.W m o.@.&.&.@.J a P <.<.G k c D 0 0 B z B D D D C n._.|.R.m.x.u.] X.u.u.C.(.(.[.#XgXgXgXgXjXgXfX@X X`.(.C.A.T.G.i.3.e.,.<.<.,.r.,.r.,.,.%.,.,.;.1.F.A.Z.R.R./.(.{.#XdXgXhXgXhXhXgX#X|.`.^.V.v.u.] ] ] ] x.V.].@XdXHXJXHXJXJXJXHXJXJXKXJXCXJXKXvXJ.,.W Y K s d d d W <XzX:X<.T T L K M n F F K M I [ ^ 7     . . . X 1 l V  .K.J.i.&X=X=X;X=X=X-XJ.F.M.B.Z.D.} ) Z ~ ! Z ! ~ ! ! ! ! _ ! _ ^ _ _ _ ' ] u.S.C.^.^.^.(.{.@XsXhXgXgXgXgXgX#X|. X^.B.u.u.] ] X.] u.S.(.|.dXCXJXJXHXJXJXJXJXJXJXJXGXJXGXyXG.W N N A Z C C C d.0XiXY.U._._._._.]._.].).M.^ V w X           . 1 9 Z x.R.^.^.^.^.^.C.C.B.c.S Z c.m.s.~ E C C C A M C C C B ^ ^ .   . . .   . . X X X X : : @ @ @ @ @ @ @ @ @ @ @ : * % @ % * @ # * % * # * $ & $ $ $ & $ $ > $ $ $ $ $ ",
"= = , , = , , = = , j - 2 , , = - 2 3 2 2 2 2 2 2 < j , - 2 2 2 , , , , , , , , , , 2 & , , , > , , , 5 H.KXGXuX0X:X:XH.K.K.P.aXhXQ.! 7 1 * @ O $ x ^ ^ ^ )  .} M.C.R.R.v.Z a *.=.=.r.*.r.&.&.r.&.r.&.&.r.r.8.9.9.y.w.2.C Z B./.(.}. X).D.T.K.g.' m.V._ $ . . . . . . O 1 ^ I.aXnXVXZXVXCXCXCXCXCXHXCXCXCXVX,X;.H o.@.&.r.r.r.&.&.@.f a @.6.%.v 0 k c 0 d 0 c q c Q B A N.OX|.V.x.u.] ' u.u.S.C.(.`.@XsXjXgXfXjXjXfXsX@X{.`./.C.A.T.i.e.3.4.<.,.4.,.,.,.,.,.<.4.F.N.Z.C.^.^.`.|.@XdXhXgXgXgXhXgX#X|.(.^.C.S.u.u.] ] u.u.B./.@XdXCXHXHXHXHXJXHXJXJXJXHXHXJXKXSX3X4.-.O.L F H G s i p p d <.yXuXG.#.R L K K K K M M H M / [ ! > . X X .   @ w V ^ i.T.;XJ.&XJ.J.;XJ.;X=XJ.n.S.B.N.n. .` _ ~ _ _ ! _ ! _ ^ _ _ _ ' ' ' a.c.C.^.^.^.(. X|.#XgXhXgXgXgXgX#X@X X^.C.S.u.u.u.X.] ] v.^.{.#XZXKXJXJXJXJXJXJXJXGXGXGXGXJXNX<X4.Q C C A Z A A Z C V ~ L.iXrXI.W.[.[._._._.).'.E.a.! 9 * .           * w N _ B.^./././.(./.R.C.B.] Z _ m.b.[ / E C ~ C C C C U ) ' O . .   . . . X X X X : @ @ @ @ : X @ * % : * * % * % * % * % * * % * # $ & & # $ & $ * > $ $ $ $ $ $ $ ",
"= = , = = - , = 2 = j , - 2 , , 2 3 - - - - - - = 2 , , 2 2 - = > < , , > < % , , & , 2 = , , , , > 6 8 l.KXKXuXqX3XP.J.H.K.z.z.!.jXfXb.x 1 * $ @ X > V a._ ~ ( } ..M.R.R.C.v.Z J r.=.r.*.&.r.&.r.r.r.=.5.7.9.y.w.2./ Z Z ! c./.].).N.F.H.F.[ c.V.a.1   . X . . . X $ x j.pXZXVXZXZXCXCXCXCXCXCXCXCXCXCXqX2.K o.$.&.&.r.r.r.r.r.r.&.;.O.d s %.<.P 0 q c B 0 q d B 0 c B C { A.|.).M.x.a.u.X.u.u.B./.`.{.$XdXgXjXjXgXgXgX#X|. X(.^.Z.T.T.i.i.4.3.,.,.,.,.,.=.4.i.Z.C.^./.(.}.|.sXgXhXgXhXgXhXdX@X X^.C.S.x.u.u.] ] x.v.R.|.#XCXJXKXHXHXJXHXJXJXHXHXJXHXKXCXiXK.W W T T Y K H G G v d u p u b G.uXwX2.T O.R L K n K M M n M ~ s.V @ . @ X . . 1 9 V | F.J.;XJ.*X*XJ.&XH.=X=XF.M.V.B.b.n.} ` ` ` ` ' ^ _ _ _ _ ' [ ' x.m.^.^.^.(.`.|.#XgXhXgXgXgXgXdX@X{.(.C.S.u.u.] ] _ u.x.C. X@XgXJXKXJXJXJXJXJXJXJXJXFXJXGXFXwXK.Q B V A ! A ~ ! Z A A C C V { ,XrX0XU.Q.].].[.[.].'.).m.' V 9 @             > 9 V x.R.(././.(.(.(.R.C.m._ S x.m.a.` ~ A C U C U D / ^ .     . . . . . X X X : X @ X @ @ : @ @ @ * * : : * : * * % * % % * * * & $ * * $ & $ $ $ $ $ $ $ $ $ @ ",
"= = % = < > , , = - - , , = , < j - 2 j 2 j 2 2 2 = , , = , , , , , , , , , , , , , , & 2 & , , , , , 5 ;.zXKXVXeX0X1XP.H.G.k.k.h.z.0XgXXX' l > $ $ O X > ! _ ! A } { d.M.R.R.V.] k *.=.8.r.r.r.r.r.6.7.9.w.y.9. .a.' _ ! ! ! x.N.K.*Xi...x.m.x.9 .   X . . . . X 7 d.!.nXnXnXZXVXVXCXVXCXCXCXVXCXCXuXz.R J @.&.r.r.=.<.r.r.=.&.r.r.&.r.&.J d H ;.<.H q q 0 k q 0 0 q d B Q B n._.|.E.m.u.u.u.X.] c.C.(.`. X#XdXgXdXjXjXjXgX#X X(.(.C.%XT.J.i.4.e.4.e.4.4.n.%X^.R.^.(.].|.#XgXhXhXgXgXgXgX#X X/.C.v.x.u.u.u.] u.v.R. X#XZXJXHXHXHXHXHXHXJXJXHXJXHXJXJXaXH.;.W @.T P K K K H H G s v v p p u 8 K >XvX<X-.T T K K K n F n M n M ` ' 9 X . @ @ X @ 1 N A u.K.J.*XH.&XJ.&XJ.*X*XT.N.V.C.Z.n.n.[ ' [ _ _ _ ' ' ' ' ] v.C.^.^.(.(. X@XsXhXgXgXgXgXgX#X X/.^.S.u.u._ ] X.] u.B. X|.sXCXJXJXJXJXJXJXJXJXHXGXJXJXJXzXP.} A C A ~ ~ ! ~ ! ~ A ~ Z A C B C x j.rXrXI.Q._.[.).[.].].].^.c.! N 1             . w 9 X.B.(.(.(.(.(.(.(.C.V.x.S ! c.M.s.^ / A E A D ~ ` .   . . . . . . X X X X @ X : : @ @ @ @ @ : : % * : * % # $ & @ $ % % % $ # & $ # * & $ $ $ $ $ $ $ $ $ ",
"= = = > , = = , , = , , < , , , 2 2 - - 2 - 2 - 2 = 2 = 2 = 2 = , , , , , , > , , > > , , = % > > , > 5 v O.<XGXJXaX0X:XJ.K.z.z.h.2.g.K.pXfXA.V 1 * $ @ @ @ 9 ' ^ V / ) } b.Z.R.R.v.! v *.6.6.6.=.8.7.9.9.y.<.s.V.B.a.a.] ' ~ ,.G.l. .' m.m.V O   . . . . . @ 1 ^ L.rXjXnXnXVXZXZXCXZXCXVXBXAXGXnXP.T n +.;.r.6.&.r.r.6.r.r.<.6.:.=.:.=.r.&.+.v u O.<.%.D q 0 q q q q q 0 c c B / N.[.|.R.f.a.a.X.u.u.S.C.(.`.|.#XgXgXjXgXjXgXfX@X{.(.^.C.A.T.K.i.4.3.i.A.Z.C.C./.].}.@XsXhXhXgXgXhXgXsX|.(.R.B.c.x.u.] ] u.x.V.(.@XgXGXJXHXHXHXHXHXHXHXHXHXHXHXJXNX1X4.%.W W P P L P H H H G H n G s s a 0 0 p 0 <.wXvXH.+.T O.m L M L m L K M / s.^ 7 . X @ O @ $ l V a.j.H.J.T.;XJ.J.&XJ.T.J.U.C.C.C.S.n.u. .[ ' [ ] ` ] b.Z.C.^.^.(. X|.#XgXgXgXgXgXgXsX|.).^.S.v.u.] X.] ] u.v.(.|.#XZXKXJXHXJXKXJXJXJXJXJXJXJXKXmX3X1.Q A A ~ ! ` _ A ` ` ~ ! A ` A Z V A M x E I.uXeXU.W.[.].].).].].(.V.a.! N *             * 9 S x.R.(.(.(.`.`.`./.C.B._ N ] B.M.[ A A C U / ^ X . . . . . . X X X X : : @ @ @ * @ * @ * : : j % : * % * % @ * $ % * $ $ % & $ $ & $ $ $ $ $ $ $ $ $ $ ",
"= = = = = = , = = , , , < , = , - - j 2 2 - j 2 = 2 2 = = 2 = 2 , , , , , , , , , , < , , , , , , > > 4 v y T l.lXJXnXeX,XP.K.k.h.h.2.1.g.I.aX+Xs.9 * & @ * X 1 V a.! C } 1.d.M.R.R.R.a.C K =.7.8.7.y.y.0.d.m./.R.R.V.a.' ,.6.3. .[ c.V.' >   . . . .   . > x d.rXaXjXaXnXnXZXVXVXZXVXVXVXBXmX,X,.m o.&.:.=.r.r.6.r.r.r.r.6.=.r.:.=.=.r.=.r.:.;.O.a d &.6.W q q q q q 0 0 k k d z x | W.|.].V.a.u.X.X.X.u.S./.`.{.#XdXgXgXjXgXjXgXsX@X{.(.^.%XU.T.T.i.A.C.C.^.(.}.|.sXgXhXgXgXgXgXdX@X{.^.C.v.u.u.u.u.] x.B.(.|.dXJXJXJXHXHXHXHXHXHXJXHXHXHXHXFXiXK.,.%.W P o.P L L P K P G G K G H G G s d u t 8 0 n H.vXqX2.T O.O.L M K m L L M R s.s.^ > O @ @ O X > x ^ [ D.&XT.H.J.T.=X-XT.T.T.%X^./.C.M.n.d.[ ] [ u.N.C.C.^./.`.|.#XdXgXgXgXgXgXdX@X{.(.C.u.u.u.u.u.u.u.v.^.}.@XgXKXKXKXJXKXJXHXJXHXKXJXFXJXJXiXz./ C A ! ! ~ ! ` ~ ` ! ~ ~ ~ ` Z ` ~ ~ A C ^ C V d.0XvX!.W._.[.].].).].(./.V.a.! 9 .           X w N _ B./.`.(.(.`.`.'.^.^.B.X.Z a.V.s.~ A Q / { X . . . . . . . . X X : : : @ : : : : @ : * * : @ * * : % * * % & $ $ * $ $ $ & $ $ $ > $ > $ $ $ $ $ $ ",
"= = = = = = = , = , = , , , , < 2 j 2 = = - 2 2 2 = 2 2 2 = 2 = , , , , , , , , = , , % % > , > , > & , v r n m +.*XvXHXaX,XP.z.k.2.1.<.;.>.j.0XfXQ.! 1 * * * @ X 7 _ ' Z / 4. .f.Z././.B.' Z &.y.y.9.>.c.^.(.^.R.R.c.d.6.0.1.` a.V.a.9 . . . . .   . O 7 s.!.pXaXaXaXjXjXnXVXZXZXCXVXCXVXeX0.M m &.:.r.r.r.r.r.6.r.6.r.r.r.6.r.6.=.:.6.=.=.=.=.r.&.L p H <.<.G q q q 8 q q q k z b B C f._.|.E.c.u.u.S X.u.u.V.].`.|.sXgXgXjXgXgXhXgX#X|. X/.^.%XT.%XC.^.(. X|.@XdXhXgXgXgXhXgX#X{.(.C.v.u.u.] ] ] ] v./.|.#XCXKXJXHXHXHXKXHXHXHXHXHXHXJXJXzXP.,.%.%.O.P P P P K K K H P G H H K G H G H v c d u t u q #.<XvX:X-.M O.T R L L M L R O.) f.f.V @ X @ $ $ @ w Z ] u.T.J.J.T.>XT.>XY.1XoX_.'.(.^.B.M.n.u.b.Z.C.R.^.].{.@XsXdXgXgXgXgXgX#X|.`.^.B.u.] u.] u.u.u.B.{.@XdXCXKXJXHXHXKXJXJXJXJXJXHXHXJXbX:X} A ~ ! _ _ ' ` ` ` ! ` ` ` ` Z ~ ~ ~ ~ ~ A ^ A V C C C j.eXuXY.W.].].].`././.].R.m.] V > .           $ N Z ] R.'.`.`.`.`.}.(.^.C.c.! ' B.V.s.C / ` .   .   . . . . X X X X : : : @ : @ * : * : @ * @ % @ % * % % @ # * % * $ > $ $ > $ $ $ $ > $ $ $ $ $ $ ",
"= = = % = - > , , = , , , , , , - - 2 - - j - = = 2 = 2 - 2 = 2 , , , % > , , , , , = , , , , , , , > < v e y y v m ;.>XVXVXeXP.z.h.4.;.>.-.-.( j.pX#Xb.N j * * > @ @ N ^ ! A } 1.g.M.R./.^.m.] M ( s.R.(././.^.V.d.2.0.4.s.s.v.c.x O   . . . .   X 1 ~ z.rXiXaXaXaXaXnXnXZXnXZXZXVXVXaXl.M m +.&.:.r.r.r.r.6.6.r.r.6.=.r.6.r.6.6.=.=.6.:.=.:.=.r.:.r.$.H u W 6.%.d q q 8 q q u q z b b x ^ N.|.'.m.u.u.] X.X.] c.R.`.{.@XdXgXgXgXjXgXhXdX@X|.`.^.C.C.^.(.{.@XsXgXhXgXgXgXgX#X[.(.^.S.x.u.] ] u.] c.C.(.@XhXHXJXHXJXJXJXHXHXHXJXHXHXHXHXvX1X2.-.%.%.Q O.o.P P P P J K P J H K G G G f G G G G G b c 0 u 0 p 2.wXlXl.M T T T L R L R R O.I d.M.a.x $ $ $ $ @ * l [ u.b.T.T.T.<XT.Y.3X!.oX@X|.{.(.C.Z.A.A.C.^.(.{.@X#XgXgXgXgXgXgXsX|.`.(.C.x.u.] u.] u.u.S.(.|.sXCXJXJXJXJXKXJXHXKXHXKXJXHXKXHXiXh.~ A ~ ^ ` [ ` ^ ` ` _ ` ` ` ^ ` ` ` ` Z _ X.~ ^ ~ ~ ~ A C C W I.lXeXU.W.'.'.].].(.(.`.R.a._ x @             1 N Z v.(.}.].}.'.{.{.(./.V.] Z x.E.M.` ~ O .   . . . . . . X X X : : : : * @ : : : * @ @ * # * * @ @ % * * * $ # $ # $ % $ & $ $ $ $ $ $ $ $ $ $ ",
"% = = = = = % , = , , , , , , , 2 2 = 2 - j - = 2 = 2 = j 2 j < , = , , , > , , , , % , > , % , , % % , v r y r y g g m 0.wXHXnX,Xz.h.1.>.-.#.W ( ) I.fXXX[ 7 * $ * @ @ 1 V ! Z E  .h.d.B./.].R.m.m.(.`./.(.C.b.2.0.j.s.s.c.c.Z O   . . X . . . $ x j.~.pXtXrXpXpXaXaXaXnXnXnXnXCXvXH.R g o.&.r.r.=.r.=.:.=.r.r.r.6.r.6.r.6.=.r.=.6.=.=.r.6.=.=.=.:.r.r.&.@.a v $.<.L q 0 8 q q 0 0 0 B z b C s._.|.].f.a._ _ X.X.u.S.^.`.|.#XdXgXjXgXgXjXgX#X|.'.(.(.{.@XsXgXgXgXgXhXhXsX@X(.^.C.c.u.] ] ] ] u.S./.|.sXCXHXHXHXHXHXJXJXKXHXHXHXCXJXVXiXK.,.%.W T O.O.O.P P P P J P J P G G H G G H G K H G G G G c c d p 0 0 v l.uXqX2.T O.#.M R T R R ( #.) f.M.s.7 $ > > $ $ 1 S ] c.T.T.Y.1XY.!.tX#X#X#X@X}.`./.^./.(.{.|.#XdXgXgXgXgXgXdX@X{.(.R.v.u.] u.X.] ] c./.|.#XZXJXKXHXHXKXJXJXKXJXKXHXJXJXHXzXP. .~ ~ ^ ' ' ' ` ' ' [ ^ ` ` ^ _ ` ` ` ` ! ` ` Z ! ` Z ` ~ ^ ~ C C C } 0XzX0XN.'.].].'.].].].).m.a._ w .           : w S _ V.`.{.{.}.}.}.].].E.B._ X.c.M.' . .   .   . . X X X X X X : @ @ * : : * * : : * % @ * # * % % @ * * $ $ $ $ $ $ $ $ $ $ $ > $ $ $ $ $ $ ",
"% = = = % = , = , = , , = < , , = 2 - = - 2 - 2 = 2 = 2 - = = = , , , , , , , , , , , , , , , , & , , , v 4 y r r r y g n L G.bXHXiXz.h.<.>.-.O.T R R  .Y.#XA.N * $ * @ X O 7 V ! x / 2.g.n.E.(.].R./.(.(.M.D.q.F.n.s.a.x.! j   . . . . O $ X x d.Y.~.rXrXrXrXrXrXaXaXjXjXjXVXVX0X( v m &.:.:.r.:.r.=.=.=.=.6.r.6.r.=.6.=.r.<.6.:.6.:.6.6.=.:.6.6.=.6.:.6.&.&.J u H <.&.v 0 q 0 q q q 0 p z z U A n.[.}.R.c.' ! X.X.X.u.B./.(.|.#XgXgXhXgXgXhXdX@X{.|.#XgXgXgXgXgXhXdX@X X(.C.S.u.] ] ] ' ] c.C.(.#XZXKXHXHXKXHXJXJXJXJXJXHXJXJXJXuXJ.<.%.%.#.T W P P P P J P H P K G G H K H H G H H G G G f G G G v b c p t z c M >XlX>X>.O.#.#.W #.W W -.-.>.d.N.V.^ > $ > 1 * * 9 _ S.S.A.!.0XoX$X#X#X#X#X#X|.}.`.}. X@XdXgXgXgXdXgXdX#X X(.^.S.u.u.] ] X.u.x.V.{.@XgXCXKXJXHXKXJXJXKXHXJXJXJXJXKXVX2Xg./ ~ _ ' ' ] ' ' ' ' ` _ ' ` ' ` ` ^ ` ! ` ` ! ` ` ` ` ` ! ^ ^ ~ ^ ~ C C C j.rXrXI.A.).'.(.'.].].].R.c.a.! >             * 9 S x./.}.}.'.'.}.}.}./.C.] X.v.!       . . . X . X X X X : : @ @ @ : * : % @ j : * * % $ * * * % % $ * $ $ > > $ > $ > $ $ $ $ $ $ $ $ $ ",
"= = % % = = = , = = , = , < , < 2 - j - 2 = 2 = = - 2 = = - = 2 , = % , % , , % % , , % , , , , = , % , v r t r r r y y y g m :.6XHXVX0Xz.>.-.W T T L R M h.+X+Xs.7 * * @ @ X @ 7 Z V V } 3.F.M.R.R./.^.n.h.F.n.b.a.a.a.l .   .   .     $ > d.I.,X0X,X0X0X0X~.rXrXaXaXaXZXVXeXh.n m &.:.:.r.r.:.=.=.=.:.=.=.:.=.r.=.6.r.6.6.6.r.6.=.=.=.:.6.=.6.r.6.6.r.6.&.:.&.@.G u T <.$.d 8 0 0 0 0 q z z z b M ^ A.|.[.V.s.] X.X.u._ v.C.(.'.@XdXgXgXjXgXgXgXsXgXhXgXgXgXgXgX#X X(.C.S.u.] ] ] X.u.x.V.(.@XhXJXKXHXHXHXHXHXJXJXJXJXHXHXJXVX3X3.,.%.%.W T T T @.T T P P P P K P K K H K K G H F H G G H G H G G G G b b c c 8 c c -.qXuXl.#.#.#.#.#.#.#.-.>.>.h.N.E.V.x $ $ 1 1 j w S x.B.%XXX+X#X#X#X#X#X#X#X#X|.@X#XgXgXgXdXgXgX#X[.`.^.B.v.u.u.X.u.] u.S.].|.sXCXHXHXHXHXHXKXHXJXHXKXKXHXKXJXiXK.| ` ` ' [ ' [ [ ] ' _ ' ' ' ` ' [ ` ` ` ` ` ` _ _ ~ ` ` ` _ ` _ ` ! ~ _ ~ ~ C C / I.iX0XL.E.'.'.].).'.].].M.a.' 9 X             w N _ C.}.}.}.}.}.}.}.}.B.u.x.S     . . . . . X . X X @ @ : : @ @ * * @ : * @ @ : * @ $ @ * : @ * @ % $ $ > # $ > $ $ $ $ $ $ $ $ $ $ $ ",
"= % = = = , = = = , = , = = = , = j - 2 - = = = 2 2 = 2 = j 2 = , = , , , , , , , , , , , > , , > , % , y r y r e e e r y y y g m k.zXHXaXH.1.-.-.T L R L M -.Y.fXW.! 1 * * @ X . @ l ! Z { 2.q.f.f.N.D.K.L.n.a.a.a.^ >     . . .     $ ^ L.I.!.I.Y.Y.!.!.~.0XrXaXpXaXVXaXI.M m +.r.=.r.=.r.=.=.=.=.=.=.6.=.6.6.6.=.r.6.6.r.r.6.6.6.=.6.6.=.6.6.r.6.6.r.=.6.r.6.r.&.O.a s &.6.P 0 q 0 q q 0 8 z z z F U s.W.|.].m.u.X.X.X._ ] u.R.(.[.#XgXgXgXgXgXhXhXgXgXgXhXsX|.(./.B.c.] ] ] _ ] ] S.).|.dXHXJXJXHXHXKXHXKXHXJXJXJXJXKXCXiXK.,.-.W %.T O.W T T T T P o.P P P H P K K K G K H F H G H G G G F H G F G D b b b c c t c M l.uXqXh.) -.#.>.-.-.>.>.g.j.j.A.].f.x * j 1 1 w 9 _ S.R.).@X#X#X#X#X#X#XsXsXdXgXdXgXdXgX#X@X(.(.R.S.u.u._ u.X.] v.(.|.#XhXHXJXHXKXHXKXHXHXKXJXJXHXJXKXvXT.} { ` ` a.[ ] ] ] ' ] [ [ ' ' ` ' ` _ ` ' ` _ ` ` ! ` ~ _ _ ~ ` ` ! ` ` ! ` ! ^ ^ C C x ) ,XuX0XL.W.[.'.'.].].].).m.a._ 7             @ 9 Z a./.}.}.}.}.}.}.C.] c.V   .   . . . X . X X X X @ @ : @ : @ : : * @ @ j % @ % * * % j % # * * & $ # > $ $ $ $ $ > $ $ $ $ $ $ $ ",
"= ; % % % = = = = = = 2 2 & = 2 - = - j - j - = - 2 2 = 2 - - j = , , = , , = , = , > = , , , > , , % , g r g r r r r t.t.r r g f g *.=XFXHX0Xh.-.#.T M m L K R g.0X#XN.x > $ $ X . . > V ! ` 1.3.k.z.I.n.a.a.c.] 7     . . X X   X z j.I.I.I.I.I.I.,X~.,X~.rXrXrXnXnX,XM g o.&.r.r.r.=.=.=.=.=.r.6.r.6.=.=.6.=.=.=.6.=.6.6.5.r.=.=.6.=.:.=.6.=.=.6.6.6.=.=.<.=.=.r.r.&.L u F :.:.m 8 4 8 8 z 0 0 0 z c b U n.[.|.E.c.] X.X._ ' ] S./.`.|.#XgXgXgXgXgXgXhXdX@X]./.C.v.] ] ] ] _ ] v.^.[.sXCXHXJXJXHXHXKXJXJXHXHXJXJXJXJXvXJ.4.W %.W #.W @.P P P W P P P P P P H P H P P H F H G H G G H G G G H G H D G Q G G G G D 0 0 0 0 T :XvX1X,.( >.-.<.>.<.g.h.z.z.f.W.].x.l 1 1 w 7 9 V x.^.(. X@X#X#X#X#XsXdXdXdXdXdXsX@X'.(./.B.x.u.] ] u._ v.E.}.@XdXCXJXHXJXJXJXKXHXJXJXJXJXJXKXmX3X4.{ ` [ ] [ a.] ] ' ] ' ] ' ' ' ' ' ` ' [ ' ` ' [ ` ` _ ^ ` ` ^ ` ` ' ^ ^ ` _ ` ` ^ _ ~ ~ C C V g.eXeXY.N.[.].].]._.].].R.f.a.^ *           . 1 V ' B.}.}.}.}.}.^.] c.V     . . . . . . X X X X : @ @ : @ @ @ * * @ * @ % * : * * # & # $ & * # $ # > $ $ > # $ $ $ $ $ $ @ $ $ ",
"= % = = = = = = , = = = = 2 = = 2 = 2 - - = 2 = = = - = = = - = = = = = = > > , = = = > % , , , > = % - g r y r r r r r r r r g y y g g 2.wXJXaXI.>.#.W T m L L M / F.fXOXa.x > $ O X . O 7 Z _ { j.D.b.a.c.c.N X   X O . X . O z d.U.I.z.z.z.L.I.I.I.I.~.,XrXrXbX,X;.M m &.r.6.=.=.r.6.=.=.=.=.6.=.6.=.6.6.=.6.6.6.=.6.r.6.r.6.6.6.=.6.6.6.=.6.6.=.6.=.=.6.=.6.=.<.r.<.&.&.f p M k.$.M 8 c 8 8 q 0 0 c c b v ~ A.|.].m.x.u.X._ _ ] x.B./.`.@XdXhXgXhXgX#X'.(.^.S.u.] ] ] _ ] c.C.|.#XZXKXJXCXJXJXJXJXJXJXJXJXHXJXJXZX<X4.%.%.%.W %.T O.W P W o.W o.o.P W o.P P F P H G P H G H P G H G G G G G G F G U F F Q G D G G D d 0 d c <.qXiXJ.) >.1.>.1.h.h.z.z.I.,XW.{.E.' 9 7 7 9 9 l _ B.(./.[.#X#XsXsXsXdXdXdX#X|.'.(.C.c.] ] ] ] _ u.C.{.|.sXCXKXJXJXJXJXKXHXJXJXJXJXJXKXCXiXF.} ` [ [ ] ] x.a.] [ a.[ ] ' [ ] ' ' ' ' [ ' ` ' ` ` _ ' [ ' ` ' ` ` ' ` ` ` ' ' ` ' ^ ^ _ ! ^ ~ V x A K.eXeXI.W._.].]._.].]./.f.f.a.V X           O 9 Z x./.}.}.|.R.a.c.S         . . . X X X X @ : : @ @ @ @ : * @ @ % @ @ @ * % # * $ $ $ $ & * $ > $ $ $ > $ > $ $ $ $ $ $ $ $ ",
"% % % = ; = % = = = = = - = , = j - = = = 2 = = 2 = 2 2 - = = = , = = = , = , = , = , = , > , , , % = - g r y r r r r r r r r r y y y g g J l.vXCXeXz.#.#.R M m M K M ( Y.fXA.^ 7 $ X X O . @ N a.v.a.a.M.^ >   X X . X .   7 j.U.z.j.z.z.z.z.I.z.I.I.I.1XrXrXrX0.M o.+.r.=.=.=.=.=.6.=.6.=.=.=.=.6.5.=.6.=.6.=.6.=.6.=.6.6.r.6.=.=.6.=.=.6.6.6.=.6.6.=.6.<.=.=.6.=.6.r.<.r.&.+.a p +.6.T v 8 8 q 8 8 0 z p c b M s._.[.R.v.a._ X.X._ ] v.^.`.'.@X#X#X[.(./.B.x.] ] ] ' _ u.V.'.#XhXJXJXHXHXJXJXJXJXJXJXJXJXJXKXCX6X3.,.%.%.%.%.W @.O.P o.O.P O.o.W o.P P J P H H P K F H G G P G H G P H P G G F F G U F F D I D Q G D D D d d d b G.uXiXz.1.>.h.h.h.z.I.I.!.,XQ.[.}.E.^ l 9 l N l N a.^.(.`.|.#XdXdXdXsX|.{.(.^.v.u.] ] ] ] ] S.(.}.#XjXHXKXJXJXJXHXKXJXJXJXKXJXJXJXuXK.} ` ` [ ] x.x.s.] s.[ s.] ] [ ] ' ] [ [ ' [ ' [ ' ' [ [ ' ` ' ` ' ` _ _ _ ` ' ` ^ ` ' ' ` _ _ ` ^ ~ ! V C V / I.lX0XL.W.[.]._./.).W.E.c.x.] l     . .     > N ' R.}.}.C.a.c.V   .   . . . . X . X X X : @ @ @ @ : * @ @ * * % $ % * % * # & $ # * * # $ $ # > $ $ > $ $ $ $ $ @ $ @ $ ",
"= % % = % = = = & = = = 2 = = = - = = 2 = 2 - 2 = - = = 2 = = 2 , = , , , = = = % , , = , % , > , , = - g r g y r t.r g r r r r y y y y g g g +.>XVXnX:X1.#.O.M K n H v M g.pX+Xs.l > + X X X @ 1 ^ c.' 1 . X O @ X .   $ d.U.z.j.h.g.h.j.z.j.z.I.I.I.rXjXrXz.M m +.r.r.=.=.6.=.=.6.=.=.=.6.=.5.=.6.=.6.6.6.=.=.6.6.6.=.6.=.5.r.6.6.=.6.6.6.=.6.6.6.=.6.6.6.6.6.=.<.r.6.6.r.6.&.&.T t m <.:.M c u 0 q 8 0 8 8 c c M E n.[.'.V.c.] X.X.X._ a.B.^./.(././.C.c.] ] ] _ ' a.S. X@XdXCXKXHXKXHXKXJXJXHXKXJXHXHXKXHXyXK.,.%.%.%.W P %.o.W O.O.W o.W P P P P P P P P P P P H P G P P G G P G G G F G G Q F F F Q F F F I F U U D D D z d d z W >XaX0Xh.g.j.z.z.z.I.I.,X0X0X.X[.}.V.! l N N N N S v.).(.(.$X#X@X{.'.).B.u._ ] _ ' ] x.^.}.|.sXCXKXHXJXJXJXKXJXJXJXJXHXJXJXNX1X4.{ ` [ ] x.s.x.] ] x.a.x.a.] ] a.[ ] [ ] ' [ ' ' ' [ [ [ ' ` ' [ ' [ ' ` ' [ ' ` ' ' ` ' ` ' ` ` _ _ _ ~ ~ ^ V V x g.0XlX,XL._.[.]._.].].E.m.a.a.! > . X .     O l ^ c.E.B.a.x.V       . . . . . X X X @ @ : : @ @ * : @ % @ @ * : * * : # * $ $ & # % @ $ $ @ > $ % $ $ > $ $ @ $ $ $ $ ",
"% % ; = % = % = = = = = = = = = = 2 = 2 = = 2 = = = = = = = = = % = = = > = = = , > , > % , , , > , % , y r g r r r t.r t.r r t.g r r y y g g g g r.wXHXrXz.#.O.K F n M M b M I.+XQ.^ 1 @ X O X @ X : X X @ O O X   O { L.I.j.g.g.h.h.h.h.h.j.z.z.Y.rXaX:XM n t.r.r.=.=.=.=.=.8.6.=.8.=.=.6.5.=.6.6.=.6.5.=.5.7.=.6.6.6.=.5.=.5.6.=.6.=.6.=.6.6.6.=.6.6.=.6.=.6.6.6.=.6.=.6.:.r.r.r.+.M t T k.:.d 8 0 5 0 8 0 c 8 c b M { W.|.E.m.x.' _ Z X._ x.m.V.B.x.' _ ' ' ! _ a.R.|.sXCXJXHXHXJXJXJXKXJXJXHXHXHXKXJXzXJ.,.%.%.#.#.%.P @.W W o.%.P T T @.P W P P W P Q o.P P P H H G P H G P H H G K F G P J F G F Q F F I F U U U Q U U U D c c c c 1.yXaXz.z.z.z.I.I.,X,X,XrXrX~.OX}.].f.Z x N V N N _ m./.(./.(./.B.x.' _ ' _ ' ] B.`.|.#XCXJXJXJXJXJXJXJXJXJXJXJXJXKXHX6XF.{ { ` [ x.] a.x.s.u.x.] s.] ] ] ] ] ] ] ' ] ] ' [ ] ] [ [ ' [ ' ' ' [ ' ' [ [ ' ' ` ` [ ' ` _ [ ^ ` ` ' _ ` ^ _ ! ^ V V A j.rXuXI.U._.].W.W.)./.E.s.a.a.x O   . .     $ V a.v.a.x.N     .   . . . X X X X X : @ @ @ @ @ @ @ @ % @ * $ % * * * * & $ % @ * % > $ $ & $ $ $ $ $ $ $ $ $ $ @ $ ",
"; % % % = % = = = = = = , = = , = = = 2 2 = - = 3 2 = 3 = 2 2 = , = = = - , = = % = % , = , , , % , % , t.r r r r r r r r r r r r r g y y y y g g g m l.bXBX,X>.W R K m b v M x ) Y.+XM.x > O X @ @ @ @ @ O @ . . C L.U.g.>.g.>.h.>.>.h.h.h.z.z.rXaX0XO.y m &.r.=.=.=.=.=.=.=.=.8.=.=.6.=.8.=.=.7.=.=.7.=.5.=.=.6.6.=.5.=.5.5.r.=.8.6.6.6.6.6.=.6.=.6.=.6.6.6.6.6.:.6.6.6.r.6.r.6.r.:.:.O.p y :.q.O.8 q 8 0 8 8 c 8 z b M M d.OX@XE.c.' _ Z Z Z _ _ _ ! X._ X._ a.V.'.#XhXJXJXJXHXHXJXJXHXHXJXHXHXKXJXnX:X4.-.%.#.%.%.#.W @.@.P O.W T P @.P P P o.P o.P P o.P J P G G P H F P P G G Q G H F P F F I P Q F I I F I Q U I U U U Q Q U B c a 0 D K.uXrXz.z.I.I.,X!.0X0XrXrXpXpX@X|.E.a.V V S Z N V ' V.^.B.x.' _ ! _ _ ' v.(.|.#XhXJXJXJXHXJXJXJXJXJXJXJXHXJXJXzXJ. .| ` ] a.x.s.x.x.a.x.] s.x.] x.s.] ] s.s.] ] [ [ ] ] ' [ ] ' ] [ ' [ ' ' ` [ [ ' ` ' ' ' ' ' ' ' ' ' ' ' ` _ _ ^ _ _ ~ ! A C V ) z.rXrXI.U.]._._._.W.E.f.s.s.^ 1     . . .   7 ! ' a.9   . . . . . . X X @ X @ @ : : @ @ * @ @ * @ * @ $ $ @ % * # * # * % % * > # $ $ & $ $ & $ $ $ $ $ $ $ $ ",
"= ; ; = & = = = & = , = = = , = = 2 = - = = - = = = = = = 2 = = = , = = = = = = = = , , > % , > , > $ < y r t.r r r r r r r r r r g y y y y y y g g t.m $.>XVXaXz.#.R M n v v v v z 1.oXQ.a.> X @ @ @ @ $ X . x L.Y.j.>.>.>.>.>.>.h.>.>.>.z.,XaXrX>.a g *.r.=.r.=.=.=.=.7.=.=.=.=.8.=.=.6.6.=.5.=.6.5.=.5.=.5.5.=.6.=.6.5.=.6.=.6.6.=.6.6.=.6.=.6.6.6.=.=.6.6.=.6.=.6.:.6.:.=.6.r.:.r.6.:.&.M a L 0.e.R 5 8 0 8 0 8 8 c c b M E U.fX@XE.a.! Z Z S S Z Z Z Z Z c.).@XgXHXKXHXHXJXJXHXHXJXJXJXJXJXJXVX6X3.-.%.%.%.%.%.#.O.P @.@.P o.@.P @.P P O.O.P P o.P P P P P P P P K P F G F P H G G P K F H Q Q P F F P I I I I Q I U U U Q U C Q U B b d d #.,XnX0XI.,XY.,X0X0XrXrXaXnXaX+X|.|.V.^ V Z V S N S _ ! Z Z Z ! X.] C.|.@XdXCXJXJXHXJXJXJXJXJXJXJXJXJXJXNX2X4./ | ' ] a.x.x.x.s.a.] x.x.x.a.] [ x.] u.] ] ] s.] ] ] [ ] ] [ ] ] ' [ ' [ ' ' ' ' ' ' ' [ [ ' ` ' ` ' ' ' ' _ ' ` ` _ _ ^ ! ! ^ V C x ) ,XrX2XL.W._.E.E.W.W.f.) s.] ! >     . .   O 1 > .   .   . . . . X X X X @ @ @ @ : @ @ @ * @ $ @ * @ % # $ $ * & $ $ $ * @ $ $ # $ $ % $ $ $ $ $ $ @ $ $ @ ",
"% % % % = = & = = = = = , = = = = = = = = 2 = 2 = 2 = 2 = - = = = , = = = = = % = = = % < = , , % , % , t.r r r g r r t.r t.r r r r y y y y g y y y v g g o.5.yXVX0X>.R K M v b c c c b D.~.Q.^ * : @ 1 $ 7 j.~.j.( W >.>.-.-.>.>.>.h.g.I.rXrXz.v v +.r.=.=.=.=.=.=.7.=.=.=.7.=.6.=.=.8.=.8.=.8.7.=.5.5.=.7.=.=.5.5.=.5.=.7.=.5.=.6.6.6.6.8.6.6.6.6.6.6.6.6.6.6.6.6.=.6.6.=.6.=.6.6.:.r.6.:.6.+.n p @.l.0.v 8 p 8 0 t 8 p p b b F  .1XfXXXv.! S N N S S Z _ V.|.fXVXJXHXHXJXKXJXJXKXJXJXHXJXKXHXyXG.,.,.-.%.%.%.O.@.%.O.@.@.W *.O.T T T o.O.P P @.P P P P P P P P H P G P P P K Q P P P Q F P Q K F F I I Q Q I I Q U U E E U E E Q E Q C U B d z M h.eXaX,X,X!.!.rXrXrXrXaXnXnXaX#X@X'.m.! V V N N V S Z Z Z _ v.{.|.sXZXHXJXHXJXHXJXJXJXJXJXHXHXKXBX2XK.) ` [ [ x.x.x.a.x.u.x.x.x.x.s.s.u.x.x.s.] x.s.s.] ] a.[ ' s.] [ ] [ [ s.' [ ] s.' [ ' ' [ [ ' ' ' [ ' ' [ ' ' ' ' ' _ ' ' ` ' ' ` ` _ ^ ^ V C g.rXrX,XL.W._.W.W.N.f.>. .[ a.V $ . . . . .     .   . . . . X X X X X X : : @ @ @ @ @ * * @ * @ * % * # * # * # * % % % # > > $ $ $ $ $ $ $ $ $ $ $ $ $ ",
"% % % % = ; = = = , = = = = = = = 2 = , = , = - = = 2 = 2 = 2 - , = = = = = = = = % , % > , , % , > % , a r g r r t.r r t.r r t.g r r g r g r g g r t.r g t.t.t.=XVXaXz.T M m b v t c c z b I.tXw X * 7 * z.0X) R ( W W ( >.) >.>.g.z.0XaXz.T y o.r.=.=.=.=.=.=.=.=.=.=.8.=.=.=.=.=.7.=.=.7.=.5.=.7.7.=.7.5.=.7.=.5.=.6.=.5.5.=.5.6.=.8.8.6.6.=.6.8.=.6.6.6.6.6.6.6.=.:.6.:.6.r.6.6.6.6.:.:.r.r.:.+.c i :.&X:.c 0 p 8 8 0 0 c c G F F k.NXjXA.' N 9 N S ' ).#XZXKXJXHXHXJXJXJXJXJXJXJXJXKXJXvX=X2.%.%.-.%.%.@.%.%.@.@.%.@.P @.Q *.Q @.P W P P o.P P P P o.P P Q P P P G P P P F P G Q G H P P Q Q Y I I P Q I I I I I E U U Q E Q E Q A Q Q A Q b d z R J.jXaX!.!.rXrXrXaXaXnXjXnXnXjX#X@X).a.! N S N N N S x.).|.#XZXJXKXJXHXHXHXJXHXJXJXHXHXHXHXuXK.} { ` [ x.x.x.u.x.u.x.x.x.x.x.b.u.x.s.x.u.u.s.x.[ x.x.[ s.[ s.] ] ] ] [ ] ] [ ] [ [ ' ] [ [ ' [ ' ] ' ' ] ] ' [ ' ' ' ' ' ' ' ' ' ' _ _ ' ^ _ ^ A Z A j.eXeXI.N.W.W.W.f.g. .( ) ' ' l @   . * . . . . .   . . X X X X : : : @ @ @ @ @ @ @ @ $ # $ * $ # * * $ % % * % % * % > % $ $ > $ $ $ $ $ $ $ $ $ O ",
"= ; = ; % = = = & = = = = = , = = = = = , = = 2 2 = = = = = j = = = % , = = = = = , % , % , , > , % % , a y y y r r r r r r r r r g g r g r g r r g r t.g g g t.m 2.iXVX0X>.M n v p v 6 u q.8X3Xw . $ w w C z.P.1.M W ( ( W >.>.h.,XrX,XO.a o.r.=.r.=.=.=.=.=.6.=.8.7.=.7.=.8.=.5.8.=.=.=.=.7.=.=.6.=.7.5.=.7.=.5.=.7.6.6.6.=.5.6.8.6.6.=.6.6.6.6.6.=.6.6.6.6.6.6.6.6.6.6.6.6.6.6.:.6.6.6.6.6.:.:.:.;.o.p m l.*X+.p 0 p 8 p 8 p d G Y W ,.7XJXL.9 9 N S A.gXGXFXHXHXJXJXJXJXJXJXJXJXKXJXMX1X3.-.%.-.&.%.@.%.@.%.P @.@.P W @.@.P @.@.P P o.@.P W W P W P P P P P P P P P J Q P F F P P P P Q G Y P I I I I I I Q I Q I Q E E E Q E E E E E E Q A A C z z z ,.1XjXrX0XrXaXaXaXnXnXnXnXVXjXfX#X@XV.Z N 9 S N M.@X#XZXKXJXJXHXHXJXJXJXHXHXJXHXHXJXNX:X4./ { [ ] x.b.x.x.b.u.u.x.x.x.s.x.] x.x.x.u.u.u.x.] x.x.[ a.u.u.] s.] ] s.s.] s.a.[ ] s.' s.] s.' ' ' [ ' ' [ [ [ ' ] ' ' ' ' ` ' ' ' ' ' ' ' ' ' _ _ ^ ^ ^ / P.wX0Xj.f.N.d.g. .( >.) A ^ [ l 6 2 .   .   . . . . . X X X @ X : @ @ @ @ $ @ $ $ # $ @ # * * # # * * @ % * * % $ $ $ % $ $ $ $ $ $ $ $ $ $ $ $ ",
"% ; % % % % % = = = & = , = , = = = = = j - , = = 2 = < = - - - = = , = = = = = = % = , , , % , , , % , g r g y t.r t.r t.t.r t.r g r g r g r r t.r g r r g r g t.J o.l.vXjXI.R n v 8 +.9X8Xh.A.N   $ w 7 V ! g.0X:X( ( >.#.g.I.rX,X>.g o.&.r.:.:.=.=.=.=.=.=.8.5.=.=.7.=.=.5.=.=.8.=.7.7.=.=.7.7.=.5.=.5.5.5.=.7.5.5.=.5.=.7.5.6.6.6.6.6.6.6.6.6.=.6.6.6.6.6.6.6.6.6.6.6.r.6.=.6.:.6.6.6.6.6.6.6.=.6.:.@.n t ;.-Xl.m 8 c p p p d G Y P q.iXtX{ 1 w 9 N N.iXFXKXHXJXJXHXJXJXJXJXJXKXFXqXh.%.%.%.%.%.&.%.@.@.%.+.%.@.@.W o.@.@.@.P @.P @.P P o.P o.@.P P P P P P P P P P P L K F F P P F Q P I I Y Q P Y I I I I I Q I E E U E U E Q A Q A A E E Q E Q U c z D 3.rXaXpXrXrXaXnXnXnXZXVXZXZXjXdX#XS.9 w N S ).fXKXKXJXJXHXJXHXJXHXJXJXHXHXKXCXyX3.{ { [ u.x.x.x.x.x.x.x.u.x.x.u.u.u.x.u.x.u.x.u.b.x.u.x.] x.] x.] ] s.s.] x.[ a.] ] a.] s.] ] ] [ ' a.' s.] s.[ ] [ ] ] ' ] ' ' [ ] ' ' ' ' ' ' ' ' ' ' ' ' ! ~ ^ ^  .0XuX,Xg.>.j.g.1.1.1.g.6 V a. .&.O   . . . . . . X . X X X @ : @ : @ @ @ $ @ @ @ # * # * # * $ # $ $ @ * # @ $ % $ $ $ $ $ $ $ $ $ $ $ $ $ $ ",
"% % = % ; = % = = = , = = = = = = 2 = = - - = , = = = = = = = = = = = = % = % , = , % , , % , , > % > , g y y y r r r r r r r r g r g r g r t.t.r g r t.g g g g g g J o.+.>XvXP.M L ;X7XF.a.M.V.N   $ w 9 ] B._ ~ P.qX3.) h.,X0Xh.v m &.r.=.6.=.=.=.=.6.8.=.6.=.=.=.8.=.=.7.=.7.7.=.7.=.=.7.7.=.=.7.5.5.=.=.5.7.=.5.5.5.=.7.5.=.8.6.6.8.6.8.6.6.6.8.6.6.6.6.6.6.6.6.6.6.6.6.6.6.6.6.6.6.6.:.6.:.=.:.:.6.:.;.+.p v w.5Xq.v 8 c c G G O.4XNXU.a.V * w w 9 c.s.Y.vXKXKXJXJXJXHXJXKXJXuXH.%.%.@.%.&.%.&.@.%.%.%.+.%.@.@.o.%.@.P Q *.%.P %.P o.%.W o.P P P P P W o.P P P Y P Y Q P P P Q P Q K Q Y Y Q P Q I I I E I E E E I E E E E E Q / E E E A E / A ~ E C D D v I I.aXaXaXaXnXjXZXnXnXnXZXVXrXU.u.w w 9 w ] Y.vXJXKXJXJXJXHXHXJXJXHXHXHXvXJ.} / ` [ u.x.x.x.x.x.x.x.x.x.x.x.x.x.x.x.x.x.[ b.x.u.s.x.s.x.x.x.s.x.x.] x.a.[ x.s.a.] s.a.] s.] [ ] ] [ ] [ ] [ ' a.] ] [ ' ] [ ' ] ' ' ' ] ' ' ' ] ' ' ' ' ' ' _ ! ^ V C h.rXuXz.M ) >.g.>.h.x x V z ,.# . . . . . . . X X . X @ X @ : @ @ @ @ @ $ * $ * $ @ % * @ $ & # $ * % % * % $ $ $ $ $ > $ $ $ $ $ $ $ O $ ",
"; % % = = % = = = = = = = = = = = = = = , = , = = = 2 & = , = = = % , = = = = = = = > = > % , , = % % - y r g y r t.r r g r r r r g r r t.r r r g r g g r t.r g g i g g o.m ;.>.l.IX>Xs.M.E.N.M.9   * w 9 a.R./.B._ 4.wXqX0Xz.m n *.r.:.=.=.=.=.6.6.=.=.=.=.8.=.=.=.7.=.8.=.=.=.=.7.=.7.7.=.7.5.7.=.=.5.7.7.5.=.5.=.7.7.7.=.=.5.6.8.6.6.6.6.8.6.6.6.6.6.6.8.6.6.6.6.6.6.6.6.6.6.6.6.6.6.6.6.6.6.6.6.6.6.=.:.:.:.L p T >X4X:.v v G w.zXtXs.A ) B @ * 1 7 ] / d.L.qXVXJXJXJXKXKXvX=X,.@.@.%.%.;.&.@.%.&.%.@.@.%.@.%.@.@.o.O.O.T @.P @.@.P @.P P W P O.O.P P P P T P P P P Y Y I P P P Q P Y I Q T P I Q Y Q Y I I E I I Q U E E E / Q A E A Q Q / A A / A A Q Q Q b M  .0XjXjXaXnXZXnXZXCXaX1X1.` X.* w w 1 ^ ..F.0XvXJXKXJXJXJXJXHXJXMX3X4.E ` [ [ x.u.x.x.x.x.x.x.b.u.x.x.x.x.u.u.x.x.x.u.x.x.u.x.x.s.x.x.s.x.x.u.x.s.u.u.s.x.[ s.s.] a.] a.] a.] ] s.] ] ' s.] [ s.] ] ] ] ] ' ] [ ' ] ' ] ] ' a.' ] ' ' ' ' ' ' ! Z V ~ J.lX1X( ) 1.h.h.C l x x Z > . . . . . . . . X X : X @ @ @ @ @ @ @ @ @ $ # @ * * * @ % $ $ & $ $ $ + > $ % $ $ $ $ $ $ $ $ $ $ $ $ $ $ ",
"= % % = = = = % = & = = = = = = = = = , = = = = = - = , = = , = , = = = = % = = % , = = , , , % , = % - g y g y r r r t.r r t.t.g r t.r r g t.r r t.r g t.r g g g g g g g o.o.n <.2.a.m.E.N.D.M.9   * 7 l a.].}.}.^.] A >X2.y +.&.r.=.6.=.=.=.6.=.=.8.8.8.=.8.6.7.=.=.7.=.5.7.5.7.=.7.=.=.5.=.7.5.5.7.5.7.=.5.7.5.7.5.=.5.7.7.6.6.6.8.5.6.8.6.6.6.8.6.6.6.6.6.=.6.6.6.6.6.6.6.6.6.6.:.6.6.6.6.6.6.6.:.6.6.6.r.=.:.;.m c 0.wX4X&XIXzXL.` A Q ~ z X * > 1 ! C A | n.Y.iXFXKXNX1X<.%.%.%.&.&.@.@.%.&.%.@.@.@.%.%.@.o.@.W @.@.@.@.T %.P Q @.o.W W o.O.P O.P O.Q P P T P P Q Q P P Y P I I I P Q P Q I I Q W E I E E E E E E Q E Q E Q E / E { E { / E / A { { A ` Q ~ D z M g.rXZXVXnXZXZX2Xh.} Q ~ Z * * j $ V ` / g.K.3XaXJXJXJXJXHXiXF.{ E [ ] x.x.s.x.x.s.x.u.x.x.x.x.x.x.u.b.x.x.x.b.u.u.b.x.b.x.x.x.x.u.x.x.s.s.x.x.s.x.x.a.x.x.] ] x.s.] s.] s.a.] u.] a.a.] ] ' ] ] ] [ ' ] ] ] ' ] ] ' ] ' ' ' ] ] ] ] ' ' ' _ _ ^ ^ V ) :X>X>.>.>.d.V l x x ! z.&X. . . . . X X X X X @ @ @ @ @ @ @ $ $ @ @ * @ @ * : @ * % $ $ % % $ $ $ % $ $ $ > $ $ $ $ $ $ $ $ $ $ $ ",
"= % % ; % = % = = = = = = = - - , = = = = = = = = , = = = = = = = = = = = = = % % = % , , % , , % , - < g r y y r t.g r t.r r r r g r g t.t.r g g t.r g y g r y g y g g g m t.&.U ' M.N.N.L.F.v.l . * w l c.].|.@X|./.x.l v &.=.=.6.=.6.=.8.8.=.6.=.6.=.8.=.=.8.=.8.=.7.7.=.=.7.7.=.=.7.=.7.=.5.8.5.=.7.=.5.5.7.7.=.=.5.5.=.=.7.6.5.8.6.6.6.6.6.8.6.6.6.6.8.6.8.5.6.6.6.6.6.6.6.6.6.6.6.:.6.6.<.:.6.6.<.6.:.6.:.:.=.:.$.v n <XbXY.s.~ A A Q A q X * $ 1 ! z z B E | n.P.2Xi.%.O.@.&.&.%.$.&.&.@.%.@.@.@.@.%.#.@.@.@.@.@.o.@.@.@.@.P *.P W o.W o.P O.W P P W O.P P P W P P P P Y Y P Y I I I I I Y E I I W E I E E I E E E E E E Q / A E E A / A E { / A Q { A { ` E A U M ) I.aXZXiXK.} E B C ! Z * * * @ x { E E { g.T.0XvXJXzXK.} Q ` [ x.u.x.x.u.b.u.u.x.x.x.u.x.x.u.x.x.b.x.x.u.x.x.x.x.u.b.x.x.x.x.x.x.x.x.a.x.s.x.s.x.x.s.x.] x.x.s.a.x.] a.] s.] a.] ] a.] a.] a.s.] ] ] ] ] ] ] ] ] ] ] ] ] ] ' a.' ] ] ' ' ' _ ! ! V V ) P.>.d.` x l x l | uX8XX . . . . X X X X X : : : @ @ @ @ $ @ $ * $ $ % @ * * @ & @ $ $ $ $ > # $ $ $ > $ $ $ $ $ $ $ $ O $ $ $ ",
"% % % = ; % % = = = = = = 2 j = = = , = = - = - j = , = = , = = = = = = , % = = , , % = , , % , % > ; < g r g y r g r r t.r t.r t.r g r r r t.r g r g g g g t.g g g g g g g g *./ s.D.D.j.K.h.b.9 . * w l c.}.@X@X@X{.V.! R 6.=.=.=.6.=.6.=.=.6.6.8.6.8.=.6.8.=.7.=.7.=.5.7.8.5.5.7.=.7.5.7.7.7.7.=.5.7.7.7.7.=.5.7.7.5.7.7.5.5.8.6.6.6.8.6.8.6.6.6.8.=.6.6.6.6.6.6.5.6.6.6.6.6.=.6.=.6.6.6.6.6.6.6.6.6.6.6.6.6.6.:.=.=.:.O.c ~ ^ ~ Q Q Q Q A 9 . @ O > V z z z 0 c Q } ,.O.@.;.$.%.&.&.%.&.%.&.%.@.%.@.@.$.@.+.@.W @.@.W @.T @.%.P @.%.P @.o.P W O.P O.P P P W W P P P Q P T T Q Y Q Y Y P E W I Y E W I E E E E E E E E E E E E E / E E { A / ~ A / { { A { A E ~ { ~ / C U d.K.g.W C B C B ! S X * * O 9 ( ( W W Q W 1.K.J.4.Q ~ [ u.[ x.] ..x.u.u.] b.x.u.x.b.u.x.b.u.x.u.x.x.b.x.x.b.u.v.u.x.x.b.x.x.x.b.x.b.x.x.x.x.x.x.] b.x.x.s.x.a.u.s.a.a.] a.a.s.] s.a.] s.] a.] ] s.] ] ] ] a.' a.a.' a.a.' ] ] a.' a.] ' ' ' _ ! B d.j.| s.V 7 9 1 ~ D.wX=XX . . . . . X . X X : : @ @ : @ @ $ $ @ @ $ $ @ * @ % * $ @ % % % % # % $ % $ $ $ $ $ $ $ $ $ $ $ $ $ $ ",
"; % = % = % = = = = = , = = = = = = , = = , = = = , & = = = = = , = ; , % = = % = , = = , , = = % , $ < n y g y y g y y r t.r r r t.r t.r g t.r g h h g g g g g g g t.g g m g &.( ..F.h.F.G.3.b.9 X 1 w N v.{.@X@X#X|.C._ E =.=.6.6.6.=.=.8.=.6.=.8.8.=.8.=.8.8.7.5.=.=.7.5.=.7.5.7.7.7.5.7.5.7.7.5.7.5.5.8.5.=.7.7.6.7.7.6.=.7.8.5.6.8.5.6.6.5.6.=.6.6.=.8.6.8.5.6.6.6.6.6.6.6.6.6.6.6.6.6.6.:.<.6.6.6.:.6.6.6.:.6.:.6.:.r.M ) A A Q Q C C A w . @ @ * N d 8 q 0 q d G @.@.&.&.%.&.%.&.%.%.@.&.%.&.@.@.&.%.@.@.%.%.@.O.@.P @.%.@.P Q *.W P @.P P O.T W T P P P W W P Y P P Q P E P P Q W Q P E W Q W Y E E E E E E E E E { Q { Q E Q / { E { A { A { { A { { { { ` { { ` ~ E C ~ U B B B C B ! S X @ * . 9 W -.%.-.} W I E P A [ ] u.[ x.] x.x.] ..x.u.x.x.u.x.x.x.b.u.x.b.u.b.b.x.v.x.x.b.u.v.x.x.b.x.b.u.x.c.x.b.b.x.x.x.x.x.x.b.x.x.s.x.x.s.a.] s.x.a.a.s.s.] a.] a.a.s.] ] a.] ] ] a.] ] a.a.] a.a.] a.] a.' ] a.' ' _ B g.N.s.x.Z l 7 > ^ L.E wX>XX .     . . X . X X @ @ : @ @ : @ * @ * $ @ @ $ * $ $ $ * @ % & # $ * # & * & $ $ & $ $ $ $ $ $ $ $ $ $ ",
"= % = ; ; % = % % = = = = = = = = , = & = = , = = = = = = , = = % , % = = = = = = % & = > = , % , , % , f y g y y y g y g r r t.r r g r g g r g g g g g g g g g g f g g g g g r.} u.F.F.i.H.3.x.9 X j w N v.}.@X#X@X}.^.] E =.8.=.6.=.8.6.=.8.6.=.8.=.8.6.6.8.6.=.5.7.7.5.5.8.5.8.=.7.=.5.5.7.=.7.5.7.=.7.5.7.7.6.7.7.6.5.5.5.7.5.5.8.6.8.5.5.8.5.8.5.6.6.6.6.6.6.6.5.5.6.6.6.6.6.6.6.6.6.6.6.0.6.6.0.6.6.6.6.6.6.:.6.:.0.:.O.^ E C C Q C Q Q 6   : : * B 8 u 8 5 q 8 d &.%.%.&.&.%.&.%.@.&.&.@.@.@.%.@.@.@.%.@.@.%.@.@.@.@.@.T @.@.@.@.o.%.@.W W o.W o.P W W P P P P Y P W W P O.E W Q Y W W Y E W Q E Y E W E E E E E E E E E Q { { Q Q { Q { Q { { A { { A { { { ` { | { | ~ | C B B C N V ! Z . : @ . 7 / &.%.%.%.-.%.W } [ [ ] [ x.x.[ [ u.u.x.] x.] x.b.] b.u.u.b.x.x.x.u.u.c.u.c.b.u.b.x.b.x.x.x.c.x.b.x.x.x.x.x.x.c.x.b.u.b.x.x.x.x.x.a.x.x.x.] a.a.x.x.x.a.s.x.a.a.a.a.a.a.x.] ] x.] a.a.a.a.] a.] ] ] a.' ] ' ' C d.N.a.s.! 9 1 $ C d.x >.wX<XX .   . . . . X X X @ : @ @ @ $ @ @ @ @ $ $ * $ $ $ # * # $ * * % * $ & $ # # $ $ $ $ $ $ $ $ $ @ $ $ @ ",
"; & % = % = = % = % = = = = , = = = = = = = = = = = = = = = = = , , , ; = = = = = = = = = > = & , % % , g y g y r g r g r t.g r t.r g g g r t.h h g g g g g g g f g g g t.g g r.} ..i.i.h.G.h.x.9 X j w S S.|.@X#X#X|.R.u.E =.=.=.6.6.=.=.8.8.6.6.8.=.6.8.6.6.8.5.8.7.6.8.8.8.5.8.5.7.7.7.7.7.5.=.7.5.7.7.5.7.5.6.7.7.6.7.5.7.5.5.6.5.5.6.6.5.=.6.5.6.8.5.6.6.5.5.0.6.6.6.5.6.5.6.6.6.6.6.6.6.6.6.6.6.6.6.6.6.6.6.:.0.6.6.:.R ^ E C Q C C C C 7 . : : @ k h h 5 5 5 5 a &.%.&.%.&.%.&.&.@.%.%.@.@.&.%.@.@.&.%.@.%.@.%.+.T %.%.O.W P @.P P @.P @.O.W O.W O.T W T P W W Y W P W T Q W Q P Q W E Y W Q E E E E E E E E E E E E Q { / E E { E { { { A { { A Q A { { ` { ` ` { ` | ~ [ C B B V C V ! S X : @ . w ( -.%.%.%.;.%.%.%.[ [ x.] ] ] u.s.s.u.x.x.u.u.x.x.s.[ x.x.u.u.b.b.x.b.u.v.x.x.b.x.b.x.x.b.x.v.x.b.u.v.x.x.b.c.x.x.c.c.x.x.x.x.x.a.x.x.a.x.x.a.x.x.x.a.a.x.a.a.a.b.a.a.] s.a.a.] x.a.a.a.a.a.a.] a.a.a.a.a.' A d.M.s.s.! 7 1 + M n.7 g.g.7X<XX .     . . X X X X X : : @ @ @ @ @ @ @ @ * $ $ * * * # % @ & $ @ % * # & $ * & $ % $ $ $ $ $ $ @ $ $ @ ",
"& ; & ; = & ; = = = = = = = = & = = = = = = = = = = , = = = = , ; # , , = = % = = % & = > = = = % % % < g y g y g r g y r t.r t.r t.r t.r t.r g g g g g g g g g g g g m g m m r.} d.T.i.i.J.q.a.9 X w w V S.}.#X#X#X|.^.] W 6.6.8.=.8.8.6.8.=.6.8.6.8.6.6.8.6.6.7.=.8.7.5.5.=.7.5.5.7.6.=.7.5.7.7.7.7.5.=.7.5.7.7.7.6.7.5.5.=.7.8.5.6.5.8.5.5.5.5.5.5.6.5.5.6.6.6.6.6.5.6.6.6.6.6.6.6.6.6.6.6.6.6.:.6.6.r.r.k.6.6.6.:.6.<.6.#.^ A Q A C Q C Q 7 . X : : k w h 5 5 5 5 u ;.&.%.&.%.&.&.%.&.&.%.&.&.$.$.&.%.@.@.%.+.%.+.%.@.@.@.@.@.@.W @.%.@.W P O.W T o.W P o.W W P P W P W P Q W P W W W Y E W Q W W E E W E E W E W E Q } E E E { { Q { Q { A { Q { { { { { ` { { { | | | | ~ [ C N C N V V Z S X : :   w W %.%.;.%.%.%.&.,.[ ] ] ] ] [ u.] u.[ [ x.[ x...u.x.x.x.u.b.x.x.x.x.x.b.u.u.v.u.v.u.b.x.b.v.u.b.v.v.b.x.v.x.c.x.b.c.x.x.b.x.x.b.x.b.b.x.x.x.x.c.a.a.x.x.x.x.c.a.a.a.x.x.x.a.x.x.a.a.a.a.a.a.a.a.a.a.] a.' A | M.s.b.! 7 1 O x f.7 ) I.h.7X2XX .   . . . . X X X @ @ @ : @ : @ $ * @ $ @ $ @ : @ # * $ $ $ $ % * # * $ $ & $ $ $ $ $ $ $ $ $ $ $ @ $ ",
"= % % ; % = % = = = = = = = = & = = = = = = = = % , = = = = % = , = , = = = = % = = % , = = , , > % % , g g g y g r r t.r g g r g t.r t.g g g g g g h g g g g g t.g t.m m t.m r./ d.G.G.i.;X4.] 9 X 1 9 N v.}.#X#X#X|.^.u./ 6.6.=.8.8.6.8.6.8.5.8.6.6.8.8.=.6.8.6.7.6.6.6.7.7.6.8.7.6.7.7.5.=.7.5.7.=.7.7.5.7.5.7.7.6.5.6.7.7.7.5.5.=.8.6.5.5.=.5.6.5.5.6.5.5.8.6.6.6.5.5.6.5.5.6.6.6.6.6.5.6.6.6.<.6.6.6.:.=.:.:.6.6.6.6.6.O.^ A Q C C Q C C 7   X X : k 5 5 5 5 5 5 h ;.%.%.&.%.&.&.@.&.%.@.&.%.&.@.%.&.%.@.&.%.@.%.%.+.@.+.O.@.W W %.W o.@.P T W @.W o.W T W P W W P Q O.E O.Q W P Q P W W Q W E E E E E E E E / E { Q } Q / { Q { { A Q { { E { { / { ~ { { { ` ` | | | [ ~ [ C C N C V x ! N   : : . w / %.%.%.%.%.%.;.,.[ [ ] ] a.] ] a.] x.[ x.x...x.x.u.x.x.x.u.b.b.u.b.u.b.x.b.b.x.b.x.x.c.u.v.b.x.b.x.c.c.c.b.b.c.x.c.x.b.x.v.v.x.x.c.x.x.x.x.x.x.x.x.x.x.x.a.x.c.a.a.a.a.b.a.a.a.x.s.x.a.a.a.x.a.a.a.a.] A s.V.s.[ _ 7 1 X B f.1 E F.0Xh.8X2XX .     .   . X X X : : : @ @ @ : @ * @ $ $ @ * * * * % # * & & @ & & @ $ & & $ $ $ $ $ $ $ $ $ $ $ $ @ ",
"; % = % = % = % % % = % = = = = % = = = = = = & = = = = = = = = = = % = = = = = = = = % = = , % = = % , g y g g r g g r t.r r t.g r r g g h h g g g g g g g g m m f m g g t.t.r.( d.J.&XH.&X3.u.9 : 1 9 S m.|.@XsX#X|.^.u.W 6.6.6.6.=.8.6.8.=.6.5.8.8.6.8.8.6.5.7.7.7.7.7.7.6.7.5.5.7.7.5.7.7.7.7.7.7.5.7.7.5.7.6.7.7.7.7.7.6.6.8.5.7.7.5.8.5.5.=.8.6.5.5.=.5.6.5.5.5.6.6.5.6.6.6.6.6.6.6.6.6.0.5.5.6.6.k.6.r.k.5.6.2.6.<.6.#.^ A E A E C A C w . X X : q 5 5 5 4 5 5 h r.&.&.&.&.%.&.%.%.&.%.&.@.&.&.@.@.@.%.$.%.@.@.+.%.@.%.@.@.@.@.o.@.W W %.@.W W P W O.W T T T P W W O.P W W W W W W E W W Q W W W W E } E E E Q } E E { Q E { Q A { { { A ` E ` { { { ` { { | { | ` | | ~ [ A V V V V V ! S . X :   1 W %.%.%.,.%.%.,.;.[ ] ] ] [ ] ] ] ] [ x.[ u.x.] ] b.] ..x.b.u.x.x.u.b.x.x.c.u.c.x.x.v.u.v.u.b.v.x.v.c.c.v.c.v.c.c.v.c.c.c.x.x.x.c.x.c.x.c.x.x.b.c.x.c.x.x.x.c.a.c.x.c.c.a.x.x.x.a.x.a.a.a.c.a.a.a.a.a.A [ V.s.s.` w 1 O x n.7 E F.Y.aXh.H.d.O .   . . . . . X X @ X @ : @ @ @ @ @ @ @ @ $ @ $ @ * @ $ @ @ $ $ $ $ & % $ $ $ $ & $ $ $ $ $ $ $ @ $ $ ",
"% % ; ; % % = ; ; = = = = = = = = = = = = = = = = = = & = % = = = , = = = , ; = = % = = = > % = = % ; - t.y g y t.r g t.r g r r r t.t.r g g g g g g g g g t.g m g J t.f J J J =.` i.&X&XJ.;X3.' 9 : 1 9 S B.|.@X#X#X|.R.] W =.6.8.6.8.=.6.8.6.8.5.6.6.8.8.6.8.8.7.=.7.6.8.7.6.7.8.8.7.8.7.7.5.5.7.5.7.7.5.7.7.7.7.7.7.6.6.7.7.7.5.8.6.5.5.6.6.5.8.6.8.5.5.8.5.6.5.5.5.6.5.5.5.6.6.6.5.6.6.6.6.6.6.5.6.6.r.6.5.6.6.6.6.<.<.6.+.^ A Q C E A A C 8 . X X X p 5 e 3 5 5 r h :.&.&.%.&.%.%.&.&.%.@.&.@.%.@.&.&.@.@.%.%.$.@.%.@.@.O.@.@.@.@.W %.o.@.W P O.O.W O.W W T W W P O.Q W Q W T W W W W E E W E E W E E E Q E { E E E { { Q { { { Q { Q { { { { { { { { ` { [ | ` ` ` ` | | ~ [ A C A V V V Z N . X X . 1 W %.%.%.%.%.%.&.,.[ ] ' [ ] [ u.] s.] u.s.x.] [ x.] x.x.x.u.x.x.x.x.u.x.u.b.c.b.b.x.b.v.u.b.x.x.v.v.b.c.b.v.v.c.b.v.x.v.v.c.b.c.x.c.c.c.x.c.x.c.x.x.x.c.x.x.x.c.x.a.x.a.c.a.x.a.x.x.a.a.a.a.a.c.a.a.V [ E.f.s._ 9 7 . q n.7 ) D.Y.iX:XwXqXx O         . . . . X X @ : : @ @ @ @ @ * @ $ $ $ $ $ : * $ & @ & * & & $ $ & $ $ $ $ $ > $ $ $ $ $ $ @ $ ",
"= % % % % ; % = = & = % = % = = = % = = = & = = = = = = , = , = = % = = = % , % = = % = = = = > = ; % - g g g g r t.g r t.r t.g t.r g t.g h g g g g g g g g m g t.g m t.J J t.r.{ 4.=XJ.*X-X0.' 9 : w 9 Z B.|.#X#X#X|.^.u./ 6.5.=.8.6.8.8.6.8.8.8.8.8.6.8.5.8.5.6.7.8.7.7.6.7.7.8.5.5.7.5.7.7.7.7.7.5.7.7.7.7.5.6.7.7.7.7.7.6.7.8.5.5.5.5.5.8.6.5.5.5.6.5.5.5.5.5.5.5.5.:.5.5.5.5.5.6.6.6.6.5.6.0.6.6.0.6.6.6.6.0.6.6.6.5.6.#.~ A A A A Q A A 7   X X X 0 e e 5 5 r 5 h =.%.%.&.&.&.&.&.%.&.&.%.&.&.%.%.&.%.%.&.&.%.$.%.%.@.%.%.@.W %.@.W W @.@.@.W %.O.W O.T W O.W W W %.W O.W W W W P E W W E W Q } Q } W } E Q } { E Q { } E { Q { { { { { A { / ` ` { { { ` { | | | | | | ~ [ A S V Z V V Z N . X X   1 W %.@.%.%.%.%.%.;.[ [ ] ] ] [ [ [ ] ] ] ] [ ] x.s.x.x.[ s.x.u.[ b.x.b.u.c.x.x.u.u.b.x.x.b.v.v.b.b.x.b.v.v.v.c.c.v.c.v.v.c.c.c.c.c.x.x.c.c.c.c.c.c.c.c.c.c.c.c.c.c.c.c.c.a.c.x.c.x.a.c.a.c.c.a.a.a.A [ E.a.[ ! 9 w . 9 f.7 C D.U.0X1XwXIX/ ^ .           . . . X X X @ : @ : @ @ @ @ @ @ @ @ % @ * : @ & $ @ & $ $ $ $ $ & % * $ & $ $ $ $ @ $ @ $ $ ",
"= # # = = % % = ; & = = = = = % = = = = % = = = = = & = = & = = = = = = = % = = > = = = = % , % % = % , m v g g g r t.r t.r t.r r t.r t.g g g g g g g n g g g t.g J J t.J t.o.=.E 4.-XJ.-X-X3.] 9 : w 9 Z v.}.@X#X#X|.).u.W 6.5.8.6.6.6.8.6.5.8.5.8.8.5.6.5.8.5.5.7.5.7.7.5.6.7.5.7.7.7.7.7.7.7.7.7.5.7.7.7.7.7.7.7.5.7.5.5.5.6.5.7.5.5.5.5.5.5.5.5.8.5.5.5.5.5.5.5.5.5.5.6.5.6.5.6.5.5.6.6.6.5.6.5.6.6.6.0.6.6.6.6.0.6.:.6.O.^ A A A A A A A 6 . X X X u 5 5 5 r 5 h h 6.%.;.%.%.&.%.&.%.%.&.%.%.&.@.&.%.@.%.%.%.&.@.%.%.@.@.%.@.%.%.P %.W O.@.W O.%.W W O.W O.%.W W P %.Q %.E W W W W W W E W W E } E E W } E { Q { Q Q { { Q { { { { A { { A { { { ` { { { { | | ` | | ` | ` [ Z C Z V ^ V ! S . X X   1 E %.@.%.%.%.%.%.,.u.[ ' ] ] ' ] [ a.] ] ] s.s.] u.] x.] x.s.x.x.u.b.x.x.x.x.x.x.x.x.x.x.v.u.x.b.v.b.v.v.v.b.v.c.v.c.x.v.c.v.c.v.c.v.x.v.x.v.c.c.c.c.c.c.c.c.c.c.c.c.c.x.c.a.c.a.c.a.c.a.c.a.a.a.A ' V.b.[ _ l 1 + 1 n.6 / j.L.rX1XqX6Xz ! ' . .         . . . . X X X : : @ @ @ @ @ @ @ * $ $ $ @ @ $ # * & & $ & & > $ > $ $ $ $ $ $ O $ $ O $ $ O ",
"# = % % % % ; % % = % = % = = = % = = = = = = = = = = = = = = = = = % = = = = = = = % = % , % , & = % = t.y g g g t.r t.r t.r t.r g g g r t.g g g g t.g t.m m t.m t.t.J J o.o.6.} F.=XJ.=X-X3.] 9 @ w l S B.|.#XsX#X|.^.u.} 6.6.6.8.8.8.8.5.8.5.8.5.5.8.8.8.8.8.7.7.7.5.7.7.7.7.5.7.7.0.7.7.7.0.7.5.7.7.7.7.0.7.5.7.5.7.7.5.7.7.8.6.5.5.5.8.5.5.5.6.6.5.5.5.5.5.5.6.5.5.6.5.5.5.5.6.6.6.6.5.6.6.5.6.0.0.5.6.5.6.6.6.6.6.5.0.#.~ / C A / A A A 8 . X X X q 5 e e 5 h 5 h 6.&.&.&.%.&.&.&.&.&.&.&.&.%.%.&.%.&.&.%.%.@.%.%.%.%.@.@.%.%.%.%.%.%.%.W @.W W O.#.#.W W P W W W W %.E W W W Q W W E Q } W Q Q } } / E / E } E } { E { { { Q { Q { { { { { ` { { { [ [ { ` | [ | | [ [ { [ A A V V Z V Z N . X X   6 / %.@.%.%.%.%.%.<.{ ] ' [ ' ] [ ] [ ] [ ] ] ] a...x.[ b.x.u.u.s.x.[ u.x.x.u.x.x.b.x.v.b.x.b.c.v.x.x.v.c.v.c.c.v.v.v.v.v.v.x.x.v.v.x.v.x.v.x.c.c.c.c.v.c.c.c.c.c.c.c.c.c.c.c.c.c.c.c.a.c.a.c.a.Z ` V.m.` _ l 7 X 7 f.7 B d.D.0X0XqX>Xx V ' ' .             . . X X X X X @ : : @ @ @ $ @ $ @ * @ * & # * # $ * # $ $ $ $ $ % % % $ % $ $ $ $ $ $ $ $ ",
"= # ; % # = % ; ; % ; % = ; = % = = = = = = & = = = = = = = = = = = , = = = = % % = % = % , , , = % # , t.y t.y g r g r t.g g r t.g g g y t.g g g g g g m g t.m t.t.J J t.o.o.6.} h.=X=X-X4X3.X.9 @ w 9 S v.}.#X#XsX|.^.u.} 6.5.8.8.8.5.8.5.5.8.5.8.5.8.8.5.5.8.5.5.7.5.7.7.7.7.7.7.7.7.7.7.7.7.7.7.7.7.7.7.5.7.5.7.7.5.7.7.7.7.7.7.7.5.5.5.8.5.5.8.5.5.5.5.5.5.5.5.5.0.5.0.6.5.6.5.6.5.5.0.6.0.6.0.6.5.6.6.0.6.6.6.5.0.0.6.#.~ ~ A ~ ~ / A A 7   X X X h 5 e 5 h 5 h d 6.%.;.&.&.%.&.%.&.%.%.&.&.&.&.&.&.%.@.&.&.%.&.%.%.@.@.%.%.%.@.%.%.W %.W W %.%.W #.W #.W %.E %.W W W W W W W W } E W W W Q } } Q Q W { E } Q E { E { { { { { { { { { { { { [ { [ { { ..{ [ { { | | | ` { [ ` V A V V V Z N   . X   1 W %.%.%.%.%.%.&.,.u.' [ ' [ [ [ ' ' [ [ [ [ ] ] ] s.[ b.[ x.] x.s.u.s.x.x...x.x.x.b.u.b.v.c.c.b.b.v.c.c.v.v.v.v.c.v.v.v.v.v.v.v.x.v.v.c.v.v.v.c.v.c.c.v.v.c.v.c.c.v.c.c.c.c.c.c.c.a.a.x.x.a.Z [ V.M.~ ` 9 1 X 7 d.7 C j.L.0X,X<X>Xz ' Z ] '             . . X . X X X @ X @ @ : @ @ : * @ @ * $ @ * # * $ & $ $ * # $ % $ $ $ $ $ $ $ $ $ $ $ $ O $ ",
"= # % % ; # % % % = % = % % = = % = = = = = = = = = = = = = = = = = % = = = = , = = = = = % , % > # > < g n g g y t.g y t.r g t.g g r t.t.r t.g g g t.g g m m t.m J o.J o.o.o.6.{ F.-X=XT.9Xe.u.9 * w 9 Z B.|.#XsX#X|.R.u.{ 5.5.8.6.5.8.5.8.7.8.7.5.8.7.7.8.5.5.5.7.5.7.7.7.6.7.7.7.7.7.7.7.7.7.7.7.7.5.7.7.7.7.7.7.5.7.5.7.5.5.5.6.5.5.8.5.5.5.5.5.5.7.8.6.5.5.5.5.5.5.5.5.5.6.0.6.5.6.6.6.5.6.5.6.6.6.5.0.6.6.0.6.0.6.6.0.%.` / ~ / / ~ A ~ 7   . X X h 5 e e h h h f 6.&.%.&.;.&.&.;.&.&.;.%.%.&.%.&.%.&.&.%.&.%.%.@.%.&.%.%.%.%.%.%.%.%.%.%.%.%.W %.W %.W W %.%.E %.W W W W W E W W } W W { } W E } W { } E { } { Q } { Q { { A { { { { ` [ { { { { [ { { [ { | | [ { [ | ` [ A V Z V ^ V Z S . . X   7 W %.%.%.%.%.%.r.<.{ ' ' [ ' ' ' ' ] [ ] ] ] s.[ ] [ ] ] ] ] x.] u.x.u.u.x.x.x.x.x.x.u.c.u.b.v.x.v.x.b.v.v.c.b.c.v.v.x.v.v.v.v.v.v.v.v.v.x.v.v.v.v.x.c.v.c.v.c.v.c.c.c.v.c.c.c.c.c.c.c.c.a.Z ' M.m.` ` l 7 @ 7 d.6 x d.U.rX,X:X5XC _ ' V a.^               . . . . X X X @ @ @ @ @ @ @ @ : * # @ * # $ $ # $ $ & * $ % + $ $ % $ $ $ $ $ $ $ $ O $ $ ",
"# % # % # = % ; % ; % = = = = % = = = = = = = = = = = = = = > = % = = = % = = % % = = % = , , , % > + < t.g t.r t.r t.r g r t.r y t.g g y g g g g m g m t.g t.m m t.t.o.o.o.*.8.} F.=X=X=X<X3.' 9 @ w N X.v.{.#XsX#X|./.x.} 5.5.8.5.8.8.5.8.5.5.5.7.5.8.5.7.7.5.7.7.7.7.7.7.7.7.7.5.7.7.7.7.7.7.7.7.7.5.7.7.7.7.5.7.5.7.5.7.7.5.5.5.7.5.5.7.5.7.7.6.7.6.5.5.5.5.5.5.5.6.5.6.5.6.5.6.5.6.6.5.6.5.6.6.6.5.6.5.6.5.6.0.6.0.<.6.-.` / ~ / ~ ~ / A w   . . X 8 5 h e h h h g 6.&.&.&.;.&.&.&.%.&.%.&.&.&.%.%.&.&.&.$.%.&.%.%.%.%.%.%.%.%.%.%.%.%.W %.O.%.#.W %.W ( %.E %.W W W W %.W W } } E E W E } E W { Q Q { } Q Q E { { { { { { { E { { { [ { { ` { { { [ { { { | | [ | | [ ` { s.! ~ V Z V V Z N     X   1 W &.%.%.%.&.%.&.4.[ ' ' ' ' [ ' ' ' ] [ ] [ ] [ ] ] ] ] ] ] x.] u.s.] x.] x.x.b.x.x.c.x.v.x.b.c.c.v.v.c.c.c.v.v.v.v.v.v.c.c.v.v.v.b.v.x.S.v.v.v.c.v.v.v.c.v.v.m.c.m.c.v.c.c.c.c.m.a.c.a.Z [ V.M.` { N 7 @ 7 f.6 7 j.L.0X,X:X6X/ ! ' ' ! ] _             . . . X . X X : X : @ @ @ : @ @ @ * : * @ * * % % * % @ % * $ $ $ $ $ $ $ $ O $ $ $ $ $ $ O ",
"% ; # = % ; # = = % = % = % = = % = = % & = = = & = = = = = = = , , % = = = = = = = = = = % , % = % # < t.y t.t.r t.y t.g g g g t.y g g t.g g t.t.g t.t.m m t.o.o.o.o.o.o.+.*.5.W F.=XJ.=X-X3.' w j w 9 S S.{.#XsXsX|.R.x.{ 6.5.5.8.8.5.8.7.8.7.8.8.7.7.7.8.7.7.7.7.7.7.5.7.7.7.7.7.7.7.7.7.7.7.7.7.7.7.7.7.7.7.5.7.0.7.7.5.7.5.5.7.5.5.7.6.5.5.6.5.6.7.5.5.5.0.5.5.5.5.5.5.6.5.5.6.6.5.5.5.0.6.6.0.0.6.0.6.0.6.5.6.0.6.6.6.-.` ` ~ ~ ~ ~ ~ ~ 9     . X h h e h h h a f e.&.;.&.&.&.;.&.&.&.&.;.%.&.&.%.%.;.$.$.&.%.%.&.&.%.&.%.@.%.%.%.%.%.%.( W %.%.W #.-.%.W %.W %.} W W } W E W W W } W / W } Q W } } W { { } { Q } { { E { { { { { { { { [ { { { ..{ [ ..{ | [ | | | ` [ { s.~ V A A Z Z ! N   . X   1 W %.%.%.%.%.%.;.<.` [ ' ` ' ' ' [ [ [ ' [ ] [ ] ] [ s.[ s.] ] ] ] x.x.] x.] u.u.x.x.x.b.c.x.x.v.x.v.b.c.v.v.c.c.c.v.v.v.v.v.c.v.v.v.v.v.x.v.v.c.v.v.v.v.v.v.c.v.v.c.v.c.v.v.c.c.c.c.x.V [ V.V.[ { N w $ 1 n.7 7 j.f.!.1XP.yX) ' ' ' ] ! a.^             . . . . X X X : : : @ @ : @ @ @ : * @ : % @ @ @ @ * % $ * % > $ % $ + $ $ $ $ $ $ $ $ O $ $ ",
"% # # = % % % = % = % = = & = % = = = = = % = = = = = = = = = = = = = = = = % = = = = = % , % , & % ; - t.g g r r t.g g r t.t.g y t.g g g g g g m g m t.m t.t.J t.o.o.o.+.+.*.7.} F.>XP.=X-X3.' 9 * w N X.v.{.#X#X#X|.^.x.{ 6.5.8.5.7.8.5.8.7.5.7.7.8.7.5.7.7.7.7.7.7.0.7.7.7.7.7.7.7.7.7.7.7.7.7.7.7.7.7.7.7.7.7.7.7.7.7.7.5.5.7.5.5.5.5.5.5.6.5.5.5.7.5.5.5.5.6.5.5.5.5.5.5.6.5.5.6.0.6.5.5.5.5.6.6.6.0.6.6.6.6.0.0.6.6.0.W ` ~ ~ ^ ~ ~ ~ A 8   . . X 5 5 h h h a g m e.&.&.;.&.,.;.%.;.%.%.&.;.&.&.;.&.&.&.%.&.;.%.%.%.%.%.%.%.%.%.%.} %.%.%.%.-.%.%.%.W %.W %.%.W W W } } W %.} } W } E } W %.} W { W } E } Q { { { { { { { { { { { { [ { { [ | { [ ..{ ..[ | | | [ [ [ | ` [ ! A V V V V V N . . . . w } %.&.%.%.%.%.,.3.[ ' ` ' ` ' [ ' ' ' [ [ ' ] [ [ ] ] [ ] ] ] ] x.] ] s.u.x.s.s.x.x.x.x.b.u.c.x.c.c.x.v.v.c.c.v.v.v.v.v.c.v.v.v.v.v.v.v.S.x.v.v.v.v.v.v.v.m.v.v.c.m.m.c.v.c.v.c.m.a.Z ' V.Z.` { Z w $ 7 n.7 7 d.z.Y.0X,XwX} ' ' a.' ' ! s._           . . . . . . X : X X @ X @ @ @ @ : @ : * : * * * $ % % * % @ @ + % $ $ $ $ $ $ $ $ $ $ $ $ $ O ",
"# = # # % ; % % ; % ; % = ; = = % = = = = = = = > = = = = = = = % = = = = = = = = % % % , % , % = ; # ; t.g t.g t.r g g g t.r r y g g t.g g g t.g n t.t.m o.J o.o.o.o.*.*.+.&.7.} F.:XJ.J.-X3._ 9 * w N S S.|.#XsXsX|.^.x./ 8.8.5.8.7.5.7.7.7.7.7.7.7.7.7.7.7.7.7.7.7.7.7.7.7.7.7.7.7.7.7.w.7.7.7.7.7.7.7.7.7.0.7.7.7.7.7.5.7.5.7.5.5.5.7.5.7.7.7.5.5.5.5.5.5.5.5.5.5.0.5.6.5.5.6.5.6.6.5.6.6.6.5.0.6.6.6.6.e.0.6.6.6.6.6.6.#.[ | | ` | / ` ~ w   X . X h e h h g g g t.e.&.;.&.&.&.&.;.&.&.&.;.%.&.&.&.-.%.&.%.&.%.&.;.&.%.&.&.%.%.%.%.%.%.%.%.%.W %.} ( %.( %.} W } W %.W W W } W W } W } W { *.u.E } E { { } } { } { } { { { { { { { { { { | { | [ { { [ | [ | [ [ ....| | ` s.! V ~ ~ Z Z ^ N     . X w W &.%.%.%.%.%.&.6.{ ' ` _ [ ` _ ' ` [ ' ' [ [ ' ' [ [ ] ] [ [ s.] ] ] u.] x.u.x.u.x.x.x.x.c.x.b.x.x.x.v.c.c.v.c.v.c.c.v.v.v.v.v.v.v.v.v.v.S.M.v.v.v.v.v.v.v.m.v.m.c.m.v.v.v.c.m.c.^ ' V.M.` ` A w $ 7 n.l 1 d.L.!.rX,XyX .' a.a.' a.] ! s.!               . . . X X X X X X X @ @ @ @ * @ * : * : $ % @ @ * : * % * $ $ $ % $ $ $ $ $ $ $ $ O $ $ $ ",
"= # = # = # % = = ; = = % = = = = % = = = = = = = & = = = = = = , = , = = % = = = = = = , % % , % % % < L g g g t.g r g g g g t.t.g g t.t.g g t.f t.g o.t.t.o.o.o.*.*.*.*.&.&.9.( F.=X=X=X-X4.] 9 j w 9 Z m.}.#XsXsX|.R.u.{ 5.8.7.7.5.8.7.8.7.7.7.7.8.9.5.5.9.7.7.7.7.7.7.7.9.9.7.9.7.7.7.7.7.7.7.7.7.7.7.7.7.7.7.7.7.5.7.7.7.7.5.7.5.5.5.5.5.5.5.5.5.5.5.5.5.5.5.5.6.5.5.5.5.5.6.6.5.6.5.6.5.0.6.6.6.6.5.6.5.6.0.6.0.6.0.6.%.[ [ ` | ` ` ^ ~ 7   . . . u h i g a g g t.e.r.;.&.r.;.%.%.r.,.&.;.&.%.%.;.&.,.&.&.;.&.,.%.&.%.%.%.%.%.%.%.%.%.-.%.W %.( %.( %.W %.W W } %.W } W ( } W W } / } } E Q } E } } W { E u.E u.%.} { { { { { { | { ` ..{ | | | | | [ [ | [ ....[ | [ [ { s.` A A A V Z V N     .   1 W $.<.&.%.&.&.;.3.{ ` _ ` ' ` ' [ ` ' ' [ ' [ ' ' ' ' ' [ ] [ ] ] ] ] x.] x.] x.x.a.u.b.x.x.b.x.x.c.c.c.c.c.c.v.c.c.v.v.v.v.x.v.v.v.v.v.v.v.v.v.v.v.v.v.m.v.m.v.v.v.m.v.v.c.v.c.~ _ V.M.` { A 9 j w f.q > d.j.!.0X,XkX1.a.a.a.' a.a.a.! s.^             . . . . X X X X O X : @ : @ : * @ : * @ : * % * : % @ * $ & $ > $ % $ + > $ $ @ $ @ $ $ $ $ ",
"# = # # # = = # % % % % % = % = = = = = % = = = = = % = = = = = = = % = = = = = = % % = = = > , % , $ < o.n g g r g t.g g g g g g g g g g f t.m t.m o.m o.o.o.o.o.*.*.+.*.&.&.5.( F.P.J.P.=X3.] 9 j w N X.m.|.#XsX#X|.R.c.{ e.e.7.8.7.7.7.7.7.7.7.7.9.7.9.9.8.9.7.7.7.7.9.9.9.7.9.7.7.9.7.w.w.7.7.7.7.7.7.7.7.7.7.7.7.7.7.5.7.7.5.5.7.5.7.5.7.5.5.7.5.7.5.8.5.5.5.6.7.6.5.6.6.5.7.6.6.5.6.5.5.6.5.5.6.0.6.0.6.0.6.6.6.6.0.<.,.[ [ [ [ ^ | ' ~ q       . 5 h i g f t.J o.e.&.&.;.&.;.r.;.&.&.%.;.;.r.&.;.%.r.&.%.&.;.%.&.&.;.,.%.-.-.%.<.-.-.%.-.-.-.%.-.%.%.,.W } %.} W } %.%.} W } } W } W W } } } u.*.} { } E %.} } } { { { { { | { | | ..{ { | { [ [ | | ..[ ..| [ | [ | ..` s.` Z V Z ~ Z Z N   . .   w %.$.-.%.;.&.,.r.e.[ ` _ _ ` ` _ ' _ ` ` ` ` ` ' [ ' [ [ ' ' ] [ ] ] ] [ ] ] ] a.] x.x.u.x.x.s.x.x.x.x.x.c.c.c.c.c.v.x.v.v.v.S.c.v.v.v.v.v.v.v.S.v.v.m.m.v.v.v.B.m.m.v.v.v.v.c.` ! V.Z.` ` A w * 1 n.x > d.L.!.rX,XkX>.^ a.a.a.a.a.' a.! s.`             . . . . . . X O X O : : @ @ @ : @ * : : * @ @ @ * * # % @ $ $ $ $ $ $ $ $ $ $ $ $ $ $ @ $ @ ",
"# # = = # = # = = ; ; = = = % = = = = = = = = = = = % = = = = & = % = = = = % = = = = = % = , % , % % , t.g g g g g g g g g g t.g g t.g f t.g t.m t.t.t.t.o.o.o.*.*.&.*.&.r.r.7.W F.P.J.J.=X4.' 9 j w N Z m.|.#XsX#X|.C.x.{ e.8.5.8.5.7.7.7.7.7.7.7.7.7.9.8.9.5.7.7.7.7.9.7.9.9.w.7.9.9.7.7.7.7.7.9.7.7.7.7.l.7.7.7.7.7.7.5.7.5.7.5.5.7.5.5.5.7.5.7.5.5.5.5.5.5.k.=.5.5.5.6.k.5.6.5.5.5.6.5.5.6.0.0.6.6.6.6.6.5.6.0.6.6.6.6.%.[ s.` | | ` [ ^ q   .   o h h g g g J J *.e.;.;.&.r.%.r.%.&.&.%.r.%.,.&.&.,.&.,.r.%.%.&.&.;.%.,.&.;.%.$.$.%.,.-.%.%.-.-.%.,.W %.} ( %.%.} ( ( } %.} } } } } E } } Q } } } E } } } } } { { { { { { ..{ | { | | | [ | [ | | [ | [ ..[ | ..[ ..[ [ ` a.~ A ^ ~ Z Z ^ N   . .   7 ( ;.:.&.;.;.%.<.3.{ ` ` X._ ` ` ` ` ` _ ` ' ` ' ` ' _ [ ' [ [ ' ' ] [ ] a.a.s.u.a.a.u.s.x.x.x.x.x.c.c.b.c.c.c.c.c.v.v.v.v.v.c.v.v.v.v.b.v.v.v.v.S.S.v.v.m.m.m.m.v.m.m.v.v.v.` _ V.Z.^ ` A 9 @ 1 b.B $ s.L.0XrX,XIX>.^ a.a.' a.a.a.a.a._ s.'           .   . . . . O X X O @ X : @ @ @ @ @ @ @ * @ * @ $ * : * $ # $ $ $ % $ $ $ $ $ $ $ @ $ $ O $ @ ",
"= # # # # # = # % % % % ; = = % % = % = = = = % = = = = = = = = = = = = = % = = = % = % , = % , % % % < *.g g g g g g g g g t.r g t.g g t.g o.m t.o.o.o.o.o.*.*.*.*.r.&.r.r.=.7.W F.P.T.J.=X4.' w j w N _ v.|.#XsXsX|.^.x...8.8.7.7.7.8.7.7.7.7.7.7.9.7.5.9.9.9.7.7.7.7.7.7.7.7.7.9.9.9.7.7.7.7.7.9.7.l.7.7.7.9.7.7.7.7.7.7.7.5.5.7.7.5.7.5.5.5.5.5.7.5.5.5.5.5.6.5.5.6.6.5.=.6.k.6.5.6.6.0.6.6.6.6.5.6.5.6.0.6.6.6.0.0.6.0.W [ [ s.a.[ [ ' ` w     . . u h g J o.t.t.*.9.r.;.;.%.r.,.;.r.,.r.%.&.r.&.%.&.;.%.&.&.&.,.,.%.;.%.&.&.-.-.-.%.%.%.-.%.-.W -.%.,.,.( %.} W %.%.} W } W } W } W } } } } } { E u.*.{ { { %.u.{ { } ..{ | | { [ { | { ..| | | | [ ......| s.[ ..| s...` s.^ A ~ V A V ! N . . .   w W r.:.;.;.;.:.6.e.` ` ~ ` ` _ ^ ` ` ~ ` ` _ ' ` _ ` ` ' ` ' [ ' [ ' [ ] [ ] ] ] a.[ u.u.] x.s.a.x.x.x.x.x.x.c.c.c.c.v.c.x.v.v.v.v.v.v.v.v.v.v.m.m.v.m.m.m.v.S.v.B.v.v.m.v.` ! m.V.^ { ~ 9 * 1 b.N $ d.z.!.rX,XyX>.a.a.a.a.a.a.a.a.a.a.! s.^             . . . . . . X X X X X @ X @ @ @ @ @ @ : : % % $ : * % @ * # % % $ $ $ $ $ $ $ $ $ $ $ $ $ $ ",
"; > # # = # % = ; % % = = % = = = = = = = = = = = = & = = = & = = = = = = = = % = % = = = , % , % & # < *.t.g g g g g g g g g g t.g g t.g t.t.t.t.o.o.o.*.*.*.*.*.&.r.r.r.=.=.e.W F.P.T.J.=X3.' 9 j w N X.v.|.#XsXsX|.R.u.u.8.8.7.7.7.8.5.7.7.7.9.5.9.9.9.9.5.9.7.7.7.7.7.7.7.7.7.7.9.9.9.9.UX7.7.9.l.7.9.7.7.7.7.7.7.7.9.7.7.7.7.5.7.5.5.7.7.0.5.5.5.5.5.5.5.5.5.5.5.5.5.6.5.5.=.=.=.5.5.5.6.0.6.0.6.6.5.6.0.5.0.6.6.6.6.5.-.[ x.[ s.[ s.' ` 7       . h i g t.t.o.*.*.9.&.;.&.r.%.r.r.r.%.%.;.,.&.&.&.;.&.;.;.%.;.&.&.&.%.;.%.-.%.;.-.-.%.-.%.,.( %.,.%.%.} %.} } %.} } %.W ( } } } } } } } / } } { { } { } { } { { { { u...{ { | | | ..{ ..{ [ ..[ | [ ..[ [ [ s.[ ....[ s.` s.` ~ A A A ~ ! N   . .   1 ( :.,.r.<.;.<.<.3.[ ` ` Z ~ ` ` ` ` _ ` ~ _ ` ` _ ` _ ` _ [ ' ' ' [ ] ' ' ] ] a.] a.] x.] x.u.a.x.s.x.x.x.x.x.c.c.c.x.v.c.c.v.S.v.v.v.v.v.m.v.m.v.m.v.v.m.m.m.v.m.m.m.v._ Z m.Z.` ` ~ l $ 1 n.l $ ~ L.Y.rX1XwX1.a.a.a.a.a.a.a.a.a.a.x._ s.`             . . . . . . X X X @ @ X @ X : @ @ @ @ * @ * @ : * $ $ * @ $ # $ $ $ $ $ $ $ $ $ $ $ $ $ O $ ",
"# # ; ; # = = # = % = % % = ; % % & ; = % = = = = = = = = = = = % = = % % = = = = = = = % % , , = ; % = t.t.g g g g g g g g g t.t.g t.g t.t.o.t.o.t.o.*.*.*.*.*.r.&.r.=.6.8.6.9.W D.P.I.J.J.1.] 9 j w N Z m.}.#XsX#X|.C.v.{ 8.8.7.5.7.7.7.7.9.7.9.9.8.5.9.8.8.9.7.7.y.8.7.8.y.7.9.7.9.7.9.9.7.7.9.7.7.7.9.7.9.7.k.7.7.7.q.5.7.5.5.7.7.7.5.5.7.5.7.8.5.7.5.5.5.5.5.5.5.5.5.5.5.5.6.7.8.6.6.6.5.6.6.5.6.0.6.5.6.0.6.6.6.0.6.<.-.a.b.s.x.] a.[ [ 7   . . . h g J o.*.*.t.*.i.r.;.;.,.r.;.%.,.;.r.r.&.&.;.;.&.;.;.&.;.;.,.r.;.&.,.;.%.;.%.-.%.,.-.-.%.-.-.%.,.%.%.} ( %.} %.} } } ( W W } W } } } } W } } } { } { { %.u.} { } ,.{ } { ..{ | } } | [ | | ..[ ......[ ..[ [ s.[ s...` s.{ A A A A Z Z l   . .   w W r.r.;.<.6.r.e.e.{ ` Z ` ` Z Z ` ` ! ` X.` _ ` ` ` ` ` _ ` ` ' ' ' [ [ ] ] ' a.] ] ] ] s.] ] x.] x.a.x.x.x.x.x.c.x.v.x.v.c.b.x.S.x.v.v.m.v.v.v.m.m.B.B.v.v.v.B.m.v.v.^ ! M.B._ ..~ l $ 7 b.N $ / F.U.rX,XlX4.' a.a.a.a.a.a.a.c.a.a.a.' s._         .     . . . . O X X X X X : @ @ : @ @ @ @ : @ @ @ * # @ # $ * $ $ $ $ > > $ $ > $ $ $ $ $ $ $ $ ",
"# ; ; > ; % # = % % % ; % = = = = = % = = = & = = = = = % = = = = = = = = = = = % = , % , , , % % = + < o.t.g t.t.g g g t.g t.g t.t.g t.m t.o.t.*.t.*.*.*.*.&.r.r.=.=.=.6.8.8.e.W D.T.K.T.J.4.] k : w 9 X.m.|.#XsX#X|.C.v.{ e.6.8.7.7.7.7.7.7.9.8.9.8.9.8.7.9.7.7.7.7.7.7.7.7.7.7.9.9.7.9.7.7.7.7.5.7.7.7.9.7.7.w.7.7.7.7.7.7.7.7.5.5.5.7.5.5.7.5.5.5.5.5.5.5.5.5.6.6.=.5.6.5.6.6.8.=.=.5.0.6.5.6.6.6.5.6.6.5.0.0.5.6.6.0.6.-.a.x.s.s.a.s.a.[ 7       X h f t.*.*.*.*.*.w.;.&.r.;.%.r.&.r.%.;.%.&.&.&.;.;.&.;.;.;.&.&.;.%.;.%.;.%.;.;.;.%.;.%.,.,.%.,.W %.} %.} } } } } W W } } } } } } { } } E &.} { } } } ..} } &.} } } } } ..{ ....[ { u...[ [ | | [ [ [ [ ....[ s.| ..[ [ [ s.{ E ~ A ~ A Z l . . .   1 %.<.<.<.<.<.<.e.i.` ~ ` Z ` ` ~ ` Z ~ ~ _ ` ~ A ` ` _ ` ` ' ` ' ` ' ' ' [ ' ' [ a.[ ] [ ] s.] s.x.] a.x.a.x.x.c.b.x.x.x.b.v.v.b.x.v.v.v.v.m.m.v.m.v.v.m.v.B.B.v.v.v._ ! m.V.[ [ ` l * 1 b.x $ / j.U.rX0XkX>.' a.a.c.a.a.a.a.a.a.c.a.x._ s._         .   . . . . X . X X @ @ : : : @ : : @ @ * : : * * @ $ $ % * : * $ $ $ $ $ $ $ $ $ $ $ $ $ $ $ O ",
"; > % # % # = # % ; = = = % % = % = = = = = % = % = = = = = = = = = = = % = = % = = = = , % % , , % = ; *.t.g g g g g g t.g g g g t.t.t.o.o.o.o.*.*.*.*.r.*.r.r.=.6.6.6.8.5.5.9.%.D.T.J.H.J.,.] S j w k Z m.|.#XsX#X|.^.x.{ e.8.7.5.7.7.7.7.7.7.8.e.9.7.9.9.7.7.7.7.7.8.y.7.7.7.9.9.w.7.9.w.w.7.7.y.7.7.7.k.7.7.7.7.7.7.7.7.e.5.5.7.7.5.5.7.7.5.5.7.7.5.5.5.5.5.5.5.5.k.6.5.5.5.k.=.6.k.5.5.6.5.r.k.6.6.0.5.6.6.5.0.5.6.2.6.-.s.x.b.x.b.a.a.[ 7   .   X h g t.*.*.*.*.&.w.r.;.;.r.&.,.;.;.r.r.%.&.;.&.&.,.;.;.&.<.%.;.;.%.;.,.&.;.%.-.-.-.-.-.%.-.-.%.,.} ,.%.%.%.%.%.,.} ,.} ,.} } } } } } } } u.{ } } { { { } { u.u.,.{ u...{ ..{ ..{ [ ..{ | ....[ ....[ ..[ [ ..s.[ s.[ ..` s.{ / / E A / Z l .   .   1 ( <.r.<.<.6.<.e.e.{ ` A ` A ~ X.~ ` ` ~ Z ` ~ _ _ Z ~ ~ _ ` ` ` ' ' ` ' ` [ ' [ ' ] ] ] ] a.] ] a.] a.a.x.a.a.x.x.x.x.v.x.v.x.x.v.v.v.v.v.v.v.m.m.v.v.m.m.m.v.m.S.' V M.Z.' ..~ N 1 1 M.x + ^ d.I.rX0XwX2.a.c.a.a.x.a.c.c.c.c.a.a.c.x.' s.!         . . . . . . . . X X X X @ X : @ @ @ @ : @ @ : @ : # * @ @ $ * % > $ $ $ $ # $ $ $ $ $ O $ $ $ $ ",
"# = # % ; % ; % % % % = & = % % = = = = % = = % = = = = = = % = % = = % = = = = = = = = , % , % % % % , *.t.t.t.g g t.g t.g g m m t.t.t.t.t.*.*.*.*.*.r.r.r.r.=.8.=.8.8.8.e.e.w.O.D.T.I.K.J.1.a.N : w k S S.|.#XsX#X|.C.v.| e.e.8.8.9.8.7.7.7.9.9.7.9.e.8.9.7.8.7.7.y.7.7.y.y.8.6.y.6.y.y.5.5.y.7.9.y.5.7.7.7.7.7.7.q.7.7.7.7.7.7.7.5.7.7.7.7.e.5.e.e.7.5.5.5.5.=.5.5.5.5.6.=.6.6.5.6.5.5.0.6.5.6.6.6.k.6.0.6.5.0.5.6.6.6.6.( a.b.c.x.b.b.a.[ 7       . h t.*.*.*.*.&.r.i.&.r.&.r.;.&.;.&.;.&.r.;.,.r.&.;.;.&.;.;.&.;.;.;.&.,.&.-.;.%.-.;.-.;.,.,.%.,.;.,.} } ,.,.%.} %.,.} } %.} } ,.} } } { } } } { %.} } ;.} } { { | { ..| | { ..{ ..| ..| ....[ ..[ ..[ [ ..s...[ s.[ s.[ | s.| / E / A / Z N     .   w -.<.<.6.<.e.<.e.3.` ` A ~ A ` Z ` Z A ` X.` Z ` X.~ ! ` ` _ ` ` _ ` ' ` ' [ ' [ [ ' [ [ ] ] ] a.] ] a.a.a.a.x.x.x.x.b.x.c.x.c.c.c.c.v.v.v.v.c.m.v.m.B.m.B.v.v.m.[ ~ v.Z.' [ ` N j 7 b.x O C d.I.pX0XeX0.' c.a.c.a.a.x.x.c.a.x.c.x.x.x.' s._             . . . . . X X X X @ @ X @ : @ : @ @ @ @ @ @ : @ * : * @ @ * $ $ $ $ $ $ $ $ $ $ $ $ $ $ $ $ ",
"# # # ; # % & ; ; & = ; ; = = = = % = = = = = = = = & = = = = = = = = = % - % = = % % = , , , % % % + = *.t.g g g g g t.g m t.t.t.t.o.t.*.t.*.*.*.*.*.r.r.=.=.8.6.8.8.e.9.8.8.9.W n.L.T.T.H.1.a.S : w k S S.|.#XsXsX|.^.x.| 8.e.e.5.9.5.7.9.8.7.7.9.8.9.7.7.7.9.7.7.8.8.7.8.7.7.y.=.y.6.6.y.5.5.9.9.7.7.8.7.7.7.7.7.7.7.7.7.e.7.7.7.e.e.5.e.5.5.5.7.5.5.5.5.5.5.k.6.5.6.5.5.k.5.5.5.5.6.5.6.5.5.6.5.6.6.6.5.6.5.6.0.6.5.6.6.( x.v.v.b.c.c.c.[ 7     .   h t.*.*.*.r.*.r.y.;.;.;.,.r.;.r.;.r.r.,.;.&.;.&.&.;.,.&.;.;.;.;.;.&.&.,.&.,.&.,.-.-.-.%.;.%.%.} ,.%.,.%.} } ,.} } %.} } } } } } } } } } } } } u.%.u.u.} ..} ..{ ..{ | ....[ ..[ ..[ | [ ..[ [ ..[ ..s.[ s.[ ....s...[ [ s. .E } / { A A 9 . .     1 ( 6.,.e.=.e.e.e.i.{ ~ ~ Z ~ A ~ A ~ ~ ~ A A ` A ` ~ ~ ~ ! ` ~ _ _ ` ` ' ` ' ' ` ' ' ' ] ' ' [ ] [ a.s.] ] a.a.x.a.x.x.x.x.c.c.x.b.x.c.v.v.v.m.v.M.v.v.v.m.v.m.[ X.v.M.a.s.~ V > > b.N + C j.L.rXrXeXq.' c.a.x.x.c.x.c.x.x.c.x.a.c.x.c.' s._             . . . . . O X X X X X @ @ : : @ @ @ @ @ : * * : : * # * * % $ $ $ > > $ $ % $ $ $ + $ $ $ $ ",
"# # % % % % % % % = % = % = % = = % % = = = = = = = = % = = = = % = = % = + = = % = = = = % % , % % % , *.t.g g g t.t.g m t.t.t.t.o.o.*.*.*.*.*.r.r.r.=.=.=.8.=.8.8.9.9.9.9.9.9.#.n.T.F.K.J.1.a.N : w N Z m.|.#XsX#X|.C.v...8.8.8.9.9.9.8.9.9.7.8.9.9.9.7.7.9.7.7.7.7.7.7.7.y.7.6.y.6.y.5.y.y.8.7.9.9.l.y.7.9.l.w.7.7.7.7.e.7.e.5.7.7.5.5.e.7.5.7.e.7.7.5.5.5.5.5.5.5.5.5.5.5.6.5.k.5.0.5.0.5.6.=.k.6.6.6.5.5.6.5.6.0.6.6.0.( a.m.m.v.v.v.v.] 1   .   . h t.*.*.*.r.r.=.y.r.:.;.r.;.:.;.r.,.r.;.&.;.&.,.;.;.;.&.;.;.;.&.%.,.;.&.,.&.,.-.%.,.,.;.,.,.,.%.%.,.} } %.,.,.} } } } } } } } } i.} } { ;.} } %.} } } } { ..} ..} ..| } ....{ ....[ ....[ ....[ s...[ ....s...s.s...s.` s...( } / / / S 9     .   1 %.<.6.6.<.4.3.e.e.` ~ A X.A ~ ~ A Z Z ~ X.A A Z ~ X.Z ` Z ` _ ` ~ ` ` _ _ ` ` ' ' [ [ ] [ ] ] [ ' ] ' a.a.] a.a.a.x.x.b.b.x.c.b.c.c.c.c.c.v.m.v.v.m.v.m.v.m.' ! c.M.[ [ ~ V 1 > b.x $ x d.Y.aX0XuX0.' c.a.c.c.x.c.x.c.a.c.a.c.c.x.x.c.' s._             . . . . . . X X @ X @ X @ X @ : : @ : * @ @ : * @ @ @ : * * $ $ $ $ $ $ $ $ $ $ $ $ $ $ $ O ",
"= = # # % ; % ; % % ; % ; = = = = = = = % = = = = = = = = = % = = = = = = = % % = = % = = % = % , % $ = *.m t.t.t.g g t.t.t.J t.t.o.o.t.*.*.*.*.r.r.r.=.8.8.8.8.9.9.9.9.9.9.e.w.%.n.L.L.T.K.1.a.N : w 9 Z m.|.#XsX#X|.R.x...e.8.5.7.8.5.7.7.7.7.9.5.5.8.7.9.8.9.7.8.y.7.7.7.8.7.y.6.y.6.y.5.5.8.9.9.7.9.5.7.7.7.7.7.7.7.7.7.5.7.e.5.e.5.7.7.5.5.5.5.5.5.5.5.5.5.5.5.5.5.6.5.5.5.6.=.5.5.6.6.0.6.6.6.6.5.6.6.0.6.0.0.6.0.6.<.-.c.m.v.m.m.v.m.] 1         h t.r.r.r.r.r.=.i.r.:.r.;.:.;.r.&.;.;.;.;.;.&.=.r.,.&.,.;.;.;.,.;.;.;.,.&.,.&.;.;.;.%.,.%.,.%.,.,.,.%.,.,.} ,.%.} ,.} { ,.} } } X.{ } } u.} } u.u.;.u.,...} | ..{ ..| | { ............[ ....[ ....s.s...s.[ [ s.[ s.[ | s...} } } W { Q l .       > } 6.e.<.e.e.e.e.e.{ ~ A A A Z A A ` ~ A ~ A ~ ~ A X.` A ` Z A ~ ! ` ~ ` ` _ ' ` ` ' [ ' ' [ ' [ ] [ [ ] ] a.a.s.a.a.u.u.x.x.x.x.b.c.c.v.c.b.c.v.v.v.v.v.v.] ! c.M.[ ` ` S w $ b.V . x d.I.aX0XiXw.' c.c.c.c.x.c.c.x.c.c.x.c.c.x.c.x.c.' s._ .           . . . . . . X X X X X @ X @ : @ @ : : @ : * * @ % $ * @ % @ $ $ $ $ $ $ $ $ $ $ $ $ O O $ $ ",
"# # ; % % # ; % ; % % % = = = % % = = = = = = = = = = % = = = % = = = = = % = = = % = % = = % , % % % = +.o.g m g g t.m t.m t.o.o.o.*.*.*.*.r.r.r.=.=.8.8.8.9.8.9.9.9.9.9.9.9.w.%.n.L.L.T.K.1.a.S : w N Z m.}.#XsX#X|.C.c...9.e.8.8.9.8.7.7.7.7.7.7.7.7.8.7.7.7.7.7.7.8.9.7.7.7.=.5.y.=.y.=.y.y.5.y.7.7.7.7.7.7.e.9.9.7.e.9.e.8.7.e.7.5.7.e.7.7.7.5.5.5.5.5.5.5.5.5.6.5.5.5.5.5.5.5.6.5.5.0.6.6.6.6.6.5.5.0.5.0.6.5.6.5.6.:.>.f.B.B.B.m.m.m.a.1       . h o.*.=.r.=.=.=.y.r.;.;.;.r.r.,.r.&.<.&.r.,.;.;.;.;.;.r.;.r.;.;.;.;.,.&.&.;.;.;.,.%.,.;.%.,.,.,.,.,.,.,.,.,.-.} } ,.} { } } ,.r.} } } u...} } } } { ..} } { ..{ | | ....| ....| [ [ ....[ ..........s.[ s.[ ..x.s.[ b.` s...,.,.} } { C 9     .   1 W 6.2.0.0.e.e.i.e.{ ` A A Z A A ~ Z Z A ~ A Z A ` A A ~ ` ~ ~ A ` _ _ ` ! ` ` ' ` ` _ [ ' ' ' [ ' ' ] ] a.] a.a.s.] s.x.x.x.x.x.c.x.c.x.c.c.c.v.v.v.v.M.] Z c.M.' ` ~ Z w $ s.V . z d.I.iX0XrXl.^ c.a.c.c.x.c.c.x.c.c.x.c.c.c.c.c.c.c.] s.`             .   . . . X X X X : : : : @ : : @ @ @ @ * : @ $ $ @ $ $ % + % $ $ % $ $ > % $ $ $ O $ $ O $ ",
"% # # # # % # % % % % = = % % = = = = = % = = % = = = = = % % = = % % = = = = % = = = = = = , % , % % % *.t.t.m m t.t.g J t.o.t.o.*.*.*.*.r.r.=.=.5.8.8.8.9.8.y.9.9.9.9.9.9.9.9.#.n.L.F.F.K. .u.N @ w 9 S m.|.sXsX#X|.C.x.| 5.8.9.5.e.9.7.8.7.8.7.7.7.7.7.9.8.9.8.8.y.8.9.7.7.7.y.8.6.y.8.y.6.5.7.7.7.6.7.7.7.7.7.7.7.7.7.5.7.e.7.5.5.9.5.5.5.5.5.5.7.5.5.5.5.5.5.6.5.6.6.6.5.5.6.5.5.6.6.5.6.5.r.k.5.5.0.6.6.0.7.:.0.5.6.0.M f.C.B.V.B.B.B.a.1     .   h *.r.r.r.=.=.=.i.r.r.<.;.<.=.,.;.<.&.=.r.&.;.r.r.;.;.;.;.;.;.;.;.;.&.;.,.,.-.;.;.,.&.,.,.&.%.,.%.,.%.,.,.} } ,.,.} } i.,.} } u.} } } ;.} } ..} ....} ............| ..| ..| ..........[ ....] s.x...s...s...s.[ s...[ { b. .<.,.,.,.} A 7 .       1 -.0.6.e.e.e.e.e.e.` A A A A A A A A A ~ A X.~ A A ~ ~ A Z A Z ` ` A ~ ` ` ` ` ` _ _ ` ^ [ ' ' ' [ ' [ [ [ ] a.[ a.a.x.] s.x.x.a.a.b.c.c.c.c.c.v.c.c.v.] C b.M.' _ ` C 7 $ ] Z   l d.I.aXrXuX*X^ c.x.c.c.c.c.c.c.c.c.c.c.c.c.c.c.c.c.c.] s._ .           . . . . . X . X X @ X : : @ @ @ : : : @ * @ @ @ $ # $ $ $ $ $ $ $ $ % $ $ $ $ $ $ $ $ $ O $ ",
"# ; % % ; % # % ; = % ; ; = = = % = = % = = = = % = = & = = = = = = = = % = + = % % = = % % > = % % $ , *.t.m t.t.g t.t.o.t.*.*.*.*.*.r.r.r.=.=.8.8.8.7.8.y.9.9.9.y.y.9.w.9.9.w.@.n.L.N.L.K. .] 9 j 1 l Z m.}.#XsXsX|.C.v.{ 9.5.8.7.8.9.9.9.7.7.7.7.7.7.7.8.9.9.y.8.9.8.9.9.7.7.8.y.y.6.y.=.y.7.7.7.7.y.7.6.7.7.5.7.7.7.7.7.9.5.e.5.e.5.e.7.7.e.5.5.7.5.5.5.5.5.6.5.5.5.5.6.5.6.6.6.6.5.5.6.5.6.6.5.6.=.6.5.5.6.5.6.6.5.6.0.#.f.C.V.V.V.V.V.x.1         h o.r.r.=.=.=.8.y.r.<.&.r.;.r.&.r.r.r.,.;.;.;.;.,.;.;.:.;.;.;.;.,.%.,.;.;.;.-.,.-.;.,.,.,.,.,.,.} ,.,.} ,.,.,.,.,.,.} } } 4.,.} } } } i...} } ..} ....} } ....} | ..| ........[ ......[ [ s.x.[ ..s...s.u.d...s.s.[ s.[ b.4.<.<.,.,.,.A 9     .   1 -.0.e.5.e.e.e.w.q.{ ~ A A A A A ~ A A A A ~ A ~ A X.~ Z ~ X.` Z Z ~ ` ! ~ _ ^ _ _ ` ` ' ` ` ` [ ' ' ] [ ' ' [ a.a.] [ x.] x.a.x.x.x.x.x.c.c.c.c.c.c.[ C ] M.' ` ~ C w * ' C   q d.I.pXrXuX*X~ c.c.c.c.a.v.c.x.c.c.c.c.c.c.c.c.c.c.c.c.' s.'               . . . X . X X X X : : : : : @ : @ : : : : @ $ @ $ $ + $ $ $ $ $ > $ $ $ $ $ $ $ $ $ $ $ $ ",
"% # # # % # ; % % % % = = % % = = = = = = = & = = = = = = = = % = % = % = = = = = = = + = = = % % , % % *.t.t.m m t.t.o.o.o.*.*.*.r.*.r.=.=.8.8.8.8.8.8.7.7.8.y.9.9.9.9.w.9.9.9.%.n.N.L.F.K. .] N : w l Z m.|.#XsX#X|.%Xu.u.9.5.9.9.5.8.8.9.7.7.7.7.7.7.7.9.9.8.7.7.9.9.9.8.7.7.8.6.8.y.6.y.6.l.7.7.7.7.7.y.k.7.7.7.7.7.7.5.5.9.5.9.5.7.7.5.5.5.7.5.5.5.0.5.6.5.=.k.6.6.5.6.6.5.6.6.r.k.0.5.6.6.5.6.k.=.6.6.5.0.5.0.0.:.6.:.>.f.R.C.R.C.C.V.a.1         g *.=.=.=.=.8.8.y.<.r.<.<.;.,.=.;.,.;.&.;.r.,.=.r.;.;.;.;.;.;.;.&.;.&.,.&.,.;.;.,.,.-.&.;.,.;.%.,.,.,.,.,.} ,.,.} } 4.,.} } ,.<.u.{ { { } } ..} ..} } ....................[ ..........u.......s.....x...s...[ n.s...s.` x.D.4.3.2.2.,.A 9         1 ( e.5.e.e.9.e.w.e.{ A A A A A A A A A A A A A A A A A A A A A A ` A ~ ~ ~ ~ ` ~ ` ` ` _ ` ' ` ' ' [ ' [ [ a.] [ ' a.a.s.a.a.a.x.a.x.x.x.x.c.c.c.c.s.C s.M.` ` ~ Z w @ ' V   9  .D.tXaXrX*X^ c.x.x.c.c.c.c.c.c.c.c.c.c.c.c.c.v.c.c.c.v.] s.'               . . . . . X X X @ : : : : @ : @ @ : * @ @ O $ $ @ # $ $ $ $ $ $ $ $ + $ $ $ $ $ $ $ $ $ O ",
"# # + % # # % ; ; % % = % ; % = % = % = = = = = = = = = = = = = ; = % = = % % = = = % = = & = = = % $ = *.o.m t.t.o.t.*.o.*.*.*.r.r.=.=.8.8.8.8.7.7.7.y.7.8.7.y.w.9.9.y.9.9.9.9.%.n.N.D.F.F.g.a.7 O w 9 S v.}.#XsX#X|.R.c...9.9.8.e.9.8.9.7.5.9.5.8.9.5.8.8.9.7.8.9.9.9.9.9.9.9.9.y.8.8.9.9.7.7.9.9.7.7.7.7.7.7.7.7.7.7.7.7.7.e.5.e.7.5.5.e.7.5.5.e.5.5.5.0.5.5.5.6.0.6.5.6.5.6.6.6.5.0.5.5.5.0.5.6.5.5.0.6.0.6.6.e.6.0.<.e.<.M.^.R.R.C.C.R.x.1         h *.=.=.8.=.8.e.i.r.<.r.r.=.<.;.;.r.<.r.;.r.r.,.;.r.;.;.<.&.,.r.%.;.;.;.,.;.,.;.;.,.;.,.,.;.,.;.} ,.,.,.,.,.} } ,.,.} } } { } ..} u.<.} } i.u.,.,.} u.4.......................[ ......[ s...] ..x...s.u.s...s...x.[ s.` b.D.e.2.3.3.<.Q w :   .   1 %.e.e.9.9.9.w.w.q.{ A A A A A A A A A Z A A A A A A A A ~ A ! A ~ A ~ Z ~ ~ ` ` ~ ` ` ` ` _ ` ` [ ' [ ' [ ' ] ] ' ] ] s.] a.a.a.a.a.c.a.x.c.x.c.] V | b.` ^ ~ Z 7 * ` N   7 / g.!.nXiXG.` x.c.x.x.x.c.x.x.c.c.v.x.v.c.c.x.c.v.c.c.c.v.] [ '           . . . . . . O . O X O X : : @ X : @ @ : @ @ @ @ @ * * : * # * $ $ $ * $ $ $ $ $ $ @ $ $ $ @ $ ",
"% # % ; ; % # # % % ; % = = = = = = = = ; = = % = = = = = = % = = = = = = = = = = % = % = = & & > % % = *.t.J t.J t.t.t.*.*.r.r.=.=.=.8.8.8.8.8.8.y.7.7.7.y.7.7.9.9.9.9.9.9.9.w.%.n.N.N.L.F. .a.9 @ w 9 S v.}.sXsX#X|.^.x.} 9.8.9.8.9.8.8.9.8.9.8.9.9.8.9.9.7.7.9.7.9.8.8.8.8.9.9.8.y.9.9.9.9.7.7.9.9.q.7.7.7.7.7.7.5.7.7.5.7.5.7.5.7.5.5.7.5.e.5.5.5.5.5.5.6.5.6.5.6.5.6.5.6.5.5.6.6.5.6.5.0.6.5.0.5.6.5.5.5.0.0.6.0.6.5.<.%.S.^.C.^.R.^.R.x.*   .     g *.8.=.=.=.8.8.p.<.r.<.,.,.r.;.<.:.;.;.:.;.<.r.<.,.r.;.:.,.r.,.;.;.,.;.;.;.;.,.;.,.,.;.;.,.,.,.,.,.,.,.,.} ,.4.4.} } { i.{ u.,.} ..,...{ [ } { u.<.} 1.} ....................u.u.[ d.............s...d.s...u.d.s.s.s.` s.F.q.3.3.3.4.{ w X       1 ,.e.e.w.w.w.w.y.e./ A A A Q C A Q A Q A A A A A A A A A A A A ~ Z ~ ~ ~ ~ ~ Z ` X.~ ` Z ` ` ' ` _ ` ' ' ' ' [ [ ] ] ] ] ] a.a.a.a.a.a.x.a.a.x.a.A | b.^ ~ ~ Z 9 $ ` V   7 / g.Y.vXeXl.~ x.c.x.x.c.v.v.c.v.v.x.x.v.x.c.c.c.v.c.c.c.c.c.] b.`               . . . . . X X X X X @ : @ : : @ @ @ @ @ @ @ : @ % # * $ * $ $ $ $ $ $ $ $ $ $ $ $ @ $ O $ ",
"# # # # % # # % % ; ; % % % % = = = % = = = = = = % = = % = % = = = = % % = = % ; & = = & = = % ; % ; = *.*.t.J J o.*.*.*.*.r.=.8.=.y.=.8.7.8.y.7.8.7.8.8.y.7.y.9.9.9.9.9.9.9.9.%.n.A.L.D.F.d.' 9 @ j 9 V v.}.sXsXsX|.R.v.,.y.9.8.9.9.8.5.8.5.9.9.9.7.5.8.7.7.9.9.7.8.9.9.y.8.9.9.7.8.8.9.9.9.9.7.9.7.7.7.7.7.7.7.5.5.7.7.7.5.5.7.e.5.5.5.5.7.e.5.5.5.5.5.6.5.5.5.6.6.6.6.5.6.6.6.5.5.6.6.5.6.0.6.5.5.0.5.5.6.5.5.5.e.6.e.<.%.B.^.^.^.^.R.^.c.*     X . g *.=.6.8.e.8.e.p.r.=.<.=.<.r.<.r.<.r.;.:.r.r.,.;.:.;.:.:.;.;.;.;.<.;.;.&.,.,.;.,.;.;.,.,.,.,.<.,.,.,.,.} 4.{ i.} } 4.i.,.} <.,.{ { <.u...<.} ..4.,.u.4.4.4....... .....................u.s.s.......s.n...x.x...u.x.s.{ x.D.e.q.i.e.e./ w         * ,.e.w.w.w.i.w.UXq.{ A A S Q A A A A A A Q C C A A A A A A A A ~ A A A ~ ~ A ~ ~ A ` ` ~ ` ~ ^ ` _ ' ` [ ' [ [ ' [ [ [ ] s.] s.] a.a.a.a.a.x.a.C } d.~ ~ ~ Z 9 * ! N   1 U  .K.nXqX0.E x.x.x.c.c.v.x.x.c.v.x.c.c.c.c.c.c.c.c.c.v.c.v.v.] b.`               . . . . . X X X O X : @ X : @ : @ : @ @ @ @ * * : @ @ % : $ $ * $ $ $ $ $ $ $ $ @ $ $ $ $ ",
"+ # % # + % % % % % % % ; = % = = % = = & = = = = = % = = = = = = % = = % = = ; % = % = = % % , % = ; - *.t.J t.t.*.*.*.r.=.=.8.8.8.=.y.8.7.8.7.7.y.7.y.7.7.7.7.9.9.w.9.9.9.9.w.W n.N.n.D.F. .' w X j 9 N M.}.#XsX#X|.R.u.u.8.8.9.8.8.9.9.8.9.8.e.8.7.9.9.9.9.8.5.9.9.9.9.8.7.7.9.7.7.7.9.7.9.7.9.7.9.7.7.7.7.7.7.8.7.7.7.5.7.e.5.5.7.5.7.5.5.5.5.5.5.0.5.5.5.5.5.6.5.5.5.6.5.6.6.6.0.5.0.5.6.5.6.0.5.5.0.6.5.5.0.6.6.5.2.6.-.B.^.^.^.^.^.^.c.*     X : g r.=.8.8.8.e.y.i.r.<.<.,.r.<.<.r.;.<.;.<.;.<.;.:.<.<.<.;.<.;.;.;.,.,.;.,.;.;.,.;.,.<.;.;.,.;.,.,.4.,.,.,.,.} ,.,.4.} ,.i.4.} 4.i.} 4.} } u.i.[ } u.} 4.u. .............u...d...s.....x.d.....b.s.b...[ x...s.d.d.....` b.D.q.i.3.3.i./ 9 .       1 ,.w.w.w.y.y.p.p.e.{ A A Q A Q A C A A A A A A A A C A A A A A A A ~ ~ A ! ~ ` A ` ` ` Z ` ! ` ` ` ` ` ' ` [ ' [ ' [ ] [ [ ] a.] ] a.a.a.s.a.V { | ! ^ ~ ~ l @ ! V . > / g.z.aXeX2.E ] c.x.x.x.v.x.x.x.v.x.x.v.c.c.c.x.c.c.v.c.v.c.c.v.] s.`         .     .   . . . X X X X X @ o @ @ : @ @ @ @ * @ : * : * * @ * * $ $ $ $ $ $ $ @ $ $ $ @ O O $ O ",
"+ # # # % # # ; + % % = % = = % % = = = = = = = % = = % = = = = = = % = = = % = = = % = > ; > % = % $ , r.t.t.t.o.*.*.=.=.8.8.8.8.8.7.y.8.8.8.8.8.y.7.8.7.7.y.8.9.9.9.9.9.9.9.9.@.n.N.N.D.F.g._ w X * w l c.}.#XsXsX|.C.u...9.8.8.9.5.8.9.7.5.9.5.9.9.7.9.9.8.9.9.9.5.8.9.9.8.9.7.9.7.9.7.7.7.9.7.7.7.7.7.7.7.k.7.7.7.7.7.7.5.7.5.e.5.5.e.7.5.5.5.0.5.5.5.6.5.5.6.5.5.6.5.6.6.5.5.5.0.6.5.5.6.5.5.5.5.6.5.0.5.0.6.6.5.6.6.2.,.B./.^./.^.^./.x.*         g r.8.e.e.9.9.i.p.=.<.r.=.<.r.,.<.<.r.<.<.;.r.<.r.<.,.;.;.;.,.r.,.;.,.;.,.;.<.;.,.,.,.,.<.,.r.4.,.{ } ,.,.4.} ,.{ i.} 4.{ { 6.4.} ..4.} i.<.4.<.u.[ .... .u.4...4.4.........u.4.d.............b...s.s.u.s.u.d.u...s.s.` b.F.i.3.i.e.i.{ 7         > ,.w.i.p.p.UXp.p.e./ E A Q A C Q C Q Q A A A A C A A A A A A A A A A A A ~ ~ A ` ` A ~ ` ~ ` ~ X.` ` ^ ` ' ` ' [ ' ' [ a.[ a.] ] a.s.a.a.a.Z ) | ! _ ^ ! l @ ! V   > ~ d.z.aX2X2.( u.c.x.c.c.x.v.v.v.x.v.x.v.c.x.v.c.v.x.v.c.v.c.v.c.c.a.b.`               . . . . O . X X X O O @ X : : : @ @ @ @ @ : @ * : * @ % @ % $ $ * $ $ $ $ $ $ $ O $ O $ O ",
"= # + # + % % # % ; ; % % = ; = = ; % & % = = % = = = = % = % = = & = % % = = = = % ; = = = ; , % = # = *.t.o.*.*.*.=.=.8.8.8.7.8.8.9.9.7.8.y.7.7.7.7.y.y.8.7.7.9.9.8.9.9.9.9.w.@.b.N.N.N.F. .! w X j w 9 c.}.#XsXdX|.R.x.} 9.8.9.8.9.8.8.e.9.8.8.7.7.9.5.9.7.e.9.8.9.9.8.8.9.9.9.9.7.9.7.9.7.7.9.9.9.7.7.7.7.7.7.5.7.5.7.e.5.e.7.7.7.e.5.5.5.5.5.5.5.5.5.5.5.6.5.5.5.5.5.5.5.6.5.5.5.5.5.0.0.5.5.0.0.5.5.5.5.5.5.0.6.0.e.6.,.Z./.^.^.^.^./.c.*         g r.e.8.9.9.9.y.i.=.6.<.6.<.6.=.<.=.<.r.r.<.<.<.;.<.r.<.<.<.r.,.;.;.r.,.;.<.;.,.,.;.<.,.<.,.,.,.e.i.,.,.,.4.4.,.} ,.1. .{ i.u.{ } 4.4.<.{ u.} u.<.i. .......4.....u.d...d...4.u.n...d...x.s.....b...s.d...x.n.[ x...b.{ x.D.e.i.3.i.i.{ 9         > ,.w.UXp.p.&Xp.p.i.{ A Q C A C A A Q A Q C A Q A A C C A A Q A A A A A A A ~ ~ A A ~ ~ A ~ A ` ` ` ` ` ` ` ' ` [ [ [ [ [ ' [ s.] ' a.a.[ V / ~ ! ^ ! _ N * X.!   $ I 1.z.nXeX2.%.] x.x.x.x.x.x.v.u.c.v.x.x.x.v.x.x.v.x.v.x.v.x.v.c.c.v.a.n.` .       .   . . . . . . . X X O X X @ @ @ @ @ @ @ @ : * * : : * % * @ $ @ $ $ $ $ $ $ $ $ $ $ $ $ $ $ $ ",
"# # = # # ; % % + % % % ; % = % % ; = = % = = = = % ; = = = = % = = = = = % = = = % = = = # # = # = % , *.*.t.*.&.r.8.8.8.8.8.8.y.8.8.9.8.y.8.7.7.7.7.7.y.7.7.7.9.9.9.9.9.8.9.9.&.4.S.N.L.F. ._ j X @ 1 l a.].#X#XsX|.C.u.} 9.9.9.8.9.9.9.7.9.9.9.9.9.8.9.7.9.9.9.9.9.9.9.9.9.9.9.9.9.9.9.9.7.7.9.7.7.7.7.7.7.7.7.7.7.9.7.5.7.5.5.7.7.5.5.e.5.7.5.5.5.5.5.5.5.5.6.0.6.e.5.6.5.5.6.5.5.0.5.5.0.5.5.5.5.5.0.5.5.5.6.5.5.5.e.<.;.Z.(.^.(.^./.(.c.*         J =.9.9.9.y.y.y.i.6.e.=.=.<.<.<.<.<.6.<.<.<.;.<.<.;.<.<.<.,.,.r.<.;.;.<.,.;.<.<.<.,.<.<.,.,.,.,.,.<.,.4.4.,.} 4. .4.1. .{ } 4.{ ..u.2.u.u.,...{ 3.u.u.4.4...4.u.....u.......d. .....x.u.d.....s.n.s.u.d...s.x...s.u...` b.L.i.i.i.3.i.{ 9         j ,.UXp.G.p.&X&X;Xe./ A A Q Q Q C Q Q A Q Q C Q A A A A A A E A A A A A A A A A ` A ~ A ~ ~ ` ` A A ` ` ` ` ` ` [ [ ` [ ' ' s.s.' [ a.] C ( / ! ^ ! _ V * _ ! . @ b g.z.nXwX<.-.[ x.x.x.x.x.c.c.x.x.x.x.v.v.x.v.x.v.c.c.c.c.x.v.v.v.v.v.a.n.` .             . . . . . X X X X O O @ X : @ @ @ @ : @ @ : * % @ : @ @ $ $ $ $ $ $ $ $ $ $ O $ $ $ $ O $ ",
"# # # # # % + % ; % % ; = % % & = = = % = = % % = = & = % = = = ; = % = = = % % = = = % = = , , = = # = &.o.*.r.=.8.7.8.8.8.y.8.8.8.8.8.7.8.8.7.7.7.8.8.8.7.7.7.9.8.e.8.9.8.9.8.9.;X..n.n.L.n.Z j . @ 1 1 a.].#XsXdX XC.u.} 8.8.9.5.8.9.8.9.5.9.9.8.7.e.8.9.9.8.e.8.9.9.8.9.9.9.7.9.7.9.7.9.7.7.7.7.7.7.7.7.5.7.8.7.5.5.5.7.5.7.5.e.5.5.7.5.5.e.5.5.5.5.5.5.6.0.5.5.5.5.6.5.5.5.5.0.6.5.5.5.5.5.5.5.0.5.5.5.5.0.6.5.0.6.5.6.%.Z.(.(.(.^.^./.v.*         t.6.9.y.i.y.i.p.p.=.,.<.<.<.=.<.r.<.<.<.r.=.<.<.<.r.<.<.r.r.<.,.<.;.,.;.;.,.-.,.,.;.,.;.,.<.<.,.,.4.,.,.,.,.4.,.4.} 1.} ..4.} i.4.} 4.} <.u.[ i.,.} ..4.4.u.4. .4.u.....u.....u.........s.s.b.[ ......n.b...s...b.d.u.{ x.N.F.h.i.i.i.{ 9         1 ,.p.p.&X&X;Xp.&Xi.{ A E A Q A Q A A Q A A Q A A A Q Q A A A A E A E A A ~ A A E A A ` A ` A ~ ~ ` ` ~ ` ` ` ` ` ` [ ` [ ' [ ] [ ] ' A E ~ ! _ _ _ ! 1 ' X.  O b ) F.aXyX,.-.{ x.u.x.x.x.x.x.x.u.v.v.x.x.x.v.x.c.x.x.v.c.c.v.v.c.c.c.v.a.b.| .     .   . . . . . . X X X X X O O X @ @ : : @ @ * : @ # * @ @ @ * * @ @ * $ $ $ $ $ $ $ $ $ O $ O $ O ",
"# # # # % + = # % + ; ; & = = ; % = ; = % % = = = = % % = = % = = = % = = = % = # = = = = # = # = # % , r.t.r.7.8.9.9.y.9.9.8.y.9.8.8.8.8.y.8.y.7.7.8.8.y.7.7.7.8.8.8.9.9.8.9.9.y.8X8X&X..n.n.! 1 X X * * ' (.@X#X#X`.m.] } 9.8.9.9.9.8.9.8.y.8.9.9.9.9.9.9.y.9.y.9.9.9.9.9.8.9.9.9.9.8.8.y.8.8.9.9.9.9.9.9.8.8.9.8.8.9.8.7.7.9.9.9.e.7.9.9.7.7.5.7.7.7.7.7.5.7.e.5.e.9.7.5.e.e.9.e.8.e.e.9.e.e.0.7.e.0.5.e.e.e.e.e.5.5.e.e.:...M.%X^.^.(.(.b.j         o.8.y.y.p.p.;X;Xp.6.<.6.<.6.<.<.<.=.6.<.<.=.=.<.r.6.<.<.<.<.:.<.<.<.<.,.,.;.<.<.,.2.<.<.,.e.<.,.,.4.,.4.1.1.1.4. .1.,.4.4.,. . ...1... .4.u.<.i. .....u.4.u.4.i.....u...u.......u.....s.u.u.u.d.u...b...b.s.s.u.n...b.{ s.R.Z.Z.n.D.F.,.7         * 2.&X&X;Xp.;X;X9Xp.W E Q Q E Q E E Q I E Q Q Q Q E Q E E Q E Q E Q Q E Q E Q E Q A E E E A Q / A A A A A ~ A { ` ` ` ` ` ` [ [ [ ` E I A ! _ ! ! _ 7 _ Z     q  .F.nXkXe.<.} u.u.u.x.x.x.x.x.x.x.c.b.x.x.c.c.c.c.c.c.c.c.c.c.c.c.v.v.v.s.T.{     o     . . .   . . . . X X X X X @ X : @ @ @ @ @ @ : @ : * : * : * * $ $ $ $ $ $ $ $ $ $ $ $ O O $ O ",
"= # # # # # ; # % ; % % ; % & ; = % = = = = % = % = = = = % = = = % = = ; = = % = = = % = = = # % = % = t.o.&.r.r.*.r.*.*.r.r.*.r.*.r.*.*.*.*.*.r.=.*.r.r.*.r.r.r.r.&.r.&.&.&.r.r.6.p.8X9Xq./ A j . : : * _ V.R.R.V.B.c.] W r.r.=.r.r.r.r.r.r.*.r.&.r.r.r.*.&.r.*.r.&.r.r.*.r.&.r.*.r.r.&.*.r.*.r.&.r.r.r.&.r.&.r.r.r.&.r.r.&.r.<.&.r.r.:.&.&.&.&.&.&.&.&.;.&.&.&.&.&.&.&.&.&.&.&.&.&.&.&.&.&.&.;.;.&.&.&.&.&.;.;.;.;.&.%.&.:.%.P } n.N.Z.).v.j         *.9.p.p.;X;X;Xp.6.&.;.%.%.&.;.&.;.%.%.%.&.} %.} ,.%.%.} ,.%.%.%.W %.W %.%.} %.W %.W W W } E } %.} %.} %.( } ,.%.} } } -.} } } ,.%.} } } } ,.} A } } } ,.,.} } Q } } <.,.,.} { { } } { ( ,.<./ } ,.} { { { { } { { { / W W ..M.V.R.C.Z.n.9         j <.p.&X;X9X9X;Xq.,.{ { { { ` { { ` ` | ` { [ { [ ` { [ ` { ` [ ` [ [ [ [ [ [ [ [ [ [ [ [ [ [ [ [ | u.[ [ [ [ [ [ [ [ [ s.] [ [ | / I Z ! _ ! ! _ S l N     2 -.K.lX7X=.*.%.E W W E E / A E A ~ A A A E ~ A A A A ~ A A ~ ~ ^ ~ ~ ^ ~ V 7.IXW           . . . . . . . . X X X @ @ X @ : : @ @ @ @ @ % @ * : * : * @ @ $ $ O $ $ $ O $ $ $ $ O $ $ $ $ ",
"+ # # # # # # % % # % ; % % = % ; % = % ; = = % ; % % = = = % % = % = % = = = % = % % = % # = = ; = % + - 8.y.y.y.y.9.y.y.y.8.y.y.9.y.y.y.y.y.y.y.y.y.y.y.y.y.y.y.y.y.y.p.y.w.9.y.7.9.9.p.9Xy.a :   X X : X.b.c.x.a.a.] ' } y.y.w.y.w.y.9.y.y.y.w.9.9.9.9.9.9.9.8.9.8.y.9.8.9.8.8.9.8.8.y.8.y.y.y.9.y.8.9.y.y.8.w.9.9.w.8.9.8.y.9.7.9.7.7.7.8.8.7.8.5.5.5.5.5.5.5.8.8.5.5.6.6.6.6.5.6.6.5.5.6.6.6.5.6.<.2.6.0.0.0.<.2.2.3.2.4. .{ W W O.;.T.4.-         8.;X9X;X;Xp.p.9.e.6.e.<.5.0.5.6.e.e.<.6.e.<.e.6.3.6.e.e.0.e.0.e.q.e.e.0.e.3.e.2.0.2.2.2.e.3.3.4.3.4.4.4.4.4.4. .1. ...} ..} }  .....|  . ...........d.......u...s.s.....| [ [ | | | ` { { ` / ` { ~ E { / ) ) / { { / / { ( { ..b.M.C.M.q         0 UX9X9X;X3.{ ] x.v.v.S.S.S.S.B.B.B.B.B.B.B.C.B.C.B.B.B.B.B.B.B.B.B.B.V.V.B.C.V.V.C.V.V.B.C.B.C.C.C.B.B.V.V.V.B.B.C.B.V.B.V.B.B.S.a.^ _ _ _ _ ' ' Z @     o g -XkX=Xg.n.b.b.v.b.S.M.v.S.v.M.B.m.S.S.S.M.c.v.c.b.b.c.b.b.v.c.b.c.b.c.s.x.d.d.9 .   .   . . . . . . . . X X X X X X @ X @ @ : @ : @ @ @ : @ @ * * : * @ $ $ $ $ $ $ O $ $ $ O $ $ $ O $ ",
"# # # # # # % # # % % % % ; % = = % % = = = % = = = = = = ; = = = % = = % & ; = = % = ; = = = % % % # % ; *.=.r.=.=.=.r.=.=.r.r.=.r.=.=.=.=.8.=.8.=.8.=.8.=.=.8.=.8.=.8.8.8.8.8.8.8.9.9.8.8.y.t..     X . H K._ ' _ _ _ X.W 9.8.8.8.5.8.8.8.8.8.8.8.8.8.8.=.8.8.=.8.8.8.8.8.8.8.8.8.8.8.=.=.=.8.=.8.8.8.8.8.8.y.9.8.8.8.8.8.6.=.=.6.=.6.=.6.8.=.6.6.=.=.=.=.6.=.=.=.=.=.6.5.8.8.8.6.6.8.6.6.=.=.=.=.=.6.=.=.=.<.<.<.<.<.<.,.} ....{ E W J r.y.r         *.9.=.=.r.*.r.r.=.e.8.e.8.e.8.8.e.8.8.e.e.e.e.e.e.e.e.e.e.9.w.9.9.w.i.w.w.9.w.9.i.e.w.e.e.e.e.e.e.3.e.3.4.4.g.4.i.u.d.n.u.n.n.g.u.u.s.s.s.u...u.s.] a.s.s.] b.u.a.a.a.a.x.s.a.] ] ] ] ] ' ' ' ' _ ' _ ` _ _ ' ' ` _ _ ' ' [ ` ` ` ` [ b.w         s ;X5.W X.X.X._ ] ] ' ] ] ] ] ] ] ] ] ] _ _ _ X._ X._ X._ X._ _ _ _ ] _ _ ] X.] _ _ ' _ ] ] ] ] _ ] ] ] ] _ _ X.] X.] _ ' ' ] ' ] ' ' _ _ _ _ ! ! w         g *X<Xn.n.v.v.S.v.S.S.v.v.v.v.v.x.c.x.x.b.c.x.c.c.v.c.c.c.c.c.x.c.x.x.c.x.x.] N : . .       . .   . . . . X . X X X @ @ @ @ : @ @ @ @ @ @ * : * : : % @ : $ $ $ $ $ $ $ $ $ $ $ $ O O $ O ",
"+ % # # # # # # ; % % % ; % ; = % ; % = = % = % = = % % = = = % = ; = % = = % = = # = , ; > # , = # # # ; o   o o   o o o   o       o o o o o o o o o o - o o o   o o o   o o   o o o ; ; o ; o             % @ $ $ @ @ @ @   o o o   o o o o o o o o o o o o o o o o o o o o o o o o o o o o o o o o o o ; o o o o o o o o o o o o o o o   o o o o o o o o o     o o o o o o   o o o o   o   o o       o   o o     o       .   X X o o : : ; o           o o o ; o o o : o o o o o o o   o o o o o o o : o o o o o o o o o o o : o o o o o o o o o o o : o : o X o o X o o o o ; o o o . X X X o X . X X o   X X X . . X X . . . . . X   . . . . . . . . . . .   .     .       . . . .   X .               o   X : @ X X @ . X X X X X . X X X X . .   X X . X   . . X X . X X : X X X . . X . X . . . X . . X   . .   .       .   .   . X X X . X X . X                   X .   X . . .               o           .   .             .         . . .   .   . . . . . . . . . . . . X @ X X : : @ X X : : @ @ @ : @ @ @ * : @ * O $ O $ $ $ O $ $ $ $ $ $ $ O O ",
"# # # # = # # # # % # ; % = % % = = % % % = = = % = = = = % = = = = = = = % = % , # = # = ; = % # ; > ; ; ;                                             ; o o o                                                                                         o                                                         o                                                                                                                                                     : X   .                         .                       .                       .                                                                                                                                                                                                                       .                                                                                                                                                                   . . .     . . . . . . . . . X X X X X @ : : X @ @ @ : @ @ @ : @ : * : * @ * $ $ $ $ $ $ $ $ O $ $ O $ O O $ ",
"# # # # # # ; % + % + % % % % % % = ; = = % % = ; % = = % = = = % = % = = % = ; % = ; , # = ; % ; # % > % # +                                               o                                                                                                                                                                                                                                                                                                                                                                                                                                                                                                                                                                                                                                                                                                                                                                                       . . . . . .   . . . . . . X . X X X X X @ X @ : : @ @ : @ @ @ @ @ : * * @ : @ $ $ $ $ $ $ $ $ $ $ $ $ $ $ O ",
"# # # # % # # # % % ; ; = % = % % ; = % % = = ; = = % = % = % ; = % = = % = % = = = % # , # # , # , % # = % + o                                                                                                                                                                                                                                                                                                                                                                                                                                                                                                                                                                                                                                                                                                                                                                                                                                 . .   . . . . . . . . . . . . X . X X X X @ X @ X : : @ : @ @ @ * : @ * : @ * # $ O $ O $ O $ O $ $ $ O $ O $ $ ",
"# # # # # # ; % # ; % % # ; & ; ; ; % = = % = ; % = % = = = = = = % = % % % = % = = % % = ; % % % % % % % % # +                                                                                                                                                                                                                                                                                                                                                                                                                                                                                                                                                                                                                                                                                                                                                                                                                                 . .   . . . . .   . . . . . . . . X X X @ X X : : : : : @ : @ @ @ % @ @ * @ @ $ @ @ $ $ * @ $ $ $ @ @ $ @ $ @ @ ",
"# # # # # # % # % % % ; ; % % % % = = % = = = % % = % = % = % = % = = = = ; % = % ; ; = % = = % = & % % % % $ + X                                                                                                                                                                                                                                                                                                                                                                                                                                                                                                                                                                                   .                                                                                                                                                                                                                                         . .   . . .   . . . . . . . . . X . X X X X X @ : : : : : @ @ : @ : @ @ @ # : * : @ $ + $ @ $ @ @ $ @ @ $ $ @ $ @ ",
"+ % # + # # # # # # ; # % ; % ; % % = % ; = = = = = = = = % ; = % & ; = = = % ; % % % % = % ; % & ; % % % % # $ O X                                                                                                                                                                                                                                                                                                                                                                                                                                                             .                           . .             .           .           .   .       . .   . .   .                 . . .   .   . . .                                                     .           .   .                       . .   .     .       .           . .       . . . . . .                                                                         . . .   . . . . . . .   . . . . X . X X X X X @ @ X X @ @ @ : : @ : @ @ @ : @ : @ : * $ @ @ $ $ @ $ @ $ @ $ O @ @ @ @ ",
"# # # ; # # % % % # % % % % % % = % % ; % % % = % % % ; = % % = = ; = % % = % = = ; = % % ; % = ; % & % % # % # O X                                                                                                                                                                                                                                                                                                                                                                                                           .                 . . . . .   . .   . . . . .     . . . . .   . . . . .   . . . . . . . . . . . X . .     . . . .   . . .   . . . . . . .   . . . . . . . . . . . .   . . .   . . .           . .                 .   . .     . .       . . . .   . . . . .   . . . .     . . . . .   . . . . .   . . . . . . . . . . . . . .                                                                             . . . . . . . . .   .   . . . . . . . . . X X X X X @ X X @ : : @ : @ @ @ @ * @ % @ * @ $ # @ @ @ $ @ @ @ $ O $ $ $ @ @ ",
"# # # % # # # ; % + ; # % & ; % % = % = = % = = = = % = % = = % % % % = % = % = = % = ; ; % % = ; & & ; & # & # $ X X .                         o         o     o                                                                                                 o   o                     o                           .   o     o           o   .               .                 o               .                                                     . . .                   . .         .     .   .   .       .   .   .   . . . . . . . . . . . . X . . . X . . . . . . . . . . . . . . .     . . . . . . . . . X . . . . . . . X . . . X . X . . . X . . . . . X . X . X . . . . . . .   . . .   . . . X . . . . . . . . .   .         . . . . . . X . X . X . . . . . . . . X . . . . . . . . . . . . X X . X . . . . . . . . . . . . . . . . .       .     . .                                                           . . . . . . . . . .   . . . . . . . . . . X . . X X @ @ X @ : @ : : @ @ : @ @ @ @ @ * @ @ * : O $ @ $ @ # @ @ $ O O $ @ O @ @ ",
"# # # # # # # % # % % % + ; ; % ; % ; % = ; % % = % = = ; = % = = = % & % ; = % % ; % = & % ; = & & % % % % % & # # + X .                                                         o   o     o                     o                             o   o                     o             o                     o                     .               .   .           .             .     o             .   . .       . .         .         .                 . X . . . .                     .   .     .   .   .       .   .   . . . . . . .   . . . X . . X . . . . . . . . . . . X X . . X . . . . . . . . . . . . . . . . . . . . . X X . . . . . X X . . X . X . X . X . . . . X . . X . . . . . . .   . . . X X X . . . . . . . . . . . . . . . . . . . . . . . . . . . . . X . . X . . . . . . . . . . . . . . . X . . . . X . . . . . . . . . . . . . .   . . .   . .   .                                       .         . . . . . . . . . . . . . . . . . . X . . . . X X X X X X X @ : X : @ @ : @ @ @ @ @ @ @ @ : : * $ @ $ $ @ $ $ $ O $ $ $ @ $ $ $ ",
"# # # # # + % # % + % % % ; % = % = % = ; % = = = = ; % % = % % ; = ; ; = = ; = % % % % % = % % % ; % % % % # # $ # + X . .                                               o               o                       . o X .                                       o   o                                 o       o                       .   .           o .     .   .   .         .   .         .   .     . .   .   .           . .     . .     .         . . . . X X X . . .           . .     .   . .   o   . . .   .   .   .   . . . . . . . . X . . . . . . . . X . X . . . . X . . X . . . . X . . . . . . . X . . . X . . . . X . . . X . . . . . . . . . . . . . . . . X . . X . . . . . . . . . . . . . . X X X X . . . . . . . . . . . . . . . . . . . . X . . . . . . . X . X . . . X . . . . X . X . . . . . . . . . . . . . . . .   . . . . . . . . . . . . . . . . .                                           . . . . . . . . . . . . . . . . . . . . . . . . X . X X X X X X : X : : X @ @ @ @ @ @ @ @ : * * % # * @ @ @ @ $ $ @ $ $ $ O $ $ O O $ ",
"# # + # ; % # # # = ; + % % % % % = = % = % % = % = % = = % = ; % % % = % % % % = % % ; = % = % % % ; % % % % % # # + O X X .                       o   o   o     o o               o       o                   o   o o o .   .                       o                   o   o   o o       o           o             o   .   . .       .   .     .       . .   .   .         .     . .     .       .               .   . .         .   .                   . . X X X . . X . .       .   .     . .   . . .   . . . . . . . . . .   . . . . . . . . . X . . . . . . . X . .   . . . . . . . . . . . X . . . . . . . . X . . . . . . . . . . . X . X . . X . X . . . X X . . . . X . . . . . . . .   . . . . . X . X X X X X X X . . . .     . . . . X . . X X . . . . X . . . X . . . . X . . . X . . . . . . . . X . . X . . X . . . . X . . . . . .   . . .     . .   . . . . . . .   .       .       .               . . . . . . . . . . . . . . . . . . . . . . . . . . . . X X X X X @ @ : : @ X @ @ : @ @ : @ : # @ @ : @ @ $ & @ @ @ $ @ $ O O $ $ $ $ O ",
"# # # # # % # # ; % # ; % % % = % = % % = % = = % ; % = = % % = & ; % ; = % = % ; % ; % % ; = % ; % % % % % % % % # # + X X . .                                   o                         o                 o o . o . o o o .                       o   o                                         o         o     o o     .       .               .   .           .     .   .   .   . .     . X         .   . .             .   .   .       .           . . X X X X X X X . . .             . .   .   .   .   .     . . . . . . . . . . . . . . . . . . . . . . . . . X . . . . . . X . . . . . X . . . . . . . . . . . . . . . . . . . . . . . . . . . . . . . . X . . . . . . . . . . .   . . . . . . . . X X X X X X X X X X . . .   . . . . . . . . . . . X . X . X . . . . X . . . . . . . X X . . . X . . . . X . X . . . . . . . . . . . . . .   .   . . . . . . . . . . . . . . .   .         .     . . . . . . . . . . . . . . X . . . . . . . . . . . . . . . . . . X X O X X : : X : : @ @ X @ : @ @ @ % @ * : @ * $ @ $ $ O $ $ $ $ O $ $ $ $ O $ ",
"# # # # # + ; # % # # = % ; ; % % ; = ; = = % = = = = = % ; = % % = % = ; % ; % = % = % % = ; % j ; % % % ; % # $ # # @ o X X .                           o o           o   o     o   o                 o         . . X o X . o o o                               o o     o   o       o     .   o     o       o         .         .   . .   o     . .         .       .   . .   .         . .     .   X         .   .               .                     . . X X X + X O X X X X . .     . .     .   . . . .   . . . . .   . . .   . . . . . . . . .   . . . . . . . . . X . . . . . . . . . . . . . . . . . . . . . . . . . . . . . . . . X X . X X . . X X . . . . X . X X . . . . . . . . . . . . . . . X . X X X : X @ X X X X X . X . . . .   . . X . X . . . . . . X . X . . . . X . . . . . . . . . . . X . . . . . X . . X X . . . . . . . . . . . . . .   .   . . X . . X . . . . . . . .   .   .   . . . . . . . . . . . . . . . . . X . . . . . . . . . . X X . X X . X O X @ : @ @ : @ @ @ : @ @ @ @ : : @ : * : * @ # @ @ @ $ O O $ $ O $ O $ O $ ",
"# # # % # # + = # % % # % ; % % % = % ; % % = % % = = % = % % = % = % % % % = ; ; % = % % = & % % % % % j % % ; # % # + + O X X . .                                 o                     o o     o           o . o . X X X o X   X                           o                                         o                             .   . .                 .       .     .       .   .     .         .           .         .   . .           .     . . . . . X + O O O X O X X . . . . .   .       .   . . . .   . . .   . . . .   . . . . . . . . . . . . . . . . . . . . . X . . X . . . . . . . . .   . .   . . . . . . . X . . . . . . . X X . . . . . . . X . . . . . . . . . . . . . . . . . . . X . X . X X X X X @ X X X X . . . . . X . . . X . X . X . . . . . . . . . X . . . . X . . . . . X . . . X . . . . . . . . . X X . . . . . . . . . . . .   . . . . . X X X . X . X . . . . . . . . X X . . . . . . X . . . . . . . . . . . . . . . . . . . . . X . . X X X X O @ X @ X @ X : @ @ : : @ @ * : * * * : @ $ $ $ @ $ $ $ $ $ O $ O $ O $ $ ",
"+ + # # # # # # # ; + % % # % = = % % = = ; % = = % % % ; = % ; % ; ; = % % % % % % ; % ; % % ; % % ; % # ; % % % # # # + O O o o o                     o     o   o       o         o                       o   . o X X X o X X X X o .     o     o                               o                                           o o         .     .   .     .       .     . .   . . .   .     .   .     .   . .     .   . . .             .   .       .     . . X X X X + O X X X X X . X . . .   .   .   . . .   . . . . . .   . . . . . . . . .   . . . . . . . . . . . . . . X . . . . . . . . . . . . . . . . . . . . X . . X . . . . . X . . . . . X X X . . . . . . X . X . . . . . . . . . . . . . . . . X X @ X @ : : X X X X X X X . X . . . X . . . . . . . . X . . X . X . X . . X . . . X . . . . . . . . . X X . . X . X . . . . X . . . . . . . . . . . X . . . . X X X X X X . X . X . . . . . . . X . . X . X . . X . . X . X . . . . . X . . . . . . . . . . X . X X O X : X X @ @ @ @ @ @ @ @ @ @ : @ @ : @ * : @ @ @ @ @ $ $ O $ $ $ $ $ $ $ O ",
"# + # # # # + # # # # % % # = ; % = ; = = % = % = % = % % = ; = % ; % ; % ; & % ; % % % % & % % % % % % # ; # % % # # # # @ X X X . . o                   o       o           o o                           o   o . o X O o X O o X X o . o                       .                       o   o .                 o   .                     .     .         .     .       X           . o     .   .   X   .   .       .     .       .       .     .   . o . . X O X O O o # O O X X X X . . . . . .   . . . . . . . . . . . . . . . . . . . . . . . . . . . . . . . . . . . . . . X . . X . . . . . X . . . X . . . . . . . X . X . X . X . X . . . X . . . X . . X . . . X . . X . . X . . . X . . X . X . X X X X : @ X @ X X : : X X X X X X . X X . . X . . X . . X . X . X . . . . X . . . . . . . . X . X X . X . . . X . . X . . X . X . . . . X . . X . . . . . . X . . X X X X X X X X X . . . X . . . . . . X . . X . . . . . . X . . . X . . . . . . . . . . X X X X X O X @ X @ @ @ @ : @ : : @ @ @ @ * : @ @ % @ $ @ $ @ @ $ O $ $ $ $ $ $ $ $ O $ ",
"+ # # # # # = # + = + % # = % % = % % % ; = % ; ; % % = % ; % % % = % % % ; ; & % % = ; % ; % ; ; % % % & % % % % # # # # o O X X X . o     o                         o   o     o         o   o o       o     o . o + X X X X o X X o . X X . . . o   o o     o   o o   o   o     o o     o o       o   o o   o .   .   o   o . o .   o . . .   .   o     .       . .   .   .     X .   .     o X     . o   X   . X .   . . . . . o . . . .     . . . . X . X X X + X + X @ O X o @ X X X . X . X . . . . . . . . . . X . . . X . . . . X . . . . X X . . . . . . . X . . X X . X . . X X . . X . X . . X . X . X . X X X . X . X . X X . X X X X X X . X X . X . X X X . . X . X . X . X . X . X . X . X X X X : X : : : : : @ : : X X X : X X X X X X X . X . . X . X X . X . X X X X X X X . X X . X . X X . . . X X X X . X X . X . . X . . X . X . . . . X . X . X . X X X X X X X X X X X X X X . . . X . . X X . . X . X . X X X X . . X X . X . . X X . . X X . X . X X X X X @ X @ X @ @ : @ @ @ : @ @ : : * : * @ @ @ $ $ $ $ $ O $ @ $ O $ $ O $ $ O ",
"+ # # + # # ; # = # % # % % ; % ; % % % % % % = % % = ; % ; = % % % ; % % % ; % ; % = % % ; % % % % % ; % % % % # & # # # @ # X o O . . o   o               o o             o         o           o   o     o   X X X X O X X O X X X o X X . . . .   o       o     o     o   o       o     o . o   . . o     . o       . . . . .   . . o       . . . . .   o   .       X . . o .   X   . . .   X   o .   .   X X   o     o . o . . . o . . . o . . . X . . X + X # # X # X : : : @ X X X X X X X . . X . X . X . X X . . X X . . . . . . . . X X . X . X . X X X . X . X X . . X . X . . X X . X X . X X . X X X X X X X X X X X X X X . X X X X X X X X X X X X . . X X X X X X X X . . X X X X X X X X X : X @ X @ X @ X X X : : @ @ : @ X X X X X X X X X X X X X X X X X X X X X X X X X X X X X X X . X X X X X X X X X X X X X X X X X . X X . X . X . X X . X X . X X X X @ X X X @ X X X X X X X X . X X . . X X . . X X X X . X . X X X X . . X X . . X X X X X X X X X X X X X : @ X @ X @ @ : @ @ @ @ * @ : : * $ @ @ @ $ $ O $ O O $ O $ O $ $ $ O ",
"# # # # + # $ # # # ; # % % ; % ; % = = % = = % = ; % % % = % % % ; % % ; % % % = % % % ; % % = % ; & % % % % & # # & # # + # O + X X X X       o     o o       o o o   o     o   o o   o   o       o   o o   o o X o O O o X + O + X O X X o X . o o   o   o o o   o o o     o o o o   o   o o . o o .   . . o . . o o . o o . . o o . . o o . o   o . . X . X X o X X o   o . X o . o X X X X X X . o o X X   o X X . .   X . X . . . . X . X . . X . . X X X X X O + @ X @ X : @ X @ X X X . X . X . X . X . . . X X X . X . X X X X X X X . X . . X X . X . X X . X X . X X . X X X X X X X X X X X X X X X X X X X X X X X X X X X @ X X X X : : X : : X X X @ X X @ X X @ X X X X X X X X X X X X @ : X : : : X @ @ : @ @ : : X : : : X : X X X X X X X X X X X X X X X X X X X X X X X X X X X X X X X X X X X X X X X X X X @ X X X X X X X . X X X X . X X X X X X @ X X X @ X @ X O O : X X X X X X . X X . X X . X X X . . X . X X . X . X X X . X X X . X . X X X X X @ @ @ @ X @ @ : : : : @ @ @ @ @ : * * @ : $ @ @ @ $ O $ @ $ $ $ $ $ O $ O $ $ ",
"# # # # # # # # ; % # ; % % % % = % = # # = = # = % % = # = # % # % ; ; > ; , # = > ; # % % ; % % % % % % # % % @ # & : % : # X + X + X X . X     o . o o       o       o .   o   o   o   o o   o     o o   . o X o X X + X X + X + X X X X X X X X o . . . . o . o . o o   X o o . o . o . o o . + . o o o . o o . X . X o X o o X o . o . o . X . o X   o . o . X o X X X o X . o X X X . X X o o X . X o . X . X X . X o X o X X X . X X   . o . . X X X X O O X # o @ # @ # X @ X # X X : X X X X X X X X . X X . X X X . X X X X X X X X . X X X X X X X X X X X X X X X X X X X X @ X X X X X X @ X X X @ X @ X X X X X X X X @ X @ X X X X : X : @ X : @ @ X X X X X @ X X X @ X X X X X : X X X @ X : @ @ @ X : : : @ @ : : @ @ @ @ : : X @ X @ : X X X X X X X @ X X X X X X X X X X X X X X X @ X X X X X X @ X X X X X X X X X X X X X X X X X X X X X X : X X X @ X X X @ X @ X X @ X X X X X X X X X . X X X X X X X X X X X X X X X X X X X X X . X X X X X X X X @ X X @ @ : @ X @ @ : @ @ : @ @ @ @ * @ * : @ * : : * : $ @ @ @ $ $ $ $ @ @ $ @ ",
"# + + # # # # # # # % # # % ; % # = % = = # % = # = = # = # # = = # % % ; # # # # ; > ; ; % % % % % % % ; % % % ; # % % # # : # + + X X o X o X . o         o o . o o .     o   .   o     X   .   o o o . o o o o o X + X O X # # X X # + X X X X X X X o o o X X . X X X o o X . o o o o . o . X . X . X X X X o X . o X o + o . o X o X X o o o o X o o X o X o o . . . X X X X X o X o o X X X . X X X X o . X X X X . o X X X X X X X X X X X X X X X X + X X # O @ @ O X # # X @ X @ X X @ X X X X X X X X X X X X X X @ X X X X X X X X X X X X X X X X X X X @ X @ X X X @ X X @ X : X X X : X X X X X X X X X @ @ X @ X X : : X : X @ X X @ X @ @ X : X X @ : @ X @ X X X : @ X @ X X X X @ X @ X : X @ : : @ X @ : : : @ : X @ @ @ : : : : : X X : : : : X @ X X X @ X X @ X @ : @ X @ : : X @ X X X @ @ : X X : X @ : : @ X : @ X X X @ : X @ X X X : X X @ X : : : : : @ : : X @ : @ : : @ X @ X X X @ X X X X X X X X X X X X X X X X X X X X X X X X X X @ X X X @ X X @ X X X X @ @ @ X @ @ @ @ @ @ @ : @ * @ : * @ * @ @ @ @ @ * $ @ @ $ @ @ @ $ ",
"+ $ # # # # # # # % % ; = % % % = # ; % = = = = = = # = # , ; % , # # = # # ; , # ; ; # % % % % # % ; % % ; # % # % % ; # # # : O X X X X X X o o . o   o . o     o o o o . . . o . o . o .   o o   o o o X . + + X o X + # X X X O + X X + O o X X X X X X . X X o o X o + X o . + X o + o o X X X X X X X X X X X X X X X X X X + . X X o o X o X X o o X X X X X X + o X X X X X X X . X X X X X X X X X X X X X X X . X X X X X X X X X X X X X X X X X X : X X O : : # @ O @ + o @ @ : @ @ @ : O O X X X X X X X X X @ X X X X X X X @ @ X X X X X X X X X X X X X X X @ X X X X : X @ @ X : @ X X @ @ : : @ @ X X X : : X X @ : : : @ X @ : : @ X @ @ : : X : X @ @ @ X @ X @ X : : @ X @ : @ X @ X @ @ X : @ : : @ @ @ X @ @ : @ X @ : : : : @ X : : : : : : @ @ : X X @ : : @ X X : : : : : : : @ @ X : X X : X @ X @ : X @ : : X : X @ X : @ : X @ : : @ X X @ @ @ X : X @ @ X X @ X @ @ : : @ X @ : @ X : X : X X X X X X X X X X X X X X X X X @ X @ X X X X @ X X X X @ X @ : : @ X @ X @ @ @ @ @ @ @ * : * : : @ @ @ @ * : $ @ $ @ @ @ $ @ O $ $ O ",
"# + # # # # # # # # # # # ; % ; # = % = # = % # # = = # = # = # # % ; # > ; % # , # , # % ; % % # % % # % # % # % % # # # # # : + # + O O o X o o . . o . o . o o . . . o o o . . o . o . o . X o o   o . o . X o X @ X + X O + # + X # O O O X o O O X + X X X O X O o X o X o X X X X X X X X o X X + o X o X X X + X X o X X X . + X . + X X + o o X X X X X X O X X X O X X X X X X X X X X X X X O X X X O X X X X X X X X X O o X X X X X X X X X + O X O # X @ # # X # : : : @ # X # X o X X X X O O X O X @ X : X X X X : X X @ X X X X X @ @ X X @ @ X @ X X @ : : X @ : : : X @ X X X : : : @ @ : : : : : : @ : : @ @ @ X @ @ : : X X : : @ @ X : @ : @ X @ X X : : : : : : : : : X X : : : : : X @ @ @ : : @ @ @ @ @ : : : X @ @ : @ : : @ @ : : @ : : : : : : : @ X : : @ : : : X @ : X : : X : : : @ @ : X X @ X X X X @ : X @ : X : X X X @ : X @ : : X X X : X : @ @ : : @ @ : : X : : @ : : : X X @ : X : @ @ X X X X @ X X X X X @ @ X X X X X X : X : X X @ : @ X @ @ @ @ @ @ @ @ @ @ @ : @ @ @ @ @ @ @ * * : @ @ * @ @ $ @ @ $ $ @ @ $ O $ $ ",
"# + + + + # # # # ; % % # % % ; = % = = # = % = % % # = # = # = > + ; # # # = # # # ; # > ; = # ; % : % ; % # # # % # # # # # : # X # X X X + X X X X X o . o . . o X o . . o o o o . o o . X . X o o o o X o X # X X # X + O O X + + # X X X O X + X X X X X X X X X X X X O O + o + X X X X X X X X X X O X o O X X X o X X X X X X X X X o X X X X + X O X X X X X + O X o X X X o O X O X X X X X X X X X O X O X X X X X X O X X X + X X + + X X X X X O @ # O @ X # o # + # @ @ # O X X @ + @ X @ X O X O X @ X X O X X : X X X @ X @ X X X X @ X X X @ @ X @ X X @ X X : : : @ @ @ X : @ @ X @ @ X : : @ X @ X @ @ @ : : X @ @ X : @ @ @ @ : X @ @ : : : : @ @ @ @ : @ : : @ X @ X @ @ @ X @ X @ @ X : @ @ @ : @ : @ * : @ : @ @ @ : @ : @ @ @ @ : : @ : @ X @ X : : @ @ @ @ @ @ @ @ @ X @ @ : X @ @ @ X X @ X @ X @ @ X : : X X @ X X @ X @ @ X X X : : X : : X X X X X @ X @ @ @ @ : @ : : X @ : @ X @ X X @ X @ X : X @ : X : : X X @ @ @ X X X : @ @ : @ X @ X @ X X X X @ X @ X : @ @ @ @ : @ @ @ @ @ * : @ @ : : * * : @ @ @ $ $ @ O $ O $ $ $ O $ ",
"# + % # # # # # # # # # ; % % % # = # = # = = # = ; , # = # % # ; # # , = = # # # , # , ; # # + % % & ; # # # & # % % # # # # # X # O + O + X X X o O o X X X X o . X o o o + . o . o o X X X o . o . X + o o + o X + X # O + o X # X # O # # X + X + + X + X + + X O X O O X o X X X X + X X + + o X X O X O O O o O O O X + + + X O o X O O O X X X X X + X + + X X X X X O O X X O X X O X X X X + X + X + X X + + X + X O + O X O X X O X + X X + + + X @ o o @ O # @ @ : @ + # + @ @ # # X @ o @ X @ X @ X X @ @ X X X @ X : O X X X @ : @ @ X : X @ X X o X : @ : : X : : : : X @ : X : @ X @ X @ @ X @ @ @ @ : : X @ @ : : X X @ X @ : X @ : : X @ X : @ : @ @ @ : @ : : @ @ @ @ : X : : : X @ @ @ @ @ @ : : @ @ @ : : @ @ @ @ @ @ @ @ @ @ @ X @ @ : @ @ @ @ : : : X @ @ : @ @ X : X X @ @ : : @ @ X @ @ @ @ @ X @ @ X @ @ @ @ X : : X @ @ @ X @ @ X @ @ @ : @ @ : @ @ @ @ @ : @ @ X # X : X @ @ @ @ @ X @ @ X @ X @ : : X X @ : X X : : X X X @ X @ X X X : X X @ : @ X @ @ X @ X @ @ @ : @ : @ : @ @ @ @ @ @ @ @ * @ @ @ @ @ * @ @ $ @ $ O $ $ $ O O $ ",
"+ # + # # + # # % # # % % % ; % = # = % = = # = # = # = # = = # ; # # = # # # = # + = # # # = , : j % % % % & ; # % # # # # # : # : + X O X + X X O X X X o X X X X o o + . X o o X o . o O + X X X o X + o X + + X O X X O # O # # X X o O O O X + X O X + + X + X O X X X O X + X X X X X X X X O + X X X X O O X X O O X X X + X O O + X X X X + + X X X X X O + + X X X X + X O + X o O X X + X X + X X X X O X + X X + X X + + X + + X + X @ o X X X @ + o o @ : @ # @ @ # : # X # @ : @ @ : O X @ @ X @ X : X X @ @ @ X : : X @ @ @ X X @ : X : @ @ X @ X @ @ X : : @ X @ X @ @ @ @ X @ X : : : @ @ : X : : @ X @ @ @ : : : @ @ X : @ : @ @ @ @ @ : @ @ : : @ : : @ @ @ : X : : @ : : @ X : : @ @ : @ X : : : @ @ @ @ @ @ @ @ : @ @ @ @ @ : : @ @ : @ @ @ : : : @ X @ @ : @ @ @ @ @ @ @ @ @ X X : X @ X @ @ @ : : X @ @ @ @ @ X @ @ X @ X X @ : @ X @ X @ X X X @ @ @ @ @ @ @ X @ : @ X @ @ @ @ X @ X @ X @ X @ @ X : @ X X @ X : : @ X @ @ X @ X @ X : X : X : @ X : @ X @ X @ @ X @ @ @ @ @ : @ @ * @ @ : : @ @ * : : @ @ @ @ @ $ $ @ @ O $ $ O $ $ $ $ ",
"+ # + # # # # # # # # ; # # % % # = # = # = = % = % , # = # = # > ; # # # , # , ; > ; # > ; # # ; ; # % % % % # ; # % % % # % : # + # # + + X + O o X X X X o X o o X X X X o o X X o + o o X o X + X X X X X X o X @ + X + X # X + # + # O + + + O + O + O X + X + X + X + X X X + + + X + + X + X X + X + X O X X + X + O O X X X + X X O + O + X X + + X + + X X + X # X + X + X + X X O + O O + X O + + X + X + X + X X + O X X + X X + X + O + + X # X + @ X # + O # : : # # @ # @ # : @ : : @ @ : : @ : X @ : X @ X : @ X @ @ : X : X @ X @ @ X @ : X @ @ X : : : X @ : : : X @ X @ @ X @ @ : @ : : : X @ @ : : X @ @ : @ @ @ @ @ : : @ @ @ X @ @ @ : : @ @ @ : @ : : : @ : : @ : : @ @ @ @ @ @ @ @ : @ @ * : @ : @ @ : @ @ @ @ @ @ @ @ @ @ : @ @ @ @ : : @ @ @ : @ @ @ X @ @ @ X X @ @ @ @ : @ @ @ @ X @ : : @ : X @ : : X @ @ @ @ @ @ @ X @ : X @ X @ @ @ @ @ X @ @ @ @ X @ : : @ : @ @ @ @ @ @ @ @ @ @ X @ @ : : : : X : X @ : X @ : X X @ X @ X @ X X : X @ X X @ X @ X @ @ X @ @ X X @ : @ @ : @ @ @ * @ @ : * : * @ @ * @ @ @ @ @ $ O $ $ O $ O $ O ",
"# + # # # # # # # # % # % # ; % = # ; > > ; # ; # = # = # # = # # = # # # = # # ; # ; % % % % % % # % % % : j % : # ; % ; # % # # + + # X O X + X o @ + X X o X + . X X X X o X X X X X X o X X X X X o X O X o @ o @ + X # X X # X O + # X O + X + + o @ o O + X X # X O o X # X + X X O O O O X X X + X + X + X X + X O + X + O o O X O + X + O X + X + X O X + X X + X + X + X X # X X # X + X O X + O X + + X O X + + X + X O + O O O O O O + X X + O O @ X X @ # @ : # @ # # : : # : # @ : @ @ : @ : : @ : : @ : @ @ X : @ @ X @ @ X @ @ X @ X @ X @ : X : @ X @ X @ @ o : @ : @ @ @ @ @ @ @ @ @ @ @ @ : : @ @ @ @ @ @ : : : @ : @ @ : @ @ @ @ : @ : : @ @ @ @ : : @ : @ : @ X @ @ @ O @ O : : @ @ : @ @ @ @ : : : : @ @ : @ @ @ @ @ : @ @ @ @ @ : : : @ @ @ @ @ : @ : @ @ : @ : : @ @ : @ : : @ @ @ : @ : @ : : @ : @ @ @ : X X @ : @ : : : @ : @ : @ @ @ @ @ X X @ @ @ : @ @ X @ @ : : X @ @ @ X @ @ @ @ @ @ X : X : @ @ @ X @ X @ @ X @ @ @ X X X : : @ @ X : @ X @ X @ X : @ X @ @ @ @ : : @ @ : @ @ @ @ @ * : * : : @ @ @ @ @ O $ $ $ $ $ $ $ O O $ O ",
"$ + # + # # # # # # # ; # % % ; # = # % ; # , > = # = # # = ; % # = # = # # = # % % % % % ; # ; % % % # ; % ; % & % % # # # : # # @ # O # O X + + X O X o X X + X X O X o X o o + X o + X X O X + X X O X X + X + X + O # X # + # + # O X # + @ + + @ + + O + @ # X X + + @ + X # X + # O O o o O + + X O X # X # X X # O X + X + O + O + X X O X # X # X + O O + + # X # X # X + + X + + X X # + + O O + X o @ # X + X X + X # o X + X O # o O X # O + + : X # # : X # : # # X # @ # @ @ @ # @ # : @ : @ : : @ @ : @ X : # X @ @ : o @ : : : @ : @ @ : : @ @ @ : : @ @ @ X : @ : : @ @ X @ : @ @ @ @ @ : @ @ @ : @ @ @ : @ @ @ @ @ : @ @ @ : @ : X @ : @ @ @ : @ : @ @ @ @ @ : @ @ @ @ @ O $ @ @ @ @ @ @ @ @ @ * : @ @ @ : * : @ @ @ @ * : : * @ @ @ * @ @ @ : : @ @ : : @ @ @ @ @ @ @ @ @ @ @ @ @ @ @ : @ @ : @ @ : : @ : : @ @ @ @ @ @ : @ : : @ @ @ @ : @ @ @ @ @ @ X @ @ : @ : : @ : @ @ @ @ @ @ @ @ @ @ X @ X : : @ X @ X : : : X @ X X X X @ X @ @ : X @ @ : X @ : @ @ X @ X @ @ @ X @ @ @ @ @ @ @ @ @ @ @ @ @ @ : : * : @ @ @ $ @ $ O @ O $ $ O $ $ $ $ ",
"# # # + # # # # # ; # % ; % ; # ; % % ; # # % ; # # # = # = # > % # % % = = # # % ; ; % # ; % % # % : & % ; : % % % # # % # % : # + # # # X # X X # O X O + X X X X + X o X O X X X X + + X + X + X o O X + X + # X X # X + O : X # # # # + o # # @ o X O # X # O + + X O # X + X O + X + X X @ X # O X X + X # X X + X O O + X O O + O # X + X + X X # # X # O X X + O # X X # + X X # @ O O X O O o + X O # X X + X + o @ # o @ + o # + X # o @ : O @ X # # : # @ @ : @ # # # : @ # : @ # % : @ : # : : @ @ : # X : @ @ X @ X @ @ X @ : @ @ : @ X X @ X X @ X : @ @ : @ : @ @ @ : @ @ : : @ @ X @ @ X @ : @ : @ @ @ @ @ @ : @ @ @ @ : @ @ : @ @ @ @ @ @ @ @ @ @ @ : * * @ @ @ : @ @ @ @ @ O @ @ @ @ @ : : : : @ : @ * * : @ : @ @ @ @ @ @ : @ @ @ @ @ * @ @ : @ @ @ @ : @ : @ @ @ @ @ @ @ @ : : X @ @ : @ @ : : @ @ @ : @ : @ @ @ @ @ @ : : @ @ @ : : : @ @ X : @ @ @ @ X : @ @ @ @ @ @ @ @ @ @ : @ @ @ @ @ : : @ @ @ @ @ @ @ @ @ X @ @ X : : @ X X @ X X : : X @ X X @ : X @ @ @ X @ @ @ X @ @ @ : @ @ @ @ @ @ @ @ @ @ * @ : $ @ @ @ $ @ $ O $ O $ $ $ O O $ ",
"# X # # # # # # # # % # # % % % # % % ; # = % ; # = = # ; # # ; % # ; # # # # = # % % # % % % # ; % ; % % % % # % ; j : # # % # # # o # # + # # # X + # O X O X + X X X O X O O O X O o X X X + X X O O + X O X X + : X # O + + X + o @ + # # O O + # # + + @ o + X # # + X # X X + X + O + + + + X + + # X + X # + O # # o O # + O O o X + O + X + # X X # O o + + + O X # X + O O # X o # + + + + O O # + X O + O o @ @ X O @ o @ @ O O # @ X # X @ o @ X # @ X # # # # X @ : @ # @ : # @ @ : # # @ @ @ : # @ : @ @ : O O : @ : @ : : @ O O @ : : @ : @ @ # : @ @ X : @ @ : @ : @ @ : @ @ @ @ : @ @ @ @ @ @ @ X X @ @ @ @ @ @ : @ @ @ @ @ @ @ @ @ @ @ @ @ @ @ : @ : @ : : @ @ @ @ @ @ @ @ @ @ @ @ @ @ * @ @ * * @ : : @ @ @ : : @ : @ @ : : * : @ @ @ : : * : @ : @ : @ : @ @ : @ @ @ : @ @ @ : @ @ @ @ @ @ @ @ @ @ : @ : @ : @ @ @ @ : @ @ : @ @ @ @ @ : @ : : X @ @ @ @ : @ @ @ @ @ @ @ @ @ @ X @ @ : @ @ @ @ @ @ : @ X @ @ @ @ X : @ @ @ : X @ @ @ : @ @ X @ X : @ @ X X @ X @ @ X X @ : : @ @ @ @ @ : @ @ * : : * : : * : @ @ @ $ O $ @ O $ O O $ $ $ $ O ",
"# + # # O # # # # # # % # ; % % = = # = ; % # # ; # # # # # # # # = # ; % # % % % % % # ; % % % % % ; % % # % % # # % # # ; ; % # # # # X + O o + X # X + O X X X O X + O X + X + X X O + X O o X + O O O O X + + X # X : + + + # @ o # o # @ + X # O # + # + O X # + X # X # X # X # X O O + X X # X # X + X + + X O + O X # X O + O O + # X # # X # # + X + : o O X # # X # + # o @ O # X # + O + : O + X o + O X X O O # + X @ + @ o @ : + # O X @ X : # @ o # X # : # : : # : # : # # @ % # @ # # @ : @ @ : @ @ @ : @ : @ : @ : X @ @ : @ : : : @ @ : @ : : @ : @ : @ @ @ @ @ @ : @ : @ @ : @ @ : @ @ @ : @ : @ @ @ @ @ @ @ @ : @ @ : : @ @ : : : : @ @ @ @ : @ @ : * @ : : : @ @ @ @ @ @ @ @ : : : @ @ @ : : @ @ @ * : @ * * : @ @ * : @ @ @ @ @ * @ @ @ @ @ @ @ @ @ @ @ : @ @ @ @ @ @ @ @ @ @ : @ @ @ : : @ : @ @ @ : @ : @ @ @ @ : @ : @ @ : @ @ @ @ @ : @ : @ @ @ : @ : @ : @ : @ @ @ @ : @ @ @ @ @ @ : @ @ @ @ : : @ : : X X @ X : : @ : @ X : : : X X X @ X @ X @ X @ X @ @ @ @ @ @ @ X @ : @ @ @ @ @ : : * : : * @ * $ @ $ $ $ $ O O $ O O O O $ $ O ",
"X # + # # # # # # # # % # % ; # # # # # # ; , # % # , = > ; # = # = # # # ; # # # ; # % # % # ; % # & : # % ; % % % ; % # % # # # # X # # # @ # # X X + X X # # + X + X O O + X X + # X X O O O + X o X + X + X X # X # X # @ + # + # # + # # # # + # # @ o X # # X X # X + O # X # + + + O X # X + + O X # # X O # O O + # X + o O + O + X + O X + + X @ # O + # # + X + O # X X # + # O # X X O O + O X # @ + O # # X + X X # # O @ # X # # X # # : # # X @ # @ : @ # : # @ # # @ # @ # @ : @ # @ @ # : % @ : @ : : @ @ @ : @ : @ @ : X @ @ : : X : @ @ : @ X @ @ X @ @ X @ : : @ @ @ @ @ @ @ : @ @ @ : @ @ @ @ @ @ @ @ @ @ @ * : @ @ * @ @ @ * * : * * : @ @ : * * : : @ @ * @ @ @ @ @ @ @ @ @ @ * : @ @ @ : : @ : : : : @ @ : @ @ @ : @ @ * @ @ @ @ @ @ @ @ @ @ @ @ : @ @ @ @ @ @ @ @ @ @ @ @ @ @ @ @ @ * @ @ @ @ @ @ @ @ : X @ @ X @ @ @ @ @ @ @ @ @ @ @ @ @ @ @ @ @ @ @ @ @ X @ @ @ @ X @ @ @ @ @ @ @ @ @ @ @ @ @ @ @ @ : @ @ @ @ @ X @ @ X @ : : @ : : @ @ X @ @ : @ X @ @ @ X @ X X @ X @ @ @ @ : @ @ @ @ : : : @ : @ @ @ @ @ $ @ O $ $ $ $ $ $ $ O O $ ",
"# + # # # + # # % # % ; # ; % % # % % = # > , # # % # # , # # ; % # # ; % # ; % # % ; % # % % % : % ; ; % % # # ; : % % % # % # # # # O # + + # X # # O + X + X X + X O X + X + O X + X + X + X X X O O X + + O # X # X : : # O o @ O # @ + # # # + @ o X # # + + # + @ # # + X # # X # o # o @ # X # # + O # # + # X # O + # O # @ o # O + # X + O O # + : + O @ + + # + @ + @ + X # X # X # # # O + # # O + O # X # # + o # @ # X O # # X : # @ o @ : @ : @ # : # @ : @ # # @ # @ @ # # : @ % # # : @ @ : : # # @ # @ @ @ : : @ : : @ @ : @ : @ @ @ @ @ @ @ @ : @ @ : @ X @ @ @ @ * : @ @ @ @ @ @ @ @ @ @ @ @ @ : @ @ @ @ @ @ : : @ @ : : @ : : @ @ @ : : * : : @ @ : : @ @ @ @ @ @ @ @ @ @ @ @ @ @ : * : @ @ @ @ @ * * @ @ @ : @ @ @ @ @ @ * @ @ @ @ @ * @ @ @ @ @ @ @ @ @ @ @ @ @ @ @ @ @ @ @ * @ @ @ @ @ @ @ @ @ : @ @ : @ : X @ @ : @ : @ @ @ @ @ @ @ @ @ @ : @ @ @ : @ @ @ : @ @ @ @ @ @ @ @ @ @ @ : @ @ @ @ : @ @ : @ @ : @ : @ @ X @ X : @ @ @ @ @ @ X @ X @ X @ @ @ @ X @ @ @ : @ @ @ @ @ : : @ @ @ @ @ @ @ : : : @ : @ @ @ $ @ $ $ $ X O X $ $ $ $ O ",
"# # # : # # # # # # # # % # % # % ; # # ; # # # = # = # + % # % % # % # # = # % # ; % # % ; # ; % % % # # # ; % # % % : # # # # # # # # + # # X + # X + X # X + + X + X + X O X X + X O + X X O X + X + + X X + X + O + : + o # # + + # # + # o @ # + # # + # O O + # o # X + O O o @ + @ + # + X # + X X # X + X # # o + : X # # + # X # # X # O O # o # + # X # + @ # o + # o # X # # @ # X # X # # X # X + : X # + X : @ O + # @ # X @ X # @ @ # # X # # # X # @ # # : @ : # @ # : @ @ % : @ @ @ @ # : % @ @ : @ : : : @ @ # # @ @ : @ @ @ @ @ @ @ X @ @ : @ @ @ @ @ @ @ @ # @ : : @ @ @ @ @ @ @ @ @ @ @ @ @ @ @ @ @ @ @ @ @ * * @ @ * @ @ : * @ : * @ * @ @ : * @ : * @ @ @ @ @ @ @ @ @ @ @ @ @ : * : : * : @ @ @ @ : @ @ @ @ @ : @ @ @ @ @ $ @ $ @ @ @ * @ : * @ @ @ @ @ @ @ @ @ O $ O @ @ @ @ @ @ @ @ @ @ @ @ @ @ @ @ @ @ : @ @ @ @ @ @ @ @ : @ @ @ @ @ : @ @ : @ @ @ @ : @ @ @ @ @ @ @ @ @ : @ @ : @ @ @ @ @ @ @ @ @ @ @ @ : X @ @ @ @ @ X @ X X @ @ @ X @ @ @ X @ : : X @ @ @ @ @ : @ @ X : @ @ @ : @ @ @ @ @ * @ * : * $ @ $ @ O $ O $ O $ $ $ O O $ O ",
"# # # + # # # # # # # ; # ; # # % % # # = # # = # # % + = ; % % ; % # # ; % ; % # % ; % # % # # # # # % # % # % # % & # # % % # % % # # # X # o # O + X # X + X X # X X X + X + X X + O X O X @ X O X X + X X # o O # X O + o @ # + # # # # O + # X # # + o # @ # o # O + @ # + O # X # # o @ O + # + : + X @ + X # # + # # + # X + O # # # X + # X + # O # + X # X # X # X # X # # # # # X # # # X # X X # # X @ X + : @ o # # : : # X @ # X : @ @ @ # : X # : + # : : @ # # @ # : # @ @ # @ : # # @ # # @ # @ : # @ O O @ O + : @ : @ # @ O @ # : @ : @ @ @ @ @ O @ @ @ @ @ @ : @ : @ @ @ * @ @ @ @ @ @ @ @ @ @ @ $ @ @ @ @ @ : * : : @ @ @ @ * : * : @ : * : @ $ @ @ @ @ $ @ @ @ @ O O $ O O @ @ @ @ @ @ @ @ @ @ @ $ @ O @ @ * @ @ * @ @ @ $ @ @ $ O $ $ O $ @ @ @ @ @ @ @ @ @ @ @ @ @ @ @ $ * @ @ @ @ @ @ @ @ @ @ @ @ @ @ @ @ @ @ @ @ @ : : @ @ @ @ @ @ $ @ O @ O O @ @ @ @ @ @ @ : @ @ @ @ @ @ O @ @ @ @ @ @ @ @ @ @ @ @ @ @ @ @ @ @ @ @ X @ @ X @ @ @ @ @ @ @ @ @ X @ @ @ @ @ @ @ X @ @ @ @ @ @ O @ @ O @ @ O @ @ @ @ @ @ @ @ @ @ O @ @ $ @ @ $ $ O O $ O ",
"# o @ # + # # # % # # # % # % ; # ; # % # # % + # = # # # # # # # % % % # # # % % # # # % ; # % # ; # # # % ; # # # % # % # # # # # # # # + + @ # + # X X # X + + X X # X O X # # X + X + X + o + X # # X # X X + # X # # O # + O # # O + # # # # # X # O # # + O # O # # + X # # + # X # X # + @ o @ + # # + # # # X X O o @ X # # # X X # # O # # O # # X # # O + + # + # + # # X # X # @ # X # # + # # : @ # o # @ X # @ : X O @ @ # O : # # # o X # @ # @ # @ # @ # @ @ : @ @ # @ # # @ : % @ @ # @ @ @ : # @ @ @ $ $ O O @ @ : : @ : @ @ : @ @ @ : @ : @ : @ O @ @ @ @ @ @ @ @ @ # @ @ : : @ @ @ @ @ @ @ @ @ @ O @ @ @ @ @ @ @ * @ @ @ @ @ @ : @ @ @ @ @ @ $ @ $ @ @ @ @ @ @ $ @ @ $ @ @ $ @ @ @ @ @ O @ @ @ @ @ @ $ $ @ @ @ @ @ @ @ X @ @ @ @ O $ $ O $ O $ @ $ @ @ @ @ @ @ $ @ @ @ @ @ @ : @ @ @ @ @ @ @ @ @ @ @ : : @ @ : @ @ : @ @ @ @ @ @ : @ @ @ @ : @ @ $ O @ @ @ @ @ @ @ @ @ @ @ @ @ @ @ O @ @ @ @ @ @ @ O @ @ @ @ @ : @ : : @ @ @ @ X @ X @ X : X @ @ X @ @ @ @ : @ @ X @ @ @ @ @ O @ @ O @ @ @ @ @ $ @ @ @ @ @ O @ $ @ @ $ O @ @ O $ O $ $ $ O $ ",
"+ # # # # # # # # # # % # # # % = # # = = # = + # # # = % # ; % % # % # % ; % # % # % # # # # # # % : ; % # # % % # # % # # # % # # # # # # @ # O # X + + X # X O + O X + X X X # X X + O + X + O o + X + X O + O O # X O + o # # o + # + # @ # # # X # # X # O O + # O o # O O # O # o # + # + + o X # X # @ o + @ + # + # + # # + # + # + # o + # + # : + O + O # # + # # + X X # # O X # # X X # X + @ : X @ # @ : # + @ : @ X # # X : # # @ @ + @ # @ # : # @ O : # : # # # @ : % : @ # # @ # @ # : # : # @ @ @ @ @ O @ + @ : @ @ @ @ : @ : # @ + + @ @ : @ @ @ O @ @ @ @ @ @ # @ @ @ @ @ @ @ @ @ @ @ @ @ @ @ @ @ @ $ @ @ $ : : : @ @ @ @ @ * @ * @ : * * @ @ @ @ @ $ $ @ $ @ @ $ @ @ @ @ @ @ @ @ @ @ @ @ $ @ @ O @ $ O $ @ @ @ @ @ $ $ @ @ $ @ @ @ $ O O $ $ X $ O @ @ @ @ O $ @ @ @ $ $ $ @ @ : : @ @ @ * @ @ @ @ @ @ : @ @ @ @ @ : @ : @ @ @ @ @ @ @ @ @ @ @ @ @ @ @ @ @ @ @ @ @ @ @ @ @ $ O @ $ @ @ $ @ @ @ @ $ @ O O @ @ @ @ @ : @ @ @ X @ @ @ @ @ : @ : : X @ @ : @ @ @ @ : @ @ @ X @ @ @ O $ @ @ O O $ O @ @ $ O O $ $ @ @ @ O $ $ O $ $ $ $ $ O $ O ",
"O # + O # # + # # # # # # % # % # # # # # # # % # = # # # % # # ; # # % # # % # # # % ; % # ; % % # % % # # % # # # # # # % # % % # # # # + # o + O # X # # X # + @ o + X # + + X X # X O o @ X O O X + X # X # O + X + # X @ + @ # O # # # + # # + # # # # + # # : + # # O + # O # O # O # X # @ # # # X + + + # o O # # X # X X # # X O + # @ X # @ o + # X # : # X @ X # O # # # X # # O # : X # # # X # # # o # @ # X # # + # @ : # @ # X # # @ # X : X # O : # O @ # X @ @ % # @ @ : # @ # @ # @ @ # @ @ # @ @ @ @ @ @ @ @ @ @ @ @ O @ @ : X @ @ @ @ : @ @ O O $ @ @ @ @ @ @ @ @ @ @ @ @ @ @ @ @ @ @ $ @ @ $ @ @ O $ @ @ @ * * @ @ @ * @ @ : @ : @ @ @ @ @ @ $ @ $ @ @ @ @ @ @ @ @ $ @ @ @ @ @ @ O $ @ O $ @ @ $ O $ @ @ @ @ $ @ @ @ $ $ $ $ @ $ @ $ $ $ @ $ @ O $ $ @ @ $ $ $ O $ @ @ $ @ * @ * @ @ @ @ @ @ @ @ : @ @ @ @ @ @ @ @ @ @ @ @ @ @ @ @ $ @ @ @ @ @ @ @ @ @ @ @ @ @ @ : @ @ @ O @ @ O $ O $ @ @ @ $ O $ O $ O O @ @ @ : : X @ @ : : @ @ X @ @ @ X @ @ @ X : @ @ @ @ : @ @ @ @ @ O @ $ O @ @ $ O O $ @ $ @ @ $ @ @ @ @ O O $ O $ O $ O O O $ O O ",
"+ # # # O # # # # # # # # ; # # # # % # # # # # % # # # ; % # # % # # ; # ; % # # % ; % + % # # # ; % @ # & # & % # ; # # # # # # # # # $ o + O + @ O # X + O + # X + X X + O + + X # X O O X # O + X # X # X + + # O O # @ + # + # + # # X # # O # + # # # @ # # X # X o # + : + + # + : + # X + X # X # # X # + + @ + @ + # + # X + @ o # + # # X X # # # # O # + @ # # + # + + @ + @ # o + # # # # X O # O X @ @ # X # @ o @ : @ # X : # @ o + : X # @ # : @ # : @ # o # O # : : @ : # # # @ : @ @ : @ # O @ # @ @ @ $ O O @ @ @ @ X @ @ @ @ @ @ @ @ @ : @ @ @ @ O @ @ @ @ @ @ @ @ @ % : @ @ @ @ @ : @ @ @ @ @ @ @ @ @ @ @ @ : : @ @ @ @ @ @ @ @ @ @ : * : @ @ @ $ @ @ @ @ $ @ @ @ O @ @ @ @ @ $ @ @ O O @ X $ @ $ @ $ O $ O @ @ @ @ @ $ @ @ $ O $ O O $ O $ X $ @ $ $ $ O $ @ @ @ $ @ @ $ @ : @ @ @ @ $ @ @ @ @ @ @ : @ @ @ @ @ @ @ @ @ @ @ @ @ @ @ @ @ @ : @ @ O O @ O @ @ @ @ O @ @ @ $ O @ O O @ $ O O @ @ @ @ @ $ O O $ @ @ @ @ : @ @ @ @ : : @ @ X : @ @ @ @ @ X @ @ @ @ @ X @ @ @ @ O @ O O @ $ O $ O $ $ O $ $ O $ @ O @ O $ O O $ O $ $ $ $ $ O $ O ",
"# X # + # + # # # # # # # # # % = # ; # % # # = # # # = # # # % # # # % % # # # # # # # # % % # # % # # # # # # # # # # % # % # # # # # # # # O + # o X # X # X X + X # + X + X + O X + O o + X + X O X X # + X @ o X + o + # X # + # # # # o # # + # O + o # + + # + # # + @ + O # X # X # # X + # O # X + # X # O o # # o O # # # # X O # O # # # # O @ o # O X # o # X # O O o + # X @ # @ # @ X @ # : # O # # O @ # X # @ # # O @ # # X # X @ @ # : # X X # X # # X @ @ @ : @ @ # @ @ : @ # @ @ @ # : # @ @ @ @ @ @ @ O @ @ @ @ @ @ @ @ @ @ @ X @ @ @ @ @ @ @ @ @ @ @ @ @ @ @ @ @ @ @ @ @ @ @ @ @ * @ @ $ @ @ @ @ @ O $ @ @ * @ @ @ * @ @ $ @ $ @ @ @ @ @ @ @ @ @ @ @ @ @ O @ @ $ @ @ $ @ $ @ @ @ @ $ O $ $ @ @ O $ $ O O $ @ $ $ @ @ @ $ @ O $ $ $ $ $ $ $ $ O @ @ O O $ $ $ @ @ @ @ $ $ @ * @ @ @ @ @ @ @ @ @ @ @ X @ : @ : X @ @ @ @ X @ : @ $ @ @ @ @ @ O O @ @ @ @ @ @ @ @ @ @ @ @ @ @ @ $ O $ $ @ @ @ @ @ @ @ @ X $ O @ : @ : : @ : @ @ @ @ @ @ @ @ @ @ @ @ X @ @ X @ X @ @ @ @ @ @ @ @ $ $ $ $ O O $ O O $ O @ O O @ @ @ O $ O $ $ O O O O O O $ O $ ",
"# # X # # # + + # # # # # # # % + # # # # # # + # # # # # = # # # ; # % # # # # # # # # # % # # # % # # # # # & # # # # $ # % # @ # # # # + + # @ o # + : + X # # X + X X # + O X @ + X O X + + X X + X + X X + O + # O @ + O + X # O # # # + # # X # # + # O + # O # o O O X # + # O + # O + + # X + # X # + # + # # @ # + + O + # O # + # + # O + + # @ # O @ # + + O # + # O # + O # + O # X # X o # # X X @ # o : # + X O $ O + X X @ # O @ o @ @ @ X @ # : O @ @ O # : @ @ : @ # @ @ # @ @ : @ @ # @ @ @ O @ @ @ # @ @ @ @ : @ O @ @ @ X @ @ @ @ @ @ : @ @ @ O @ O @ @ @ @ @ @ @ @ @ @ @ @ @ @ @ @ @ @ $ $ @ @ @ @ $ O $ O @ @ @ @ @ @ @ @ @ $ @ $ * @ * @ @ @ @ @ @ $ $ O @ @ $ @ $ O $ O @ $ @ @ $ $ $ O O O $ O O $ O $ @ @ $ $ $ @ @ @ $ $ $ $ $ $ O $ $ $ $ @ $ @ O $ $ @ $ @ $ @ @ @ @ $ @ $ $ @ @ @ @ @ @ : @ @ @ @ : @ @ @ @ X @ @ @ @ : @ @ @ @ @ @ $ O $ @ @ O O @ @ @ @ @ @ @ O $ @ @ $ O O O $ $ O $ O $ O O $ : : @ @ @ @ : @ : @ : : @ @ @ @ : : @ @ @ X @ X : @ @ @ X @ X @ O O O O O $ O $ $ O O O $ O $ @ @ @ @ $ $ $ O O O O O $ O $ O $ ",
"+ X # # + # + # # # # # # # # # # # # % # # # # # # # # # + # # # # # # # # # # ; # # % # # # # % # @ ; # # # # # # # & # # # $ % % # $ # $ # O O # X + O O + X + X O # X X X O O o X + O + O X # # X + O X # X + @ o + + X # O # + # X X # # O # # # o @ # X # + O # @ + # # + : O + O X # X # X # + X # X # X # X # + : + @ # : O O # # X # X # : @ # o @ # o X # O # o @ O # @ # # X : # X # + # @ @ : @ # # @ @ # X $ O O O O @ # @ O O @ + @ # : @ # # X @ # @ o : : @ @ O @ : @ # @ @ # : @ @ @ @ @ @ @ # @ @ @ X @ @ @ @ @ @ @ @ @ @ @ @ : @ O @ @ @ @ @ @ @ O @ @ O @ @ @ @ @ : @ @ @ $ @ @ : @ @ $ O @ $ @ $ $ O O $ $ @ @ * @ @ @ @ @ $ @ @ @ @ @ @ @ @ $ @ @ @ @ O O @ @ @ @ @ $ O $ $ @ @ $ O $ O $ $ $ O $ O $ $ $ @ * $ @ $ $ $ @ $ O O $ O O O $ O $ @ O $ $ $ $ @ @ @ $ @ $ @ $ @ @ @ $ @ @ @ @ @ @ @ @ @ @ @ @ @ @ @ @ @ @ @ @ @ : @ @ @ @ @ @ O $ O O O $ $ O @ @ $ @ $ O @ $ O O O $ $ O $ O O $ O $ O $ O O @ @ @ @ : @ @ : : @ X @ @ : : X X @ X X @ @ @ @ : @ X @ @ @ @ @ O $ O $ $ O $ O $ $ O $ O $ O O @ $ $ O O O $ $ $ $ $ O $ O $ O ",
"O # # X # # + # # # # + # # # # # # + # # # # # # # # # # # # # # + # # # # # # # # # # # # # # # # # # # # # # # # # # # # # # # $ $ + @ # @ O + O O O + X # X X + X X # X O O O X O O O X + X X + X O o O O o + X + # + X O # # + X # + @ X # + X # # O # X # : O + : O + + O O # # X + # O + # + + X # X # + X # O # + + o # # X X # X # X # X + : # X : @ o O O + # + O # o + : # + # o # X @ : @ o @ # O @ + O + O O O O O + @ O O @ @ O O o @ @ : + @ o @ O O X @ X @ @ @ : @ X @ @ O O @ # @ @ X @ @ + $ + @ @ @ @ @ @ O @ @ @ @ O @ O @ @ @ @ @ @ @ O @ $ X @ @ @ O @ @ @ @ @ @ O @ @ @ @ @ @ @ @ @ @ $ $ $ O $ O $ $ O $ O $ O $ O $ $ $ @ @ $ @ @ @ @ O O $ O O $ O $ $ $ $ O $ O O $ @ @ O $ $ $ $ O O $ $ O $ O $ O $ O $ $ $ O O $ O $ O $ $ $ O O $ $ O O $ O O O $ $ $ $ $ O O $ @ @ $ O O O $ O @ O @ @ @ @ @ @ : @ @ : @ @ @ X : @ @ @ @ @ @ @ O O @ @ $ X O $ O O O $ $ O O O O $ O $ O O O $ $ $ O $ O O O $ @ @ : @ @ X @ @ @ : : @ @ @ X : O O O O O @ @ X O O O O O @ O @ O O O $ O O $ $ O O $ O $ O $ O $ O O $ $ $ O $ O O O $ O $ O $ ",
"# X # X # + # : # # # # # # # # # # # # # # # # # + + # # # # # # # # # # # # # + # # # + # # # # : # # @ # # # # # # # $ # $ # # + # $ # + # # # + # o O + X # # X # X o O o + + O + o X # X + + X # X @ + + O @ o O X X # # o X O # + # + # + # # o @ + O X + + + O + X # X # O o O + X X + @ # X + @ O # o @ # + # X # X + @ @ # + O # : @ + + O @ X @ + O # O # O X : + X # o @ X + O @ : # X # # @ # O X # @ + O O O O O O O O O + O O O O X @ X @ : @ O @ O O @ O : @ @ X O @ @ @ @ @ @ @ X @ @ @ @ @ @ X @ @ O @ @ @ @ O @ O @ @ @ O @ @ @ @ @ @ @ @ @ @ @ @ @ @ @ O @ @ O @ @ @ @ @ @ @ @ @ @ $ @ @ @ @ @ @ $ O $ O $ O O $ O O O $ O O O $ @ @ @ $ $ $ $ $ O $ O O $ O O O O $ O $ O $ O $ O $ $ O O $ $ $ O $ $ $ $ $ $ $ O $ $ O $ O O $ O O $ O $ $ O $ $ $ $ $ $ $ O O O $ $ $ $ $ @ @ O O $ @ $ O @ O @ @ @ @ @ @ @ @ : : X @ @ @ : @ @ @ @ @ X @ $ O @ O $ @ O O $ O $ $ $ $ $ $ O O $ O $ O $ O O O $ O O $ O O @ @ @ : @ @ @ @ @ @ X @ X @ : : O O O O O O X @ O O O O O O O O @ O $ O O $ O O $ O O $ $ O O O O O O $ O O $ O O $ $ O $ O O O ",
"+ # X # + # O # # X O # # # # # # # # # + # @ + # # + + + # + # @ # # # # # + # # # # @ # # # # # # # # # O + # $ # $ + # $ # # # # + + # O # @ X # X O X # + O X # O X O O X X X + X O + X # X X O X + X + O O @ + @ + # + O # # X + # o # X # X # + + # : # + @ + O # X + O + O + # O # X # o X # O O O O # @ X # # O # @ o + o # + # o @ # X : # X # X + O O # o + @ + # X + # @ X @ O @ X @ @ X # o @ # @ : O @ O + O O O # O O O @ O O O @ # O O O @ O X @ O O O O O O O @ O O @ O O O @ @ @ @ : O @ @ @ @ @ @ @ @ O O @ @ @ O O @ O @ @ @ @ @ @ O @ @ @ @ @ @ O O @ @ O O @ @ @ @ @ X O O @ @ @ @ O $ $ @ O @ O O O $ O O O $ O $ $ $ $ $ $ @ @ $ $ O O $ O O O O $ O $ $ $ O $ O $ O O O $ O O $ $ O $ O O $ O $ O $ $ $ O $ $ O $ O $ $ $ $ $ $ O $ O $ $ $ $ O O $ O O $ O $ O O $ $ O $ @ @ $ @ $ O O @ @ O @ @ @ X X : @ @ X @ @ @ @ @ @ @ @ @ O @ @ $ O O O O $ O $ $ O $ O O $ $ O $ $ O $ $ $ O $ @ $ @ @ $ O O $ @ @ @ X @ X @ X @ @ X @ X @ @ @ O O O O X @ @ @ O O O O O O O O O @ O $ O $ $ O O $ @ @ O $ O $ O O O O O $ O $ $ O $ $ O O O O ",
"# X # + @ X # + # + # # + # # X + # # + # # # # # + # + + + # + # + # # # # # + # + # # o # # # # # # # # # # # + # # + + # + # # $ $ # # + + @ # X + O + X + O + X + + O O + O X X X # X + X O # X + X O X + O X + o X X + # X X # @ o + @ # # # X X # O + # X O # o X # X o @ O O o @ X + X + + X o # + O # o + O O # X + # O # O X O O # @ + @ X + O + # X O X # X X X @ : O + O # @ o + # @ : # O @ @ o @ + + O O @ # O O O @ O O @ + @ @ O @ O O @ X O # X O O O O O O O O @ O O O O @ O O @ @ @ @ O O @ O X @ O @ O @ @ @ @ @ @ @ O O O @ @ O O $ @ @ @ O X @ @ $ @ O @ @ @ @ O @ @ @ O O @ @ : @ @ O $ @ $ O $ $ $ O $ $ $ O $ O $ O O $ O $ $ @ $ $ $ O $ O $ $ $ O O O O $ O $ O $ $ O O $ O $ O $ O $ $ O $ $ $ O O O X $ $ O $ $ O $ O O O $ @ O O O O O $ $ O $ $ $ O $ O $ $ O O $ @ $ @ @ O @ O $ @ @ @ O O @ @ @ @ : @ @ : X @ X @ @ @ X @ @ @ O O O $ $ $ O $ O O $ O $ O O $ O $ O $ O O O $ O O @ @ @ O O O @ @ X @ : X @ @ X X @ @ X @ @ X @ O O O O @ X X X O O O O O O O @ O X @ O $ O $ O O @ O @ O O O O O @ $ O O O $ O O $ O O O O $ O ",
"O + # O + # O # # + # # + # # X # # # o # # o # + # # # $ + # + + # o O + # X # + + # o # + # + # + + @ + O # # + + # + $ + $ + + # # $ + $ + + @ O + X O + X + O + X O X + + X + O X + X X + X X O X + o O + X X + O # + @ O + + + O # + O # X O # X + O # X + X + X + + X + X X + X + X + O O X + X + O # X + @ + + o + O O O O X + @ O O + X @ X + @ X @ + X + O X # + O # X X + : @ + @ X X X @ @ # o @ # O O O O + $ O @ O + @ O O O O O O O O O O @ O O O O O O O O O O O O O @ X O O O @ O $ O @ @ @ @ O $ X @ O @ O @ @ @ O @ O O O @ O $ O O $ @ @ @ O @ O @ @ O O O O O @ O @ O $ O $ O O X $ @ @ @ $ $ O O $ $ O O $ O $ O O O $ O $ $ $ O $ O $ O $ O O $ O O O O O O O $ $ O O O $ $ O $ O $ O $ O O $ $ O $ $ $ $ $ O $ $ $ O $ $ $ O O $ $ O $ $ $ O $ O O $ $ O $ $ O $ O $ $ O O O O O @ @ @ @ O @ O @ @ @ @ : @ @ X @ O O O @ O O O O O @ O @ $ O $ O O O O O $ O $ O O $ O $ $ O $ O $ $ $ O @ @ @ O @ @ @ X X @ X @ @ X @ @ : : @ X X @ X X O O X O O O O O O X O O X O O O X @ X @ X O O @ @ @ O O O @ O O @ @ @ O @ O O O O $ O $ $ O O O ",
"+ O O # o # + O + O X # # # # # @ + # # + # # # # # + X # # + + # @ # # # # # # @ # # # # + # O # # # # # # # o $ # # $ # + % # # + $ + + $ + O + : + # O X # X O O + X + O X O X O + X # X X + + X + X O O X + + @ + X O o O O X # + X O + X + O o # @ + X X # # X # X X # X # + X # X + @ X + # X # O + X # X o O O O O O + # O + @ o + O O O o # X o @ o X + @ o # X X : X @ # X @ X O O # : # # X o $ o @ : O O O O O O O O @ O O O O O O O O O O O O X O O X O O X X O O O O O O @ O O @ O O O O @ O O O @ O @ O @ @ @ @ @ @ @ O @ O $ O $ O O O O $ @ @ @ O O @ X @ O $ O O @ @ @ @ O O O O $ O O @ @ @ @ $ O @ O O O $ $ $ O $ $ $ O $ O O O $ O $ O $ O $ O O $ $ O $ $ $ O O O $ O $ O O $ O $ O $ O $ $ O O $ O O O O O $ $ O O $ O O O $ O O O O O X O O O $ $ O O $ O $ $ O $ O O $ O $ $ $ @ @ @ @ $ O @ @ @ : @ : @ X @ X O O O @ @ O O @ @ O O O O O O $ $ $ O $ O $ O $ $ O $ O O $ O $ O O $ O @ @ @ O X @ X @ @ X @ X X @ @ X @ : X @ @ X X @ O O O O X O X O X O X O O O X O @ X O X X X O X X O O @ @ O O O O X O O O O $ O O O $ O O O O O ",
"# X # o # + # O : # X # + # + # O # # # # @ # + # X # # $ # # # + # o # X # # + o # O # # @ # + @ # + # + # # # + # + $ % + + $ + $ + + + + # X X # + X o O X X X o X + X X O O X + X X + X X + X # X + # X O X O o + X X + O + X # X # O O O : + O O + + O + O X # X + + : + X X # X O O o + X X + X + + O X + O + X + O $ O O O + + X O O O O @ O X + O X @ o X @ X # @ X # X X O o @ O O O O O O O @ + O + O O O O O O O @ O O O O O O O O O O O O O O X O O O O O O O O O O O O X @ O O O O O O O O @ O O $ @ @ O @ O @ O @ @ @ @ @ O O O $ O O O $ $ O @ @ $ O $ O O $ O O @ O @ @ X O X $ O $ O $ O $ @ @ O O O O $ $ $ O $ O O $ $ $ $ O $ O $ O O $ O $ O $ O $ O $ $ O O $ $ O $ O O O O $ $ O O $ $ O O $ O $ $ O O $ O $ O $ $ O $ O O $ O $ O O $ O O $ O $ O $ O O $ O O $ $ $ $ $ $ $ $ O @ @ @ @ @ O @ @ @ X X : X @ X @ O O O O O O @ X O @ @ @ O $ O $ O O O $ O $ O O O $ O $ $ O $ O $ O O O @ @ O O @ X @ X @ X X @ @ X X @ @ X @ X @ : @ X @ X O O O O O X O . O X X X O X X @ X O @ X X @ X O O O O O O O O O O O X O O $ O O O O O O O O ",
"X # X # X # X # + # # # # X # O # + # O + # : # # # + + + + # + # # # @ + # + @ # + @ + # # o @ # + $ + # @ # @ + + % + $ + $ + # + + $ $ O O + # X O + @ + X # # X O O X + o X O X X + X + X X X X O X X + X + X # X # X + O o # X # X # o O + O + O # o @ # o + O + X O O X + X X + X X # X X # X X # X X # X O X # O X + O O + O O # + O O O O O @ + X # X @ @ X : X X # X O O + @ o O O @ O O O O O @ O O O $ O O $ O O X O O O X O O O O O O O O O O O O X O O O O O X O X O O X O O O O O @ O O @ O O O O O O @ O @ O O @ @ @ O O O $ O O O $ O $ O $ @ O O O O O O O $ O @ O $ X $ @ O O O O O O $ @ $ @ $ O $ O $ O O $ O $ $ O O $ O $ O $ O $ O O $ O $ O $ O O X O O X O O O O O $ $ O O O $ O O $ O $ O $ O $ O O O $ O O O O $ O $ O O $ O $ $ $ O O O $ O $ O O $ O $ $ O O $ O O $ O O $ @ @ @ @ @ @ X @ @ @ @ X @ X @ X O O O O O O @ X @ @ @ O O O $ O $ O X $ O X $ $ $ O O O $ O O O O O $ O O O O O O @ X @ X X @ X X X @ X X @ X @ X X X @ @ X X X O X X O O O X O O O O O O X O O X @ X X O O O X O O $ O O O O O O O O O O O O $ O O O O "
};
