/* XPM */
static char *Metal_128[] = {
/* columns rows colors chars-per-pixel */
"128 128 211 2 ",
"   c #040401",
".  c #0B0A06",
"X  c #0C0D0B",
"o  c #080704",
"O  c #110F09",
"+  c #120D05",
"@  c #0F100E",
"#  c #13110D",
"$  c #19150D",
"%  c #151007",
"&  c #0F1111",
"*  c #141513",
"=  c #191712",
"-  c #171816",
";  c #1A1915",
":  c #171919",
">  c #1C1D1C",
",  c #221D15",
"<  c #211F1B",
"1  c #1F201F",
"2  c #22211E",
"3  c #2B251D",
"4  c #2E281F",
"5  c #352B1E",
"6  c #1D1F20",
"7  c #1F2121",
"8  c #242423",
"9  c #292723",
"0  c #272827",
"q  c #2B2926",
"w  c #252728",
"e  c #26292A",
"r  c #2C2C2B",
"t  c #322C24",
"y  c #312E2B",
"u  c #2F302F",
"i  c #32312E",
"p  c #3B352E",
"a  c #3A3329",
"s  c #2C2F30",
"d  c #2E3132",
"f  c #2F3438",
"g  c #343433",
"h  c #393632",
"j  c #373837",
"k  c #3A3936",
"l  c #343738",
"z  c #36393A",
"x  c #3C3C3B",
"c  c #423C34",
"v  c #423F3B",
"b  c #4A3E30",
"n  c #41382D",
"m  c #3F403F",
"M  c #42413E",
"N  c #4B443D",
"B  c #4F483E",
"V  c #52493D",
"C  c #3B3F41",
"Z  c #373D41",
"A  c #3E4143",
"S  c #3D454A",
"D  c #434444",
"F  c #494743",
"G  c #474847",
"H  c #4A4946",
"J  c #434749",
"K  c #46494B",
"L  c #4B4C4C",
"P  c #534C43",
"I  c #514F4B",
"U  c #594E45",
"Y  c #4F504F",
"T  c #52514E",
"R  c #5C534B",
"E  c #5C5247",
"W  c #4B4E51",
"Q  c #464C52",
"!  c #4D5153",
"~  c #4F5559",
"^  c #545453",
"/  c #585754",
"(  c #575856",
")  c #5A5956",
"_  c #535659",
"`  c #55595C",
"'  c #5C5C5B",
"]  c #615F5B",
"[  c #655C53",
"{  c #65594C",
"}  c #5E605F",
"|  c #61615E",
" . c #6B645B",
".. c #736859",
"X. c #565D62",
"o. c #5A5E62",
"O. c #4C5661",
"+. c #5C6164",
"@. c #5D656A",
"#. c #5D656C",
"$. c #5E6871",
"%. c #646463",
"&. c #696764",
"*. c #676866",
"=. c #6A6966",
"-. c #62666A",
";. c #64696B",
":. c #6B6C6B",
">. c #716F6B",
",. c #7A6D63",
"<. c #6F706F",
"1. c #72716E",
"2. c #78746E",
"3. c #646C73",
"4. c #6B6E71",
"5. c #626D78",
"6. c #6D7173",
"7. c #6C747B",
"8. c #6A747D",
"9. c #737473",
"0. c #7A7976",
"q. c #72767A",
"w. c #75797B",
"e. c #7C7C7B",
"r. c #787774",
"t. c #807E79",
"y. c #82746A",
"u. c #7E807F",
"i. c #82817E",
"p. c #8C887F",
"a. c #6D7883",
"s. c #737C83",
"d. c #7A7E82",
"f. c #747E89",
"g. c #7D8183",
"h. c #76818B",
"j. c #7B848C",
"k. c #7B8893",
"l. c #7E90A0",
"z. c #848483",
"x. c #8A8986",
"c. c #828689",
"v. c #86898B",
"b. c #8C8C8B",
"n. c #878886",
"m. c #908F8C",
"M. c #91918E",
"N. c #858D94",
"B. c #8D9193",
"V. c #8C959B",
"C. c #85919A",
"Z. c #949493",
"A. c #999996",
"S. c #96999B",
"D. c #9C9C9B",
"F. c #939798",
"G. c #8F908F",
"H. c #A09F9C",
"J. c #9FA09F",
"K. c #A2A19E",
"L. c #959DA4",
"P. c #8C9AA4",
"I. c #9BA3A9",
"U. c #9AA9B5",
"Y. c #A4A4A3",
"T. c #AAA9A6",
"R. c #ACACAB",
"E. c #A6A8A9",
"W. c #B0AFAD",
"Q. c #B1B1AE",
"!. c #ACB3B7",
"~. c #B4B4B2",
"^. c #B9B9B6",
"/. c #BCBCBB",
"(. c #B6B8B8",
"). c #A5ADB2",
"_. c #C0BEBC",
"`. c #BFC0BE",
"'. c #C1C0BE",
"]. c #AAB8C3",
"[. c #B6BDC3",
"{. c #BBC2C7",
"}. c #B7C6D2",
"|. c #C4C4C3",
" X c #CAC9C6",
".X c #CBCCCB",
"XX c #C5C7C8",
"oX c #CFD0CE",
"OX c #D1D1CE",
"+X c #C4CED4",
"@X c #CBD3D8",
"#X c #D3D4D3",
"$X c #D8D9D6",
"%X c #DBDCDB",
"&X c #D4D8D9",
"*X c #D0CFCD",
"=X c #DFE0DF",
"-X c #E1E1DE",
";X c #D3DBE1",
":X c #DDE1E3",
">X c #DEE7EB",
",X c #DCEDF8",
"<X c #E2E4E4",
"1X c #E5EAEA",
"2X c #EBEDEC",
"3X c #E6E8E7",
"4X c #E9EFF2",
"5X c #EEF2F2",
"6X c #E5F3F9",
"7X c #F4F6F6",
"8X c #F1F0EC",
/* pixels */
"T./.^.^.$XOXoX`.G ' H.u.p.`.A.u.K.A.u.u.u.u.m K.Z.A.u.T.A.A.u.3 1.^.Z.z.m.z.z.u.m H &.' *.*.%.%.] ' ) T ` o.L =.%.^ _ ) ) ' +.g ( A.9.n.T.T.R.XX#.r Y ) L K G D G G D S M m k D 3.$.` Q S H L K m } m d m m m S ~ m m A A S G Q Q K W W W ` m m 5.k.l.L.L.j.u.$.",
"Q.Q.R.T.'.'.oX1X{.m | u.u.u.u.u.u.u.u.u.u.) T.T.} u.Z.u.u.u.u.@ z./.9.z.G.x.z.F.b.Z D H T T ) _ Y ^ T W ^ I 4.-.L _ ^ ^ ^ ) ;.7 | S.:.e.T.*X%X%X%X#.g G D D D D D D m m m x M 8.l.$.L D ^ G G L m *.f m m m m m A W m l m m m S G G A S S m m h.P.C.V.h.h.u.g.l.",
"/.T.R.b.`.'.=X=X-X$X`.OX`.`. XoX X`.|.`.`.`.l.( ) u.p.p.( u.u.X e./.H.w.| b.n.G.Z.z.6.:.*.-.:.:.;.%.-.| o.:.| L _ ) T b.4.^ 9.: | Y.z.B.b.#X%X<X2X<XN.} ` ` @.+.} +.+.+.} ` 3.k.k.8.Q T u.;.L L 4 ^ m  .X.A m m m A W Q Q ! ! W ~ } @.} } @.h.j.C.U.U.u.:.V.C.I.",
"M.K.,.>.'.$X<X<X2Xm.*.u.u.u.u.u.u.u.u.u.u.R.u.H u.u.B./ m u.u.X n.XXt.c :.H.Z.x.i.x.D.b.G.u.G.n.t.1.4.:.=.o.) _ T ^ _ ) r T :.> } /.9.I x.-X#XOX8X-X:.H T T T T T T U T Y / j.k.h.5.+.) p m ! G y } m m e m m m A m A m m S K K S L L A L T 7.k.h.L.U.k.T m u.U.",
"T. X'.'.$X-X1X1Xu.< m m B T ] R { B / / T u.p.u.+.u.A.Z.u.u.u.X t.R.z.b.b.b.G.G.z.n.b.b.z.z.z.e.&.4.9.&.-.o.' %.^ ^ ) ^ ^ | %.6 ) `.w.b.Y.|.%X3X3X_ 8 k k h g h h h g i u h ..j.h.5.X.~ L L ! ~ q ( m m m S m m A m A m S m K S G S S K W A H 4.V.U.U.P.k.V.!.U.",
"$X$X*X'.-X8X-X} , u.A.A.p.A.T.m.Y.D.K.u.u.u.u.u.+.u.S.K.A.u.u.X 0.Y.G.Z.G.G.Z.G.n.u.e.n.b.z.u.r.&.=.4.=.&.=.-.o.' _ _ ( o.| ;.6 } /.z.S.E.R.%X<X! 9 K W Y G D K A D D S m A m | k.h.+.W ^ ~ ! ~ r } m m S m A A m m S S G K L ! ! Q ~ Q L ~ K M u.U.U.U.).}.}.`.",
"`. X-X<X$X X*.1 =.u.p.u.u.g.K.A.W.W.Y.u.u.u.u.E p.#.u.Z.u.u.u.X 9.R.Y.A.Z.b.G.D.G.q.r.z.z.u.u.d.q.:.&.-.:.=.&.' ' ' ' o.;./ 9.6 } |.v.V.Y.~.XXW 9 L ^ L L K K K D A G m A S A M T 8.8.@.` W } #.q :.m m m m S S G m S G G S K ~ Y K ~ ~ ~ } ~ Q m *.}.}.+X;X].U.",
"T %X5X5XOXm r } >.=.m.u.u.u.K.`.`.T.`.K.u.u.u.u.p.b.+.u.K.j.m @ v G.J.b.Z.Z.G.D.Z.v.x.n.z.e.u.9.e.1.%.-.:.-.%.o.o.%.' ^ *.t.! & k /.!.g.I.(.J w L ! W ! K D G K D S K S S G A A G B 3.$.W W j.m 1 } S A A m G m A S G K G S L ~ K S } +.@.@.+.#.L m 3.;X;X}.}.m ",
"B B &X#X/ i  .u.u.Z.p.m.Y.A.`.T.Y.Q.~.T.R.Z.p.u.u.u.A.B.Z.m - 1 T i x.H.Z.D.S.Z.b.n.b.z.u.z.e.1.9.9.:.4.*.;.-.' ' | ' } b.^ 8 : k U Z.!.L.G q W _ ^ L L D K D D G A S A A S A A G H I } #.5.A 7 i m B W S m S S G A S S W S G K Q ~ X.X.$.X.X.O.#.~ m | }.+Xm 2 ",
"u.m u.Z.m u.A.Q.T.T.E.R.K.`.W.T.J.A.R.Y.T.x.m.D.u.u.Y.`.` 0 ~ * T / &.#XD.D.D.M.z.e.b.z.e.z.d.e.:.:.9.:.=.4.-.' %.` W D.].f v 6 G T t.<X;.i L ^ ^ W L L D L F A G A D A A m m G S m m } l.u.e S t L m K.A m S G L m S L W S S W ~ X.+.X.#.O.$.#.+.;.~ H $XS.0 3.",
"D.=.u.W.K.W.`.~.H.E.T.`.T.W.K.`.`.Y.Q.`.Z.A.T.H.K.Y.`.`.$.L *.@ =.i.0.XXZ.J.J.L.G.v.z.z.x.u.i.d.>.&.4.=.1.;.| -.%.o.L Y.[.O.I 6 D ^ M.<X5.D W ^ ^ W L L L L K G A G S A A A A A S B m S V.N.m m m L / '.G m G G K S G L K ! Q ! ~ @.#.X.O.X.$.h.u.$.X.*.1XF.S k.",
"`.1.u.`.T.`.`.`.Q.Q.T.`.`.K.`.T.K.`.~.T.m.Y.W.`.`.`.`.`.X.m *.* 9.n.r..XZ.Y.Y.Z.b.Z.G.v.b.e.i.w.9.:.:.4.1.-.%.| } | H T.[.! I 9 v ) M.<Xf.D W ^ L L ! L ! W K L S G G G S m G A S S m B v.C.m m i B / `.S N S S S W ! K S ~ ` ~ ~ X.#.$.O.u.h.u.u.h.X.` OXj.m j.",
"T.2.u.Q.E.~.'.`.T.R.x.E.`.`.H.p.`.R.T.`.`.`.`.Q.H.Y.`.R.$.Y *.* 1.p.t.=XS.G.D.b.G.Z.v.G.n.z.d.e.4.4.;.1.4.=.-.| %.} ! H.[.! H 6 I ) b.3Xa.H ( ^ Y L W K L W L W L S G G G S m A B S M B u.V.m m m H T `.m m K K Y ! K S Q ~ ~ ` ~ ` #.u.#.u.h.h.u.h.` / $XF.Q k.",
"T.>.1..X`.`.`.`.m.Q.p.T.`.Y.T.K.R.`.R.T.T.W.`.`.`.`.`.`.$.S } - &.x.t.:XE.S.Z.G.D.b.n.b.z.z.z.e.e.=.=.4.6.:.-.| } %.T R.[.W F 6 I ' G.3X7.H ( / _ W ^ ^ W L K K L S S G S A A G S S S B g.L.m A m ) ) '.S m W S W ! ! A A ! ~ ~ X.~ ` X.#.$.h.h.u.u.L ' $XE.m u.",
"Q.=.u.~.K.Q.Y.R.T.Z.`.`.Z.R.'.W.K.`.W.R.~.`.`.'.`.`. X`.;.S } - 1.H.d.%XD.J.D.S.Z.G.b.z.v.v.z.0.e.q.:.1.1.:.-.-.%.%.! W.;XO.J 8 I ^ G.:Xa.H ( ^ ( W W ^ W L L K G G S G S m B S m S A m j.).z D i B ( `.! S S W W ~ K S W ! ~ ~ O.X.#.#.$.h.h.u.#.$.~ | %XV.m u.",
"K.} =.2.} b.R.`.`.H.Z.Z.`.`.`.`.R.~.~.`. XoX'.'.'.`.'.R.#.Y *.- i.A.d.:XE.W.E.D.D.S.Z.b.x.z.q.q.e.q.9.9.9.4.*.*.;.%.^ ^.+XQ L s F L M.<X7.D W Y ^ ^ W T L W K K M S G H S G S S G G S g j.I.g m m M T  XL m S L W ! W ! ! W ~ } X.O.u.#.#.u.h.$.S $.~ } $Xl.Q k.",
"H.1.%.T.A.K.~.`.~.T.T.`.'. X`.`.W.`.W.`..X'. X'.'.'.K.T.+.! 9.- 0.Z.u.3X^.R.T.J.A.Z.Z.b.v.i.q.e.0.9.9.9.4.:.4.-.o.%./ T.@X_ G w H / Z.<X+.! Y Y ! W L W I L J L D D J J A A A D D J J l j.I.g m m B I oXK m K L K ~ ~ ~ ! ~ X.$.+.` u.$.$.u.u.$.$.#.m | %XF.Q u.",
"x.} u.OXK.R.'.R.Q.`.'.|.'.'.^.~.`.`.`.'.*X X`.`.'.W.Z.`.5.Y =.- 2.D.u.1X~.~.E.J.D.Z.Z.m.x.v.i.e.d.9.q.4.] -.=.;.*.| T (.@X_ H e T ' Z.<X;.^ ^ ^ ^ ^ W W W L L W J W L J A C D D Z J J l s.I.m G j L T #XQ A Q S W Y ~ W ! X.$.#.~ ` #.$.$.O.O.O.#.u.K | <XJ.m u.",
"K.} z.^.A.~.`.Y.^.`. X`.'.oX`.`.`.`.'.'. X'.`.'.'.`. X`.3.Y 9.- 0.M.u.1XI.W.I.K.Y.S.b.B.G.b.z.d.u.0.9.=.=.:.%.+.:.*.^ ~.@XO.L w Y ' M.<X-.D _ ^ ^ ^ W L L I W L L L L W J D J J J J J l g.U.k D m L ! .X! A L K Q L ! ! ! ` +.X.~ ` Q X.O.u.h.$.Q X.Q | $XV.S u.",
"H.| z.|.A.Q.~.Q.`.oX.X`. X.X X`.`.~.`.'.'.'.'.'.|. X X X3.G <.- b.M.r.:XR.M.M.K.Y.D.A.Z.F.b.z.n.d.d.q.9.4.*.4.%.:.*.( `.@XX.G w / =.M.3X~ G ` ^ I W W L W W L J J D D D W J J A J D J l j.E.z D m Y Y oXK m S K ! K S ! ! X.` X.X.` ! ~ Q u.k.h.h.#.Q ] #Xl.Z $.",
"p.} u.`.R.R.Q.~.Q.E.`.|.'.oXoX`.`.`.`.^.`.`.^.'.'.'. X^.5.Y :.- x.A.0.&Xg.A.D.Y.T.D.D.S.Z.b.x.z.e.e.d.9.6.:.:.:.4.*.' |.;XO.^ r ' *.b.<XX.H ' _ ^ ^ W L W L D K F J J J L K D L J J J l c.I.x J m I T $XW m S L Q ! ! ! ~ X._ } #.X.X.#.@.+.u.u.u.Q m u.OXu.m u.",
"m.T x.u.>.T.~.b.Z. .b.`.`.W.`.Q.W.`.`.W.T.T.T.W.'.'. X*Xa.Q *.- r.1.Z.5X3.%.x.J.S.Z.H.S.x.i.d.i.u.z.9.4.:.;.:.:.%.;.%.H.[.o.L s H ' Z.=XW ! _ ' ^ ^ ^ W L L K G L J L J J ! J W A J A z d.V.g L m I T '.! A S S K ! ! W ~ } ` ` X.X.X.X.$.+.Y $.X.X.~ ~ u.u.S Q ",
"} u.u.N } p.} =.H.u.A.`.`.H.W.`.`.'.`.~.^.^.`.'.^.W.`.T.} +.L 1 T B.5X2X%X3.*.b.b.Z.Y.G.v.z.z.0.q.z.9.:.:.*.' o.o.%.%.^ I f.a.w H x.XX] u ^ ' ' ^ ^ _ _ ^ L L K J L K D W ! W L C A D C C 7.o.x m T *.} m S S K Q W ! ~ ~ ~ #.` ~ +.;.u.;.` ~ X.X.u.u.m 1 S h.#.",
"9. .m } | =./ u.M.i.K.`.'.'.`. X'.`.H.~.`.Q.`.Q.W.^.A.b.} +.+.1 i.2X<X%X-X#X$.' Z.Z.Z.G.G.n.z.q.9.r.q.:.&.*.o.^ %.%.o.^ F F L.Z /  X] g L _ ' _ _ ^ _ ^ W W ^ K L L L J W K L J J J S D g C a._ m u.! l A K K L K W K S ~ ~ #.` ~ X.` $.u.~ ~ #.X.X.` ~ m 7 m u.",
"1.M m  .} %.Z.Y.Y.T.~.A.~.'.'. X|./.K.Y./.R.Q.R.K.K.b.K.Z.i.z.2 A.$X-X%X%X<X#Xq._ i.Z.b.F.b.>.<.4.&.;.%.' :.+.o.%.^ _ o.] L ;.x >.e.i ( ' ' _ _ _ ^ ^ W ! W W G J L K J D J J J J C A J J Z D ;.M 9.g S G G K K K W Q S ! } #.X.~ X.+.#.8.3.X.X.#.#.Q O.X.S e m ",
"} } >.>.} =.Z.Q.Z.u.Q.R.W.'.'.'.'.R.m.x.^.^.K.D.H.p.b.Y.~.K.0.1 K.7X$XOX%X3X3X%Xq.^ i.z.z.i.=.' ] ] [ ] ] / | :.J L ) ` %.` 1.C %.d._ ' ' o.' o.' _ ( ^ T W G G J A J J C J D D D C J J K J J ` m 9.S Q G S S K K L W K ! ` @.~ ~ ` X.X.5.3.8.X.m u.O.u.u.O.~ #.",
"} I =.u.:.A.Y.p.u.K.`.'.#XOX`.`.|./.D.K.A.D.A.M.K.H.K.p.M.M.w.1 K.2X X.X3X3X3X1X3Xv.=.0.9.:.:.;.=.&.%.=.=.4.*.K C _ | / / ^ 4.l %.B._ L ) o.o.o.( ^ ' ! ^ ^ L J A A J J J C J J J J J J D D K ! m <.m A G S G K G S W W ~ ~ ~ +.X.X.X.~ u.5.h.u.$.u.u.O.Y Y +.u.",
" .} R.S.} m.E.u.u.$XOX.X X~.R.`. X'.'.p.&.:.1.u.Z.T.T.`.e.0.g.: A.-X.X~.$X8X1X3X5X4X(.[.(.L.F.E.S.G.G.z.z.c.O.S ^ ' ^ x.d.T e.Z =.b.:.F.` ' %.%.( ' o.^ _ / W Y W L I ^ I W O.W A A J ^ 4.-.D T m u.m 9.;.K S G A W ! ! L W ` ~ ` ~ } ~ +.#.8.h.h.h.u.Z *.l.~ #.",
"u.n.%.m m.p.:.A.oXI = 1 1 = = ; > ; 1 1 2 h :.+.:.M.K.:.k 1.m.> D.2XK.P |.4X3X8X1X) t n p c c v N P N N P U -.X.^ o.%.=.m D e.Z =.b.%.T v ] %.%.-./ 4 < t 3 4 4 3 9 4 t 4 9 I O.J J L ^ F K ! L m g.m L m L Q m G ` 0 % $ # $ O # . . O X . m u.j.h.u.} m m u.u.",
"Z.`.m.u.Q.u.>.R.m . M I I Y H Y / T T T Y h M 1.M.x.Q.u.0.A.:.& A.7X3X#X7X5X%X<X) , T ' ) ' ' ' ' ( ( _ ^ K U -._ ;.:.o./ ] d.r ' F.;.) o.*.*.9.' 8 w Z m m Z x h l g g l g c R _ W L L Z K ' W h u.Q G S ! ~ ! ! r 1 u d m d d m m m m m f ; m 3.#.5.7.Y ~ u.h.",
"m I T I m m m 3 o m T I H I Y G D G I H L M 2 p M k x p M H ; * k | 9.e.0.2. .H O i L H G v G H G D D D v m g n c c v h v v 9 X q c v D h h n c , # g l g g y y s y y y r y w 4 n y q q y y t * 2 t t i r t 8 y 1 . e m m d u m m d s f m d e # 3 9 r q m m d 1 ",
"i . . o . . o . 1 1 = = 1 = 3 1 ; = = = ; ; 9 * = = # X # * # M M           X . > > * * ; > ; - * * * * * * 2 : * * # # & X . w k - X X O * * O # : - # = - - < : < : < > = = * & O O # O X . > h 1 O X @ X @ X X * * * * * 1 8 @ X X X @ @ * 1 X @ o o o . X - ",
"u.T.D.K.J.D.R.u.m u.x.M.M.u.=.i.b.0.Z.m.b.t./ n.r.b.Z.G.i.r.%.m =.Q.H.M.Y.Q.Y.I.L ' z.n.z.9.0.u.d.9.:.:.:.=.^ z.n.%.%.%.%.^ _ v I z.-.' %.%.] 9.X.c ! T ! T W L L L T L G L G ( +.Y Y ! ! K _ ! m } W ~ ` } ~ ~ 3.D K ! ! ! ! ` ~ } ` +.} } ~ m u.k.k.Y.I.U.I.u.",
"`.`.`.`.~.u.`.1X7.N u.Z.M.x.p.x.b.b.b.t.t.&.Y.b.H D.n.t.x.>.:.6 G.%X.X&X8X5X&X2XQ.D } 1.=.>.9.e.2.-.&.| | ^ x.).W F ' ' | | -.r &.b._ } %.%._ } q.O.x L L G K G D D D D m G ) *.D A K K D D K _ m u.A G L M S M ` ;.K G L K Y ! Q K W Q } T m j.>X&X;X+X`.`.`.U.",
"A.H.R.u.A.H.b.`.OXb.u.u.p.n.n.u.z.n.z.u.z.L.H.| 9.t.=.G.9.u.u.: >.|.^.H.^.2X3X<X7X/.g.B.F.F.S.F.z.d.z.d.9.v.D.J l ^ ^ e.d.^ | > ] d.9.b.^ ' %.' ^ } o.! W ! Q L Y J L K Y ! -.A A A z K w.#.D D m 9.H u.;.H L H G ` 3.+.$.;.3.w.u.g.C.V.C.l.P.1X2X>X1X`.V.L.U.U.",
"1.u.m m b.T.K.`.Q.`.`. XoXR..XoX*X'._..X Xb.t.M.G.>.q.^ 9 i.c.& z.8Xx.h Y.2X<X3X1X5X|./.(.Q.R.K.Y.R.R.Y.Z.v.J x D T %.| n C %.> ) b.' x n ' ' ' ' ^ ^ _ ^ _ T ! K Y L D G S x S D S A m g k L A p <.T H g L Y T ^ ! ;.5.6.;.$.7.h.j.C.V.L.I.@X7X1X1X>X}.m m U.I.",
"m.p.u.A.R.A.K.^.R.D.W.`.`.R.`.`.'.~.~.^.H.Z.Q.Y.J.Z.1.| 1.T.v.& x..X^._.-X-X<X2X5X=.* 3 2 4 9 t y n n c n N ^ K L T ' ^ L ^ %.> ) d.^ ^ ^ _ ' / ^ ^ ! ! L L K L K G S m D D S D K J J A z A W G m <.Y G H Y ~ T _ ` 9 # , 2 , $ % $ % + % + i `.6X,X}.;X!.U.u.u.",
"D.R.A.Y.Z.Z.J.W.R.K.Q.R.`.W.~. X XT.R.R.T.~.R.F.D.D.9.9.G.J.d.X z.R.|.<X<X2X5X5X| # Y } } } %.*.%.%._ ' _ I x o.T T ^ ^ ' / ' : ] v.! ] o._ ' _ ^ ^ ' W ! L L L Y D D K K J D J K K K K K S K S h 9.K ! Y ! } } _ 7 > k j A x x m m S K K m r u ).,X}.+X}.U.U.l.",
"F.M.Y.b.=.u.M.p.A.K.R.`.`.~.~.`.[.^.Y.~.~.Y.Z.Z.A.n.1.Z.Z.d.z.& 2.*X3X<X3X5X2X^ % T r.9.<.:.9.9.4.1.=.%._ :.^ F ! L ^ ' ^ ^ -.> ' G.L ' ' o.' _ ^ ! ^ ! W T L L D D D K K K K K ! W K S J D K G m u.S ! W W ` W e 8 x S D D S K W W ` ! ~ ! A y u I.,X].].l.l.U.",
"m p.v.m.<.1.b.9.A.R.Y.Q.T.R.~.`.W.W.W.~.H.z.z.b.b.c.u.Z.T.Z.J . t.7X$X<X7X3XT * ( 9.r.:.6.6.1.<.&.d.:.' o.:.&.^ L ! ^ ^ ` o.^ : x q._ ' %.o.%.' _ ^ ^ ^ L L L D D L K D K K K K K D K S D L ! u q :.` W Y ` ! 1 3 D S D A D K L K ! ~ Q ! } ! ! q q l.].].].U.u.",
"2 ( Y.Y.n.m.Z.9.u.x.A.K.R.~.R.Q.R.R.~.Q.J.Z.Z.M.D.Y.Z.T.T.M # > a b.7X7X<XI > ' r.u.u.r.w.u.<.:.>.6.-.| &.&.' } ' / ^ W _ I < * g N &.' ' o.%.' ^ W ^ W L D L L K K G D J D A J D A J K J K e : 9 m } } } } 1 0 m D K m J K Q Q W W Y L ~ ~ L Y G m 0 j.].{.l.: ",
") < 4.b.e.G.b.r.u.n.Z.I.T.T.W.R.Q.R.R.Q.Y.G.M.A.R.Y.D.A.D $ L > / 3 D.3XD > =.t.n.i.r.u.e.9.<.9.>.:.%.%.-.%.' %.:.' ( o.G , g > I I { T.o.' o._ L L ^ L L D D K L K J D D A x C A J J C ` g > l i T M p.#.e e G A D m A J J K Q S Q ! L L Q Q m G S i 0 j.P.* e ",
"r.G *.D.t.z.m.z.m.Z.m.Z.K.H.D.I.Y.Y.D.H.H.D.G.Z.Y.Z.T.D.d D ) - ' / i.L.< %.t.e.b.z.9.9.:.:.:.1.4.:.%.| -.%.%.o.| o.;.| K s W > L &.c.<X' _ ' ^ ^ ^ L L F L L J L D J J J J J J J D J l d.3.l l i T R $X4.m G H D D D D S K K K S Y L S W ! ~ ~ ~ W W m Y Q u m ",
"0.T =.J.G.b.n.b.Z.m.n.m.K.H.H.H.D.H.Z.Z.D.D.Z.b.A.D.Q.x.j Y ( - %.9.b.E.x =.%.:.r.9.:.1.1.6.:.:.:.:.%.] &.] ' ' ' %.%.( W z L 6 I %.b.%X-.^ _ ^ ^ W ! ^ L L L J D J J L M M J J J J K x 6.7.j l p N } $X4.Q m M D G A G A K K D Q L S S W Q Q ! L m G } ` S m ~ ",
"t.^ ] z.i.G.n.e.b.M.x.z.G.b.b.m.S.D.D.Z.b.G.b.Z.Z.G.Y.z.r L o.- 2.:.e.J.x / r.9.:.:.:.9.9.:.r.:.:.:.-.%.| ' ' o.' | ' / W f Y 6 I ] b.3X+.^ ^ _ ^ L ! L W I H J J D J L D J J D D D D j 5.;.z l m m } #X;.G m m D G D D D K D A G G S L L Q Y Q Y ! Y L ! S m Q ",
"9.^ &.x.z.n.b.n.b.z.u.0.u.b.n.b.b.b.G.F.b.z.z.b.Z.D.H.M.g L %.; :.=.e.m.y ) *.9.' 9.=.:.:.:.9.6.:.%.:.] | ' ] ] ' o.' / G l L < H | G.3X-.^ ^ _ ^ D ^ W J J D H J D D D A J K A A A A l 6.3.m z m m T OX} m A G G G G D A J S A S S S S S Y ! W S ! S S Y S m S ",
">.T %.D.e.z.b.x.b.z.u.0.n.z.9.9.x.b.x.n.z.z.t.G.A.D.H.m.s L %.- 1.:.z.E.k ( %./ H ) :.' =.:.4.9.%.-.| ' o.%.' o._ / ' / K f T 7 F ) A.=Xa.I ^ ^ ^ L W L L F J J J J D J K J D A A A A x w.#.g g i m / #X} m m m M D x S A J J J W G G G L S ! S m ! ~ Q O.m s m ",
"%.H :.x.b.b.n.z.z.z.g.e.i.u.w.n.x.d.x.z.e.z.b.G.b.Z.H.x.e L %.- *.*.i.T.j ) | ^ I / ' / ' =.:.%.%.%.| &.%.%.] Y ' ' ' ( L l Y 7 F %.x.$Xa.L K W L L ^ L L L H H J J D J J D A D D J K A 9.+.k z i I / $X} j m m D m m S A A S J S G S S S S m m S S S S S m m S ",
"' H } z.i.i.b.u.e.t.e.e.e.d.u.b.e.e.z.e.0.u.z.u.t.i.b.b.g L ' : >.=.e.D.m / G T %.| ^ Y ' 4.:.&.%.' -.%.%.%.' ^ ' / ' / S s L 7 I %.z.*XN.T K L G T T L W K G K K G G G D D A x A S A x 8.+.z z g L ^ $X) m C C Z C J A Z Z S A H G S G A S m A S D S S K A l S ",
") D =.d.&.9.i.1.d.e.9.r.e.1.r.q.:.e.u.0.e.d.t.z.w.e.b.x.l H / > |  .e.E.m } H ) ] L / / &.:.-.&.%.%.&.' ] ) _ ) ' ' ' / D f L 7 F R x.%XC.L G L L W L L T L G G D D G K D D A x A x x D q.+.k k g H ^ *X_ m D J D D S A Z A Z A S K S Q K S J J K S K K S z z S ",
"' F :.9.*.<.9.<.0.e.e.e.e.e.0.r.e.q.t.q.u.e.0.e.9.i.b.t.s D I 8 / } u.Y.m / | ) [ ' ' / / | %.' %.*.' o.' ` ^ / o.' ( / A s K 7 F ' z.&XV.G G W I W G L L H G C m D D D A D A A A A D T j.+.h k k G ^ =X_ g D A z Z Z C A Z z m A S S m S A S S z z S ! ! z f S ",
") M %.4.| >.:.9.w.i.e.t.e.e.r.w.q.9.r.t.e.0.q.0.0.e.e.z.f D L 6 :.&.0.Z.x ) } %.-.&.-.] %.-.-.] ] :.' / ^ ) W ) %.' ( ' A g G 7 T ' y.*XP.L G L L L L G L G D D D D D D m A A A A A D ' S.+.g g g F ^ =X) z D C l Z z S A C z z z m m m S S m A z z z m S z f A ",
"] D -.w.] *.| &.:.9.9.q.0.e.1.1.1.9.9.9.9.u.d.e.r.:.9.0.r D ) > *.| :.b.x | | :.%.:.4.=.:.*.%.%.} %.^ T ^ ^ ^ ) ' ' | ' A s K 8 T ^ >._.N.M F G K G H J G G D D D D K K A m m D A A z / j.! k f h I L .XW x D C x C A J A z f f m A z S A A A f m m m f A f f S ",
"] F %.Z.e.] &.%.=.:.>.>.:.*.9.9.:.9.9.:.:.1.>.9.:.%.>.9.Z F _ 6 %.' 0.d.A } *.<.1.4.1.-.( | } %.' %.^ ^ T ^ ' ' ( ' ' / D u J 8 T T H.|.].c.v G L G L G G K G D j m G A A D K A A D x J.E.$.d l g _ I '.L l J z l C x C Z A z z A A S z f f f m m m d f m z s m ",
") :.L G E.b.%.:.=.=.*.=.:.:.1.9.:.=.-.| %.%.:.9.=.=.9.%.d.q.D 6 H Z._.h m +.:.*.*.:.o.( ' | %.%.' ' ^ T ^ ^ ^ ^ ^ ^ ^ T X.a.v 8 M D.7Xx.x.6Xd.h I G G G D G G D x m D m x K G A x m S.(.e.!.q.8 g ^ |.R.w s x l d l l l z A z l f A Z f f f A f f m m f m S ~ s ",
"9.' p i ! !.i.] %.' ) %.*.*.%.:.:.%.| | %.%.9.9.;.=.%.] ' q.o.: 0./.x q D ' *.*.:.=.] %.%.%.=.) ' ' T ' ^ ^ ' ^ Y L G v v @.a.8 %.7Xb.{ [ z.,Xc.c F D G L J D D D m m A A A G N x Z.(.:.+.w.!.$.2 _.T.: 7 g x Z z l Z f z z f z f m A z m m A A S f f s d s S O.",
"( v L H k H !.i.^ } %.%.%.*.*.%.=.%.%.1.:.-.9.>.| ^ / | ) / o.: r.F k / ( ' :.:.&.' ' %.=.;.%.%.' ' ^ ' / ^ ^ T L D D c G v o.e %.Z.[ ] ^ P t.6XN.c D J L D J D m m G m S M m M K.!.3.;.-.:.%.o.g b.: w d d g j C C l d l z z z m z A z A S z z f m f s s e e S ",
"Y ' ( / I k T [.b.) ] ' ' ' %.] %.%.' %.%.-.9.&.L T ' o.) %.H & H I ' =.*.:.=.%.} ] } %.%.*.} &.&.' ' ' _ T ^ L L L D K ^ G L ; ^ z.:.] ) R v 2.6XV.c J G M F m B S m S m j m ~.`.@.6.w.q.:.-.D q ^ 8 d l d l z z C Z l z Z A z z z l z A z f l f s m s s m A A ",
"' %.T T H H g ) {.m.>.9.:.1.r.0.y.9.9.:.e.9.&.^ F ^ | ' ' :.^ & ' %.%.' %.%.' *.*.*.%.*.:.=.%.=.' ' ' ^ ' ^ L L L D L K D L ^ - ' Z.%.I / H ^ ^ r.6XV.M L I I L S G B L H H ^.{.} ` 7.7.3.7.f.W q ' d g g l x z l C x C A x A x z z l f z Z l l m f m f m f A S ",
"%.( u.t.^ W F g o.+X3X#X|.=X%X%X:X&X=X#X<XJ.G G ^ ' ' 9.<.>.^ & ' *.:.e.' %.%.*.:.:.:.d.:.:.:.+.' &.' %./ ! T G D x v ^ *.I Y * ( z.%.1.) I ] &.:.Y.].N.v.k.N.c.u.8.h.j.8.j.{.6.@.$.@.T | 6.6.K 9 o.l _ W j z l x A C A S A S x A A A l z z A x m f m f S O.s f ",
"' | i.] ' / v ^ _ v N k M v v M x x F v v I o.^ T / ] t.H ] ) * ] %.9.+.M *.*.:.0.' y y 9 y 9 3 q y q y 3 n T L D D M :.%.v / - ^ 9.>.d.L ] I / J.z.{ .. .[ { R R { / R / V } g.u.@.W I o._ %.D 9 } m =.Q x Z x A A r < 2 ; 1 ; > 1 2 2 , ; p S m x z g ` ~ d m ",
"-.4.k k 4.=.^ / n O - > > ; 1 2 < 8 < 8 ; ; P -.I &.1.F k :._ * ] >.I q / :.:.:.] O O < < < 9 2 8 6 < > < : y L L L G m y G ' : L r.^ h H -.| n.c.b t i i i h c i t y y y 3 5  .h.#.#.! y A -.A < =.L q 8 m C C A d . X # * * * & & # $ - - $ h S S J A 8 1 m A ",
"F ^ ) ] ) / ) 5 O D ^ ^ T L / / / / ^ ^ I x 9 v H / I ^ / / q & v F ^ ^ / / I R $ * H ^ L F L H F F L L F x 9 y M M v D G F c X a T ) / [ ' ] r.n < x x f Z Z g m m m m m m q m ) } =.} ^ ) ^ 7 , c v l l h g k 9 o 7 d g j g z z m z z j l w 2 p d g g u f s 1 ",
"9 o           o ; - * O # ; ; = = = # # * = = . o             q y       o         * ; * * * * * = = > = 2 < 7 = . . . . . o   * i # . + # . + . . # # # * = # O * # * * @ . * X + $ $ % = # O   9 X   o   o o o   o * * * * @ @ @ . . X .   . o               o ",
":.9.w.t.t.q.n.| F | ] %./ / / ' ] | &.=.] -./ &.t.e.u.0.e.q.^ x F 9.:.:.>.&.&.' v ) ' ^ ' / ^ ] ] ^ / ^ L / F ' %.I L L W L L g M %.} ( / ^ L ( D g D M D M G G N J D A D D Z x L D C D D x D x c ! M D Z Z x D K k m A A A D L G A A m A S A m S S S S S W ! S ",
"D.9.:.0.e.0.G.@X9.] =.9.:./ F >.:.%./ | ] / z.8XXX~._.W._.D.d.6 d.Y.:.e.e.4.9.d.-.W %.>.&.%.1.9.:.%.%._ %.^ :.T.%.! ' ^ I ' +.g / ^.9.%.=.1./ :.P.` M / L / Y T x L F F L x D A.v.W ^ D D D _ ! v d.x z C M J m $.$.f z z m A z m m m A A m m Q } A m A m S S ! ",
"%./ m.t.] -.^ c.;Xu.z.G.G.M.G.Z.Z.m.n.n.z.H.3XXXR.!.Z.H.D.M.9.X =.2.y.B.' ' ' ' z.o.^ o.' ' %.] ' ' o.' ^ 9.~.L g F F %.6.^ I : F 9.' 9.T H F D | P.#.M L L F D N K F D v F D.B.x f x C o.^ x f y L s ' _ s g f 8 $.a.x S A S S K S S K S S ~ ~ e s s e } ~ i m ",
"-.%.>.H &.q.z.=.v.>X2X2X2X3X2X@X:X1X5X5X4X7X4X.X{.(.x.&.D Y.N.o / :.:.' D &.=.%.^ &.b.Z.G.z.v.z.z.q.q.9.e.b.I k D L F %.^ M ' > M *.| ' g L G L k ' v.5.7.7.6.7.5.a.$.4.%.L.B.f Z x C L ^ K x g w H l :.J g g f d 9 X.+.~ +.+.+.$.$.$.3.$.u.O.s f e e m Y m s s ",
"*.:.m F 9.t.z.L.b.D i h n g n n k h k v g ' &X#X`.[.Y. .:. XG.X H %.T s R 4.4.4.%.' ' ^ ' ' ! / I J M L L M C D L D F M q M ^ : M :.D i h Y L D F D M D F D H F x F v x n M J S C C A x w g K s w T g 9 < f r f s r 8 e s s f d d e s e s e e f f d d d 1 1 e m ",
"/ =.4.4.q.d.d.c.c = h v x x Z x v k h v n = H XX[.~.'.[.XX Xv.. F | :.&.&.4.e.r.%.o.' ^ ^ L I ^ L M D I I L F J L D D F L L W * m %.D G D G D M m A j l l k g l g r g g w 9 y D S C N C D J D s 8 L g Z Z g l h d d u f s e f f s d d e e e e e d d f d m d e e ",
"^ %.>.4.q.e.6.q = G / ' _ / ^ / I ) ' ' ) I 9 G I.XX*XXX(.W.q.X F :.| ' %.:.%.%.%.' ' / ^ ! I L J I ! L J C D J J D L D x L _ > k ' D D D D G D m A x C D F x A Z g g g Z f r n J Q C C D x x s 8 ^ g Z l l l C l r r l d d d d s s s s d s e e e s e m d d m m ",
"-.9.:.0.z.d.t * D ^ ' ^ I ^ ^ ^ W ) ) ) ^ / / q J *X3X%XXX(.| . ^ >.%.' =.' I ^ ' ^ / ^ ^ I W D D ! I I L D F F J A N D D ^ L * m &.D H G D D x x A j x C C j l x g s g Z x Z r t J Q C x C W s 8 T l C l l l l f r r f l l s s f d e f m 7 e e s d d d d e S m ",
"p Z.Y.z.4.t = D ^ T ! ^ ^ ^ ^ ^ I ^ T ^ ' ) ) L 9 F {.&X2X[.8 . y T 6.o.' ) | %./ ^ ^ ^ ^ W L N I I D D H D F H J D J ' q.4.r X y T W J K G D A D x x x z D D j l x x x l m x Z g t J S A J A * < c C s s C f f x f g s s l l f f s e s e e e f s f e s f Q O.6 ",
"r c XXc.2 < D I T ^ L ^ ^ ^ ^ / ^ L ) _ _ ' / ^ ^ q g XX_., # : i 7 ^ ^ I / ^ ^ I W I I L L L L ^ W D M M D M D N D D Z.D.s < ; h c M K L D D D x A C x D K C x l x z g Z Z x z z g y A Q x # : q g t g Z x l g Z g Z f f f d s e s e e e s f s e e e S h.u.: 6 ",
"Y r ;.%.< D I Y T ! ^ ! T ^ ^ ^ L H ' ) ) _ ) ^ ' ' g 4.J 6 x = F v y ^ ^ ^ ^ ) ^ I L ! L N J I L H M D C N M D D C D d.4.: v : h D M ] x x G j l j C D D x l x x l s g g l g l x z l p W w 7 e q D r / x f g f s s f l f s s s e e e s s f f e s s e Z u.m & m ",
"I v / | v L L Y T ! T T ^ L L W ^ ^ ^ ( ' T T ' ' ' &.y.J g C : F ) c ^ ^ / ! T I L I I F D J L H D D H D D J H L D D e.o.g D : h L / 9.d x D D x M L x x j x j l x g z h g f l z d l x l e e e w x C >.g r f s s f g s e s s s e s e e e e 6 6 e s e f X.f e f ",
"^ v | / h L H L W L I ^ ^ ^ ^ W ^ ^ T ^ ^ T ( ^ ) ) ) 9.J g A * G ^ x ' / T T G L H H H F L H F A N L L L H J H L D v g.-.e N > k H ) 0.k D L L M A A j l l x l x l v x x l z l l g C l j r s 7 q M x &.f s s w s s s s s s s f f f e e e e e e e e 6 m ;.d e d ",
"^ D ( ' D T H L T Y L ^ / ^ ^ ^ ^ Y ^ Y L ^ ' ) ) ^ / %.C g D * H I v ^ L ^ ^ T H D H D D D H D D H L A D A N C C x D y.} s C 6 k T | r._ G F l l k l l l x j l l l z l x l x l f x l v _ r d e w D x %.l r s w r s s f s f s s e s e e e s e e e e 7 m ;.m e e ",
"T D ( _ C / L T T L A ^ ^ W / / / ' ( / ^ T T _ ' ^ ^ ' C g N * L ^ x I G T T G H F H D H L J F L J A N A N A v v D D 1.o.e x 6 v L ' e.D k m x l l l k x x j l s l g g g g l j j u l x j w r 8 q G x :.l s r r s e s s s s s f s e e e s e 7 e 7 e 7 m $.m 7 d ",
"I G &.) l F H L L I ^ / L Y H A G Y ^ L Y Y T Y ! ^ L H Z g N * D T v W F L G F H D D H D H H F v x N J v C J A D D A :.' s v 6 M H ' :.d x j k u k x j A x j v v z d r e u r g l j g g g w w 8 y M x :.g w w s s r e e s s s s s e e e s e e e e e 7 m } m 7 d ",
"( D / / z T H v D L T / / L G D F L L L I ! ^ I I I ! ' Z y H 6 F G x I F M M H G M D M M D m M M D D v C C C c h v x 1.%.w x : k x ] 4.g l g r r x x j x x z x v d w w l u y s g d g l x w e w w v z ] s s r s s e s s w s s s e e e s s e s 7 s 7 7 l :.z 7 l ",
"/ D ) ) g H D H L H D H L L L L F H F L I ! ! I ! D x ^ g r v : F L v T D M D L H D m M G x z M J M M C l c C g g A v 1.o.r v w k F | o.l i j j j l j g x x j d l d e D y e d u u r e e r w u r 9 l f ] f r s w w w f e w s w e e e e e u e e e 7 s 7 m 1.g 1 u ",
"] D ] W g L F L L H D H G D H H J J L L L K H J L D n K Z w C : M G x ) F G G M D M D M D v c C C x C v v C x h v D A &.! w c 6 x G / :.l k x j h g j g z l j u e e G l y C r u d g y e u w g d i C g ] s r s s w s s w s s s w e e e e e e u u s e e M =.z 8 d ",
"I v / ^ s H H D H D D D D D L L F D F J N D D M D M x ^ z s v * F F v K D D D x x v M M v C D C M M C x l v v f z C C y._ w N 6 k D / %.d l j k u l j l u g k d e D g q L d r w d g j l e w e 7 y C l ] w r g s r r e w s w e e e e e e e u g e f f z G =.z 7 d ",
"I F ) L s D F H D F D D G L H G D L D F D D D M x v k L w s D : G L h ^ L M M M v C C M v c x D x D D x g x C c g y g >.! r v 6 v F H %.d g j x s s g x d r r r x l s H l m C r g d g l w 6 e e i l s ] r w g s r w w s s r e r e e e s d f u u d g k x &.h 1 g ",
"H v *.( x F D D D C G L H D D F L L L L D x M G D C Z D f l C * D D F L x M v C D v v D M C M x D x D x x x l s z z H H.W r x w k F %.e.r l l x k g x x g g i g y w J I H j r r r r s r w 6 r e y i h 0.r r s r w w r s r r e s e e e e e l m h x m 7 1.b.e 9 m ",
"H :.^ >.I.W m A D D G M D M m D F L C N M D C M H D x n _ a.z * c &.n.y h M D x C M C M M M C x D x x g x x c Z F [ :X(.A f.L : g ] <X9.r x k k l h j l g s r l g h D x g u s r r w r q w Q J 8 r v ~.G.> s i w w s g r w e w w s e s e d j i u u 1 :.8X+.Z K i ",
"6.&.g h d.C.K v F ' / K L D M M D x Z D x D M C C c l v i +.a.* ) G.x s z m D M D M x x v C C D x M C f c x D F F #XXXh y ^ B.r v %Xe.8 j j k l g g u s l d g e j D h e e s e u r w 8 e 8 e Q s 9 Y.G.* w y y w r g s s e w 8 8 s e e e e f d f 8 *.<X*.= h Q S ",
"I v g g y 4.N.L v C L ^ ' | L M D L A x M M D M D x v x i y ! 6 ] D i x x x D x D x g x x x x v D C c l c x g / %X~.y i i y D w I 9.> j x l g x x g s g i e r g m g e g s e r r r y w w w 8 r g n 4.w w w q r w s s w s e r w w e e w 8 e g e : :.5X:.# 8 i p S ",
"k m k h v i @.d.I M x Z x D ^ L x m D v m C C v m v A x h D l * v N v A x x v v Z c Z c g x c Z x x v D x e ^ 2X~.w y g c v v * g l l x l g h k l h g s r w e l s r w y s e g e r l e w 8 e k r r r w y r q r r s r r s s s w w e w e e e d * :.7X=.; w e e q e ",
"D D g v m D g o.f.F x c C x x C g x v v M l M l Z D h l z D x # v A i h v m v C x g g r g s w r y i h h f ' 2XR.w y l s g H F * g C h l h g u g g l r g g r r r w e e r r r r 8 e r r e 8 w M r y N w w 8 w y c d d g q w w s h e 9 w w > 8 1.5X:.* 9 w 7 8 u d ",
"D j ) ^ v D D k _ ;.L K J D F D v A D D J l v l v m x Y ^ x i & D D Y o.v x x x c 4.`.XX`.`./.~.~.[.R.Y.Y.2XR.8 s c c G ^ I C * i D v ' m j k u u x x l l g l r w g k l r r w 6 q r r i L v g w w x r ! v r s Z y C Q O.X.O.6.a.5.8.f.h.k.c.#X3.: e r e j x u l ",
"D D >.H m H D k ^ D r r q w y t i t p i i h J v v x h %.R l h & m D &.] h A v x %.Z.t.t.t.y.y.t.y.t.9.2.>.y.D l D x c ] / c C * y v R =.g l l l j D h 9 t t t t 9 9 9 t 3 t g 8 e r r N :.D 9 > r v s 2.D r z r l D D v v x F D D F K J ! T M s e e e r ( D e j ",
"L L q q L L D L c   o X O O # # # * * * * = c J g g z h q C l O v L v 3 D v g ( e.t   O O O O & $ , $ = < , N I C Z Z n 3 i M = r x v 9 r x g g j <   . O O # # = # # * # # 3 r w e w g 2 > g : 9 D h < : v Z g D h X   O . o     o o       + i l g e u > * g g ",
"v G H H H m F h   : c c C v C C x A x A A i 7 c F v G F H U n X h h M L Y I F ] 3 # l v x h g x v v h z x h 3 N ^ v c D v U U O q M c M D v k N 9   8 h l h h l g g h g l i 8 t h y h y y t q * 7 c v z x D n C i . * w 9 8 w 8 8 8 > 9 w 9 * , p q q g r w r 9 ",
", .         +   o # > < # X X $ ; = = = = ; = + o o . . . +   7 i   o . o + O +   & = # * = ; > > < < < < < 8 $ O . X # $ , + X r # . . . . + #   . : - = - = - * # # # O # - O % $ $ % # $   X r $ . . . . . O   o & # & X X , 2 2 X X O X X   o               ",
"T ' / / Y Y ^ D c H I ! ' ] ' [ ' ' | | %.%.^ ] ] ^ T L I L x c D ] ] ' ^ ^ ] W h I H I I I G Y ^ T L L L W D H _ G J x Z Z Z y x T N C C D x A c s c x x x Z x c v x x x v c l G l g f l l D i i G x z x f h g j 8 u d l z l m z m m f l g f s m f f f m m A d ",
"d.| T | | | %.d.o.F ] / %./ ^ W H ^ I ^ W J M.^.%.] %.^ ^ :.' : >.x.&.%.>.z.x.^.d.L ) ' _ W D L W L W H H m :.2XE.%.` ) ^ T j.l T Z.L A D ^ L ^ f.Q s x x x x x M C x J D f f ~.n.s z C g s _ J h M.Z s x v v x q.3.7 e d B m e e e z m f u 7 x.F.m m m f A W S ",
"k y &.' h h g v a./ ^ / L I I I D L I ^ F y.T.z w g g _ ^ v x X m h Y %.h v C ^ L.d.G ' ' ^ ^ ( ^ W ^ ) F >.7XT.c v l F -.c D > s s s | x w 8 2 J f._ g c g x c C l l v g s T.G.: 6 6 r ' C 9 2 2 h 6 H D w w q 0 h.8.7 e e e e e d u g u 1 1.I.e - * - m Y 7 7 ",
"D v &.m k D G m g c.%X%X=X*XXX#X|.#X#X:X<XH.g r g x x ,.F C x X v A &.] v ^ o.D ' L.+X5X4X5X5X5X1X1X=X:X:X7XS.g C G M ] ] M H * w n F t.f c Z c s Q k.a.4.4.4.4.4.;.;.:.-.d.e.: 6 8 6 N &.f s 6 < g s :.D w w w 8 8 8.h.$.3.8.8.h.8.h.h.h.j.v.7 1 1 1 7 } A 0 f ",
"x x < < D v x x s h L L L D W D F J L I ! s y g s v x r 8 D c o N L h 3 N W o.o.%.%.] [ { ) ] [ ] ] R ] &.&.k l x D M c t M / = s F h < 8 c Z f Z w r x g x x M x D Z r c C 6 w 8 8 9 w = > s 6 ; x e < # w e r 0 u 1 u d e d u e e s e d d 1 1 1 1 1 1 = @ 0 u ",
"v v D D m C x l x x z l g z z g s n g k g c z r r z x m x M Z o m G L W A v W o.| < $ < < 8 9 9 t 3 9 q 2 3 U J f D C F I / ] > w C i l l Z g g w r r r r 8 w w w w w 8 w y w s w 8 w w w w i 7 : v e e w e s q 0 e 1 1 7 1 7 : 7 7 7 7 1 : : 7 1 1 1 1 2 8 e e ",
"x m D D m Z h x v x z h g z x v x g z z s Z g g i g x x Z A z . x D Y D x A ^ D 4 8 v x v D v k h x j h g g a E W Z M K ] | ] : 9 x f g l c g g r s r r r r r r q r w 8 6 w w s r r w s w w r : * F e w w s w w e e 9 e 7 7 w 8 e e 8 1 7 7 1 : 7 7 1 1 1 8 e u ",
"L M m m x x g x x z h x z h y g C Z g s r g r s g l x x h M l o v I G L J m N 3 < h m x k x g g l x j g g l y a U D Z K ' ) ' < 8 l f g l g g s g r r r r w r r s r w 6 8 8 r s w f r w w w g 6 * F 8 q g s 9 w d e e e 8 8 8 w 7 7 7 1 1 7 7 1 7 7 8 7 7 8 i k ",
"r G M g v M x l x x x c C C g y l l l c x g r g i x v x Z x = . g L L D W L t 2 g x x h g g h g j z l g x i v g i P W J L J c . 8 c Z f g g s y s i s r 9 q r q w 9 w w r 9 r s r r s r s g g $ , n e w e e r w e w w w 8 7 7 8 7 8 7 > 7 w e 7 7 7 8 7 7 e m ; ",
"8 < M x C C x x g g g g x v x g h i z z z g x x g l l z c 3 > * q 8 D K v t 9 x g h z g g h f g h x j j v g g g h i P ^ A y # X 9 n c g s r s s s s i s r r w 8 8 8 r q w 8 8 9 7 8 w r f r * . 2 u t e w q e w 9 8 2 8 w 7 7 7 7 7 7 1 > > 7 7 7 7 8 u 7 d ; X ",
"v y s M x x l h g g f g g x l i g g g r y r x x x f i x y r h X k q n I t q g g g g g z x g g g l x k l g h h g g f h T A , r # w g N U r r r y r r w r g r w 9 9 s w w 8 9 w 8 w 7 8 8 w ; < 6 < g q P u 8 2 w 8 8 8 8 8 7 8 7 7 7 1 1 1 7 1 7 7 7 7 e e 1 @ 1 ",
"C z l M x h s g x x x x g x k s i i y q r s s g c l s i : w c X g x h F i g g i y g g h z g l g l k g g f g u g h x v v h 8 g & q l x H 8 w r q y q 8 w r r w w r w 9 w 8 w r w q 7 7 w r : s : < s u m w 7 6 8 w 8 8 8 7 7 8 8 e 7 1 7 > 1 1 1 1 7 7 7 e : 1 7 ",
"v s g v D L v s g z Z g g k k g s y s r r g r y i g r i : q s X i g x D i y g r y h l g g g l g h h l i g g g i g v m G g 8 g # 9 x M I w 7 y y y q w r r 8 w 8 9 w y w 8 6 w w w 8 8 w 8 - w > < s u D s 8 7 7 8 6 6 6 8 6 8 6 7 7 7 7 > > > > 1 > e 9 d 9 > 1 ",
"x h g h z h D H v x g g g x l i y y r r r y r y y s y v > w g # g g g D i s i y y g i g h u h g i f h g s i g i g g h H g 8 s & y x C L w y r q s r i r w y w y w r q w 8 9 9 7 < 8 w 7 8 - 8 6 8 l i H i q 9 w 8 8 6 6 < 8 > > 7 7 e 8 w 1 > > 1 7 1 8 m 1 : 8 ",
"v h s h z g s g x N x g g z n g h i y r y g s y w r w v 6 w s # h f g F h i i g g g i g g u g i u y i g r i g r g g h x g 6 s # y h C I w r s i n s y w q r r w w w 8 7 8 9 < 6 7 7 < w w = > * < h d F q w 9 8 8 > > 6 6 8 > 8 8 1 1 1 7 8 1 > 7 1 > 2 i 1 9 e ",
"g s v D h h y r y r s g i l Z g x z i s r g y r 9 r w c 3 9 r # h s h G i g g h h y s y y g g i q e g g y i s 9 h g g l g 6 g # q l x I 9 i i s w q r r w r w w 9 8 8 < 6 8 8 7 6 < < 8 w : 6 : 9 g s D 6 7 7 7 6 > > 6 8 > 7 w 1 1 1 > > > 1 1 8 8 1 1 g 1 1 7 ",
"s C H k g g s y y s s i s h g g l h l g g s s w y r w s > 8 y # h g g v h s g h x u y u u g l r y i g s r r y y s g r i s 6 y # r s C ^ y y y 9 8 w r w q s i w w 9 8 6 2 8 8 7 < 8 8 7 8 - < = 3 x d M > 8 1 1 7 7 1 7 7 1 8 7 1 : 1 8 1 1 1 1 1 1 1 1 h 1 : 8 ",
"r n k g s i g g r y i s g g g y h s g g l g y y s s r v < 8 r # h g h F h v h h v / / T v i y q r i s y y r s s y r y y r 6 n # r c N T 8 8 9 8 9 w q w w y 9 8 9 8 9 8 w w w 8 w 8 8 8 8 - 8 6 2 g e M e 7 8 1 1 7 1 7 1 1 7 7 1 1 8 9 > 1 1 : 1 1 1 8 g > : 1 ",
"i r g l i g s s s i g w g s g y i i s i g g h s n s i ^ 8 8 c & x g i H h g h D D T v l g u r q i y q r y y y s s s g g y 6 i * y h v T w 8 w r 9 9 9 9 8 8 w g e 8 8 9 w q 9 8 w w 9 w w = 6 < 9 e w F e 8 7 8 e k u * 8 e > 8 1 1 1 1 > 1 1 1 : > : 1 l > * 1 ",
"r g i l f n y w s g i g g h z y s s g h y s i f s g g U 9 r M & h g h U g r i q 9 r r u g y y g r y q y r r 9 q y y y w r 6 r * r s C T w 8 y y w 9 8 8 z v h 9 9 8 2 w 8 8 w w 8 8 8 8 7 & > : 9 r q M 8 8 > 8 k h 8 q h i e > 1 1 : 1 7 1 : 1 8 1 1 8 l 1 * e ",
"l x i g x c y r y s i g y g s r i s s n s r h h k z C ^ 8 y M # h g h F y r g y r i i u e q e i q r r q r r 9 y y y w q y 6 r # y g M ^ w 9 y y r 9 h D v r < 8 2 8 8 8 2 8 8 9 8 8 w 8 < & 6 < 2 r r F 7 7 7 i h 1 8 h 9 u 1 > 1 u 1 7 9 0 : > > - 3 k i > * 7 ",
"n g h g x i y s r s g g r r y 8 y s r i g i w r N x n R < 9 F # g s g G i s y y r q i i y i y u r y w y y y w y y w 9 y 8 : r * w f s L r y w 8 q G G y > 6 8 8 8 2 8 9 8 2 8 8 7 8 2 7 8 . < : < q 2 N 8 ; 9 e 9 g k e i 9 = 9 0 1 2 1 1 1 7 > 7 9 9 q k * * 7 ",
"l N C h Q x r y r r r g y r s q y y s y n i i s g v :.^ A Q v # i g T N t y i i q r i i y y q y y r y i r y r r y w w y n 6 r * 8 r n.| s g w 8 g g 8 8 9 8 8 9 w 8 8 8 8 9 8 6 w 8 8 7 2 6 9 < 9 w ^ 1.= 8 > 2 9 i h g x u u g 2 - 8 1 9 8 1 : 9 k # b.w.: > > ",
"I ^ w 8 C W M i s y r s r r r s w r r s x l c s g -.d.N [ a.Q # g ;.P 9 r q i y u i h i r y q q y y y y y r y r y y y q y N s * 3 H.R.c b x r 9 9 9 9 9 8 8 8 9 8 9 w 8 8 2 < g q 7 8 < < r s w 2 ( Q.D & 9 r r u g i u g g p k 2 > > : 8 e 8 9 1 > I.<Xl : d 7 ",
"W r 6 2 q C _ v w q w s q r s q w w w y g c c g :.9.N x U { O.: Y I 9 q t q i i h l i i g i y y y 9 9 y i y y q q q w 8 9 a M # H Y.p c N N C r 9 r r q 8 9 w 8 9 8 w 8 8 6 9 q 8 6 < < > < r q 9 M.v * > y h i l h i k l g i h i l > - > > 8 2 * ~.1Xi   2 0 8 ",
"i r r 8 y y x _ v 8 q q r s r 9 r r n s g s g d.G.{ N g c U n # n q r r q r i i i n i s i i i s y y y y i y y 9 q q t 8 t 9 t # n c N U P N N J g 9 y 9 9 9 8 9 w 9 8 8 8 6 6 < > > > 2 2 2 h 2 9 c > > r g i r g y g k h i x p i h > ; > 8 * ; Q.4Xu o 2 9 ; > ",
"y y n f r t w x X.x , : < 6 ; 6 8 8 w 8 8 y d.b.[ R U N N V k X g g r r r r y i n g g y y i g s h h y y y y y y y q q r 9 q q # s F v F I F P V ! Z 9 8 8 9 9 r 8 8 9 9 9 < 6 6 < < < w 8 8 k < q y 2 8 8 w q q g i y i g g k r y > ; > - # X E.:Xz ; y 2 ; 1 8 ",
"y s s n q w 8 w z ^ q.t.e.t.e.e.y.t.e.d.y.c.D.R U / R v N ^ c . y i r h g y q y c g i g i h n y i i y y y y 9 q r t y r w y i O g U c c N P U V N _ C r y i i r r 9 g y < 8 6 < < 6 6 > < 2 h > 9 i > > 2 > q q q i g g i h k i h g j g e 7 Y.=Xu . i i * @ 8 8 ",
"s c %.F y w r r 9 ^ R.Q.W./././.[.^._.~.'.H.y.[ R R N ' ' N n o y p I ' h i y q s c g c c c c g n i y n c i 8 9 q y t U ^ y y X i R U %.N v V R U U ' ) ] / T F F D v k l u 8 > 6 < 8 q } g q : 3 y 9 %.D > w 2 y k h g g g l x A D D K ( ` B.g X & 1 ; G Q 1 # ",
"s c c 8 y n y r g , o o . . # # . O $ , , n y.,.[ R F P r v g o r i v q 3 i y r y 8 O O # $ & O # = # = # , y w q q y M n 7 i & y U N v y V U R [ U t t t t t 3 2 3 < , ; < k 8 > 8 2 g c > 8 - > g i v 2 q q r k v 8 + O $ # O $ ; $ # $ . $ ; @ * * ; M 9 2 9 ",
"i c 8 2 c c s y $   : = < < * < < < 2 > : O n y.[ R R c n G i . y i y 9 y g q y < . = : > * = > > 6 > = < ; < y y y i y 9 y n X q U N n P U U { E % X * * * * * * ; < ; = O , t 9 e 9 w = ; q # ; M q < ; i r k v > o - O & X * - - * * X & + , = * = 7 = * h g ",
"9 s w r w r t O   7 y i h g r c i y i i y r X y U U F v F c # . < 9 < r q 9 9 ,   = 9 8 q t y w 9 y 9 y r 9 = , 4 q 9 q y y 4 . = p N U U U U E O X 9 w 9 w q 9 8 g y q 8 6 ; $ 9 2 8 < : > > o # 2 9 i e r i h > o q g 8 > 8 9 w q 8 2 1 > = . = * X ; 1 i i 1 "
};
