/* XPM */
static char *Stone_512[] = {
/* columns rows colors chars-per-pixel */
"512 512 256 2 ",
"   c #030301",
".  c #090602",
"X  c #0C0A04",
"o  c #0D0D09",
"O  c #070804",
"+  c #120D04",
"@  c #110F09",
"#  c #151105",
"$  c #1B1305",
"%  c #14120B",
"&  c #1B150B",
"*  c #1D190D",
"=  c #1E1807",
"-  c #1C1A14",
";  c #1D1D1A",
":  c #161612",
">  c #0F100B",
",  c #231B0C",
"<  c #261B0A",
"1  c #231D13",
"2  c #241F17",
"3  c #301F0C",
"4  c #1E201C",
"5  c #252115",
"6  c #2B2314",
"7  c #24221C",
"8  c #2B251B",
"9  c #2E291D",
"0  c #2D2816",
"q  c #332B1C",
"w  c #352918",
"e  c #3B321D",
"r  c #2D210E",
"t  c #252522",
"y  c #2C2A24",
"u  c #2C2D2A",
"i  c #282824",
"p  c #332D23",
"a  c #342F26",
"s  c #363125",
"d  c #3B3324",
"f  c #34322C",
"g  c #3B352B",
"h  c #3E392D",
"j  c #3C3A33",
"k  c #373835",
"l  c #2E312E",
"z  c #1E2221",
"x  c #44351D",
"c  c #433B2C",
"v  c #4A3D2C",
"b  c #443725",
"n  c #443D33",
"m  c #483F34",
"M  c #523E29",
"N  c #4C422C",
"B  c #55452C",
"V  c #464135",
"C  c #4B4234",
"Z  c #4C453B",
"A  c #4E483D",
"S  c #45423B",
"D  c #534534",
"F  c #52463A",
"G  c #544A3C",
"H  c #5B4D3C",
"J  c #594935",
"K  c #5C513C",
"L  c #5C522C",
"P  c #634D38",
"I  c #63523D",
"U  c #6B543C",
"Y  c #685739",
"T  c #74593C",
"R  c #644F2D",
"E  c #6C5E36",
"W  c #4B4943",
"Q  c #544D42",
"!  c #5A4E42",
"~  c #534E49",
"^  c #565045",
"/  c #5C5244",
"(  c #5C554A",
")  c #5E584D",
"_  c #56524A",
"`  c #5D5952",
"'  c #4D504E",
"]  c #635444",
"[  c #6A5643",
"{  c #655945",
"}  c #6C5A45",
"|  c #62564A",
" . c #645A4C",
".. c #6B5D4C",
"X. c #695748",
"o. c #735C44",
"O. c #725E4B",
"+. c #795D44",
"@. c #645D52",
"#. c #6A5F52",
"$. c #635E59",
"%. c #695749",
"&. c #6D614D",
"*. c #6C6146",
"=. c #74624C",
"-. c #7B644C",
";. c #796548",
":. c #666055",
">. c #6C6254",
",. c #6C655A",
"<. c #6E685D",
"1. c #66625A",
"2. c #736554",
"3. c #7A6653",
"4. c #756955",
"5. c #7C6A54",
"6. c #72675A",
"7. c #746A5C",
"8. c #7B6D5C",
"9. c #796758",
"0. c #7D715D",
"q. c #7D7156",
"w. c #7C714B",
"e. c #6D6962",
"r. c #746D62",
"t. c #7A6F61",
"y. c #736E69",
"u. c #777065",
"i. c #7C7264",
"p. c #7C756A",
"a. c #7F786D",
"s. c #76726A",
"d. c #7D7972",
"f. c #3D403F",
"g. c #846A4D",
"h. c #86684A",
"j. c #836C53",
"k. c #826E5A",
"l. c #8A6E53",
"z. c #8C7255",
"x. c #83725C",
"c. c #8B745C",
"v. c #887659",
"b. c #947A5C",
"n. c #967758",
"m. c #90714C",
"M. c #A27D58",
"N. c #837564",
"B. c #8A7662",
"V. c #857966",
"C. c #8C7A64",
"Z. c #81776A",
"A. c #847A6C",
"S. c #8B7D6C",
"D. c #897768",
"F. c #937C64",
"G. c #957E67",
"H. c #847D72",
"J. c #8A7F71",
"K. c #837E78",
"L. c #867466",
"P. c #987659",
"I. c #83623D",
"U. c #99825C",
"Y. c #A6835C",
"T. c #B48A5C",
"R. c #8D806E",
"E. c #8D8066",
"W. c #9C8264",
"Q. c #94826C",
"!. c #9B856B",
"~. c #988569",
"^. c #878075",
"/. c #8C8274",
"(. c #8C857A",
"). c #8F887D",
"_. c #86817A",
"`. c #938574",
"'. c #958975",
"]. c #9B8A74",
"[. c #91877A",
"{. c #948A7C",
"}. c #9B8D7C",
"|. c #9A8672",
" X c #9D907C",
".X c #A48A6C",
"XX c #A68767",
"oX c #B7936B",
"OX c #A38D73",
"+X c #A58E77",
"@X c #A3927C",
"#X c #AB957B",
"$X c #AA9476",
"%X c #B59979",
"&X c #AF8F69",
"*X c #BAA17C",
"=X c #C7A47B",
"-X c #C39C73",
";X c #8D8982",
":X c #948D82",
">X c #998F82",
",X c #938E89",
"<X c #9C9284",
"1X c #9C958A",
"2X c #999389",
"3X c #9D9892",
"4X c #A39584",
"5X c #AB9A84",
"6X c #A19789",
"7X c #A49A8C",
"8X c #AB9D8C",
"9X c #A79884",
"0X c #B39D84",
"qX c #A49D92",
"wX c #A99F92",
"eX c #A49384",
"rX c #ADA18D",
"tX c #B3A38C",
"yX c #BAA488",
"uX c #ACA294",
"iX c #ACA59A",
"pX c #A9A399",
"aX c #B3A594",
"sX c #B4AA9C",
"dX c #BBAD9C",
"fX c #B8A995",
"gX c #BDB19D",
"hX c #B4ADA2",
"jX c #B8AFA3",
"kX c #BCB2A4",
"lX c #BBB4AA",
"zX c #B3AFA9",
"xX c #C5A989",
"cX c #C3AD94",
"vX c #C6B39A",
"bX c #D3B694",
"nX c #C2B5A4",
"mX c #C4BAAC",
"MX c #C9BBA8",
"NX c #C5BDB2",
"BX c #D2BDA4",
"VX c #D9B794",
"CX c #D5C3AA",
"ZX c #CCC2B4",
"AX c #CBC5BA",
"SX c #D4CABC",
"DX c #D5C8B6",
"FX c #D2C6B2",
"GX c #E3CEB2",
"HX c #D5CDC2",
"JX c #DBD4C7",
"KX c #D5D1CB",
"LX c #E3D9CA",
"PX c #E3DDD2",
"IX c #EBE4D8",
"UX c #F1EDE4",
/* pixels */
"gX7X<X`.[.{.rXmXBXMXaX2X(.s.1.@...&.4.9.2.G K Y /.<XpXqX^.2X^.i.A./.A.[.:X/.(.:X3XuXqX(.pX1X1X<X,Xp.H.(._.).2Xa.^.HX2Xq.:.u.a.qXpXpX).:.,X,X,XzXd._.,X3X3X3X_.e... .a.3X2XpXzXzXlX3XpXiXhXqXhX).( ^.A.p.,.0.).sXhXsXZXPXHXJXJX7X:.7Xa.f.) ` S V.aXgXsX' f.A l :   * *XcXq.q.}.5X X5X7X[.7X<XuXsXpX2XkXuX3Xp.:.| <.<X<X}.1X}./.S./.`.'./.,.'.pXkXuXpX X'.{.q./.uXdXZXsX{.kXlXuX1XN.7.iXkXlXAXAXAXKXLXKXJXKXSXAXSXAXAXMXrX7XaXZXnX X'.'.fX{.%   Z A.i.'.mXjXhX7XiXiXpXuXqX^.&.<.3XhXuXiXlXpXsXpX2X X(.^.^.E./.(./.(./.7X<Xk i s 7               a.JXAXkXkXuX7X8X6X X}.}.E.{. X5XrXZXNXdXfX4X[./.4XV.'.XXF..XyX#Xx.eXk.-.5XNXvXeXfXnX+X3.J.0XfXDXDXfX5XvXF.B.j.c.O.F O.2.#.3.6.N.>.G X...3.S.eX8XmXPXHXPXPXPXPXIXUXUXUXUXUXPXzXL.f L.wXMXNXaX4XyXvXvXZXtXFXJXFXFXFXPXnXdXFXyXyXF.G { x.F.N.k.j.K o O O h (.SXIXPXJXZXaX7XsXAXsX2X X X).` 1.^.'.a.{.'.A.A.<.) y.K.a.'.].~.1.<.yXvXE.kXPXMX X^.*.' d.' E w.f.- l L ' _.` f.l l W <.w.<. X@X'.U.*.N *.<.).:X).:X:X,XhX).:.^.^.7.3X3X2X2Xd.` u.^.{.2Xd.a.s.a.a.a.).).u.u.d.d.pXpXy.r. .) { ^. XV.,.{ { K ) ) C *.<.E.E.",
"ZXS.0.Q./.}.gXmXSXaX[.:XH.p.1. ...2.3.9.7.^ i.V./.).1X3X). X/.).(.^.:X/.H.)./.A.2XiX3X2XiXqX3X2X).r.u.p.a.H.3Xa.).3X).).u.u.<.a.7X7Xs.<.).3X,XqXs.(.,X3XlXzX;X<.,.p.1X,XpX3XAXzXpX,X,X:XqX<X).s.,./.A.0.,.,.^.sX X).kXSXPXJXNXe.:.hXA j ' ' ' l a.hXpX) S W l : . ; E.vX3.>.R.C.~.E.sX4XA.uXZXkXsX1X<XqXN.( ..| ^.^.7.{.:X>X/././.i.8.N.^.2XuXuXuX'.i.1XrXA.,.&.N.<X1X7XsX3XhX<Xp./.sXZXlXlXNXAXAXKXKXSXSXJXKXmXFXkX<XrXrXdXkX9X5.'.E. X/.2   p 8.7. .wXkXkXiX7XqXa.{.2X^.:./.)./.<XpXiXsXuX<X X).{./.A.i.V.rXsX[.Z.rXr.i u s 7 .       .   f FXZX<XuXSXmXiX X}.}./.^.I J } =./.kXrXuX7X4X`.<X}.8X.Xc.b.OXyXS.4.X.>.B.fX5X}.S.k.j.%.! |..X|.xX%X8X8X!.B.v.B.c.>.k.8.7.8.2.7.t.#.2.O.3.C.G.7.r.L.eXiXLXPXPXHXnXnXBXMXNXIXPXwXqXX.Z 1XnXnXNXmX}.@XMXSXFXSXgX`.}.MXDX<X9XtXfXaXC.F H [ 3.x.G.N.4.2   @ i.dXSXJXJXZX XmXZX2XAXSXNXrX:X).e.e.(./.a./.E.7.u.7.` e.s.0.w.w.*.L q.*X*Xq.w.a.E.).s.e L w.f.L w.f.* l L ' e.` ' k ' <.7.u.7.).7X Xw.*.*.q.V.(.{.^.)._.).zX;X) ) <.;X2X_.d.d.,.e.a.a.a.^.e.d.^.)._.s._.2Xd.u.H.d.qXNX_.7.a.r./ E.1X^.a.:.:.,.r.:./ <.4.Q.&.",
"4Xi.0.<X8XfX<XN.J.J.(.J.e.e.1.#.2.-...7.4. .i.u.0.^.(.{.pX).).1X^.7.A.y.p._.^./.2X3X(./.[.iX:X1X).7.a.^.2XH.<.7.).qX X{.<.H.u.<.).2Xs.).,X).pXqXa.^.2XzXzXpX_.1.u.i.H.).,X3XzX,XA.hX3X1X,X:X{.) ^.uX1Xa.0.a.R.1X(.A.1XZXSXSX1X:./.LX' t l V f.l a.hXmXu.' ) u > O 1 ;.OXw.*.[ =.3.`.nX>X1XjXlXlXhXuX}.).<.7./.7.}.uX/.<X[.S./.<X<X<X7Xp.{.iX3XuX Xu.0.<X X/.uX X^.V.0.i.1X'.{.<X2X7X<X3XpXlXkXgXzXZXKXKXKXSXAXkXnX4X XlXsXkXZXrX&.sX'. X`.y   y 4XgX&.0.0.R.iXjX3X:X3XH.).<XiXiX:XsXiX1XqX(.(.<X'.a.i.7.0.7.i.sXNX7XJ.S f u 9 5             Q  X/.@XrXlXAXmX7XuX}.`.N.2.I 2.R.sXuXS. X X/.{.(.uX0XXXb.G.C.8XG.O.[ [ N.G.F.L.S.D.3.8.X.`.G.J.G..X5X|.F.G.-.F.3.2.OXN.8.9.2.Z.`.].B.c.`.N.2.6.L.D.N.HXIXJXmXcX+XP.M.+XxXHXNXeX8X8XZ.n 9.6XS.t.}.B.gXSXrXq.7.V.{.kX<XJ./.>XrX}.Q.=.-.3.3.B.|.B.k.d   h 4XMXAXSXAX/.<.uXNXkXkXZXsX1XH./.).^.E.V.E.7.i.0.<.<.<.' @.E.E.w.w.w.E.*X@X^.a.) s.` l 0 L *.L L L L 4 h f.A S ) f.k A :.<.i.i.qX7Xq.*.*.w.u./.2X2Xa.u._.K.pX3X_ ) s.).;X;Xs.<.,.,.,.:.1.e.<.K._.s._._.;X_.;Xa.s.K.pX,X) p.7.<.p.a.^.:.) ) u.H.a.:.>.4.7.'.q.",
"4Xi.N.aXmX6X4X<XZ.[.(.H.p.r.1. .4.5.} ^ F 7.G 4.2.) a.1XpX).2XpX;X7.7./.^.>.i.K.H.A.^.).:X(.;XqX;Xp.).2X2X2Xi.(.).).;X).<.u.a.).pXpXu.:X;XK.,XqX>.<.2XlXNXpX(.u.N...@.7.;XzXNXzXsXAX1X3X1X<XE. ./.).1X/.^.p.1X1X X7XrXfXuXhXuXrXmXmXj i l l h l ) hXNX' j A - > o * ;.~. X5.4.[ } 4XkX}.pXjXsX}.,.:.p.r.p./.^.i.7.0.p.A./.7.Z.1X<X<XqX/./.uXrX1XqXiX<X0.'./.uXuXsXuX{.^.0.^.R.i.iXhXuX'. X X(.3XiXmXSXKXKXSXNXsXiXrXdXZXZXAXkX9XE.kXaXkX@.7   y <XtX{ ..C.7.}.hX>XiXwXpXjX<XzXjXpXkXiXiXhXrX^.V.E.7.i.q.....0./.hXSXS.] K u y 7           s s c 0.p.p.[.uX{.uXsX{.S.8./.rXsXuXrXfXwX`.N.D.H.hX5XC.G.!.B.%.@XW.-.c.%.8.[ 9.G.G.G.3.J.G.8.'.qX8X+XNXjXG.S.|.].O.[ 5.x.D.N.L.G.G.c.5.N.D.8.J.[.G.>XC.[.BX0X+XOX%XG.l.G.xXHXnXdXaXaX[.! f n a 9.8X].E.E.5.0.S.N.S.`.t.s.J.`. X8X!.=.3.=.4.C.!.!.B.] o H MXAXAXSX1X1.i.a.pXiX XsX{.2X^.^.E.'.'.u.<.:.7.p.p.7.<.` i.'.). X^.'.).rX X_.a.<.u.' 4 0 h *.N L L f.0 V N h *.:.' V A :.u.q.E.pX^.>.>.i.7.).2X2X3X/.u._.K.d.2Xr.s.,X,X3X,Xd. .<.) _ :.1.e.s.` s.a.r.s.a.a._.;X;X_.,Xd.A u.H.<.p.(.u.) <.p./.^.V.a.u.i.E.~.2.",
"aXaXfX<X}. X<X7X>XN.>.p.i.<.>.>.=.5.=.{ { >.{ &.*.7.,.7.u.).1X2X2X/.r.^.a.H./.A.^.7.A.[.>Xa.<XpX,X(.,XpX3XH._.<X Xa.).).<.a.)._.hX3XH._.2Xs.u.:.` ;XpXNXzXzX_.y.0.:.{ 7.2XiXiX6XuXiXAX3X;X2X2.,.{.{.(.i.a.<X<X7.7.i.V./.iXZXSXFXSX7Xu i i u i j ^ >. X` k V - > O 5 I ~.5X*.] 5.2. XA.{.lXAXlX<X/.^.R.7.i.[.q.Z.0.7.7.0...8.`.J.`.Z.p.hX<X<XdXpXiXsXmXpX X/.iXpX1XuXlXZX(.V.9X{.rXpXsXaX1X/./.sXpX XqXNXlXpXuXhXuX6X}.}.jXNXkX7X2.fXZXu.h 8 X - F Z v =.tXlXAX2XqXlXpX2X:X7XuX:X3XsXqXhX2X1X<XR.8.t.8.{ / 7.V.A.`.8XS.X.7.f p 5 O       : V W ^.9XuX7X<X'.i.>.`.{.S.2.[.kXlXjXiXhX7X`.t. ...aX4XB.9.2.k.c.+XG.g.O.3.O.O.k.B.|.G.9.F.eXhXlXG.>.S.sXiX9XD.k.F.F.x.C.9.2.t.J.D.O.j.9./ N.J.J.J.S.J.eXk..X%X$XG.n.G.M.G.cXwXdXxXeX0XeX0XG.! - t ] %.V.'. X8XS.Q.}.9.m 7.A.S.}.OXk...{ | 9.C.S.c.O...- N tXlXkXrX^.^.).H.H.<.) 9X{.{.MXaXV.,.u.,.A.i.:.:.p.>. .4.^.q.<.^.^.E.a.^.;Xd.s.e.' f.l = N L L E L 0 0 V E ' *.) ' _ *.<.i.E.).lX^.a.^.a.s. XqXpX3XH.u.^.^.a.s.d.H.3XiXpXp.s.,.^ ^ @.@.:.$.u.e.1.d.y.<.1.s.e.1.s.d.p.<.a.pX1Xp.<.a.) <.a.(.(.p.^.(.i.7.;.h.U ",
"J.[.wX>.).6X{.[.{.}.[.N.7.7.4.3.=.*.=.*.8.&.&.{ *.{ J ^ i./.uX<X:X:Xa.>.y./.H.K.^.H.r.i.N.K./.3X:X).2XhX).:.s.(.H.a.).).u._.,X2X2XpXqX).2X).).7.a.pX,X3X3X3Xa.s.&.4.7.t.3XiX_.p.1X2XsXuX).rX,.p.<X/.A.(.i.'.(.0.p.u.u.{.'.<XmXSXmXqXs u t u s V :.u.3X) u j 4 >   9 v.v.x.v.-.*. XnX7XrXjXjXhX X<X{.:X{.A.N.8.p.Z.S.i.8.:.N.:X[.7X/./.1XuX/./.iX).).pXlXhX(.7XsXrXlXlXmX9X XiX<XrXiX2XiX7XkXsXE.E. XgXrXsXuX7XmXkX6XrXgXdXgXnXrXK E.ZX1.s 8 o % R.q. .] 4XZXhX).qX<X>X2X>XqX1X>XsXpXsXpXuXjXpX/.8.N.>.F 2.N.N.'.4X>X4X9Xw.F f 8       X n u ) rXdXmXkXsXuX X&.H 8.8.7.4XsXiXjXsX7X[.<XV.| :.Q.N.8.N.9.B.F.l.3.+.U O.j.c.g.j.Q.4XD.G.6XsX1XeX6XG.3.N.x.F.c.Q.F.Q.@XN.N.+X@X'.9.O.O...7.t.L.D.>X|.eXaX9.G.#XM.+XxX0XBX0XG.yX%X0X+XeXeX0X0Xk.2 . $ q 4. XV.`.9X].9.C [ ..S.nXC.z.O...O.5.Q.C.C.N.5.0 *.vXq.K <.a.u.d.u.s.7.e.,.,./. X0.p.i.(.'./.i.a.0.<.>.E.^.0.A.a.e.u.a.2XpXpX3X,X1.' ' f.s l L *.L N h 5 ^ u.E N V L ) ) w.'.E.E.zX).pX).q.a._.K.qX:Xu.a.d.s.^._.H.y._.3X,X,.,.u.<.<.1.e.u.u.e.d._.d.d.y.1.1.1.,.$.) 7 9 :.3X).e.*.` K u.a.^.^.^.p.7.7.:.4.} J ",
"{.S.dX>X{.H.J.>X>X7XwX<XV.4.3.5.-.=.} 3. .p.7.q.>.G *.a.(.7.).:Xi.>XZ.p.Z.7.i.[.:X).i.( i.A./.{.pX2X1XiXu.7.^.^.^.s.u.u.a.7X3XpX3X3X2X_.pX2XpX;XK.pXzXqXhX:Xr.i.>.7.7.p.;X3Xt.p.{. X/.N.rX).:.p./.[.^.4.^.(.(.^.p./.Z.7.7./.rXZXFX Xj f t u f V V f.' V u t 4 :   e ;.j.*.] 5.C.<Xu...>.Z.sXlXmXMXrX/./.<XR.{.<X(.H.>X`.2.p.,XqX7XqXpX7X}.).A.1X7XpXpXkXlXrXA.uX3XlXlXsXuXiXhXuXuXlXzXlXsX7X/.'.aXpXkXsXpX7X XsXgXR.rXkX7XgXrXq.*.'.kXS A p o - {. XN.H | hXhXhXiX(.:XhX3X(.t.K.3XjXZXiX:X^.,.&.p.0.2.{ ..Z.V.{.aX7X8XaX X-.F 9 o     7 k 7 u. X/.uXhXuXsX7X{.....6.S.6XwX7X6X7XqX<X{.N.>.A.rX9.N.N.G.OXb.c.3.l.+.-.3.j.F.F.!.|.S.+XG.k.S.8XwXN...O.B.Q.#X5X9XfXaX|.eX[.L.D.N.>...8.N.k.9.N.L.>XeXeX5XNXjXfX+XyXnXHXMXcX0XP.G.M.+XaX0XXXyX+Xb . + < G 6.C.C.OXR.o.j.5.|.nXF.F.2.9.8.C.C.!.G.t.k.e 3.*X4.) 4.^.E.,.y.a.s.u.u.u.p.p.1.a.).0.].<.7./.a.u.^./.H.0.s.s.d.e.<.3XpX,X_.s.e.` 1.' h e L *.L L S 0 *.w.1.' *.) ^ w.q.E.a.).pXpX).e.u.^.3X)._.).u.)._.s.H.).d.e.,X,XK.:.1.p.<.e.H.e.e.a.<.y.;X;X_.d.e.1.s.y.1.1.A g 7 A 7.K ^ p.<.<.^.u.a.a.u.s.s.p.p.S.[ ",
"S.S.>X}.:Xr.H.N.S.1X(./.`.S.k.5.5.w.3.*./.pX7.7.:.&.u.a.7.u.^./.Z.3XH.A.p.H.H.(.H.i.t.A.A.2.i.{.3X2X3XqXu.p.).^.^.<.<.H.u.^.qXpX3X2X2X3XpXe.,X_.H.3XzX3X:X2X/.a.0.3X7.7.:X2X(.:X7X7X7X/.1X/.>.i.0./.u. .E.:X1XE.E.{.{.R.7X0.{.mXkXrX) l 0 z u u 4 - s f.y 0 4 : . 8 b v.].F | aXdXi.i.i.&.7.R.[.{./. X7X[.`.<XlXNX1X1X1X<XH.2XiXhXNX1XqX{./.'.).hXpXzXhXhX<X0.zXZXlXlXsXsXlXhXuXlXAXzXuXsX{.rXmXKXSXAXmXkXaX X'.rXkXnXtXrXrX XK ,.).a.u y d > % 8XS.8.N.0.uXpXpXiXjXiX:Xs.,.$.(.lXlX,X>.( ) <.^.i.7.7.2.p.p.>XsXdX8X8X}.dX7.J s @   % f u ; >.kX7XuXsXiX<X}.{.{.N.8.t.J.{.{.}.>X:X<X{.N.4./.fXx.2...k.0XG.F.B.3.3.j.g.-.O.j.OX#Xk.c.8.6XNX8X|.G.5.%.B.sX4X].fXkXnXqX`.}.{.6.! #.4.3.2.7.J.G.}.5XtX>XeXHXAXMX8X4XG.NXPXNX0XI.P I.G.k.L.+XOXeX0X] + + o % y h ..q.C.c.j.5X9X`.}.9.i.Q.S.F.C.C.N.G.N L E.].E.i.s.a.@.1.).7.i.^.'.,.s. X X$X$X$XE.'. X>.p.p.*.^.u.$.s.d.s.<.3X,Xy.s.d.s.` 1.L f.L w.N E L N 4 f.*.:.q.u.w.) *.u.q.<.pXNX).).;X).3XpX3X;Xa.;X3Xd.H.p.3X;X;X,X;Xe.^ ) <.@.@.s.d.s.d.e.y.s.,X2X_.e.e.a.y.e.u.<.,.^ s G a.^.).d.K _ a.p.a.^./.^.(.<.,.V.",
"{.(.>.Z././.[./.{.uXuX>X`.C.C.@XC.*.*.2.3X:Xu.a.i.a.H.(.<.u.).^.{.qX[.[.^.:X:XH.r.A./.(./.p.2.N.'.qXa.2Xp.H.).).a.) <.H.u.).sXzXpXzXqXzXqX( /.3X).3XzXAXzX3Xd.,XpXpX,X2XlXlXzX;Xp.hX7X:X/.0.:.i.7.A.( ,. .>.1X X).p.0./.fXZ.`.aXrXmX^ l u 4 y s y t 4 u u t 4 :   1 A rXv.3.'.7XkX1X}. X/.H 7.A.i.^.7XuXS./.`.1XjXhX3XwXjX2XwXiXiXlX1XqX'.2XsX{.sXAXNXlXpXH.:.0.uXiXA.iXsX1XiXiXlXZXjXiXlXkXzXHXPXKXKXNXlXlXfXuXuXfX@XrXgXfX0.7.uX_.Q y p C % @ 2.i.}.i.A.hXkXqXhXmXpX(.(.K.t.p.2Xi.:.<.r.,.<.r.7.:...^.(.i./.lXZXkXtX'.R.@.G C o   9 k i u Q :X7XuXiXuX}.7X{.`.J.2.! 7.0.p.7.i./.Z.#.,.}.A.>X4XC.eX0XyXOXG.c.O.! %.l.j.[ G.fXaXG.}.9X6XsXsXeXB.C.|.`.|.J.8X8XD.6XwXaX>X>.| 4.2.>.9.L.}.B.k.5XMXsX>X+XsX8XD.O...B.iXPXAXjX3.x X.>X9.G.xX0X0X0XVXQ.6 @ % @ @ # 2 H 8.].cX9X`.9XD.7.J.J.|.`.G.{.L.^ 5.@XaX7XrX X/.u.s.).V. X@X'.<.<.,.E.U.$XE.E. X'.r.u.u.a.2X{.,X).2X).d._.s.s.d._.s.) :.e.L A E L *.L S 0 c <.u.i.w.:.a.a.q.^ u.AXqXe.d.;XH.;X_.2X3X).y._ G ) s.3X:Xd.d.H.1.:.,.,.1.e.d.;Xd.d.s.d._._.,X^.' <.d.d.s.$.W (  .) S.3XpX3X2X:.q G :.0.H.^./.).a.p.7.",
"t.r.y.r.,.7.@.,.Z.uX:X{.{.B.C.].~.*.j.~.7X^.^./.:.).2X(.p.>.<.A.2X:X(.iXhXpX_.A.(.:X2X(.:X[.i.S.Q. X:.u.^.).H.).a.u.:.<.a.7XAXAXzXpX3X3Xi.:.).:X;X3XpXzXzX,Xa.:XlX:Xp.pXKXzXKXK.1XlXiX XR.G u.<Xp.A.<.E.0./ {.1Xu.A.i.A.mX<Xp.nXJXgXV s s i u y u y t l f s 4 : O & J $XE. X X<XdXhX7.'.<X1X<X1X7X(.A.6X7XuXuXhXiXhX1X2XiXhXhXwXzXmXlXiX/.pXqX2X3XsX2X X2X<X).<.^.7X{.hXlX7XuX}.A.p.u.{.pX3XAXHXKXAXAXAXlXlXZXlXiXdXCXMXDXkXV.).lX2Xg i ^ #.o 2 [ `.pX/.N.{.hXiX1X(.(.:XZ.(.>X;X7.,.7.1.( ( S A / :.i.^.p.A.rXAXJXZXMXkX5X>.2X| X O f k u V :.<.7.7XjXwXuXiX<X>.| ..F | | ] C b A ..>.i.1Xe.G.dX4XnXnXxX%X!.l.} P ] O.%.B.0X8XsXaXfXeX].sXfXJ.eX>X|.j.D.8XAXiX9.qXsXNX7X| 2.k.7.%.k.D.G.L.G.+XeXnX+Xk.D.S.%.3.D.G.qXHXNX:XJ.a 6X6XL.eXHXvXP.B.yXBXtXc X @ : : $ + 2 D ..>X8XaXeXp.s.J.,XqXsXiX#.| *.Q.sXZXsXpXpX:Xs.). X@Xv.2.).).u.q. X#X*.p.'.{.E. Xp.<.^.2X2X3XpX_.;Xd.;Xd.s.d.a.` ' 1.' h *.*.L E A K >.q.>.>.<.u.s.u.u.V K Z.e.d.;Xd.s.e.s.).s.s.e.` A ` r.,.;XK.K.p.a.a.<.<.r.d.).d.e.e.` 1.e.$.e.1.e.e.1.1.s.^ V / G *.2X3X2X3X,X2Xa.) G G ) a.(.).pX2Xs.",
"J.i.J.i.7./.i./.7.{.7X4X'.B.c.F.c.j.~.9XqX<.s.a.7.^.H.H.).u.i.p.H.3XiXhXlX:X[.(.(.1X1X:X:X).A.Q. XE.u.H.).^.(.a.^.^.u.a.).3XpXlXNX,X/.u.i.,.).3X_.).3XiX3Xp.H.:X3X{.^.pXzXzXzXH.AXlXzX1Xp. .7XqXuX7XZ.'.<X<X<XR.Q.i.R.aXMXaX7.SXLXgXf f 0 u y y y t y l u V 0 4   5 v.#X#X5XrX<X7XZX[.8X7X/.sXlX7X/.i.>.u.2XpXZXKXlXNXzXuXwX[.:X2XpXsXkX2X1X/.'.u.u.u.p.u.0.*.a.}.:X1X{.1X7X{.{./.,.*.:.*.2XHXHXSXNXNXlXiXzXlXlXZXiXuXlX7XfX{.).pX2Xn i ! ] o & =.5XlX2X7.{ >.( >.A.t.p.A.;X>XqX).{.H.d.).@.A G ( u.<X7X^.'.fXJXPXSXFXlXdX) >X7.X - >.:.( ) ..>.A.}.iXsXhXuX7Xi.i.C...C d b F / K <.{.N.8.k.j.G.+X+X8XOX#XM.F.c.F.c.b.g.G.4X6XhXNXsXS.`.|.8.C.qX'.F.c.k.t.A.J.2.H.}.[./.#.8.S.6.%.%.#.k.c.G.G.G.tXOXk.D.X.H ..N.k.J.1X[.$.n Z.NX7X}.D.G.k.l.F.xXxXbXcX..$ # : & $ 2 9 , ..cXdX8XL.e.$.#.p.2Xr.` Z 4.}.6XlXlXkXjXuX2X1X X^.a.{.fXfXuX^././.V.7X X'. X/.<.u.<.^.H.pXiX_.)._.d._.a.a.^.^ A ' <.A L e V *.L *.:.<.w.:.:.u.u.u.*.N / 6 j 1.s.e.r.) j S 9 9 Z u.<.n ` p.d.(.,X,X_.d.s.r.` ( ^ ` ,.:.( ) :.' f.h V V f.d f u K u.,.&.<.d.,X3X,X3X).(.p.7.:.7.<.(.rX7X^.",
"H.[.(.[.J.A.<X<X{.`.>./.`.x.x.v.v.U.OX1X<.i.^.i.i.a.p.).(.i.(.{.;XwXjXhX_.7.:X(.:X1X>X:X:X1X`.'.kX^.e.^.{.).^.H.).{.a.H.2X2X2XiXlX2XH.7.u.a.3X{.,.u.a.).H.<.). X:Xp.A.pX_.2X2X3XPXKXhXpX{.A.(.7XzXsX(.{.<X1XuXgXtXrX X:XAXZX6X9XkX2Xt u u t t l l 4 u 0 t f.V >   p 5.aXrX<XpXiXuXkXAXlX<X/.uXa.,.p.uX3Xu.(  .p.qXmXsX1XV.{.<Xq.*.^.{.1X1X1X^.7.4.*.:.,.>.^ *.^.uX{.{.7X<X(.<X7X:X{.p.a./.pXlXNXAXlXhXzXiXlXZXAXSXsXN./.1XDX9XrXqX;XS u (  .  % =.8X XZX7X7.2.@.H.H.).2X:Xp.K.[.2XiX3X:Xd.<.4.:.&.N.{.A.A.R.1XlXJXAXnXmXSXu.y.p.# A @X].v.5...V.).<X(.:X2X[./.Z.'.C.x.B.8.8.N.E.{.V.}.D.3.c.+.P D.eX9XnXG.j.b.XXc.l.b.F.@X8XjXNXJX'.x.3.-.k.`.7XS.C.j.3.L.9.8.S. .2.9.9.#.k.k.{ 9.@XG.c.G.G.G.XXF.k.D.9.! I ] X.j.j.P m m n 7XuXD.G.k.O.O.c.0XyXOXM.OX!.k.1 X & 1 1 , 5 q >XBX8XD.Z.e.@.#.e.~ | - b 3.N.'.uXlX1X<XpX:XrXrXgXFXtX}.{.E././.^.1X Xa.).).<._ <.<.e.pX2X).2X;X_.d.:.w.q.' ' ' ` ^ L h *.*.:.,.{ :.>.*.w.u.a.{.u.<.:.c + f Q Q ~ ` A i f s f ( :.1.s.d.e.` r.1.,.1.$.W V A V j ~ A j f.N ' ' j s 9 9 h V ^ ) ).(.7.^.e.e.3XpX,X).,X3X:X).0.:.&.:.^.^.",
"A.t._.qX6X7.<./.S.N.|  .8.k.q.5.;.W.aX(./ (.(.i.u.^.p.A.p.r.H.:X).H.).[.qX)./.2XuX6X1X6X<X[.:X>X^.<.a.).{.a.a.p.).kX/.^.2X7XqXpXpXpXH.<._.2X(.^.a.)._.^.u._.2X(.<X7.i.1XK.3X,XzXHXHXzXzX7X<X7X{.uX7X{.A.{.R.^.uXvXnX}...ZXKXfXN.gX<.4 y t t 0 l l 4 y y 4 u S -   h U ~.kX3X;X2X2XiXJXAX:X(.[.@.W ) ( <.).^.0.:._ J.{.S.8.9.{.[./ 0./.2XqX^./.4.G >.>.4. . . X^.1XqXuXiXhX2X1X2XuX1X).{.:XuXiXiXpXqX1X<XuXkXAXZXpXfX'.vXLXBXgXfXiX;X_ ` r.^   # x.`.J.NXNXdX[.A.t.A.6.t.J.7.).1X(.:XzXH.7.7.2.8.A.6X/.[.}.p.p.^.kXAXNXdX8X_ _ ,.9 '.tX].F.x.q.2.H.}.p.K.p.@.>.<X8X'.D.].}.eX}.`.S.N.8.3.3.l.b.#XaXfXrX+X#.P 3.l.M.G.M.+XqXnXHXHXlX|.G.J.8.D.|.`.`.x.=.B.S.N.`.`.`.4XJ.6.6.S.C.N.N.`.eXB.|.|..X0XOXc.G.k.3.c.3.+.O.O.t.#.m ( nXJ.B.G.X.j..XF.+.[ P %.F.j.BX5X2 $ , & - < q g S.+XG.H.r.s.H.A.$.Q . * { 9XqXuX7X(.(.pXpXsXrXgXfX].^.a.R.uX7X'.). XA.).).^.p.{.r.s.).a.).).).u.*.K '.u.W ` ` ' A V L N V *.:.*.) { <.w.a.2X).u.a.:.7.G 0 0 * + X . o 0 ) <._ A a.s.d.1.$.6. .@.~ A V n V A <.@.( V h A V h s s V A ) :.s.:.:.7X{.{.;X1.1.s.3XAXzX_.2XzXpX,Xu.K V { ",
"[.p.p.pXwX}.i.V.N.J.t.t.4...} 3.w.Q.mX3X) a.7./ >.7.p.^.:Xp.r.,.) p.:X:XqXqX:XJ.:X1X:X1X<X{.<XuX).u.s.).3XH.{.^.).kX2X{.2X{. Xu.(.H.^.u.a.<X^.^.0.a.).).a.2X1X).A.i.A./.:XqXpXiXzXzXNXzX3XqX1Xp.1XqX{.1X<X<XhX}.dXdX7.i.kXJX4X0.'.V i i t t i j s A h z 4 h ^ -   v I N.1Xy._.pXkXsXuX).7.(.2X_.,.) ,.1.,.)././.J.A.Z...H >.7.4X7.&.*.(. X'.^.,.) ) *.4./. X2X{.:XhXjXpX{.pXsXuX1XsXlXjX1X:X<X}.p.).rXR.{.rX].R.7.'.'.+XbXvXbXCX;X` W W ,.V   & j.#.A @.A.p.7.e.r.H.p.K.:X1X[.(.{.{.}.<X`.`.Q.S.A.7.( 0.(./.R.<X<X7XdXZX[.S :._ i 5X#XE.].].B. .p.1X/./.7.r.<X8X4X'.S.J.].[.'.[.`.N.v.!.G..XcXNX0XeXG..XOXc.[ [ l.F.F.OXlXNXHX>XD.[.eXJ.{.D.t.D.8XC.} ..N.`.D.S.4X6XJ.6.t.D.9.#.8.N.N.G.x.[.cX9X5XeXB.L.F.k.F.3.+.[ 8XN.m ;XsXk.X.h.[ O..X%X.Xc.c.c.l.+XBXMX#Xm + 1 1 6 6 , q | t.Z.A.{.}.[.[.m   q *.4X/.i.^.7X).).pXsX`.Q.Q.].'.i. XfX7X2X{./.a.3X).a.p.^ 1.u.:.:.L <.<.:.K L w.w.' ` e.^ h L L N *.K { >.K :.q.<.).).>.i.u.) p.6XN.q.V.2.] ] D Z 7.s.1.,.u.^.,.e.r.y.y.y.r.s.<.:._ f h V (  .' L j s A ) @.1.<.y.s.s.G <.V.K *.p.a.,XzXzXzX3XpXzXlXpX2XA.*.) ",
"t.Z.qX7.t.}.i.J.i.A.t.A.R.} J w.v.9XiX).^.a.^.<.<.<.u.s.3X>Xp.p.r.).2X6XqX1XZX2X).[.{.2X<X{.{.pX X<.s.).{.).^.2X{.pX).^.3X2X).p.).7.H.p./.3X/.{.q.s.1X2Xr.qX:X).p.p./.@.[.>XiXHXzXpXzXAXlX3X1X).1XpX:Xp./. XZX7X8X/.i.0.aXJX8Xx.V.h u 4 0 4 4 l h L h 4 4 W ^ 4 O q J *.s 8 G 7.( h , X b /.p.s.^.1.:.:.:.a.:X/.eX7X4X'././.2.N.N.{.| 4.^.^.0.0.a.q.0.p.0.).<X3XlXNXqXuXpXsXsXpXsXzXjXlX7X1X1X/.A.(.E.^.N.q.i.9XuX6X6XfXSXmXCXfXW n Q ,.>.8   * E.V 5 s S F ^ <.,.H.1XwXwXwXsX8X`.N.S.9X}.0X'.,.&. .A h G  .0.0.R.sXSXHXp.Z :.` 4  XcX X}.9XtX5.>.0./.[.Z.S.S.`.J.B.L.D.{.}.'.|.c.-.G.XX.XyX8X9.[ G.j.G.!.3.j.O.+.F.xXeX6XNX>X9.x.x.L.B.L.D.`.N.<XJ.9.9.2.3.9.6X>X`.Z.6.J.9X`...X.N.9.8.[.mX8XaX0XG.F.J.>X8XG.+.o.j.t.m _ mXnXJ.-.l.o.o.] } } O.-.l.j.].BXG.+XcX8.2 & < 2 2 , 9 p ,.J.| v g ..n   , K 0.:./ u./.(.2X{.kX'.'. XrX X{.1X9XsX X Xu.).7X,Xe.:.s.1.<.:.1.f.L L *.*.w.E.a.) e.1.) k L ) ) *.) :.*.^ 0.w.i.:.K u.A.<.:.s.2X:XqXsX>X X<XR.:. .,.7.0.1.<.,.,.y.H.d.y.p.e.<.1.) f.f f W ` ^ f.A j f.<.1.:.$.d.d.a.,.*.) K 7.p.qXlXzXzXpXzXzXzXAXNXlXiX Xa.",
"2.>XlXK.>.D.V.{.S./.i.}.S.I -.v.E.pX(.{./.i.(.:Xi.7.u.a.A.r.1.$.$.K.hX>Xr.:XwX>X2X>X[.'.}.{.1XiXK.:.s.(.(.2X1X XuX7X<.a.).^.).{.)._.i.)._.2X).1X<XuX2X_.7.^.,.7.Z./.H.#.Z.6XiXNXzXwX,X3XlXpXuX<XpXlXsX/.7.R.uX'.N.i.p.R.kXHX6XR. Xs u 7 4 4 y j K S t ; 4 S A - X e V * & $ # # # # $ = $ g  .r.:.( ^ i. X7X7X1X>X<XhXsX4X>.0.7.8.V.A./ u.E.).).a.a.^.uX7X{.7X7XuXhXhX7XiXlX7X<XiXhXhXuXpXjX8XD.E.V.<.*.{ 0.7XlXMX2X7XZXFX X].*.a a S ).7.5   * x...q V C /./.u.J./.2XpXhXuX<XdXaX9XtXgXfXaX4XN.p.0.( V G *.>.A.<X7XZXqXn W ^ j & /.yXnXvX9X~.8.2.{ 8.6X}.i.9.N.x.3.2.G.|.}.4XG.g.z.G.%XyXyXB.O.[ >.%.k.O.[ n.B.+.z.OX#X2.J.N.O.k.k.[ ] 9.N.x.S.6XC.9.D.`.9.N.>X>X/.S.6.N.4XaX4...2.B.D.aXKXlXqXeXL.S.|.wXaX8.3.P P ! p 8.9XeXrXG.l.l.h.+.O.H G O.j.k.|.aXeXeXeXcX8X2.d 2 q w 2 1 b q 1 2 p F g   q H ] >.&.H.:X^.^.).7X).'.nXgXfX X^.sXpXpX3X).7X3X).d.<.u.:.<.u.<.) :.:.' V E.*Xw.) 1.u.u.V N *.*.:.*.K { / *.<.0.{ :.).u.u.:.H.2XJ.,X1X2X_.).d.u.a.,.V.i.&.Z n G 7._.).s.@.$.s.e.1.) 1.$.' ` ^ L L ' A <.:.u.e.a.s.K.^.,./ i.1X_.).,X3X3X3XpXzXAXzXiXlX2Xi.i.",
"[.1X:X1XA.i./.:X{.).@XV.*.I 5.c.9X1X:X^./.s.u.^.p.^.^./.H.s.,.e.y./.7XpXsXH.9.`.V.>X2X{.<X{.6XpXy.( ,.d.r.p.1XpXhXiXp.A.).:XqX).(.(.2X3X>X).1X:X2XqX,X3X>Xd.p././.^.V.R.E.<XuX3XpX1X).(.1X:X/.>XNXlXhXhX>XwXkXpX{.V./.8X@X:.>.5XlXK u t 4 7 l K <.) j 7 4 W 0.o p 9.* # # # # # $ # # $ # $ 9 / ,.( V 1.(.A.1XuX<XiXsXsXgX/.N.<X{.A.A.>.K S.}.{.Z.[.}.>XiXiXjXuX<X<X<XV.7./.<XpXsXlXlX;X/.7XZ.{ F K / H 2.S.<XfXkXaX}.gXZXA.N F d 8 S / 9 2   & 3.G f b h | Z.[.>X>XiXqX4XD.7.6XsXfX4X}.7X7XJ.Z.`.S.7.#.8.2.2.0.{.kX7Xh u j S k O q.fXFXMX5XE.C.OXC.D.8...=.=.=.&.3.B.@X9X9X4XF.c.&X!.!.gX@X3.F.+X] [ k.k.c.G.M.F.l.O.] I X.O.O.j.o.O.O.O.3.9.<XuX`.S.J.'.`.9.}.S.J.<X#.8.Z.S.D.S.S.S.4XqXmX2X>XdXQ.|.D.N.3.} }.B.%.g F dXeX`.3.k.B.l.c.F.n.g.H 3.G.k.fXMX4X4XeXdXFXLXnX#.p 2 3 2 6 w p p b g X O 0 4.E.a. XpX{.).{.SXlX^. XmXZXgXE.^.rX<X:XuX3X:X3X_.s.y.) @.d.<.:.u.e.u.) 1.q.w.L ' ) u.<.*.s A *.) K G K ) >.q.i.| K.H.y.@.#.).2XH._.pX3Xd.K._.e.s.^.q.u.0.) G *.7.s.^.(.H.e.p.y.$.` e.$.y.` ( ) G ( ) :.y.K.K._.2X3XiXi.&. .V.2X2Xa.:XuXzXzXzXhXzX:X:X/.<X{.",
"1X1X).[.`.[.A./.:X{.E.4.} w.5.q.<X_.7.1.p.:Xu.7.a.(.(.<.@.<.u.u.y.^.wXwXlX:X9.4...t.Z.{.1X}.>X>X^.>.p.i.A.7./.uXpX^.i.s._.:X(.^.3XiXpXpX;X).pXuX;X3X3X3X(.^.u.1XsXA.i.a.a.1X1Xa.).uX).:X^.A.).7XzXzX3XwXzXNXlXiX7X/.{.5XdXE.8.<XiXu.h 4 t t s K &.K G j l f A O c x.e % * # # # X # # # $ d e b (.2X,.<.^.:. .:.7.Z.p.i.<./.7XsX7X{.7X{.i.aXkX<X/.<X>XpX1X:X1X1XiXpX<XH.(.uXmXAXHXAXlXhX{.V.i.>.{ / >.}.uXfXuXqXsXlXaXZX}.d b D b p g V g q X # F h s >.7.F #.`.8XqX7XaX4XH.[.8XiXsX8X(.Z.r.@.t.A.S.i.7.8.7.7.| V.jX) f f k j i   ) dXSXtX].].E.eXOXS.k.=.x.c.*.v.`.5XaXfXuX8X~.F.$XB.x.nX@X!.+XS.k.j.D.2.%.c.G.n.G.G.D.9X4XO.I P ] [ O.k.8XwXaX>X`.J.`.{.L.9.N.7.N.J.S.J.6X6X`.S.S.6X>XiXhXqXiXuXD.D.G.k.N.!.k.#.! u #.].6XG.>.G.G.g.k.F.n.G.3.G.@Xc.`.6.|.BXnXrXBX5XG.cXsXc & 6 p 8 8 w p &   O s *.i.3X3X).a.u.2XKX3X(.rX1XpXgXpXqXrXiX,XiXpX;X^.;Xs.` :.^.d.a.^.s.<.1.:.<.q.a.*.L ) ) w.A 4 A K K J ) K &.E.V.0.R.).p.A.,.e.p.J._.,X3X;X;X;X;Xs.<.<.A.E.0.2.>. .) ) ,.s.(.K.s.r.` e.$.1.$.' :.( ( @.:.@.@.( p.;X2X1X).H.y.( &.^.^.).pXzX1XpXiX3XlXzXjXA.5.} ",
"nXqX<X/.^.{.R.}.uX[.*.2.5.j.V. X).s.<.^.1XuX:Xs.s.p.u.s.s.H./.^.a.uX`.7.^.wXV./.:XN.V.2.t.:X;X^.d.(.^.u.a.u.p.<X{./.H.H.p.p.d.pXsX1X2Xp.a.).;XqX3XhXpXwX^. ./.1X1X^.R.E.{.pXrXhX(./.).s.:.).pX3XqXzXiXqXlXHXzXwX{./.7X7XuXMXrX^.qXu.^ t s C ) &.&.&.*.S y u - O m { G s & & $ # # X X # & 2 2 , 0.1XqX).pXhX). ./  .#.4.7.4X6X/.pX<XS.}.S. .0.uX2X7XpXNXZXuXR.rXmXuX{.<XlXlXAXlXlXZXjXjX<XR.N.V.0.N.`.5XaXdXuXkXlXZXMXpXV d d N d f p 9 s d %   J `.C.Q.S.i.^ F Z.jXsXhXhXwX6X7XmXmXaX>Xp.S.D.t.i.7.2.S.V.R.R.0./ S u f k k k 4   0 1XSXtXtX9X5XeX>X'.@X~.=.N 3.Q. X9XuXsXnXgXfX9XS.3.5X8XB.fX|.3.OXF.#.F F ! [ G.G.!.|.].J.X.] ] ] [ O.k.[.8X5X@XJ.N.`.2.] k.k.D.>XqXwX6XhX>X6XJ.`.>XjXhXqX6XsX<Xx.S.5.J N.OX4.g - f D.C.+XF.Q.G.F.j.3.O.z.n.B.|.Q.D.3.5.OXdX8XeXeXk.G.fXeXcX#.6 8 2 y 2 @       d w.^  XhX:Xd.:.2XzX^.a.p.p.^.hXhXhX3Xd.a.pX2X:Xa.s.) 1.s.p.` ' :.<.) ) 1.) :.<.w.'.) ^ ^ f > 0 K K ) *.4.q.q.V.E._.(.K.r.| e.p.y.r._.,X_.y.d.d.d.y.1.,.p.q.4./ >.,.1._ S W ^ ) ` _ ` $.$.` e.) ^ ^ ( ,.r.,.@.H.;Xa.p.^.;Xs.,.) ,.p.).hXAXhX;Xd.H.^ Z @.N b I ",
"mX6X<X<XS./.'./.<X4.3.q.v.=.].aX/.^.p.(.pX).d.(.a.i.u.p.<X:Xa.>XqXhXi.=.8.:XN.H.{.N.i./ ,.(.H.).r.pX,Xd.u./.(.:X(./.i.u.r.i.wXzX<X_.pX_.d.qX3XiXhX3X2X2X/.<.2X3X7XhXpX XuXpXuX<Xu.s.<.r.^ _ <.(.wXqXwX3XHXlXsXhX2X7X3X3X7X:XrX{.q.*.u.l f *.=.,.,.4.) A j u 4   9 C H C * - - * = % $ = & - - 5 h ).sXhXkXlXhXfXuXaX}.4X9X9X{.hXHXzX7X7X{.4.b p.Z.H.sXuX1X1X(.^.2X{.8.>.,.i.{.iX2XkXlXsX1X<X4X<X`.}.uXaX/.4XfXdXZXZXrX>.d c d b q q y 2 2 1 @   G ].`./.>.| C V Z Z qXmXaX}.4X4X4X4X4X/.4X}.4X}.R.`.N.9X4XD.Z.W j f p k f i 7 : o D @XIXdXgXkXkXrX8X}.].|.j.=.B.E.].dXdX8XfXfX9XF...-.0X0X!.eXB.+X|...F n | ! Q N.z.!.B.N.2.] 2.9.k.5.X.n v #.8.}.S.N.S.V.8.8.F.8X8X:X[.sX9X4X8X`.S.S.7XwX1XS.{.S.C.D.8.2.j.k. .u 2 ( D.O.S.S.].G.k.9.j.j.O.%.F.F.=.9.c.!.}.fXG.G.G.c.aXG.j.fXmXb $ 1 , @ .       e *.u. X3X2X Xa.u.NXmX2X7XpXpXpX(.y.1._ s.:X{.p.s.<.@.a.1.<.e.:.:.:.<.1.<.s.) A a.7X) ^ ^ f : * K *.w.E.E.R.q./.:X:X:Xd.,.$.| y.r.,.K._.;X_.d.y.s.d.s.e.s.1.,.:.>.<.( u i u g ) ` ` Q f.' $.$.W W S ) r.:.,.s.:XH.u.@.1.).<.,.r.<.,.u.e.K.wXHXHX,X:.5 - 5 F x.",
"aX<XA.{.7X'.<XN.*.4.C.v.0.5.=.[.(.p.i.^.).{.(./.H.(.(.).1XiXA.).hX7XA.:.2.`.8X<XN.2.i.i.).qX(.;X_.:X:Xp.A.(.sXiXpX(.p.u.#.K.6X>X:X3XhX_.d.pX:X3XiXqX,X2Xy.<./.2XiXqXiXiXlXZX1X^.u.A.r.s.y.) :.(.,X:X2X:XhXlXlXqX1X3XwXpXlXZXpXjX X:.<.A K 4.*.i.<.*.,.s l u -   8 8.| G 7 7 8 7 7 ; 5 ; - - : 1 * ) /.dX7X<X7XuXrXkXfXuX7XuX:XlXlXjXuX<XE.8.>.4.<X^.{.<X^.^.{.i.7.`.<XZ.0.N.i./.7XpXuX7XuXfXdXrXrX7XaXuX4XrXuX8XE.Q.0.c N d g d 6 y p s 2 , o   e 5.*.[.R.7.| ..n 9 / 8X4X6XwX4X`.N.6.p.`.fX@X5X@X'.Q.`.{ | Q s p j S j V S ^ 7 o ;.].JXmXdXAXMX<XrX8X5X].~.c.v.Q.@X8X|.OX0XC.G.k.B.9X#XF.3.F v F m a H k.6.%.m I +.N.N.N.>.O.X. .>.9.3.! c b m 8.}.'.<X`.N...S.iX[.t.H.qXqX9XuXS.>XiXwXwXJ...9.>.O...[ X.[ ..S 2 n ] ! G C.x.9.|.|.k.k.c.2...F.3.[ J k.G.C.F.Q.D.F.0XMXtXeX+XeXk.6 , @ .       O q K rXpX2X).i.u.:.{.zXuX7XpX3XzX_.y.s.` ;X,Xp.e.a.a.^.2X).^.d.s.e.` ' :.:.) W A ) a.^ ' L f 0 9 K 4.w.w.].]. XuXa.2X^.A.K.y.e.y.e.s.d.d.s.y.y.s._._.K.)._.` Q ` <.` V h G Q S _ _ 1.$.S k ~ ' ` ` ~ ^ r.y.7.,.d.,.i.2X,X(.u.K.e.1.( Z S C b @.s.Q c p i 7 *.C.",
"4X7Xi.^.2X X'.7.N.C.Q.'.v.q.{ ^.<X(.1.^.p.a.^.s.p.^. X:X[.A.1X1X:X<XH.7.i./.V.S.{.i.p.qX).;X:X,.r.a.(.A.H.3XiXiXpX;X^.^.r.s.s.)._.,XpX/.K.iX[.).qXqX,X,Xi.i.7X[.zXpXzXqXlXAXHXlX).a.e.<.r.H.r.u.J.:X[.H.).iXiXqX1XuXlXiX(.:XpX3XpXH.s.u.<.0.0.7.7.0.K k l 4 %   8 4. . .m i u u 9 i i t 2 ; 7 - * & q  .<X7X1X[.{.:XqXlXhXiXkXlXuX{./.{.`./.S.7.}.:XA.H./.<X}.:XN.{.jXwX7X8X4X{.pXpXiXuXsX}.7XuXfXfXkXkXaXrXgXdXQ. X7.G F b b d a 8 p p & $ .   b x./.R.`.>.&.p.6.G n ] >XaX8X`.p.A.,. .,.}.fX8XtXfX8.D  .S./.R.7.>.r.i.i.{.H.l + ;.5.MXJXdXZXdX~.].Q.F.b.v.-.z.F.~.C.!.@X8X9XD.J S.MX0Xc.O.b d n m O.l.G.j.k.#.%.F.3.6.[.6.3.t.2.! X.9.....[ F 2.B.`.9./ O.J / A.J.;XH./.7X6X:X[.6XwX2X7Xp.V./.2.>.>.6.X.>. .2 f ,.|.#.&.x.C.8.8.J.G.8.J.8X9XF.O.2.[ X.S.'.].'.l.F..XNXMXG..X5X8X2.X @ .       O e N ). X'.7X'.*.@.^.uX2X:XqX3X3X3X_.e.f.e.d.1._ e.) 1.).).:.:.d.e.1.' A W V k S ) *.' W ' j - s K *.w.Y 3.'.uX^.,.;X).s.y.e.r.$.e.d._.d.y.e.d.p.s.;X;X_.(._ 4 W @.K A ^ A ( _ A ~ ( _ ) Q S ~ 1.` ) ~ ,.p.s.7.r.1.^ $.7.u.) ( :.( C s q 7 1 , < 1 2 7 5 f 5.!.",
"9X7XV.{.<X Xq.x. X'.E.p.q.q.7.&.:./.(.p.e.s.,./.<X^. XhXsX7.i.{.{./.7.>.p.A.>X;X/.7.(.pXa.^./.) H.[.p.a.).2XqX(.;X).3XuXA.r.r._.(.K.2Xy.;XzXqXhXpX3X1XH.K./.(.pXzXjXlXpXzXzXAXzX3X1Xa.:.) s.i.,.K.;X[.:X;Xp.).<X/.pXhX>X).<.7.u.qX3X<.<.A 0.0.i.{.E.| V t ; >   : F ! ( ,.W a u u u u i t t t ; - ; 5 d &.x.`.`.8.1XjXzXzXiXzXzXiXkX7XV.i.<X6Xi.i. X>. .>.(.[.:X}./.<XuXsX7XuX[.}.iXsX7XS.B.+X}.fXkXdXnXMXMXmXZXvXuX:.| H C b d q 7 1 & $ #     w 2.N.<X7...{ ] ..! F %.`.6X4XS.[./.K.s.@.7.4XS.`.9XO.6.S.t.}.[.`.}.}. X2X`.:.y % Y ;.7XHXnXFXfX~.j.-.T ;.-.h.z.l.;.@XcX#X5.S.!.B.G.D.S.B.N.k.[ O.n.k.O.l.!.G.c.l.B.j.N.| t.G.2.2.8.N.9.| X.x.x.5.F.x.5.S.V.R.2.,.J.A.:X[._._.i.Z.i.>X1X[.S.t.2.#.! m ! | k./ i G 4.B.c.b.5.3.9.[.jX7Xt.'.iXaXJ.k.c.B.B.`.9XOX5.O.F.l.F.c.h.+.eX0X@Xh   o       . 0 ) R.{. XrX0.G {.7X2Xa.^.3XiX(.).d.e.' ` ,.A ' G S ) :.G ) 1.y.s.:.' ' L ' L w.^.E.u.A ' s 5 d ) &.K L q.<X:Xa.(.1X_.e.,.e.y.e.,.s.s.$.e.e.e.) 1.K.,X,Xa.0.h 9 A G K ^ G A ^ @.) _ ,.s.@.Q W _ ,.:. .>.:.G ( e.p.r.) F n Z ( u.a.r.,.( G G Z c p i 2 8 n O.;.",
"7X<X).}.<X Xa.`.R.1X X7.i.E.E.^ f Z ^.A.s.,.7.>.2XsXhXhXrXp.:.>.7.! #.u.i.(.2X^.r.,.A.pX2X<X{.(.>X3Xi.y.:Xp.).3XpXhXkX).K.p.r.p.H.H.:.e.pXpX,XpXwX:X:X:X:Xp.Z.7X<X:XzXpXzXAXNXHXlX1X2X(.,.r.s.^.K.A.:XH.(.u.<.@.,.(.;X(.{.s.^.:XhXsX^ A ' @.0.a.).7.q.q.s - > O & ^ @.8.N. .S k u f f y y y y i i 8 5 5 d ] K C ,.6.p.iXNXjXzXAXKXlXuX6XuXqXrX{.,.( V ( 7.p./.[.[.<X8.`.sXuX7XuXuX[.(.:X&.9XfX<XuXMXAXnXSXHXKXHXAX/.^ / C d q p 2 & 1 1 : X     0 J 3.lXjX`.9.7.>.9.k.{.aXwX'.8.[.J.t.i.r.,.t.S.S.6.Z.i.i.A.[.}.4X}.V.p.mX[.g 4 1 R j.>XmXLXkX0XfX#Xz.h.;.T g.v.~.!.tX8X].F.S.`.`.S.S.}.>XG.S.Q.cXOXO.F.G.+X$X%XF..X@XD.| %.t.9.k.`.t.H ] 2.k.B.C.8.9.V.}.}.}.qX1X2X;X(.1.|  .| ! H #.H.t.i.D.i.t. .!  .] ] k Z F G 9.F.j.9.3.D.aXaXZ.7.N.J.t.eX8X].+XF.B.F.Q.c.l.n.G.l.T +.l.B.9X}.2..         % 9 { >.^.uXuX0.p.pX).a.^.;XzXpX2X<.' :.d.e.j S ` ) e.u.<.K ) ,.w.a.' L K ' L :.u.) *.s.*.` V 5 0 &.w.K K [.1Xs.H.^.).y.e.,.$.$.y.y.d.<.` y.d.y.<.d._.;Xa.) :.) C c V :.:._ K J ^  .r.<. .( Q Q ^ / )  . .G g g Z ,.! @.r.<.s.d.H.H.p.d.^.H.s.s.$.h i p y C *.P ",
"{.jXhXuXrX X'. X).).{.rX2X X<.G V D V.(.^.d.^.p.:.a.sXiX^.i./.<.4.&.u.a.u.u.<.:.7.7.2X3XA.r.u.(.,X(.y.u.H._.iXlXhXqX:XH.a.<.r.p.(._.y.(.qX,XqXwXzX_.K.2X2Xp.).sXpXqXqXpXpXkXlXAXzX2X(.1Xa.p.^.^.>.6.(.).A.t.1.1.@.u.H.).u.<./.ZXNXuX_ _ :.( @.7.7.q.v.v.v.7 : > % ..:.`.R.>.i.7.W k u f k l a g ^ V f u 7 8 ; s &.V V ,.pXAXAXHXKXhXJ.:XjXiX X{. Xu.( u.^.A.(.:X:X}.7XwXqXuXwX;X7XeXNXhXZ.sX>Xp.uXNXSXAXhXiXNXJXZXe.G Z d 7 7 q 2 2 2 2 * o     5 J N.N.uX'.5.S.C.S.4X7XfXlX<Xi.S.`.A.p.7.<XaXaX{.p.7.@./ 7.[. X7XgX8X<X7XC 7 % 1 T 5XnXAXIXMXeXOXg.g.;.;.T g.U.#XdXNXaXQ.x.4.=.8.#.2.4.S.S.9.8XNX.X0XBXcXcXxX%X$X|.+X4XeX....N.8.>.J.t.9.4.3.C.8X>X`.{.<XqXuXhXNX3Xd.1.( n b G H [ | N.J.V.`.A.D.#.#.| #. .f ! ] 2.Q.x.H [ 5.k.S.6X>X9.| 3.| J.aX6XS.L.C.B.5.c.B.c.h.l.h.o.c.c.x.].tXA         % N ,.*.:. XrX1XpXpXzX3XK._.;X_.a.s.;X;X2X) ' u.).^.).d.<.) K N L ` ) K *.^ *.u.*.^ *.) K w.V - 0 ) q.<.7.H.u.a.K.i.;Xs.H.(.y.$.e.y.@.1.1.) <.p._.K.;Xs._ ,.<.) :.` C V :.1.,.) A N ,.u./ W Q ( ` / &...| ..&.:.( G | K.[.H.r.y.H._._.p.K.;Xd.p.1.h y f G m ] F.",
"<XjXuXrX@X'.rX2X1XzX2X2XpXu.K A N ,.7X2X).qX>X:X(.<.).<X^.).^.(.^.,.0.^.{.^.u.:.:.p.uX>X{.u.a.1X).u.r.H.s.^.iX2X:X:Xu.p.u.,.y.^.3X:Xu.p.K.2XqX1XzX2X7X1X2X:XK.:XuXiXzX<X{.<XqXpXhXuX/.qX).(.,X).e.#.(.,Xd.,.,.y.H.:.:.u.s.u.^ <XmXHX:Xa.A.A.7.8.N.5.C.k.x.C 0 # O ] 9.V.V.Q.`.R./.,.Q j l y u f ( _ W S f 8 7 s s y j h S ,XlXlXlXlX4X<X7X7XZ.p.Z./. .C 8 0 C }.1XuXjXsXlXNXwX6.#.;XlXwXhXwX/.iXhXfXsXfXiXwXmXNX`.v ^ C g 5 2 p a 2 1 2 & X     & D 8.i.iX<Xx.}.9X{.{.`.>X7X6X|.|.9X'.}.{.qXp. .! s.;XA.H.H.i./.7XDXMXnXp.s i : + ;.cXSXkXnXDXcX5XF.+.h.l.z.l.W.8XnXNX`.9.Q.j.H -.=.[ 8.}.9XtX8XsXnXnXnXnXcX0X+X$X].t.t.r.6.>.>.@.@.H.`.S.S.`.4XuX[.qXjXsX1XwXNXzXp.e.@.C m m H 4.t.`./.i.2.J.2X`.#.i.t.O.( m ] ..3.B.B.=.&.8.N.L.k.L.3.! ! X.8.}.8X9XC.j.j.O.j.h.j.c.k.[ 3.~.5X#XnXDXt.        & b { / / i./.pXzXlXKXNX3X;XpX3X).;X3X).s.:.).pXqX).d.1.) ^ ^ ) *.' ) ' :.*.u.<.) _ :.*.<.a.V 4 * D K E.V.0.u.).:X3XK.@.,.s.H.s.y.u.@.$.1.p.r.,.u.:X;X,.a.K.@.@.:.*.&.) ^ :.,.*.*.A C Q ) ^ S ( ^ ) &...2.2...G W A.,XK.H.s.r.d.1.e.u.u.y.s.;X(.#.k u f ( | H h.",
"sXiX9X X/.pXrX2XhXlX).pXpX^.4.K K [.iX:X<.(.:X,X{.^.p.a.a.:XH.^.<.) &.a.:Xe.) ,.:.7.:Xi.a.e.r.p.).,Xa.,X2X,.2XqX2X3XH.i.u.s.,.:XlX:Xu.H.,X:X;X3X:XK.)._.[.1X:X1X2X).sXiX3XpXsX1X).1X_.:X^.<X7X;X6X2XH.p.p.r. .H.uXs.s.:.s.,.*.i./.sX7X/.<XA./.S.R.x.q.N.{ K N 5   F 7.B.x.Q.{.S.S.{./.i.| S f f ( ^ ~ _ Q u u i y u 9 9 p 8 f ^.HXlXpXsXzXiXrX<X/.4.4.7.>.G c ! >XjXNXhXsX1X7X6XS.[.qX,XuX:XsXSXhXmX6X'.6XsXjX2.e w F n e 5 2 9 f 1 - 1 - X     % x K V.uX7X/.<XuX<X/.Z.uXMX{.N...{.9X4XS.] ( _ ~ r._.:X[.a.(.:X<XZXFXrX/ s 2 : % *.'.[.7XjXsXdXtX0Xz.XX&X%X+X5XQ.'.{.`.S.'.Q.z.b.U C c J 9.D.4XrXBXaXS.S.B.eXfX8X`.>.@./ ( #.6.#.! ! @.8.S.N.wXS.>.{.qXuXuX3XpXH.H.:XH.,.H ] 4.V.[.>XwX}.Z.2.x.t.C 8.8.N._ _ N.3.N.F.~.N.3.j.c.k.3.] ! d D [ 4.+X>XG.G.c.x.|.j.U J v b b X.F.OX8X+XeXMXQ       - J 4.G { ,.&.:XzXNXKXlX3X;XpXzXzXqX X2Xa.<.^.^.a.H.u.1.:.:.q.<.:.*.w.u.1.A *.*.^ <.<.<.).sX) * > 0 K 4.A._._.H.K.H.7.@.e.t.t.A.y.y.@. .^.H.u._.;X(.y.d.).:.:.<.*.:.,.>.*.^ ) 4.2.^ ^ C Z ^ S m b ..0.i.x.5.7.@.$.K.A.H.p.#.H._.) r.y.e.` 1.d.a.Q W f ! >.7...g.",
"SXR.N.<XNXAX2X(.3XzXlXZX}.0.4.{ i. X,X^.,.).,X_.<X:X(.).H.^.<.7.0.G ( 0.<.( ,.i.a.i.^.a.<.( @.r.<.^.:Xu.;X(._.2XwXqX1X_.H.p.u.2XlXp.p.3X3XqXwXpX1X/.[.[.p./.2X2X1X).<X:X,XsXsX3XpX<X).u.V.(.(.<XwX;Xp.(.3XpX)._.).(.).{./.<.^.E.7.{.4X(.}.}.S.N.V.0.=.>.G N N 9    .8.C.Q.].'.{.>XV.8.i.N.i.,. .n W <.r.~ S h s s s S G V q 8 8 d.lXlXHXIXKXNX1XS.R.{.{.{.N.>.C F {.qXwX>XiXSXtXeXlXiXZ.1.( r.7.>.H. .q w q w w r 0 b h q 9 s b f 1 & 2 % .     X 6 / V.pXmXiX1X).<.,.i./.{.y.S j  .i.S././.i.p. .@.p.H.:X3X7X7X>XZXjXH K c 0 % & N.2.Z.eXnXMXBXvXOXM.*XbXxX%X#Xx.x.9.k.9.8.F.$X~.O.] D p C D.C.|.9XnXNXG.G.+XG.aXA.| /  .! t.H.( @.8.9.>.| F N.] / H ] t.N.qXzXqX[.V.J.H.7.2.4.N.S.[.[.S.x.9.=.] ..i.N.eXS.8.`.8.].+X|.c.C.@X].B.2.H m d ! [ 5.9.r.D.G.`.S.C.j.O.D D [ I D [ %.O.%.D.fXaXy   X 9 G V.2.2.*.>.V.3XzXKXzX,XzXzXzXpXzX3X3X).a.^.^.d.e.<.:.1.*.:.) :.u.d.u.<.' k ^ ) <.u.a.u.u.:.; X d D <.H.^.H.u.7.1.#.s.r.e.r.s.A.H.H.^.<.r._.2X_.,X(.H.a.u.7.u.a.*.:.,.,.*.) >.7.*. . .K f / @.` :.8.N.9.8./.:X:Xr.y.e.s.r.(.p.1.y.H.s.s.s.d.:.W m W 7.0.&.[ z.",
"i.p.{.AXzXqX2XpXNXAXHX<X] K / *.R./.Z.^.:X:X,X^.e.(.s.r.u.^.r.^ *.^ ) &.@.a.^.a.^.a.(.p.,.^ @.e.1.A.2Xd.,.).y.u./.qX1X2X).a.s.hXqXi.a.).hXlXhX3X:X:X[.J.:XiX6XqX2X2XqX3X(.).pXpXpX7X^.0.{.^.1XpXiX).1X2XlXNXzX2Xa.iXlXsXaX/.}.5X`.uXuXkXAXNXhX}.E.E.V.( V C L 5   C x.@X9X8XuXrX8X/.8.i.Z.7.V.i. .7.7./ p q 9 5 5 c >.0.4.&.,.@.Q @.i.NXHX).| e b N.}.J.4X8XS.0...9.aXnXkXdXdXC.k.4...] v q r $ $ < < $ < < < < , 6 e d c n h j p 2 - % X O O     5 D p.,./.lX2Xi.A A :.G n j n S n c A i.D.`.9XA.u.>X(.pXSXKXJXAXMX>.b b d 9 % 1 < M S.aXcXnXJXFXvX%XyXCXVX&Xb.G.W.F.].b.~.+X$X!.c.x.5...G ] N.eXcXnXMX0X5XG.OX}.i.Z.N.i.7.i...( 2.8.N.S.2.`.7X2.8...D ] i.qXsXwX:XS.8.S. .#.A.t.D.'.D.x.q.=.2.8.i.x.i.#.8.].@XC.OXOX5.O.3.F.G.k.k.H b G ! ] 8.%./ O.8.>X>X| c.3.[ =.j.[ M c P %.3.>.D.cXeX. & q J E. X].V.E.H.^ ).pX).:X7X).pXsXpXpXiX).a.a.d.e.:.` :.' _ *.) :.:.<.1.<.:.) ` :.<.w.e.a.<.:.- : N  .a.^.;Xd.^.7.@.t.7.,.A.u.7.:XK.A.s.>.p.H.p.a.3X,X7.,.,.1.,.<.<.u.<.u.r.:.<.7. .:.>.G Z ^ ( ( ( @.2.8./.<XpX;Xs.p.r.,X:XA.y.A.(.K.;Xs.s.` V ) ( / p.`.2.x.g.",
"w.mX7XhX3X2X2XlXZXjXqX:.K K K 2.'.jXjX:X2X(.H.^./.(.A.p.H././.7.{ ) / / ( *.,.i.u.i.u.^.p.) u.<.:.p.1X/.u.s.,.<.u.(.2X2X).<.s.qX>XH.3X/.wXzXiX2X:X1X:XK.:XuX6XwXuX2X<XuX1X7X1XuX(.{.^.7.:X1X3X1X)./.(.>XiX_.3XsXp.rXJXCX4X5XaXuXkXhXjXNXHXKXAXdX<.7.x.G g c B *   g R.}.8XuXpX7X<X<X}.{.S.i.Z.^.}.{ w , * & , , * 5 C >.&.^.A.*./ C C K b 6 r 0 e h ..<XuXnXkX<X2.v N A v m M b w 3 r r r w 0 < < , $ $ $ $ $ $ < w e a Z d 7 h p 5 $ o X X       , b { m m ^ Q m C K | c d h b v V h 9 6 p m { 8.Z.hXsXlXAXrXR.8.x.J b e w 2 # 9 e x P O.L.OXMXFXDXcX%XCXCXxX%X.X%XF.W.OX%X#X$Xb.C.3.=.=.2.] x.+XXXeXnX+X.XXXc.7./.Z.:X(./.7...../ ] 9.`.>X4XJ.t...2...H /.>X[.J.9.=.X.H.;X(.H.[.}.[.C.3.9.B.V.`.8.] | ..k.@X!.~.Q.x.-.5.2.] 3.j.2.4.J I O.[ 9.k.%.X...%.O.G.!.F.-.+.[ J J o.-.n.M.j.5.8.#Xm . e C &.E.'.q.A.,.^ <.<.^.2X) <.3XzX3XqX7X3Xs.1.:.' u.e.` ` :.) :.*.) <.a.<.u.u.:.<.:.u.s.r._.u.> % V 4.$.a.2X2X;X_.p.t.p.).)./.u.H.A.p.r.s.p.e.H.:X,Xs.^ @.@.,.<.y.K.K.d.s.u.d._.a.2.&.*.K K h c C v h C | <XuXiXqXA.,.H.2X:X,.).;Xd.:Xy.e.( W ( ,.7.>.[.6.] F.n.",
"lXAX<.(.hXpX).^.{./.&.I H ] I H 7.uXuX).{. XA.{.3Xu.@.:.(.qX:X/.<.) ) ) @.,.<.^.^.i.^.^.<.) <.r.r.i.(.a.(.A.p.H.^.^.;X>X[.p.).<X,Xu.^.:XiXqX3X(.;X:X;XH.:XzXhXsX1X1X).^.).pXhX3XiXiX/.:.).pX)./.A.(.2XpX2X{.wXkX8X`.gX4XV.S.{.mXHXAXZXlXKXHXHXkX_ S <.W g C C *   s q.8./.}.{.{.>X{.[.}.{.{.V./.i.1 $ $ $ , , 6 , $ 9 / ) ) w r q e q , * = r 0 x b e H >X9XS...! F c b d b b e r w 3 r < w < $ $ $ $ + + $ $ $ < q 9 a g 2 p f y 2 % o X X       * q b p q 9 0 9 6 q c h e 0 9 9 0 , 1 5 1 1 6 6 F { 8.V.5.C e v J R v w 1 * + w R M B X.h.&XXX0XZXNXcX&XxXCXyXG.&X&XW.$XyXyXyX$XU.F.].~.}.5XaX#XG..XG.9.O.c.O.6.qX7X<X{.<XS.7.D.8. .N.>X>X7X6XN.2.[ 9.4.D.S.2.O.[ ] X.t.H.r.t.Z.`.}.S.C.D.J.S.8.8.2.t.t.B.N.x.!.].!.G.C.3.J 2.k.3.O.5.C.B.O.8.k.O.B.D.9.O.3.3.2.k.b.j.;.+.j.m.&XVX&Xn.l.%Xn.# h G q.0.q.i.kXuX^.u.^.7Xu.<.2XzXhXzXqX).).2Xa.) A 1.u.<.1.<.) :.:.:.:.1.d.a.u.u.<.:.:.a.3X2X:.* N :.s.d._.;X2X2XqX:X).(.(.).>X;XA.p.p.y.i.d._.2X2X/.^ ^ 1.s.u.a.)._._._.H.d._._.p.,.4.4.V.*.F { >.{ *.F ^ ..( s.J.H.,.(.p.r.s.s.;X:X;Xy.( ^ ,.<.( Z u.A.i.i.W.%X",
"pXNX7XsXlXpX7X .G  X0.{ K F N G rXlX1XiX^.R.<X<X:X^.e.@.r.qX(.{.A.) *.>.,.r./.R.i.a.).p.<.s.p.r. .s.(./.H.d.u.u.d.2X2X1XuX,XhXiX2Xp.3X1X3XiXqX(.).:X:X(.1XlXzXzX1X1X3XuX3X<X2X1X2X>Xu.i.uXiXiXpX).u.).qX).3X4XjXSXgX@XaXu.8 ) iXAXKXlXAXPXIXJX^.j f.W A S ) N 1   - C ( {.7XuXuXkXaX6X}.>X7.Z h 0 = # # # * , r , * $ d / x r < < < < < < < = < , r e w d 9.J.D.9.G N b e e e < < 6 < < $ $ $ # + X + . X + X + $ < q d a f 2 y y 2 % o o X       * q q 5 5 5 1 6 5 , , 5 - 1 1 * , , 1 < 1 5 5 6 , w w 6 q d e e w b x w < & X b T T h.h.M.n.n..XS.cX0XvXBXCXbXXXyX%X~.xX$XvXDXyXtXrX0X9.V.5XaX0X#XOXk.7.L.#.! Z.2X{.<Xi.4XqX2.N.8.i.[.`.Z.S.uXdXD.N.N.[.iXwX`...| S.6.O./ $.3X2XD.B.B.}.8X8X6XJ.N.8.`.[.D.#.| ] +XQ.! C =.2.O.3.....B.F.-.U K L.D.`.}.9XN.[ =.-.j.j.-.l.b.l.c.&XxXXXn.XXVX%Xe e K 4.A. XR.qXNXsX X).2X^.).zXlXNXlXpX).a.^.s.u.:.^ w.<.) ) :.<.:.<.:.e._.d.d.a.1.<.:.2XlX^.f.s K <.1.1.K.pXNXzX,X2XpX_.s./.r.r.;XH.p.A.r.2XpX3X2X` ^ u.a.K._.;X,X,X_.,X,X,X,Xd.s.( / 5.q. .^ J K J I D d b  ...,.e.p.r.e.,.Z.s.K.;XK.r.n :.p.*.A g ( 7.<.c.*X%X",
"/.mXAXmXhXsX^.*.{ q.=.K J N w./.nXpXH.,.,.:.a.^.a.,.a.p.s.u.i.i.7. .,.u.i.:X:X,.R.2X^.^.p.u.r.u.>.p.A.(.(.p.u.s.7.:X1XpXhXiX1X2XK.H.wX2XH.2XlXwXpXpX(.Z.2XiXzXzXsXhXqXsXhX2X1X7XqX3X7.).hX1X<X X).<.pX<Xu.H.^.{.7XSXgXrX( / 5.kXZXAXAXHXPXKXa.h k S f.W ' V C 5     y 6.,.p.e.,.p.,.r.) A h S h 5 , * $ * $ # = , = = $ w w 3 r 3 < < $ $ $ # # + $ $ < r 6 c K D v d 0 6 & , = = # # + # X + X + X . . O O O X X = 0 5 0 s * # > O O   O : : : > - = > > > > > # % = X > O > > > # X O X O X X X # # + . # & , 2 6 3 1 , * # + M h.T.oXT.U P h.I.P eX0XnXPXJXJXcXBXDXbXvX%XnXFXfXyX@XS.3.].9X0X%X+XF.N.`.`.[.6.H.[.i.r.>.N.7.>.N.>.i.S.N.p.R.wXMX`.[.].6XjX8X>X9.J.:XH.t.! ( A.p.D.{.L.D.{.eX>X[.N.>XJ.| N.D.8.! W F F F =.c.O.5.k.N.k.5.O./ M O.G.G.|.>Xk.x.G.~.O.[ F.b.c.XXc.&XXXM.%XxXyXxXn.N J 2.'.1XA.kXPXJXZX:XuXhX:XsXAXKXNXhX2X_.H._.(.a.u.,.:.e.e.1.e.u.<.s._.;X,X,Xs.e.e.u.^.;Xd.` ^ ) :.^ ^ ,.qXhX).d.,X^.u._.p./.H.).:X2Xi.<.K.pXzX3X` K._.K.K.;X;X,Xy.s.,X3X,X3XH.1.@.1.( ~ Z m m V h s 5 7 q q G t.! ! ( #.Q #.(.K.,.( j e._.p.1.G V ` y.(. X].~.",
"A.uXkXpXlXrXE.E.0.&.2.K D K 9X9X<X7XpX/.,._ ( a.).s.( :.<. .` ^ ( :.u.p.(.3X^.i.{.2XH.7.s.r.1.A _ i.i.K.{.2X/.A._.a.2X^.A.pX;Xp.[.;X(.:X,X(.:XpXiXiX3Xy.(.iXlXiXzXpX;XiXiX2X^.2X<X/.i.^.:X:X/.a.s.uXpXuX(.(.(./.u.rXMX2X^ q.5.aXZXAXPXKXNX2X<.` f.S f.f.^ ^ b 0     % S _ g 8 8 9 8 5 - - * q V s s e $ & * 1 , = = = = < < < < < $ $ $ + + # # + X # # $ $ , , r 1 $ X         . . O . . O O X . X . + O O         O % 9 h ^ 1.H.2XpXqXpXAXSXSXAXhX X{.). XE.V.*.V C 7. X X0.K K *.0.q.q.7.,.G V g e d h q 2 $ + + $ % o % X # I.M.T.M.oXh.I.h.X.h.X.[.nXHXwXPXFXcX0X0X0X0X@XG.C.S.k.|.@X#X!.MXcX+.D ] D.t.i.N.H.r.2.>.>.7.7.i.4Xi.i.6XD.`.Q. XQ.{.8XeXaXmXuX6X>XJ.H.:XH.t.m n t.|.D.J.`.L.N.8.F | S.t.m Q  .| a , ! +.k.2.%.] 5.S.B.k.3.3.9.O.9.O.L.}.eXk.eXOX.Xz.v.XXG.c.b.XX0XoXxXVXVXM.VXxXU.N 7.v.q.R.lXJXHXHX7X{.^.<X_.(.).2XiX).d.s.u.r.r.<.<.s.d.y.e.K._.s.^.a.e.s.a.y.s.d.a.e.;X_.<.) A V h s s _ 7.(.2X).u.).1X).^.(.^.s.<.:.H.3X3XqX3X;X,X,X3X3X_.d.;XK.;X_.;X,X2Xy.@.` ` ` ( W ! ( /  .....| G C q C Q h n ~ r.s.r.s.Z n <.).^.u.( V s _ s.).H.^ E.",
"V.0.7XpXkX@XE.E.=.5.Y Y *.E.rX'.A.i.p./.p.a.^.(.a.H.,.u.7.A Q A :.7.p.^.2X2XH.s.s.s.i.1.i.^.s.) A @.H./.H.[.).A.).J.,.r.a.^.1XA./.:X3X3XpXiX,X3X;X,XzXsXiX2XhX:X2XpX1XsXqXiXqX(.,.^.a.{.qXpX(.1XkXlXiX3X3XpX).).u.^ i.:.h *.;.q.v.{.hXlXiXa.a.u.A f.k f.' ) G 0         1 w w w w 9 s V A S h d 9 5 q 9 , 5 r 6 < = # = $ # # # + + + + + X + + + + X X X X X X X . - ^ >.( V e 0 , & $ # % X O .       X # p _ A.^. XZXKXPXIXUXIXUXPXPXzX2X2X).<.u.{.2X X X@XaXMXMX X XFXFXfX$X@XgXgXtXrX8X@XQ.9X XR.@XfX8X5X0./ c +   O     . U I.M.-X-XT.0XM.M.l.P j.sXaXmXIXcXvXMXfXfX|.#.N.].8X0X8X@XyXQ.vXnXj.D.8X`.N.`.qXiX[.p.N.i.i.}.N.V.J./.{.4.R.'.C.`.kXdXwXnXnXnXuX6XeX7...#...m n ] [.D.|.t.%.G.uXA.J.S.| m g u 2 f O.3.3.O.2.k.k.>.k.N.3.9.N.3.O.k.B.j.eXS.3.OXOXB.c.G.b.b.F.W.XX%XbXbX%XG.M.+Xn.;.J 4.E.E.(.sXAXPXzX( ,./.(.H.1. XpXs.) <.d.).K.1.1.e.K.;Xy.d.3Xd._.a.a.s.` u.u.).a.` d.^.:.u.' h s s s 7 c 0.2XH.<.a.u.2X,X).p.:.) ,.i._.,XpX3X;XK.3X3X3X3XpX,X;X,X;XK.;X1.1.` $.' ~ _ ~ Q @. .| ..:.7.,.<.r.,.,.i.(.V./ A | #.:.,.:.u._.s.<.:.V h :.<.d.r.^ *.",
"{./.'.sX#X'.v.v.E.E.*.;.;.rX XQ.7./ &.7./.s.s.u.7.,.,.a.G Z | A / ,.<X1X>XsX1Xs.,.u.s.^.1X^.^.a.p.@.{.qX/._.(.y.2Xp.@.p.).a.{.^.a.(.wXlXiX2X:X2Xd.s.K.qX:X3X7X[.iX1XqX).iX3XhXiXH.uXpXpX1XuX:XhXlX1X2XiX).qXqXH.u.<.<.:.h 5.5.b.0.<XiXzXqX^.e.f.W f.' W f.` K 6         + $ < < < < < 0 e / c 1 , 5 q 8 1 1 5 r r = = = = # # X X . . + X . X X X X + X .   O : % V ZXLXIXUXIXJXZXkXfXjXMXZXmXhXkXiX2X4XuX}.rXkXmXLXJXAXJXAXSXSXJXzXmXAXHXsX(.4.) <.) ) <.<.E.uXFXPXLXfX*X Xw. XFXlXE.4.4.>.V.'.5XtX<XV.@X9X].'.}.B.C %     .   x M.M.xXVXM.M.xXM.l.P.M.wXIXIXBX5XvXvX#XQ.i.c J.mXvX8X9X'.@Xx.B.+XJ.D.C.!.}.>XwXkXwXJ.Z.{.`.:X`.Z.Z.] 4.2.q.Q.C.N.S.@X8XsXnXdXeXJ.[.Z.x.D.9.! O./ 7.k.2.F ! t.|.eXeXJ.Q | ! g Z %.O.X.%.X.>.B.].N.3.9.k.S.S.D.3.F.|.L.D.S.l.F.F.l.F.G.c.XX0XOX.XXX%XOX-.#XM.M.XX&X3.E. XR.{.iXjX3X(.) V ( i.'./.uX3Xr.a.:X^.).;Xa.$.s.K.d.d.3X;Xu.^.u.^.^.a.).).s.u.).zXu.' ' E d V C V h h a.:Xs.a.d.).a.( i.p.7.<.s.a.<X_.,XH.d.y.,X,X;X3X3X3X;X;XH.;Xy.@.1.1.@.` ` _ ~ Q @.#... .:.7.H.r.a.H.s.A.2X[.| 2 2 g | 7.y.e.y.d._.a.:.V @.s.K.S. .4.",
"E.).sXgXw.^ h F v.z.w.E v.rX'.4.S. X0.) 7.p.u.[.(.i.@.A V / &.^ >.:.H.pXqX;X:XH./.fXa.u./.{.A.r.H.7.:XwXqXH.t.Z.wXd.a.:Xi.u./.7.p.A.lXzXzX:X).jX,Xi. .).2X2X,X[.2XiXpX3X2X2X:X2Xp.a.:X1XhXzX1X^.qXiX1X:X2X2X:Xs.p.i.7.( N v.w.v.~./.7Xu.^ p.<.k k ' ' f.' S h ,           X # $ < $ < $ $ < 1 < * , = * & % $ * = = r r = = > > + . . . O . . . . . .   o 9 k f.` lXJXSXHXSXGXJXLXFXnXZXSXLXKXPXPXLXIXPXFXuX9XdXmXPXJXkXuXsXhXlXuXE.rXAXlX/./.^.E.^.<.) *.^.sXSXFXZXAXKXUXpXh A K.| H.tXtX+X'.#XyXcX5XrXyX].B.S.B.5.] v o       3 T m.=XoXP.M.oX0XP.I.P.eXUXPXeX#X!.Q.OX+X'.9.8.].N.9.| >.[.9X|.Q.7.X...].}.8.p.A.qXJ.K.p.6X:X9. ./ 7.@XW.v.$X$Xk.7.`.fXrXfX5XjX8X|.>XJ.`.O.%.k.%.#.9.O.i...] / ] 9.6.g ! 9.%.X.O.3.3.6.B.G.Q.B.>.3.L.S.{.G.>X+X#X.X].`.F.OX%XM.M.#XG.z.|.N.k.c.G.%XxX$X%XxXVXbXn.;.'./.'.lXlX7X^.p.s.r.r.2.>.{.0._.).gXsX^.d.a.u.1.y.d.y.;X3Xy.u.d.:.<.3X<.<.).d.;XpX2Xu.` j s 0 V *.^ G h ) >.u.).u.<.:.7.i.p.7.,.<.A.zX3Xd.K.;X_.a.p.<.p.3X2X_.H.d._.K.1.A.p._ e.e.` _ ) 1.,.t.r.s.p.s.s.s.r.d.K.K./.J.A.2.=...i.K.s.s.d._.s.<.G _ y.).|.5.O.",
"1XrXZX^.G s K w.;.;.*.z.yXrXrX9XuX9X`.4.>.i.(.p.s.s.>.K 2.&...] >.,.>.i.H.H.^.r.E.tXe.<.i.s.(.^.A.Z.Z.1XH.p.H.H.^.p.r.r.7.p.A.( p./.uX3XsX2X,.[.wXD.F y.2XqXiX_.1XsXwXqX:X/.[.^.u./.1X1XiXsXsX:X).<X2XpXlX_.u.H.s.r.7.( Z 0.~.R.9XrX,.:.^.iXa.f u k W f.' f.V *             . X $ + $ $ + $ $ # $ # % > # % # o > > # # > O > > .   .                 1 j _ ' l (.AX2XrXlXAXKXJXgXnXmXsXlXZXSXJXHXHXJXSXsX7XlXSXIXIXAXlXsXhXlXgXE. XJXAXrX).E.V.^.E.a.q.i.rXmXgXpXmXAXpXpXZXrXK 2 f Z S.`.}.].#XvXbX#X#XE.C.C.0.=.=.#.D 0 X     $ M P.-XoXM.-XoXxXM.h.P.BXPXHXnX0X0X9X9X|.|.G.N.+XD.S.9.G j / OXx./ | k.4X'.#.! N.4X[.1XA.<X1.A G @.E.!.m.v.-.2.S.Q.0X@XeX0XcXfXaXD.(.| j.B.N.5.`.6.| Z.[.J.N.8.3.>.W Z @.2.9.N.>.2.x.G.|.4X@XB.9.x.G.[.J.G.eX9X8X9XeXL.l.F.%XcXcXvXOXOXC.H 3.C.G.%XBX0X+XbXVX%Xv.*.^.dXSXmXiXhX2X_.a.$.u.:.&.a.<.A ^.ZX'.s.<.u.` 1.1.y.y.s.1.1.s.^.:.<.).1.u.a.;XpX3X_.<.:.L 4 C &.*.*.A g u f S @.:.) u.a.u.>.:.,.,.^.iXqX;X;X,X(.H.d.s.y.d.s.1.y.r.i.p.$.$.` ` y.y.' ` ) 1.H.:XK.r.J._.a.y.t.;X2X,X_.A.J.(.p.:./ 1.s.y.e.s.u.:.A ` e.A.#Xc.g.",
"V. X4.*.{ ;.v.g.v.;.g.@XlXuX<XqXmX'.x.Q.D.}.`.H.^.) :.i.q.>.7.A.0.7.A.K ,.).7./.q.uXu.,.,.a.uX).t.r.K.[.H.J.e.A.H.A.K.i.>.i.H.7.u.A.uXhXiXwX7.{ i.] G u.).{.^.}.qX2X1X>X7X).<X^.p.iXsX(.a.:X:X3X2X:X_.(._.<.r.a._.a.>.,.p.C.R.<XuXkXrX XgXlX:Xf.i u ' ' ' k l -               X . + + . X X X . O o + + X X . X > > % % # # = > X X .           . . & ) ' f.k n V.dXkXgXlXSXHXMX!.fXKXJXmXgXmXZXKXPXSXmXlXJXIXPXAXkXaXrXpXZXSXuXq.7XAXlXlXuX^.R.'.'.~.V. XkXpXrXgXlXHXJX2Xa.).fX| p y A i.8.C.+XvX].`.q.F 9.8.3.>.=.] G b @     & U M.-X&XM.0XM.oXoXP.M.DXPXKXcX+XOX0XaXfXOX4X+X#X}.N.G.H b } !.F.H F k.8X@X9.! /.[.1X2X| @.| ! ( 6.`.Q.&.N...8.9X+X#X+XG.8X8XaXnXiXH.#.G.4XJ.eX6X| %.N.>X`.>XS.t.t.m | 8.k.3.3.B.k.5.B.|.].D.B.9.L.J.S.}.{.[.D.aX4X3.-.l.c.G.xXcXcX+X+X5.3.j.F.#XBXBX+XOX#X0X6.5.| /.lXlXjXzXpXuX1X).<.Q @.<.:.<.<.u.uXp.:.:.:.` <.1.1.1.s.y.1.e.a.e.^.<.) :.<.s.:Xs.d.;Xe.' 0 *.Y / V s f f h k l s f.^.>.,.i.:.i.p.,X3X;X_.,XqXy.p.y.,.,.:.) ) ,.s.r.#.@.m W ^ $.$._ @.,.s.u.p.K.K.).;Xp.y.K.;Xd.d.p.y.i.^.:XN.>.i.,Xd.y.y.s.^ G ` @.<.].^ ..",
"E.'.L K E..XE.w.U.v.v.lXlX7X7XpXlX#XyXcXc.v.!.{.^.:.:.r.p.Z.7.7.i.>.0.:.8.A.7X7X<X2X^.1.:.^.7Xa.Z.(.J.p.r.t.p.J.K.[./.s. .i.(.<.u.(.hXiXqX1XH.7.{ / ( #.<./.A.:X:X6X6X_.3X3X7X{.3X<X).).).{.(.<X1XqX3X:X).d.r.r./.d.a.<X).[.).iXuXrXkXlXlXlXy.f k u k f.f.k 7 1                 .           . o O   O > # & 7 g k s s f u - 4 4 - % @ @ # > o X o % A <.` k j K Y /.KXHXAXAXJXZX XaXkXmXmXAXLXJXJXAXkXMXZXPXJXKXmX X'.hXlXSXAX2XrXuXhXmXNXzXrXE.E. XV.'.ZXgX7XsXZXZXJXKXqXa. X7X9X .8 p  . .7.Q n S ] &...=.3./ c m G J c - X   w I.l.-XxXM.oX%XM.oXoXoXHXPXJXDXv.OXNXcXrX5XOX].+X$X].OX.Xb.z.F.F.k.k.3.].8X'.9.S.8.i.6.!  .@.#.8.9.9X8Xq.`.tXgX}.F.+X[ B.0X5X0XnXsXO.O.S.`.}.].N.H 7.N./.`.>X{.J.| Q 8.k.9.N.G.B.B.B.k.N.|.].G.k.t.D.L.[.iXhXhXsX6XD.G.G.B.+X8XcX5XeXG.c.B.3.L.OX0X+XB.OX5X+XZ.[.( p.7Xi./.:XiXAXiXqXH.,.s.:.@.) <.>.>.<.p.a.:.@.s.^.e.` 1.s.d.s.^.2Xa.<.) :.*.^ s.;X;X,XL V 4 d e F V ! G A S g h 9 j u.:.*.) A s.H.pXqX;X,X3X;X>.( ) @.:.<.:.y.r.7.r.@._ ~ Q ~ ~ ~ $.$.1.s.y.s._.,X;X,XH.r.H.,X,XH.A.r.r.^.7Xa.>.Q ( d.d.$.@.*.) ( ( ( j i ! ",
"R.{.E.Q.'.~.].].~.v.2XKXhX/.uXhXjX0XG.x.x.;.j.8.6.K._.1.i.^.p.A.H.7.7.S...N.ZXA.e._.e.y.,.7.(.u.s.i.A.>XA.r.r.Z.[.H.[.r.,.r./.Z.p.1XpXpXpX1X).1X:X<.A.(.1X>XqX_.;X6X6X1XAXlXzXpX1X1X).a.^.).uX).2X2XkXuX_.2X>X_.:X>Xa.2X_.u.1XSXpXpXsXlXNXmX:.7 f i u k k u 4 - .               O O O > > % - - 8 V ) A V ) u.u.) :.' V u z t 4 ; - : : : > > o > s ,.y.W f.,.~.;.{.ZXAXNXHXHXzXrXdXkXZXZXmXSXZXkXkXgXrXqXZXNXsXNXAXpXNXmXqXpXrX X<X3XiXlXzXlX7X'.E.E.ZXSXlXkXmXKXKXPXpX:X:XkXrX'.}.S.Z i f k u u ( V.v.5.E.=.[ C b ] K c 9 X   w h.g.G.+Xh.XX&XoX-XxXcXDXNXPXIXnXSXNXG.8.| X.%.3.OX%XXX+Xj.P k.].!..X+XOX0X4XD.`.D.2.] ] H ] ] *.V.].5X`.N.|.aX@X#X5XC.tX+XrXvX3.o.c.Q.5.N.B.B.S.[.D.8XhXmX6X[.J.Q G L.k.L.G.G.G.G.D.9.J.G.!.N.2.[.[.G.[.>X7X[.8.D.5XG.`.+XaXmXmXMXJ.F.OX~.k.6.2.OXvXXX0X0X+X!.1.A ) ).<X<X>.A.2Xp./.).,.1.<.s.e.u.d.) :.u.:.) e.K.y.d.e.y.y.;X).). X^.a.a.<.w.w.` 1.).d.' a.s 5 V *.:.| ^ V p 7 h G A u.p.( :.s.A.(.pX,X^.iXpXH.e.>.*. .y.s.,.y.^ Q _ Q n S @.W W :.e.1.1.H.).s.(.[.,Xs.s.2X,X,X;X,X;Xi.p.,.p.{.:.C p ^ _.1.:.<.<.` j y i u ) ",
"R.S.'. X].]. X@X].U.lXKXpXr.pXkXAXJ.2.(.J.5./  .A.d.y.;XH.p.e.) ) i.H.<XA.0.uX<XH.u.y.1.,.s.^.Z.J.H.1XjXiXqX,X3XsX2XH.7.7.A.A.<XuXuX<XuX3X2XpXkX>X}.4X/.2X7XpX7XqXqX>XK.iXAXqX2XpXqX/.i.i.2XhXqX(.^.^.^.a.^.d.p.,XuX2X,X3Xa.{.uXu.2X{.3XlXKX).t k i u k f.u ; - >         o O O > > : : ; 4 7 9 *.{.fX^.u.E. X7X). X X^.) 0 4 t t 7 4 7 i i 7 4 y V <.e._ ) x.v. XkXlXKXKXPXNXiXZXnXZXZXmXZXmXFXgXgXpXhXmXmXzXmXNXkXmXSXzXpX7Xq.:.7.<XpX2X).a.uXaX XhXAXmXmXzXlXzXHXIXHX1X{.uX:X`.D.C.]./ 5 u t f | k.B.c.=.] =.5.8.-.=.C p @   b l.+.j.P l.oXoXxXxXcXPXPXAXLXHXHXvX+XS.k.O.%.| 3.] N.B.C.9...tX Xk.$X!.!.k.2.4X8XsX`.i.>.X.X.| &.w.Q.}.}.4XaXdX].$X#X0X%XrXaX}.-.b.b.U g.c.x.2.t.r.Z.[.(.Z.t.J.Z.t.8.N.H.>X2XJ.H.L.2.x.|.j.3.N.D.D.#.k.9.9.B.X.[ N.+X'.eXqXAXJXjXfXk.|.0XG.x.#.#.N.5X&XxX=XXXc.:.V _ :XiX7Xi.^ A ^ :.A.).d.a.2X,X;Xa.u.a.1.) :.e.y.d.d.d.y.d.y.s.u.<.a.^.a._.).a.^.a.*.1.'  XV & h 7.K N c d h V A &.<.( ^ :.7./.2Xp.(.;X;X3X,Xp.<.,.>.>.<.<.:._ _ ~ Z W Q Z ! Q :.s.y.H.,X).:XJ.s.:X2X:Xd.2X2X;Xd.e.$.s.,Xr.i.{./.,.h c  .1...0.i.y.k k S >.`.",
"`.Q.}.9X X(.].~.~.'.KXAXlXrXrX2XHXp.,.u.@./ ,.i.:XH.a.a.e.( :...:.{.<X:XA./.7.R.kXp.r.u.u.i.1X<Xt.[.>XhXjXqXmXwX3XlX2X@.r.R.7./.iX3X(.(.pX2X{.1X<XdXaX7X'.:X).).H.1.i.[.[.2X:XK.:XqX7X).{.1X7XlX).H.i.i.d.).p.^.<X3XiXqXuX).&.s N :.u.*.qXJXqXk W u i k j k 7 : >     : ; u t ; > : - ; ; 7 9 N '.E.kXsXrXrXsXqX X X X).).<.V l z 7 i u k k u A *.) ) Z G q.E.'.rXsXAXKXKXKXAXmXkXsXuXkXsXaXuX XsXkXAXJXHXSXHXJXAXAXqXV.7XpX^.<.<.>.a.pX2X).d.s.mXpX(.pXzXAXHXSXAXNXPXIXSXzX<X^./.t.>.x.`.#.y t f n / >.h 4.].*.F C v.v.O.F 5   x M.P.+.g.M.-X-XxXVXDXJXPXIXJXDXLX9X.XG.k.9.6.9.D.! 7.B.D.8.8.S.9. .x.c.|.#.>.9XD.J.J.8.>.2.6.8...;.j.Q.`.eX}.S.5.z.b.b.~.MXgX5.|.G.c.-.;.c.5.! S h Q #.( W t.#.m #.>.S.>X8XqX6Xt.D.D.#.%.O.x.>XeXt.>.3.B.N.C.C.].eXeX5Xk.[.SX8X+XXXG.+X0X`.6. . ...c.$X%XG.b.g.4.V @.7XpXqX>./ G ^ &.<._.qX,XiX;X1.^ <.a._ <.<.K.3XK.y.d.K.y.' W :.u._._.^.a.).^.a.1.' f.k 3X' X * { ) c c V G p./.u.<.( 7.( p.;X/.e.d.2X2X,Xs.:.( ! @.>.( :.<.! Q ) ( _ @.$.Q G ( <.^.d.)./.p.p.p.H.:X;X:X,X,X;Xd.,.$.>. .Z n ( <.S C K &.` @.*.e./._ ) i.R.A.",
"N.8.'. X'.'.].].q.pXKXAXZXlXkXZX2X,.r.r.Z.[.i.@.y.p.Z.p. .#.6X{.p.Z.sXa. .<.( p.mXp.7.p.(.pXlX<XH.>XqXzXNXzXhXhX<X2X:XJ.>XA.}.qXZXpX1XsXqX1XS.[. XuXrXlXaXwX7Xi.r.6Xs.t.,.y.t.1./.pX2XH.uXhXsXlXsX).:X/.H.e.a.1XqXhXjX^.<X}.^ h / {.gXsX{.lXpXf.' u 7 i l k u - o   O z z l k f.l t f C N K 4.v.@X/.rXaX^.a. X7X XE.). X). X Xu.@.W W S S V ) 7.4.) j V q.E.E.R.<XkXAXKXKXPXAXlXkXuX X'. X/.^.2XsXZXAXKXAXAXAXAXNXpX^. XrX).E.u.s.^.d.e.s.s.<.` ).).u.,X).a.1XkXzXNXNXAXZXuX<XR.8.4.9.B.c.F.x.5.-.G C f i V ~.~.T D U *.[ J c X M xXM.P.+.M.xXxXxXBXDXLXDXnXnXBX5XOXeXk.2.8.3.O.H F H 5.t.! ! F V v C >.2.m H k.N.N.S.`.S.J.J.D.S.q.4.F.J.k.N.].Q.] 5.OX9XfXC.-.G.L.| g D [.(.! v f 8 n b ! G.2.X.9.2.k.L.J.8X9XD.J.}.>.H #.L.+X|.J.O...|.G.B.F.D.D.8X[.k.|.#Xc.O.z.@X!.+X!.] | 9.`.#X5X0XXX%XyXE.) :.{.3X).,.7.<.,.,.,.s.pXpX,X<.<.d.2X:.*.<.<.e.d.K.d.$.$.y.y.' ) _.;X).^.e.d.^.1.' ^ *.<. X' > * Z { G ^ G K V.p._ ,.p.p.:.s.(.u.^./.3X,Xa.y.,.^ ) @.<.K D ) ) @.1.1.y.i.,._ A C ( s.s.,.,.<.s.p.;X,Xd.;X,X;X_.K.d.p.^ f y g V h V  .,.y.e.e.@.e.K.e.^ R.R.i.",
"C.R. X X9X7X{.rX9XiXfXtX5XvXMXsXp.r.u.p.).aX^.( a.[.H.{.J./.A.p.p.u.A.( i.p.>.^.}.| ,.2XqX7XjX/.(.jXzXzXzXhXlXlXiX[.A.{./.[.wXsXlXwXqXsXqXsX7X).<XsXsXiXlXlXlXA.i.(.u.>.i.<. .@.^.rXiX/.7XuX3XlXZXpX).a.).).d.p.d.(.).9XfXgX*.^ /. X XrXuXsXpXk j f t 4 u k y : >   : : ; k W *.:.*.*.*.A E *.Q.uX X^.>.h A {.E.a.a.).).'.). X).).7.i.E.^.V.E.q.w.) h ,.E.'.aX9X X/.pXAXPXKXKXNXhXkXpX/.a./.uXiXpXzXzXNXAXlXzX2XE.a.pXmX X*.u.a.p.A.2X2Xs.<.) _ ` @.A A a.1X).).^.2XuX2XuXuX'.R.>.2.k.C.C.C.C.~..X~...s 8 f C =.v.v.q.{ I D D q R xX.X+.O.n.xXbXBXcXMXcXG.#X0X0XOXB.L.k.B.c.G.9.X.] C F F D 2.X.m b c 9 7 F { ..8XkX8XS.N.S.[.S. X`.V.}.@X|.`.9XrXS.] =.x.8.F.4XD. .m n f y m _ Q | / X.m 2.B.2.k.O.k.G.N.k.D.`.J.8X>Xk.t.X.9.D.`.@XJ.C.].+XS.].eX6XJ.2.C.$XG.b.j.cXcX0XG.8.S.k.Q.5XvXFX9XcXVXbX$XN.s.<X7X7.A./.i.s.p.2Xa.K.1X_.<.<._._.:.q.u.:.' d.y.` $.,X,Xd.:.:.u.u.u.s.e.u.;X;X<.' *.~.E.) + 7 N ^ C G F K 7.p.3X3Xs.,.2Xp.r.a.,.,XpX).y.s.p.H.s.s.1./ | ,.e.r.6.$.$.r.s.,.^ Q _ <.p.r.t.t.p.a.H.H.p.K.d.s.d.$.` $.A s j V V V ( s.y.e.y.e.e.d._.e.Q p./.0.",
"`.Q.'.iXlX XfXrX7XMXnXnXZXDXFXjXZ.y.H.K.3X/.:.| a.).i.H.:XA.#./.>.7.G G A.:X7.4.,.^ ^ H.jXsXjX/.Z.wXwXiXjX:X[.jX6X<X9.t.J.7XhXlXNX1X2X:XqXiX2XuX2XlXhXiXKXNX,X>.<.:.) :.( A.7.p.rXiXAX2XkX{.sXsXiX1Xa.).;X{.2X;Xs.,.7.5XyXxX7.0./.{.E.{.lXsX^.l f.f.f 7 y t u - O o : ; z V 2.q.q.E.4.*.L e e E.rXA.*.A.:.a.1X{.^.^.a.a.u.E.).E.i.r.&.V.E.v.E.v.;.) *.q.E.rXlX XrXpXNXKXAXzXKXHXZXAXZXzX3XpXlX,X).pX2X7XpXlXzXAXAXAXNXpXq.) N A @.*.@.H._.<.^ G >.u.H.a.a.).).).a._.).^.iXZXrX XS.5.=.9.x.C.x.B.~.!.].c...*.0.q.C.tX].H =.} J d w T g.[ [ F.yXvXLXcXG.G.+.h.G.+X].-.F.#X.XOXc.3.9.8.] / F c F / ..{ ..F H 3.C.2.[.nX{.>.>.H.J.N.<X<X}.8X}.J.>X9X8X!.5XaX9XN.2.`.#.S m W Z ! #.9.2.x.G.F.l.-.[ H O.k.D.B.k.G.G.C.J.S.k.8XeX3./ M j.].#X+X!.D.G.{.qXqX8.B.fXOXG.L.5XcX0X|.D.S.+XB.F.#XyXtX4X+XCXxX=XE.r.(./.7.>.<.7.a.^.2Xs.<XqX(.e.d.d.s.e.u.:.' e.e.d.e.y.K.y.y.u.a.^._.a.d.^.<.e.1.L ) <.a. X:.. p V C G { J ) 7.zXzX,Xa.^.:X).d.<.1.3X3Xy.^ 1.K.H.p.r. .@.6.y.6.$.e.e._ | @.@.( ( ,.<.@.y.H.r.) @. .@.$.@.W n j n n j j g n Q 1.>.1.s.s.e.e.s.e.e.d.y.1.e.i.&.",
"`.R.'. X7X9XtX8XMXHXJXJXmXaXcXGX7X3XiX2X(.A.:.( r.:X_.A.K./.p.d.,.@.Q A ( >...<.A.) ( >.2XkXlXuX1XwXzXlXhXhX{.sX1X6X8.2.i.4XlXmXzX1X[.:X1XqXqXiX3XlXjXzXpX:Xi.>.>.) ( (  .i.A.9X).gXZXqXNX).sXuXuX1XH.a.^.).uX<X:Xa...&.~.=.i.'.H.7XpXpXNXSX:Xk A f.f.l t 4 y - O O : ; z ( q.Q.E.q.q.=.{ e *.@X XA./.7X).E.).s.a.).). X^.E.).^.0.4.i.V.E.V.w.4.q.V.E.E.q.rXrX'.qXzXHXzXs.K.zXKXAXsXpXKXAXuX).>X3X;X X^.a.2XNXAXAXKXlX3X).a.<.^ A >.,.` ` G G e.<.` @.) _ /.qX2X).a.4.@.:XZXSXSXgXtXB.9.F.S.C.G.`.`.].~.E.F.tXyXrXtXC.H D D D 0 B l.3.J [ OXvXnXBXeXU M P J [ l.+XB.g..X+X+XB.l.'.].x.X.m c m | >...4.9.8.|.5XS.eXuX8. .k.D.J.S.J.J.}.S.'.}.@X}.j.~.5XaX4X9.G i.A m ~ | 8.J.B.k.k.F.G.n.G.c.k.c.k.k.B.c.F.G.eX|.G.+XJ.aXG.D.k.O.G.cX3.x.].D.D.9.| 2.].aXG.F.k.j.F.|.].S.`.|.XXc.!.%X#X9XaXQ.vXCXcX}.p.>X0.<.p.d.{.:X).^.s.2X3X_.d._.e.s.<.s.1.` ' e.e.K.y.' $.d.s.s.s.^.^.d.s.s.u.` 1.a.a.a.{.u.% * N G 7.3.G C u.iX).u.:X^.2X(.<.1.s.pX).,.p.p.(.d.p.,.,.e.6.p.H.K.s.r.#._ ( @.<.( ( ^ ^ ,.e.( _ A A ~ _ W m g j S ! ( ( 1.1.r.p.s.<.y.s.y.e.$.` d.:Xy.,.>.#...",
"fX}.0./.8XkXaX<XKXPXkX@X].@X{.0.! _.iX:X;Xs.y.( p.(.K.H.).H.s.,.,.^ _ >.>. .7.r.7.` (  .7.3XlXiXiXqXlXlXzXlX:X>XiX>Xi.V.A.aXjXAXjX2X<X2X).1XpXiXsXlXhXqX_.;X(.<.1.&.@.<.r.i.Z. Xa. XqXpXAX XsXpX2XlX/.s.).1XzXhXuX^.u.F J G 2.<XuXuXsXAXKXKX:Xf.S W j k t - u ; O O : : 4 *.q.q.E.q.4.q.w.V. X'.{.H. X7X'.u.a.w.w._. X).). X).E.q.V.R.q.q.q.&.K `.<X~.q.a.rX X<.qXNXlXH.r.s.3XhX1X(.3XlXHXlXpXhXpXpXhX)._.2XpXzXzX3X X2Xs.<.a.a._ ) <.` d d ) / <.7.@.@.a.).2X2X7X).)./.{.lXJXIXJXJXAXuXkXsX`.`.@X'. X5X@XQ.$XtX%XyXtX| p q 9 & R P D D 3.0X+XcXG.I.R R R P +.c.#XOXB.F.g.|.%.l.F.@XF.2.| ! %.N.N.9.5.3.~.].5.4XaX>Xk.t.J.J.J.}.J.`.`.D.`.<X8X9X+X9XuXqXs.n m W Q #.| S.`.3.>.3.N.G.|.G.B.j.8.3.#.L.eX@X+X4XsX`.|.J.D.D.eX0XrXeX+XG.B.G.D.t.N.8.F >.G.] } OXb.5X+X!.`.@XB.x.+XW.!.W.N.9XaX8XcXDXvXBXqXH.i.<.u.(.<X1X:Xa.(.(.)._.).3Xe.` ` ` 1.y.` 1.' $.K.$.$.e.s.u.<.e.<.<.a.a.s.<.a.).pX^.^. Xy % s C ( q.*.>.7.s.p.u.s.,._.$._ u.,.) @.r.1X1X2X3X,Xu.:.u.K.2X3X:XH.d.1.1.' @.s.*.( ,.<.r.( Q A S S n h m W ` y.$.) y.e.e.r.e.,.e.y.d.y.1.;Xs._.pX/.y.8.i.{ >.",
"uX8X6X1XaXmXAXZXKXAXkXkXZXHX1XN 0 q ( :.2XqX;X;Xd.K.y.s.7._ S A A A ,.V./.p.8.A.e.p.r.#.>XhXhXiXjXlXlXlXlXzXqXqXzXA.8.|.@X<X3XiX7XqX:XH.(.qXqXiXlXiX>XpXiX2X<.^ i.7X).(.^.>.0.E.).uXuX XkX X3XpXqXkXpX7X3X:X:XZ.p.a.(.S.q.E./.uXhXlXNXKXPXlX` W f.W S k i 4 7 * O O > : 4 *.q./ *.v. Xq.w.'.a.7.E.'. X7XE.E.).E.u.i.w.^.)./.A.q.V.'.q.,.<.u.E.). XrX Xq.a.sX X*.).lX<Xa.a.a.(./.1.(.HXlXhX>X:X2XpXpXpX).).pXqXpX2X2Xu.s.y.p.).:Xs.m s h h s / i.^.^.1X Xa.<./. X).).).2X7XhXlXpXuXpX3XuX(.V.{.rXrXfXlXZXvXvXcXtXyXtX#XE.d - + > M J U n.OXfXb.$Xn.m.M.M.h.m.M.P.G.B.|.G.D.8.M M ] O.C.D.3.L.D.D.`.C.K 5.XX!.8.G.8X8XD.`.`.`.6XsXaX'.8.S./.aX4X`.@X}.lXH.( ^ V g 6.<X2.`.J.>.#.3.N.N.D.|.J.k.%.F m #.>X>XD.8XJ.k.D.G.9.L.aXjX5X0X9Xc.tXfX9XN.k.} ! G P x.b.k.-.F.G.G.OXOXG.3.%X+XF. XaX8XvX8XMXCXMXAX7.^ @.:.u.3X:X1X(.i.d.p.^.p._.:X_.e.1.1.e.e.d.y.e.y.d.d.d.y.y.s.<.e.:.' ) <.*.) <.u.pXpX).'.s = e V L :.0.7X/.7.a.d.1.u.1.S _ r.<.) 1.^.pXlXiXpXpX2X_.a.).,XK.K.y.( $._ ` $.X.X.%.e.e.| m n c y y y n _ ` $.e.1.$.y.y.d.e.y.y.d._.d.#.$.e.e.s.J.e.#.#.,.9.F.",
"4XR.Z.{.<XaXzXZXAXzX2XhXZX,.N K C , $ d Z i.3XhXH.H.H.1.` n V G >.A.V.}.}.<X/./.H.s.H.H.;X1XqXzX3XlXzX1X,XhXzXiXlXN.|.dXQ.'.}.[.7XhXwX6X(.:X1X[.6X>X(.NX>Xr.4.R.2X2X1X'.u.4.:.0.E.zXSXzXuX7XrXsX>X/./.i./.:X:X1X7XuX<X<XR.R.}.zXNXlXAXSXAXhX` f.f.f.f.l i 4 4 : O O O : y >.q.x.2.Y E.].'.0.<.7.:.) a.E.^.).^.^.E./.a./.E.V.q.q.q.4.E.{. X X).pX7X7X^.w. XkX'.*.G p.<.) <.2XH.^.{.:XzXpX).<X{.pXhX X^.d.).2X^.^.^.(.(.2XH.(.).(.A./ ! F S v m >.u.^.2X<.G <.2X1X{.).^.H.a.^.2XlXpX2X^.(.a.^.lXZXZXsX XrXlXSXSXZXrXtX#XtX] % % % b +.oXY.I D.0X.XI.P.=X-XM.-X%X&X!.S.N.] ] F m M ] -.B.G.k.>.7.k.9.i.C I 5.=.5.N.9.i.J.4X{.`.}.fX<X/.`.>X<X4X8.N.J.9XhX:X@.F 7./.i.>XS.}.}.3.#.%.9.k.D.D.G.k.F c m F F e.[.J.L.+XG.J.>XaXcX8X8X5XfX@X`.#X@X!.5.[ c } G.~.x.-.F.OXOX5XxXOX$XF.%XxXfXGXLXDXDX9XtXBXfXMX^ ( ,.7.:XhX:X^.7.Z.i.<.s.u.H.p.d._.1.1.e.$.e.y.e.y.K.y.K.K.d.s.s.e.1.e.) ^ ' :.) u.).^.).<.S * e V :.7.E.'.'.) <.s.@.W W W S ~ ) :.u.1.2XhXhXuX:X^.).s.<./.K.Z.y.~ ~ $.` ` W ~ _ @.%.Z W G g c n Q $.$.W ~ ` ` 1.$.d.d.d.;X;X_.d.s.t.y.,.| S f f #.3.! F.OX",
" X7XR.<X6XqXA s n 9 # 8 p + = , , $ * 1 , 6 G <.@.@.@.<.~ G ,.H.^.A.[.A.qX<X:XA.K.,X,X,X1X:Xt.).J.qXlXNXzXHXzX7XqXA.}.9X4.N.{./.;XwXhXwXsXqXt. ...i.(.iX>./ i.(.)././.i.q.{./.7.A. XqX1X2X^.)./.<.:.i.| / 2.i.).sXlX1X{.:XZ.>X).{.lXNXAXNX).S f.f.f.S u 4 t * > o > # % h q.q.v.E.@XfX1X/.0.r.:.w.s.).pXpX^.^.E.E.V.V.E.E./.E./.i.V.2XqX2X).q.).7X Xa.).mXSX Xw.{ *.V.^.p.,X).{.).>X^.^.i.<.i.H.).pX).,X;X^. X,XpX3Xe.p.t.p.i.7.r.,.>.@.( ( / <.^.i.r.7.H.r.).uX1X2X1X2X).a.^.1XpXhX2X).,.u.hXAXZXZXlXsX7XjXSXZXA./.9X#X'.8 % % x h.Y.n.v 1 #.5X0X0X-XxXM.-XM.l.D.#.m c c c v I [ 5.F.k.L.D.6.>./ C F F B 8.5.D.`./.S.S.}.7X7X'.J.J.>X7XZ.2.N./.J.7X1X,.@.V.4XuXD.`.J.4X+X9.>.O.2.8.B.9.k.L.[ F H d 8 m %.| 6.eXwX6XqXaXG.eXfX5X5X#XB.|.c.[ o.~.c.b..XF.9.3.5.~.yX5X+X.XXX0XcXaXfXmXFXSXDXfXE.c.OX9XS A.A.:XsXiXiXqXA./.^.i.$.r.y.y.,.e.1.d.d.K.y.y.K.,X,Xy.K.,X;X;Xd.d.a.1.<.<.u.u.a.<._.).E.:.s 5 0 0 N e { E.^.>.g W ` ` <.$.~ _ ^ ) r.( ,.:X1X^.^.s.:.e.1.y.e.$.$.$.$.` ~ W Q $.Z m m c ! ! ( | ^ _ @.` _ 1.` e.e.$.d.K.d.d.H.p.d.i.e.6.$.@.G k m N.cXyX$X%X",
"rX8X XdXmXH.9 * & & & + X # # X X # # $ * 1 1 c r.@.V @.>.( p.H.[.2XqXiXqXqXqX^._.zXAXpXJ.t.6.Z.Z.6.:XpXlXqXzXhX1X/.S.N.x.V.9XJ.Z.J.,XqXiXwX<X@.| J.V.2.( V 2.(.^.^.E././.E.0.0.9XsX). X^.H. X:.^ >...7.^.7.7.9.| p.sX3X1X(./.) u.pXzXlXmX).` f.j A W l 4 4 > > O > - : C Y L E.ZXgX'.Q.0.4.7.0.q.a.). X XrX). XE.a.A.).{. X).E.).kXpX1X3X X).).).a. XlXkXgX X).i.>.&.7.p.<X7Xs.p.qX7.7.i.A.A.i.).).). X2XpXpXzXiX3Xi.:.7.A.r.a.r.r.u.p.y.:.@.u.3Xa.u.s.^.r.).uXiXqXqXhX7X3X).^.2X:X2X).i.uXhXhXzXlXhXuXlX/.3XZXH.i.mXuX9X2.% % M h.M.%X[ , 2 v H.0X+XyXoXG.0XG.k.O.D g 8 v D m M D [ 2.3.8.2.9.N...H ! { Q.`.4XaXsXt.A.sXsXwX>X[.8XiX6XS.8.N.V.8.r.[.Z.<XuXuX7Xp.t.S.eX:X6.3.3.=.F.N.9.S.S.6.3.-.2...! n | J.kXaX>XG.k.%.J.4X4X].F.aX+Xv.] x.j.~.].|.F.j.;.3.C.vX%X.XtXnXMXMXmXfXaXkXsXMXCXdX`.@X7.7 <.<XuXlX2XqX7XJ.{./.u.@.1.s.e.e.1.$.d.y.y.;XK.K.3X3XK.K.d.;X;X_.e.u.e.u.w.a.<.1.u.)._.d.<.h 5 e L L ) ).qXuX^.j W y.,XK.e.` Q :._.u.) @.,.7.,.:.@.` ` 1.( ~ e.K.y.$.$.L.$.@.#.( F f m Z Q @.Q ( @.$.#.y.p.$.$.d.;XK.d.d.d.y.) @.s.r.$.@.@._ W Z | fXcXyX$X",
"@XN./ ).7.p - 1 * & & # # X + + # # # # $ % q C #.N.i.p.r.@.i.2XiXqXiXhXqXwXpX2X;XpXlX3XZ.,.s.A.>.7.6.N.3XJ.wX>X/.1X4Xq.} =.4X[.[.qX3X,XqXsXhXH./.:X<Xp.,.*.p.).^.^.<.). XV.E.).'.rX2X2X^.^.3X<.9.i.2.Z.1XqX1XA.Z./.7XsXpXhXA.:.a.u.pXhXsXa.e.f.f.` ' k ; ; > > O : 4 : N v.].tXZX'.A.^.q.^ G ^ ' <.a.E. X X7X7X).V.7X X X X{.^.'.uXsXpX{.sXqX^. XpXkXmXZXSXkX*X^.a.w.G G 0.2X/.qX;X| 7.A.A.H.p.).).).pX3XpX3XpXiX3X3X_.,X).,.,.,.H.s.t.p.,./ Q 7.3X1X<X<X^.r.1XzXhXiX:XqXpX^.a.2X^.^.).1XiXiX3XuXhXhXiXrX/.uXZX).p.PXwX7X8XG @ x m.M.XXh.3 1 6 b 9.6XyXM.G.mX7XN.N.x...C D I [ [ ] ] 2.3...2.N.9.>...F F X.|.'./.jX1XsXmXhXhX<XJ.fXsX>X8XuX<X[.{.rXuX4XZ.<X7X(.y.6.r.t.t.2.G.G.n.F.2.O.O.6.2.3.O.O.3.k.#.#.[.iXD.#.k.J.2.9.J.OXO.3.G.o.[ 8.C.Q.OX].9X].F.k.-.=.$X.XnXkXkXZXHXAXNXjXjXmXNX4XaX8X'.7.o c /.<X<X(.2X/.r.t.p.Z.t.$.' e.y.$.` $.$.e.y.y.d.K.;XK._.s.d.^.a.:.` a.a.w.:.:.<.<.<.e.^.W 1 5 N N ) {.pXuX{.Z V e.;Xd.e.` _ A :.).>.:.p.E.H.~ k n f.A ` ' $.y.y.` $.y.y.` _ | ~ _ @.@.#._ ^ @.@.@.e.$.y.K.y.y.,X;Xe.e.s._.s.@._ @.,.e.$._ W n S A 3.#X%XyX",
"s 1 5 e , 1 5 * - & - 5 & # # % # X # X + # 5 C p v ,.i.i.qXp.1XqX:X1XhXiXiX7XzXiXpXHX3X6.t.J.7.6.e.t.H.,X1XzX2XlX7X8X].C.8.N./.sXsXmXlXlXjXwX(.) 2XlXA.q.<.7.A.E.a.w.a.pX).qX X4.rX{.2X).,X3X7.i.4.7.p./.K.qX6X/.{.^.uXsXuX/.@.a.).).NX).) A j W ' S f.4 - * O O - : e OXCXgX[. X].E.'.V.^ K :.w.u.a.^.^.E.7XqX).uXsXqX)./.).i.a. X2XqXpXpXE.). X XmXSXLXJXKXlXrX X/.i.&.D ) ).1X^.G ../.(.H.7.a.^.).pXzX3Xd.d.qX3X,X3X3XH.,.:.,._.s.y.@._.[.7.) a.1XuXqXuXd.qXiXpXqX2X^.s.a.^.^.s.u./.1X3XsXqXwX1X{.6X(.{.zXlX/.D.mXe.>.aX'.: q m.n.n.U 9 , 2 < p ;XMXeXk.NXJ.C.C...F D F 3.l.F.C.`.k.H #.[.N.i.N.| H ! D [ 0.>XsXNXSXlXsXhXkX[.J.8.6.[.iX8XsX8XrX7X<X7.r.>XA.#.@.p.t.#.B.eX.Xc.N.t.#.O.6.3.k.x.k.3.>.7.p...g m %.D.eX8.2.].N.=.C.N.8.5.x.Q.aX@Xg.].gXgX#Xl.~.%X#XdXaXaXmXLXAXAXHXnX7X7X}.>.4.8.{ > 2 >.1X/.u.J._.A.y.,X,XA.e.$.e.d.y.y.e.e.$.' ' K.,X;X,X;Xd.<.u.<.' e.s.<.1.) :.1.:.:.1.a.' o * N J G  XpX2XrX(.^ y._.` _ _ A A *.E.E.&.:.^.[.e.( W S ~ 1.( ` y.` $.y.y.$.` Q Z W _ $.,.e.$.` | $.$.' ` d.,XK.K.,Xd.$.` _.(.r.>.#.@.@.@.$.W n W _ _ ..tX.XW.",
"q 5 8 - - - - 7 - 5 8 7 - & - & & % % # + + * c C e c <XsXNX2X:X2X>X2XqX3XwX2X2XzXHXzX(.@.A.A.r.Z.t.e.Z.p.:XqX2X7X[.'.]. X<X9X6.6XiXjXwXhXsXjX(.1.qXzXA.7.7.u.2.w.q.E.q.*X X^.)./.'. X{.<.).hX^.p.Z.p.7.).pXqXwX2X).<X1X2X<XA.1.u.^.<.pX).).f.f.f.k l l i - > >   # w.nXgXZXpX/./.uXkX].V.i.i.V.). X7XmXpXpX).a. XqX2X2X{.p.u.4.^./.'.'.).^.^.{.).pXPXPXKXAXAXHXlX7X X X).i.G K qX^./ ,.2X2XA.(.^.a.^.2XzX2Xd.<.K.pX3X3Xy. .,.<.y.t.H.p.@.,.p.i.2.,.7.<XpX>Xp.^.2X{.^.(.).0.).3X2Xd.p.3XqX).:XqXpXiX(.<X X>XmXSXfX+X`.$._ e.S.p x m.U D d 6 , , , 3 b 1XwXzXAX9.@X9Xk.q.-...[ 5.#X].F.t...`.8XS.t.J.| ..]  .] #.6XkXmXmXNXlXkX6X8X{.Z.#.@./.4X7X8XaX4X[.{.4X<Xt.| ( r.H.t.t.D.N.#.N.D.8.>.N.| H 3.5.2.9.J.J.N.F ! %.#.%.] J / D D 8.`.F.|.F.5.c.C.|.9XqXtX.X!..Xn.!.@XmXHXSXSXSXAXMX>Xi.}.mX'.~.0XQ.X : G {.p.<.t.;X[.K.wX,Xs.p.d.s.K.;Xd.y.y.y.d.d.d.d._.;X;Xd.` ` s.` d.d.1.` ' :.` 1.` ;XpXa.> e L Y w./.(.3X7X<Xr.) H.H.>.( ( 4.q.w.q.i.a.0.s.r.$.e.$.e.1.` ` $.$.$.` $.$.` ~ W _ _ ` ` e.$.$.( #.$.` K.K.s.K.3XK.' W :.p.;XH.2.7.p.r.@._ _ W ~ ~  .>.#XyX~.",
"C 8 - - ; - - - 4 8 i 7 ; ; ; 2 - 4 - - - & 1 9 e c e D | g @.wXqXiXqXhXzXlXiX1XzXwX6.H.H.H.u.7.Z.e.t.7.,.;XiXwX/. X6X{.6XdXlX7.2.7XmXjX6XJ.qXjX).qXuXa.E.a.7.7.<.q.u.).sXpXa. X^.a.).,Xa.(.zX,Xp./.(.A.s.:XqXuXi.{.uX).qX>Xi.7.<.s.).NXhXhXS l k k k u i 4 > O 9 E.sX2Xs.pXhXd.u.).kXlXrX:X7Xs.a. X).qXsXpX^.q.a. X{. X XE.7.<.V.a.u.<.). X^. XE.sXmXAXNXAXHXAXkXpXgXlXuX1X).<.{.).H.uX:X_.:X>X^.^.a.:.u.).2X).d.pXiXp.1.@.` d.,Xp.H.e.H.u.:.2.u.A.s.;XqX1X2X>X).).a.^.2Xe.).1X1XqX1X2X:X:XH.H.H.:X1X:X/.F.ZXDXOX8.7.Q W W _ h R n.J M v 6 2 < 1 2 3 m iXAXwXo.!.dX].].Q.b.F.k.!.OXQ.}./.8.5X9XS.9./ 7.#.>.2.'.aXH.Q #.S.`.sXS.t.2.! | >.O.`.aXjX<XuXpXhXhX<Xi.( #.`.`.Z.9.2. .9.6.9.`.>X3.] O.B.5.3.'.eX6X:X9.6.! m M D F D ] H B.8X+Xk.B.x.c.+XaXmX8XC.!.yX&XT 9X/.4.9XnXHXSXSXNXuXlXlXfX8XyXcX7.  o u >.(.d.6.s.d.:X;Xe.p.K.s.s.$.y.y.y.d.d.,X3XK.d.' e.d.1.u.d.d.a.d._.u.` ) ) ' ` ` 2X3X1.% 0 x d L q.0.^.{.1X/.:.>.`.7.>.>.*.4.>.s.2X).A.@.` ~ ' ' ` ` ` ' ~ ` y.$.e.e.` W _ $.$.$.$.1.$.$.r.p.p.y.3X;Xe.;X;X$.$.$.$.r.r.y.,.| @.#.1.#._ ~ | / >.&.@XcXb.",
"H h * 7 ; 2 ; ; u y t t 7 2 ; t 7 7 7 ; 2 5 2 , $ , 6 , 3 c ! ,.y.p.p.hXlXiXd.t.(.6.,.:XqX2XH./.Z.r.9.6.#.1XiX2X2XuXdXlXsXNXNX2Xt.Z.<XsX{.0.E.1X3XzX).0.i.p.0.0.) w.).rXpXrX).u.(.1X2XuX).r.zXpX<X}.<X).^.7.,.^.A.p.Z.{.4Xp.r.i.).).2XzXAXAX' k k k l u y z > 0 yX$Xi.1.a.d.s.1._ <.^.iXiXAXAXlX).a.^.2X X).^.w.u.E.H.0.0.4.>.E.w.<.<.E.hXpX XE.sXAX2XAXNXmXNXAXKXNXNXAXNXpX7Xq.7.H.p./.sXzXqX).).).).a.:.*._.^.3X2X3X2X>X;X3XzXpXqXK.H.d.A.H.p.A.i./.:XqX2XwXpX{.:X).).^.(.).2X1X1X2X{./.{.s.<.s._.7XiX`.C.+XC.] N.G k f c n g M +.[ } P J h.1 & 1 3 w qXnXL.F.j.B.8X8XG.G.c.+.F.k.|.8XH.%.N.7XsXZ.! t.t.#.X.O.2.] G g C 9.<X9X`.S.N.8.2./.6XjXjX6XzXzXpXqX`.7.8.>X}.J.{.S.N.J.J.D...N.S.9.{ 2.|.B.8.N.D./.<Xt.[ 3.w.=.F =.S.k.v.Q.C.C.Q.v.;.}.8X5XkXaX9.W.cXyX$XnX'...'.gXSXKXAXHXAXZXdX7XE.3.v.G   @ - ( 7XqX;XH.2X,XJ.y.A.d.d.K.d.y.y.s.d._.;X_.d.d.d.e.e._.2X3X,Xd.s.s.e.:.` ' :.' ' d.s.' o * L I B *.7.7.6X9X/.:. .Z.4.7.,.#.#.y.9.;X3X,Xe.$.$.' $.$.$.e.$.` ' e.$.' $.' ' e.e.$.` @.e.e.r.;X2XH.y.y.e.e.d.` e.y.s.,.y.K.s.,.>.:.) 7.7.:.#.7...2.6.9XBXb.",
"H F s ; t ; ; 2 t i 2 2 - - 7 ; 4 ; 4 9 t 7 y 1 & & # & & q { #.Z.y.y.qX>X6X2X:XK.6.p.:X/.[.)./.H.H.6.#.>.2XqX>.[.hXjXhX:XiXNXqXZ.V.`.{.i.4.V.i.).AXzX{.a.u.A.u.w.).E.pXrX XE.<.^ V <.).(.u._.pXiX:X3X2X).u.7.7.7XV.p.i.{.kXpXiXhXpX2X:XhXuXA k k j l l y y O w.%X%XrXR.^.i.^.7.7.0.H.V.H.3XpXlXqX). XqX X2X).e.'. X4. .q.:.0./.).E.).^.u. X X'.JXsXpXlXlX3XzXHXPXPXlXAXKXNX1X<./ p.A.(.pXiX3X2XqX).).<.) 7.i.>.4.i.pXpX,XpXpX3X,X1X3XwX(.A.A.H.A.p.V./.1X2XpXiX(.a.a.).i.a.).pX1X/.).a.u.H.^.).[.(.).<XZ.t.J.] m ] 9 y f 9 7 f w M U h.+.h.+.w 1 , 2 & #.NX0X#XB.k.8XrX}.|.G.3.k.2.t.t.6.>.6.2X1X6.$.,.L.| b 2 6 b G c 4.8X].`.].4.] 2.i.N.}.aXzXlXzXpX3X>X].2.6.N.8.J.wXN.8.:X:X>XeXJ.N.3.2.B.!.C.5.N./ 8.>X`.9.g.+.-.x.c.C.=.Q.7X+X8.j.3.x.@X@X@X'.S.3.W.vXbXyX@XtXgXnXuXZXKXSXHXAXjXdX7XA... .j O o : h p.}.2X1X;XH.p.K._.K._.K.d.d.d.s._.;X;Xs.d.d.d.e.d.,XzXpX_.;X;Xa.a.s.:.` :.) ' $._.y.> 0 ;.4.V.0.[.tX@X/./.i.,.>./ >.$.e.$.` y.3XhXpX,XK.d.;XK.d.y.e.y.y.$.$.~ ' $.' ' y.y.$.` $.y.d.p.t.J.H.#.@.$.1.d.$.y.d.e.` e.3X(.p.>.~ <.7...| #.9.8.N.`.nXBXb.",
"..4.G 9 7 t 4 ; ; 2 2 - 7 7 t y i 7 4 t i l p p 5 - * * & , e 2.[.K.iXqXJ.[.J.1XjXqXt.J.:X/. X:X(./.7. .#.r.A.i.A.<XpX:X[.1XhXqXp.p.}./.4.x.~.<X1XNXAX3X(.(.i.7.q.rX'.rX X).E.).A.,.a.^.pX:XV.<X{.3XiX1X2X;X7.,.S.<X XS.9XiXnXSXlXuX^.0._.a.A k f.' j u y u O h } @X5X5XfX X0.q.@.) ) <.i.^.qXzX X X3XqX3X Xa.w.V.(.a.q.>.4./.'.a.u. X7Xw.w.E.FXAXlXlXmXlX^.).NXLXlXpXiXzXpX2X^.i.| &.<.y.2XpXuX3X X).u.,.&.<.a.a.i.` $.p.,X3X3X[.(.1X2X(.A.u.p.A.Z.p.i./.).:XqX3X2XE.p.0.H.^./.:X(.7.p.2X).a.^.Z.H.(.:XJ.[.p.! h s 7 y y p y a w x M B [ h.P v w 1 2 < 3 Q S.S.}.eXS.[.6X@X}.N.9.k.6.2.8.N.>XwX2Xe.W p 9.N.9.k.{ d c ..F ] 5.O.H b C ] &.B.4X>XwXHXlX3Xp.`.|.3.Q 9.G.6XhX6X1X>X6X>XJ.Z.A.N.S.+X].Q.F.`.7.{ #.9.k.c.3.+.=.5.V.'.sXnXaX8X~.Q.9X9X0X5XZ.x..X.X$XxX9X@XvXDXDXMXAXJXHXAXmXjXdX[.A.{.Q u O o : ; h Q A @.^.(.y.K.;X_.K.y.K.K.s.@.a._.;Xd.;Xd.K.;X;X,X3X,XK.;X;X^.d.s.u.<.^ ' $.1.s.e.; 5 4.`.7XkXrX) =./.a.,.V h g ( 9.y.e.e._.,X3X3X3X,Xd.d.d.e.$.$.e.y.$.' ` e.$.$.1.d.K.s.$.s.K.s.y.,.H.K.A.@.` e.s.d.s.y.s.` ' H.H.H.y.) ! r.| >.Q G | S.0XfXBX#X",
"G B.5.^ 7 7 ; 4 t 7 t y y u f u i i 4 4 f k 2 y 9 - - 1 1 1 , q %.>XiX>X9.S.L.'.[.t.7./.:X}.:XuX6X/.S.>.,.A._.t._.qXqXH.[.uXsX[.A.{.}.V.>.C.rXuXrXiX2XuXrX<Xa.i.'.rXrXkX@X X). X X7Xu.p. XqX^.2Xi.).pXpXqX>X7.4./. X{.<X8X/.qXhXNXmXqXu.).{.) f l A W t t t > y / 9XrXaXSX2X3.x.:.) @.a.i.p.2XNX3XpXpX).2X).a.u.a.q.V./.p.).1X'.a.q.). XE.E.gXAXlXKXJXKXNXlXAXpXu.) u.s.a.:X2XV.7X X7.8.7.>.a.2X2X{.2X3X:Xq.:.H.,X7.V ( /.3X3X3XpX:Xp.p.u.( / @.6.>.,.p.1.^.wX:XqXhX).7.a.).a.a.^.a.H.).(.^.u.,.r.K.1XwX7X7.y a c f 7 i y a g 2 & x R oX+.[ U P M 8 , 2 1 $ p uXdX}.N.#.N.N.x.+XOXk.G.{.D.N.>X,X,Xe.b | 9.C.S.D.F.c.3.U q 6 d b b ] 5.t.B.6X}.X.r.3XAXAXqXJ.S.>X[.A.J.:XH.9.L.>XJ.N.{.>XwXC.9.k.S.].`.9.`.8.9.| 3.2.=.O.} .. XdXNXNXaX].C.7XfX5XfXCXNX5X9X'.-.#XvXMXnXFXmXSXnXmXHXKXHXdX<X<X:X2.Q u   o % 7 h n h 2 g ,.p.s.K.K.K.K._.K.d.1.^ A.d.;X;X;X,XK.d.d.d.y._._.s.d.u.1.) ) ) :.$.y.e.;Xu 5 x.@X9XE.w.N &././.i.) ^ n C @.,.$.y.K.K.,X;XK.d.K.$.' ` e.d.e.$.~ ` e.e.e.$.y.d.s.y.K.d.H.d.e.$.y.J.J.p.#.e.s.e.e.y.` ` y.1.( n ) ,.@.7.`.N.2.6.#.9.`.dXCXcX",
"4.N.=.8.F y 8 i u u u u u u n g 4 7 t y k u 7 2 2 7 2 2 2 7 1 < <  .aX}.8.>X|.9XN.6./.}.:X:X/.7X6XS./.9.r.:X1XH./.qX7X1X:XiXpXH.>XwX/.V.0.R.rXsX{.qXuX^.1XrX2X:X XrXAXZXaX XqX X2XpX^.{ i.^.E.{./.,X<X3XuX{.u./.{. X9XuXrX{.pXlXAXiX).7.).p.V f l ' ` k f 7 X 1 F @XtX{.ZXrXQ.Q.V.<.7.^.a.7.{.7X2X2X).^. X).a.{.a.<.w.7.a.7X7X).E.q.a.'.E.fXmXhXKXPXKXKXlXmXzX*.^ :.1.` s.2X:X}.4XfXsX4X7...s.{.pXpXpXqXpX).a.u./.i.:.7.^.p.a.).;X>X(.)._.p.:.G ( ( s.;X;X,XiXzXhXhX).u.2X).<X3X^.a.)./.s.u.u./.2X7XjXwX:XA y u c a y y u 2 i d 2 M XX-Xn.B P +.P M p < 2 < 2 6XaX}.3.G F ! k.%Xc.l.+XJ.G.N.$.F m ! 8.9.t.eXJ.8.9.9.4.>.=.2.....3.O.X.5.'.|.2.9.] ( s.iXiXH.G.2XhXqXJ.L.L.8.8.9.N.J.[.wX(.C.S.2.o.B.C.5.J...O.] O.b X.S.}.8XqXmXAXlXlX8XQ. XfXdXMX0XF.9XgXsX5XdXdXtXZXAXMXZX[.p.7XlXJXZX<XMX/.C k i   . % 2 ! #.g 7 2 8 ^ K.p.K.;X,X)._._.H.1.:.:.s.;X,XK.s.e.e.s.e.;X;Xd.e.s.^.:.' ` 1.e.d.y.,Xj : J K K *.v.Y 2.E.(.7.i.:.G j ~ $.$.$.e.e.K.6.Q Q @.e.` $._ ` ' ` ~ ` $.e.e.$.1.d.` y.;X;Xy.y.y.;Xp.,.e.6.6.t.<.` ' ` e.e.` Z a p ; 7 g 7.Q.3.N.C.x.`.4XDXBXOX",
"n C.H x.F.>.V f u u f u f f C K V i u l u y u t 7 7 y 7 y 6 9 5 1 2 / '.[.N.`.].6.A.N.H./.{.7.7.i.A.V.7.H.pX7X>...H.7XiX:X>XuXZ.H.1X/./. X^./.rX XuXsX(.{.sXkXZX@XfXJXZXqX7XpX7XrXqX{.<.&.,.s.V./.2X).:X,Xa.7XlXlXgXrXCXhXuXkXAXJX3XA :.^.:.h l l W 1.W f.4 O % d `.DX'.0.E.E.x.0.7.0.^.).0.<.:.q.<.w.u.^.u.a. Xu.w.:.u.).{.{.E.u.u.'. X XlXsXhXKXKXKXHXzXqX,X1.~ ,.a.1.<./.p.9XtXc.J.`.p.).1X2X3XpXhXhXpX).:X;X/.).H.p.p.).:X^.a.^./.).^.(.^.7.| @.;XpXpX,X:XpXAXpX^.a.2X).a.<.<.A.p.^.7.i.).).hXhXpX6X[.n y p h a p t z 7 u g x I.%XM.+.T U U P P P w 1 6 2 H.MX}.8.G.+X9.c.OX|.D.c.+X6X7.%.| 9.S./ m ! t.J.N.2.4.2.].|.x.5.3.2.O.8.P v [ D.7.| Q ^ ..y.:XA.L.[.iX>XF.k.5.D.5.6.9.[.9.H x.G.C.S.k.eXS.8.[ X.O.P F 8.8XwX8XjXmXNXlXwX<XS. XkXfX0X@X9XuXkXfXkXrXdXnXDXmXMXlXrXuX<X/.V.7./.'.J./.! t o o : t 7 f f p 8 6 y ( p.H._.;X_.d._.s.u.:.,.a.;Xd.s.d.d.d.,X;Xd.d.d.1.' d.:.) e.s.d.3X_.1.t # , C A K E.*.&.,.>.<._.<._ n m _ ~ S Z Q ` $.Q Q Q Z $._ ` ' W ' $.` $.e.$.$.e.' $.y.e.e.` s.H.H.i.y.r.| t.D.,.<._ W ' W y i j f 8 y g n C A  .6.2.S.+XeX*.w ",
"- q.8.8.N.0.&.( j j j A ! ] I J ] G V u l l l u u f a p a q 9 6 , 1 1 D 2.S.@X}.t.[.`.A.`./.i.p.7.>.>.>...7.:...^ i.uXuX3X<X2Xp.Z.Z.H.[.^.E.2X X2X2XuX^.{.7X X]. XfXrX7X X7XsXkXlX^./. Xs.H.uX^.^.2XuX:X2XuXuXs.9XCX!.gXsXpXAXJXPXlXK ^ r.A y f k f.1.f.l - O X 6 0.SX5X| { v.].^.A.a. X X^.*.A ) ) :.^ ) E.).w.:.u.a.^.). X X).a.E.E.rXkX X).pX XpXzXlXpXhXpX_.` u.:Xe.s.H.>.p.8X4X}.(.<XpX).<X3X3XzXlX3Xs.qX3X(.p._.H.H.(.(.^.).2X:X(./.p.:.r.y.:XhXzX3X,Xd.u.zXqX^.^.).^.:.:.,.,.) 0.u.).pX).wXhXwXH.@.y y h h y i t i i g a e n.$X%XF.+.o.T P U P M w b b S.nX}.eXOXc.OXeXeX[.k.L.eX'.L.L.J.G.J.Q ..H.J.G.J.2.i.C.OX@XG.k.3...N.V.9.%.D.'.9.| F ! ] | y.Z.#.! H.8.3.D.`.N.D.D.S.J.] 9.>.5.`.C.F.4XJ...4.2.3.2.3.|.6XwXjXjXkXlXlX7X8XuXrXNXAXZXrX8XrXdXkXjXiXnXAXMXNXMXsXgXjX1XH.^ ( >.,.6.'.~ t : : ; u i 1 , 2 7 8 2 a #.e._._.K.d.<.<.a.<.:.^.;Xe.d.;Xd.e.d.d.y.s.y.e.' ' ` :.:.s.3X,Xe.l > X C A 9 G *.q.E.^.7.s.d.,.( W n m f 2 * g W F m b b c Q ` ~ W ` ` ' ' $.e.$.y.$.e.e.' ` ' f.W ` d.<.s.:.( x.C.7.r.` W z ; f A C 9 n Z V n Z S g h F N.N.D 9 6 ",
"  ^ ~.i.8.x.0.7.! 2.i./ 8.2.O.-.I =.( j k u u k f j h f a p 6 9 2 5 9 1 $ h D.iX/.}.4X>X}.p.i.i.t.D.7.D...C ..'.R.:X,X:X1X1X<Xp.r.H.J.{./.V.'. XkX7XqXp.H.A.7.*.@X X).rXgXpXhXSXqX2XqX;X;XiXpXd./.).).3XuXpXpX<XA.5XOX7XrXlXJXSXjX)./ A ) s s k f.f A f.f : O O q K rXcXx.] *.Q.'.0.a.7X/.:._ { :.u.<.*.>.V.).<.:.w.E.3XpXhXpXqXE.'.rXpXsX^.^ u.w.a.).;X).pXpX2XqX{.).a.^.s.e./.[.t.K.1X).:X).).1X X).3XqX).H.).(.p.i.<.:.H.<.p.2X3XK.)._.A.(.2X{./.;X2X,Xd.d.,.a.).p.H.{.).).(.p.H.<.u.a.2XpX^.:XsX1X@.p y p f f h f l g i n g q l.VXGXVXm.+.I.I.U +.+.+.] c D.nX+Xc.2.F.+X5X6XD.N.D.9.7.6XJ.J.:X,.m #.L.N.G.H.6.B.].C.].x.x.9.D.V.`.uX8X{.N.N.6.! F ! H.H.%.m Q N.>.! 9.'.>X`.D.A.[.N.D.Z.2.5.k.S.8X{.3./.9.k.S.`.'.8.N.8X`.eXnXaXsXkXNXZXzXzXNXaX XE.V.Q.'.5XdXZXsXkXaX<X{./.<X<.( ^.>XJ.2.N.h f : % 2 2 7 g g q 2 2 8 w m y._.d.s.<.s.d.s.^.u.;X(.s.e.s.e.e._.d.1.' 1.1.e.e.u.a.u.1.y.e.f.z > % { d p C A { /.uX<X<.e.:.) Q c 2 & & , & 2 c m m M b m m k S $.' ' ' e.y.$.y.e.e.y.$.` $.` W W _ ` e.H.>.x.XXC.t.$.k y f G I D h ~ ( Q n Q n m ,.2.v 0 < 6 < ",
"  7 { #XQ.Q.Q.7.>.4.F.4.! N.G -.5.4.#.>.~ k j Q G / t.8.c p s g s p 8 8 8 q b 8.aXjXlX7Xu...7.E.J.].`.sXA.k.J.qXuX:Xp.A.i.r.r.7.,.Z.(.`.wXS.N.<XsX<X^.>.i.u.^.*.{.(.i.].'.fXmXhX).2X2X3X3XAX,X).)._.).2XpX2XiXpX:XN.aXjXiXSXlXA.x.G V ..n u f j j k f g 8 %     e M `.vX5XOXQ.N.i.Z.{.6X`./.p. .>.&.8.A.R.N.0.7.,.A.lXPXPXKXKXlXqX7XlXE.A.0.K / &.^.3XiX2X3X,XH.{.{.(.K.:._ @.1.2X{.H.2X2X).p.s.H.{.qXhX:XK.2X(.p.d.s.e.a.).,X;X:X,XK._.:XqXqXwX>X[.;X3XqX:Xe.@.K.:XK.2XiXpX2X7X2X/.A._.,X>X2X:X(.(.J.W y i y a a p i u f F F f 1 o.yXh.;.h.g.g.h.-.n.z.-.U b r.DXeX#X8X>XG.8XJ.X.X.k.>XhXJ./ m @.F c Q ( ! 6.L.t.B.G.S.k.k.S.C.eXS.9.H.D.6.k.S.S.#.X.! Z.:Xt.X.t.t.| k.6.O.%.] ] t.wXlX,X|.D.k.8.S.9Xk.8.N.7.9.>.G.8X|.J.@X].8XfXR.rXZXlXzXAXAXzXuXdXrX@XE.=.x.tXMXrX[.<X/.] F H ..>.`. X>.5.F.h j ; % 2 & 1 p b F a 2 p 8 g r.p.s.y.@.1.K.s.H.t.>X2Xy.D.e.K.,X,XK.s.` $.,.A.^.7.S.A.2XpX:.y % O + 5 9 s C F { x.7X/.r.e.Q p 9 : < & & & , & < p M B M v b S Q Q j _ e.` e.y.,.#.e.e.@.( _ ` ` ' W Q ` s./.C.5.=.7.A j S ^ / *.B K =.V Z A Z S #.4.b < 1 < 6 0 ",
"    d OXvXN.].E.Q.9.8.].9.S.N.%.c.3.:.p.2.6.7.9.#.D.'.3.N. .F V h s y y i p m g W ( ) e.a.(.a.^.9X].fXsX#.N.D.H.p.H.p.i.p.p.a.7.,.r.) p.<X}.`.>X}./.>.| 0.0.i.A.<XNX).,.a.].*X@XuXsXhXhXNXHX;XH.).3XpX:XuXqX1XpXZXiXiXmXHXAX7.3.#X{ ^  .f a h V k f u y 8 >     w b *.tXyX#X'.>._ :.i.7.Z.`.Q.i.i.7.A.R.N.A.).i.3XKXKXlXAXKXKXNXpX1Xp.<.p.^.K K Y 4.<XiXlXlXhX3X{.p.E.(.a.a.s.r.(.1X(.(.pX2X).^.i.y.p.1X(.p.3Xi.>.i.a.a.).:X:X1XK.,XqX,XK.K.qXzX;XN.:XzXpXqXK.#.1.@.[.qX;X2X[.(.i.K.qX1X2XpX>X_.,X,XqX@.y 8 i p i i 7 2 p K ] c p U g.P P U ;.g.h.z.n.l.P U v v kXaX0XW.G.G.+XB.%.X.m m 9.#./ ] F m ! @.#.>.e.t.>.L.G.|.C.|.S.5.`.i.H.[.K.8.N.N.L.9.O.r.r.Z.K.H.K.t.>.k.#.O.M v H N.>XeXwXJ.9.B.5.B.@X9X{.[.rX>XJ.[.nXfXeX#X8XnXZX{.uXAXlXsXAXJXAXZXdX XE.V.0.5.vXMXZXaXnX9X/ D H v D D J P h.+.f f ; X & & & 1 3 b c y 8 8 p C @.#.y.y.A.;X).[.2.Q e.D.J.r.wXeX2X2X_.y.H.:X{.{.{.R./.7X1.8 1 o O + # q D K 2./.7.~ #.:.Q y # & & 1 & @ & $ # $ & 3 x x D m Z ) 1.` ` ` W _ Q m W | C f Q A _ $.d.e.:.' ' <.7.j m S i n  .K Y I v -.5.s f Z / ] b 6 6 6 < 1 6 6 ",
".   - I #X].Q.vXrXC.Q.Q.S.D.'.t.N.N...S.S.D.N.B.9.|.S.D.!.x.8.C u u u f a 5 p m h 6 5 a ) d.p.p.rXeXeX3XQ #.H.wX:Xp.H.A.p.s.A.p.7.&.0.6X[.(.<X7X7X}.7.G ) s./.'.3XlX).@.0.R.q.E.q.<.).pXZXKXiX(.).iXZX:XuXFX1X XuXuXdXZX7Xt.D B.$X../ F n g F ( g f i i 1 X     w x b 5XdX5X].<.` ,.7.2.8.V.N.0.<.V././.<X2XiXpX{.9X^.0.3XSXlXsXzX7X>.*.<.0.*.q.4.*.>.7.3XlXqX:X/.i.>.[.2Xs.p.a.a.H.H.).).2XuX1X:X:X:X1XpX).,.Q ( @.:.a.:X,X(.;X[.qXpXpX1XH.K.hXqXH.,XzXpX3XqXp.s.,.e.3X:X(.p.y.s.(.qXqX1X:XH.i.J.iXhXJ.a 8 p q i y t t a C C a 9 v D I I O.-.g.F.n.n.l.U ;.J p kXnX#X0X5XtX.XI.P +.P k.S.+XG.D.L.O.] J.[.r.| %.#.t.G.|.C.+X4X8.D.[.>XsX7XJ.6.8.J.aXqXJ.L.#.r.1X[.J.D.k.k.9.k.9.N.J.J.8.#.] 2.9.8.Q.#X5XG.D.>X8XaXiX8XuX8X8XnXkXdXrXuXlXNXlXlXlXrXmXrX8.5.v.Q.OXtX5XtXgXaXS.} F d d d c C v I.M 2 a 7   o # % & 2 1 b c p p 9 p y a n p.;XJ.r.,.t.6.2.c.j.L.sXwX3XiX<X).(.).1XrX5X/.^ A 4 % X O O o X , w G F >.G 9 5 1 1 1 & 1 2 1 & < * & < < 1 w 3 3 b c c m ( r.r.! g p 7 8 9 9 d a h V C Z ` e.s.` S W ' j f.l u n ( (  .N J -.F j Z D C d r r 6 r 6 6 1 r ",
"    X e D Q.CXDX@X`.C.=.N.>XJ.! n | t.`.t...9.5.%.N.eX`.F.Q.k./ W V u u u 8 0 5 8 5 2 - : - 9 ,.6XnX:XN.J.>X3XzX:XwX>XK.H.H.Z.V.A.{.{.A.S.1XuX7X7X:Xa.1. .E.<X@X..7X).i.:XiX^.0.Q.q.) A ^ ).kXiXsXkXFXkXkXgXkXsXaXkX7X7.G b h g N N C N c b ....s 7 8 0 &       1 M b 5.vXcX5X7.:.u.q.i.V.V.2.i.^.E./.{.7XkXfXrXE.E.2.^ e.1.:XlXuXV.r.a.u.7.p.^.:.a.,.u.(.(.2X:Xi.7.i.3X).e.^.H.s.).2X2X/.(.^.{.7XhXpX2XqXiXd.( ( ^ ( p. .) H.H.:X3XiXjX:X6.,.Z.,XiX,XqXzX3X,X;X,.@._ 2X2Xt.i.y.y.r.^.qX;X/ /.lXiX8XZ.8 2 8 8 t y i y y i h v - 5 O.b J [ O.z.W.%XXXG.M.+.-.M 7 J.mX+XcXBXMX#Xl.P.G.c.eXeX8X|.L.B.2.! #.G.J.>.Q F m 8.eX].F.j.G.'.>X>XeX8X2.#.O.#.[.eXeXL.H.<XS.Z.L.j.j.D.<XqXqXeX'.k.] c [ k.N.C.5X5X@X7.v O.J.'.+X|.aX8XaXnXsXdXZXkXfXuXuXsX~.E.MXiXE. XgXgX9X*XgX#X9XdXrX9X^ h H I [ -.d b 6 ; y 4   . # + $ , , v [ p p p 5 1 p c A G W C  .[.t.B.D.O.X.}.J.7X<X{.sX{.<XfXZX<X( 9 & - % o   . X o & q G Z ! 6 $ $ $ + + < 1 < < & < 3 1 1 $ < 3 w 3 w d e d v ^ n p p g d 6 2 2 2 1 5 8 d g a k V j f n @.) ( Z l j ~ ` / H 4.G i V p 0 6 r 6 6 r 6 6 , = , ",
".   O q 6 b OXCXtX@XC.<X8XG.7.| n  .9.t.7.2.4.6.Z.`.[.J.'.S.N.t.) ) ,.$.a 8 y - - % % & * 1 9 9 f Q #.D.wXqXjXNX,XzX3X,Xu.,./.H./.8X{.A.Z.6XmXiX}.u.,.s.^.R. XrX}.uX Xu.V.i./.7X^.) ) ) K 9 V {.yXBXvXZXFXMXDX6XS.N.H d K D s d p q p q q b c G c q q , X       6 M B 5.#XBX].| >.V.S.F.'.8.4.p.7.7.S.9X8X`.V.c.N.{.H.>.<.7.).uX2X). X).).a.a.0.(.2X:X2X2X(.:.:.{ 7./.3X2Xi.s.qXpXqX<X).^.7.:.7._.H.H.2X3XwX2Xp.7.:.V ^ 1.r.).3XiXpXpXpXqXJ.Z.J.J.qXhXqXzXiXqXK.d.:Xp.p.d.:X2X2XA.>.r.2XA./.A.a.J.J.m ; 2 t 9 t y i t y a ! X.b 1 [ D v ;.v.XX%XOXm.OXF.+.l.3.q t.JXeXL.0X5XF.F.G.G.G.8XjXwX>XD.k.O...k.`.`.B...F f v O.j.k.O.S.8XeX6XeX#.m 3.L.%.@.S.eXL.J.hX>XD.k.B.S.D.eXiXaXuXeXeX|.L.L.G.eX9X9XfX5X}.J.k.C.S.k.8XaX8XaXnXAXSXZXlXiXfXrX XE.R.aXiXdXgXnXhXgX5X#XtXnXkX<X>.m C } j.3.{ n u i y y ;     . . + & , , c b 8 9 - 2 d g c n S C Z 6XA. . .K.y.c F 4.7.'.aX6X9XS.7.c 1 7 5 : o       X o & 8 G 2 $ # + $ $ $ + < 3 2 8 3 2 8 1 & $ $ 3 x x x x w w w 3 r w 6 6 9 q 6 2 , 5 q p d s h e q 7 0 9 9 p g 6 d / ( ) G *.*.h S c * & , , $ , , , , * * + ",
"+     7 c q w 5.vXfX].aX8XL.2.>.! | 6...7.t.2.t.Z.[.J.`./.N.8.N.7.( :.G 9 p p 5 2 - 1 5 9 9 9 t 2 8 / N.N.{.:XiXhX3XiXqXy.( ( r.A.uX<X}.A.r.).^.y.d.s.u.s.i.@XtXuXaX0.<.G C v C C w V 2.V.) f 0 v  X8XkXdX7X7X`.c.5.C s I -.b q h d 1 , 8 s g b d w < + .       $ B x ~.5XaXOXc.N.4.Q.@XN.i.(.7.2.p.#XDX].8.V.p.i.E.u.,.u.i.(.(.).sXpX{.).H.H. X1X:X3X3XqX:Xu.,.A ../.A.A.p.^.qXuX^.,.:.*.,./ ( >X1X).[.wX3X:Xp.s.7.:.>.6.H.2XqXpXzXzX,XwX[.J.8XqXhXiX;X3XiX7XH.(.H.#.` d.qX2XH.K.2X(.@.7.:X:X7.y.r.m u i a g t t y t p H >.O.c 2 D I v P c.XX$XG.XXn.z.j.P.F.M B.NXNX`.k.c.D.k.G.eXG.6XzXS.J.G.>.k.2.8.G.B.N.3.! b D 3.j.j.F.8XeXG.aXL.P P 2.F.D.#.#.J.[.|.[.{.S.k.L.G.+XJ.] t.jXjX8X`.eX|.7XhXnXaXaXeXnXNX[.B.B.S.4XsXaXnXHXNXAXAXlXsXrXrXrXfXrX5XlXSXAXAXHXSXaX#XdXDXaX .#.C...4.=...g u g p k f ;         O . $ & , q 0 5 5 2 6 a c c d N r.N.] W | Z.9.m a h  .x.&.S p 1 o % - - + o         X # # q q . + + . + + + + + $ < 2 2 2 1 2 2 2 < < 3 3 3 3 < < < < 6 6 6 6 6 0 6 3 1 8 q 9 9 8 9 1 1 5 9 q 0 , - & 5 C 0.v.w.4.C p p 1 & $ & + # # # $ $ * X   ",
"  , % . q v c b j.eXaX8XJ.N.8.| G | 2.6.7.V.D.J.[.J.J.N.K d , 6 C C 1 0 h h 9 9 1 2 9 q s s y t 8 u S v #.8.#...(.3X,X3X<._ A A &.i.V.>.>. .>.u.u.H.u.<.2X{.].aXaX/.7.C p q p q 0 N / q.'.^.:.n h ^ _ ) ) / x.#Xv.*.G d 9 J b 9 q 9 1 9 h d q e q r $ +         + P B x.LXCXxX$XQ.x.C.}.i.r.H.i.E.rXCXvX{...Q.{.(.i.<.,.<.7.(.a.<.a.7XsXrX).).^.<X:X:XqX3X<X{.<.b 8.<Xp.i.^.;XqX).A.,.p.^.^.) u.).7XhXhXzXiX3X^.i.^.:.^ A A.qXiXlXzXzX3XiX>X>X:X3XzXlXzXiX3XK.p.K.t.$.` s.H.` $.:X2Xt.@.{.:X7XsXqXA.#.n a n c i i i i c ] M X.v < [ ] U ;..X.XoXG.M.h.n.c.G.&Xh.k.5XaXJ.m 9.O.+.c.B.G.<X1XD.J.G.N.S.D.N.t.D.3.! m m %.B.B.W.B.G.G.G.OX[ U h.B.B.D.J.L.J.1XG.N.D.L.S.[.J.J.J.3.9.9X>XeX>X{.>XaXnXmXfX6XS.5X6XeXD.9X8X`.4XfXkXAXlXiXfXkXmXrXkXsXsX8XrXlXlXmXJXPXAX8XfXkXuXr.S C.$X~.F.F.3.f u l S S k ;           . . . . X # # = & & 1 q d c C F J m v G g w i a f q C 7 % o o % % > O O O O O O   X # % , + . . X . X + X + + + + & 2 1 1 9 a 9 2 3 $ $ $ $ $ $ $ < < < < & $ $ 1 9 1 1 1 5 5 * 1 1 5 q 6 6 2 & - * % q ;.w.U.v.C p , * # # + + # # & % $ X     ",
"  L 0   1 b d e 8.aXcXBXvX`.2.! F H 8.V.D./.4X1X`.S.! 6 , * , * $ & 5 5 p b s p 5 , 9 h p s n y t u y a Z r.G f s.wX1Xy.s.<.$.) ( ` 7.7.) A A r.1.r.:.1XnX6X9XV.4.H d q 7 9 q 5 5 q C ^.gXrX^ S S h A A G ..3.{ F v N d 9 d b 9 6 9 6 g q < = , 1 3 + .         + B R =.CXyXyX%XE.C.x.S.N.:X>X(.1XDXCX@X`.4.[ '.kX3X7.u.u.a.:XqX^.>.p.<.:./.).(.2X2X,XpXpX1X(.<./ i.<X/.u.A.>XhXi.&.^.:X/.i.0.).(.K.;XNXNXzXqX(.<.| / ) n ,.2XiXzXzXzXiX;XJ.>XpXqXlXlXzX1XH.6.| >.r.@.( _ e.d.e.) A m A.7X2X2XmX(.t.y.~ n c i t i u u m >.9.O.J M ;.[ -.z.cXBXcX&XG.G.P.F.+X$Xc.OXc.k.[.#.L.k.F.OXG.9.L.J.K.[.k.D.}.}.G.k.9.....] %.O.W.#XB.2.G.#X+X.Xl.h.G.0XG.k.k.k.t.J.:Xk.[ #.N.:XeX>X6XiX ./ | 9.aXuXOX5X8XnX}.fXNXaXrXnX6XsX6X4XD.`.8XsXsX X].].].uXhXsXiX7XdXmX1X<XAXJXZXfXSXJX6XZ.#.B.$X%XOXyX].h f n A W j -               : x h e p q d q w 9 q w d / Q S h p 2 2 2 ; : >                           .                 . . . . . X . + + & 1 $ & 1 2 8 2 8 3 < $ $ + $ + + + $ + + + # , < q q 5 5 5 5 , 6 q w 6 1 & % % & & , 6 6 R *.c 5 * & # # # # # # # #         ",
"x B 0 O = 0 e w ..fX0XO.v d b c C m ] `.`.8.{.8XA. .e 6 , , & * * , , 1 1 1 8 9 0 0 5 V C n V ^ j l s / G / G s h a.).^.u.e.e.:.Q  .! G ! / | ! ! Z.5.=.=.Y b w 6 q 5 q 9 q q p 9 q D N.x.{ C Q _ ) j f G *.| s 8 d s d d b e q 6 $ , 6 $ $ # $ , $ + .           B B 5.BXxX$X~.OXS.u.u.<.<.(.ZXCX*XE.'.S.V.*.9.rX:Xu.A.u.u.).7Xp./._.>.<. .i.:X2X1X_.qXpX3X^./.).^.{.<X^.u.Z.<Xp.0.2XiX).A.).2XwXqX).2XpXwX3X[.H.y.,.@.! 7.pXzXzXzXiXzXqX;X6XuXjXlXiXzXiXK.t.,.| ( / _ n i n V V Z / 0.^.{.uXuXr.p.H. .Z p t i i f f n / >.P D B j.H B v.$XBXyXz.W.XX!.0XG.M.XX0XG.>XG.j.j.-.OXG.L.r.Z.D.:X>XD.=.2.x.k.8.9.J.].3.#.B.F.OX9.j.c..XG.OXG.XX0X#XOXk.5.9.H t.|.] D 9.eXhXqXaXsX1X| Z G ! 6XjXaX7XeXfXfX4XS.8XMXsXsXmXfXwX`.i.7X4X`.'.q.q. XlXZXNXAXZXlXlXrX{.7XkX(./ Q ^ | S.].E.8.#XxXyX..S Q Q S W l ; O         2 3.#XyXBXvXvXgXnXCXBXCXZXMXnXHXAXNXNXmXjXiXiXwXsXiX1X:X2XqX(.r.D.L.X.X.! ~ F X.{ | ! ! ` ` m a 2 X                 @ & # . . X 1 & < $ + + # + + + + + + + X + X X $ , $ X X * 7 q d p 8 9 9 ; * & * * w D e < # X # , & . .     . . . O       ",
"e x e O > 0 e h M J J d < 9 6 q | }.`.J.S.7.t.7.K 6 5 , * & * & & & & * , & # 1 0 9 s C A K A ^ S n &.x.../ :.A V h :.a.r.u.@.( n ( @. .t.i.K `.C.b x w w w < 6 6 6 3 1 w d q q g d e 6 J J Q ] W V g y s V h 5 8 9 5 0 6 6 6 , < $ X X + X + + $ + .             e M .XxXoXb.q.x.4.7.s.).:XiXmXtX XQ.V.i.N.] >.5./.7.i.p.p.).a.u.1X:X:Xp.@.:.(.<X1XpXqXpX;X:XpX).^.'. X/.R.8.&.A.^./.(.{.).p.2XwXqXqXH.r.H.lXlXwX[.p.>. .r.2XiXiX3XqXqXqXK.J.:XlXwX3XzXzXwX[.H.p...e.:X@.C ..>.R.Q.x.V.( R.aX{.@.J.`.@.) j u s f a G %.%.[ [ D B B.=.U c.&XyX.Xc.F.W.+X0XXXm.XX0XeX+XB.h.F.G.F.c.k.L.1X| t.N.P X.O.O.=.3.=.S.|.N.G.G.OX+XG.F.C.G.G..XG.+X+X5XG.j.j.x.N.[.k.! ] ! 8.6X:X[.<X6XJ.A.8.D.7XnXnXNXfX8X8XG.}.'.`.6XaXfXkXnXhXfXJ.5.<XrX).rXkXzXNXSXZXAXNXZXZXfX5X7.V 8 - - 5 8 v I k.~.F.C.=. .! S k W k : o o : 1 c !.0X#XrXrXaXnXFXMX@XeXfXfXdXkXLXLXGXLXDXMXMXjX|.'.uXDX8XMXMXBXvXM.0X0X0XxXvXGXDXMXZXNXBXMXBXBXMXcXaX>XO.] ! [ 2.3.x.G.+X.XB.[ ! ! v b < $ .     . X X . . .             X f.:XzXkXzXPXHXsXlXAXZXmXmXZXFXSXDXdXrX].].].$X!.C.| %.b < + X         ",
"r L x = X 0 w 0 d w q w d q w 5 q 6.>.H ] t.H 1 , * $ + # # % * & @ + + + % % & 5 0 h C A G N { _ Z k.5.-.'.4.F V n h G Q g g A f Z @.9.q.C e J b r w w < , r r w w r r r w b b x d e q B T P J d s s s 8 8 5 1 6 5 5 5 & o X . X X . . . X + + X .               * Y xXXXn.3.0.}.u.;XlXKXAXhX>X'. XA.A./.S.0.7.N.(.^.Z.H.u./.:.i.^.2X1X).<.>.p.;X(.qXpX3X3X3XpX/._ 0.,.&.R.0.| 0.a.p./.{.1X(.).qXqX3XH.,.,.,XhX1X;Xt.@.,.>.A.:X,X1X:X1XqXK.t.H.:XwXpX1X1X;X2XqX{.i.,.i.t.N./.<X8X=./ ).i.a. X/.( A.:Xr.uX<.y j G / { 9.[ H %.J x -.v.o.j.g.c.g.G.#X$Xb.+XxXG.NXJ.L.G.G.G..X0X}.L.L.k.#.! 2.>.O.5.5.3.[ [ | D.4X!.OX0XOX0XmX8X+X0X!.G.9X#X].OXc.`.!.`.@X}.D.J.D.8.9.8.G.t.#./.>X6X>X8XjXmXhXmXnX8X@XeX8X5X'.|.9X9.8.uXZXiX`.`.kXmXNXmXhXkXhXlXZXlXAXSXZXkXi.g 7 8 8 y 8 p 5 p 4.j.C.x.x.&...j u k k o % % : 9 b.0XeX0XuX9XMXZX5X|.B.k.4.3.O.k.vXvXcXyXfXeXG.G.L.x.@X0Xc.0X%XOXF.P.P.P.P.P.M.cXBXCXBXDXnXMXSXMXcXMXcXnX+X~.$X$XVXbX%Xl.z.xXxXG.k.B..XG.O.k.3.I D 2 .                 : ) <XAXHXlXlXAXHXAXhXuXAXSXSXJXSXZXfXkXuX5XvXxX#XtX0X#XS.+X].!.B.c.=.b 2 - ",
"= x L L w < 0 q 6 w w < 6 6 & $ $ X & 8 G 8.9 1 * & % + @ @ + % # + @ o o @ # + % 1 0 s J G N C m Z ..! G ) C V s p 7 5 7 5 y c c D c q e d w < < < < = $ $ * < r r r r , < < 6 6 w w e x x M b e 0 d 0 6 1 * * # + X .                     . . . .               = v.xX=XvXCXMXZXHXIXKXlXpX}.N.S.V.S.V.R.(./.V./.A.A.{./.A././.<.H.:X_.2X{.).a._.^.a.H.).2X(.(.a.u.a.H.,.) p.{.p.).:X<X).(.qX2XwXzXzX2X[.r.s.d.(.:Xe.e.pX:X).(.;XK.t.H.K.J.1XzX(.p.K.A.A.@.;XiX7XN...7.>X{.7XkX1XC G E.1X{.:X7X$.t.[.V.[.A n m ! 4./ { 9.] I D e x K T Y T U T h.G..X.XxX%XvXKXeXeXJ.J.L.|.N.L.>.! m g c F | %.=.O.9.3.H ..B.`.OXaXcXfXfXdXeX!.OX.XeX9X].5XOXx.#X4X8X8XeXeXaXG.`.D.H.N.Z.}.[.[.;XqX6XlXNXNXuXaXfXAXsXG.'.5X}.}...2.4X9X'.aXnXsXmXmXzXlXZXAXZXhXsXmXiX X^.V y 9 7 7 7 8 y q H v.I C K i.<.~ j k k k % % - % * [ X.F r.eXMXFXrXz.l.c.j.-.j.k.!.xXxXcXG.eX+XG.G.%XyX+X0Xl.h.M.P.P.M.G.G.P.I.G.0XM.M.0XBXBXDXBXNXNXvXMXcXcX#X0XcX0X*X%X&X$XcX%Xk.#...G.2.%.b.&XXX$XG.j.b X         5 K @XrXuXSXNXZXAXHXpX1XzXiXAXAXlXkXiXa.d.y.,.1.A.].@X#XS.Q.#.,.N.t.C.`.+X~.c.b.",
"= x L L x 0 = r < < < < # X + . X @ # # p 9 & 2 < $ @ @ @ X X X o + X # # - 8 7 f h h s s 9 h n h V ^ @.G Z V V g p 8 7 - 7 d p F ..v b c w < , , , < < , $ $ + $ = < = = # + + + + $ & + + + X . X - 5 9 - + % * 8 d d H D b m C F C v b p q 6 X                 * .XxXbXGXlXuXsXPXHXzXqX7X/.4.t.i.'.{.R.i.i./.^.A.A.V.{.S.'.{.(.p._.>X(.:X^.).u.:.,.>.<.u.(.:X(.qXqX;X(.^.p.1X7X).2X).A. X;X:X1XqX2X:X2X_.(.H.Z.J.A.(.zXiX;XqXwXqX1XH.J.p.J.A.;XpX3X:Xd._.2X^.7X/.| `.}.<XlXlXu.Z 4./.S.wXiX7X}.A.( S 8 s Z n / / &...x.Q.E.E b b w R P Y o.G.G.c.M.+XvX0XdXeX{.O.| K.>XJ.%.W m g d m F ! ! O.8.9.9.t.5.>.%...2.@XdXMXfX8X8XaXG.B.eX5X~.j.|.!.fXkXsXdXnXsXsXeXG.D.S.J.}.[.D.(.[.[.1XqXNXNX7XwXNXmX8XS.S.].8X9XR.dX5XS.|.<XmX8XsX7XlXZXKXAXSXSXlX{.A V p s s 9 8 9 ; 9 N C N d s h Q <.) f.f.j m u o & - : q M b 8 m eXBXcXxXF.P.h.F.n.G.G.M.XXP.0XG.P.G.P.%X0XxXcX0XF.P.h.l.P.h.oXxXM.G.VX-X%XM.-XcXxXeXcXDXDX+XxXbXyX&XF.vXOXOX#X%XG.+X.XOX0XG.%X$XoX%XxX&XF.F.XXoXc.N %   6 J q.1XrXgXkXSXAXHXHX3XpXhXqX7XuX:X<X1Xu.e.1.` ` ,.N.p.7.6.p.s.| S.`.{.`.E.x.~.S.",
"= x L L L x = = $ $ X X + + X @ + + + & $ & # + X         .   . . O . X & 8 f f S h 4 - : % - 5 * 0 p p s g 9 0 p 5 - # . 1 q 2 p m { K 6 % o o o + # * , # + X X X X # X . . X . . . . 1 8 8 m  .0. XfXvX9X5.9X~.tXCX5X*XfXyX$X#X$XyX#X@XyXyXQ.c.x.] b 2         1 %XbXFXiX/.i.).lXzXhXuX1XA.1XS.N.'.6X{.^.7.u. X{.:Xr.V.}.'.,.2X>XH.^.(.(.(.^.(.(.p.e.p.K.^.i.:XhXhX(./.i.:.V.2X2X1X(.<.p.).:X(._.[.(./.qX).>XK.Z.K.2XwXhX1X6X1X,X6XwX>Xp.s.H.iXlXqX,X,XiXqX1XqX/.i.<XqXiXlXiXQ / /.{./.wXsX7XJ.! 7 t u f g G { K / H &.=.*.L e B J I I ;.x.+Xb.W.5XaXaXaXeXj.! F b m $.! ! m m ! G #.#.] ! 2...! ..N.J.6.6.9...[.eXfXtX8X0X+XeX+XaX@XB.c.F.+XtXfXnXmXnXjXuXrX`.`.J.}.>XZ.i.i.K.A.{ Q qXlXjXsX8X4X}.`.].`.9X8XmXAXmXNXkXnXNXmXlXsXmXSXZXAXSXhXA.0.V f.y 9 s i 9 i 5 7 y g h s 8 ! ^ j k j j j l t X : - - b P b i p %.eXcX$XP.M.h.G.oXXXXXb.c.#XM.P.L.P D l.#XyX0XI.l.M.l.P.I.h.P.-XM.xX0XM.oXM.M.0X0X0X&XP.+X&XXX-.x.j.F.G.J ] c.c.5.P..XXX&X0XM.G.G.XXxXVXXXXX.XF.B.c.8.B e N &.{.kXvXfXZXuXlXKXiXzXiX2Xr.^ ) ).).,.` y.` ` 7.p.@.:.,.e.p.6./.5X4X4X4XF.OX].",
"0 E x x x e = + + .                     .     @ 5 F H N e q e q 6 0 e e e 1 * # # : * % X % 9 d V A K G A C Z V N F G C s 0 6 1 & $ N b X O               . . X O O . . .     .   @ p #.:X:XZ.:X7X4XtXfX7X8X`.fX}.aX@XN.2.S.`.}.S.N.'.5X4X+X0XZ.}.}.Q.OXC.U 9     q XXcXNXe.>.) <XiXzXiXqX,X:XiX>Xi.[.uX XV.<.V.[.<Xp.>...i./.p.(.:X;X3X_.(.(.r.p.^.a.a.(.>X>Xu.s.).rX).(.^.<.) a.2X/.^.<.s.3XpXwXqXzX2XJ.iXqX1X_.;X3XwX2X,XJ.;XK.(.;X:Xy.A.p.s._.(.,X2XpXpX,X2XqX_.A.qX[.(.3X>.V p.[.<XiX7X4XD.g g f i f j g V G A C D N L L L x R -.*.-.j.3.OXyX+XG.>X:XJ.fXOXg.] Q n g c ! | #.#.! ! Q v F k.9.| 6.D.D.7.H.L.D.[.8XJ.+XD.+XeXeX+XsXaX8XfX5X8X.X!.4X4XdXnXaXaXJ.S.>X{.A.t.8.@.t.N...! A m Q ! F 2.|.F.C.8.7XdXAXHXlXNXAXAXAXNXlXmXlXAXlXgXgX^.A.) h f l 9 u 9 8 9 9 4 y h S V s ^ ,.h f u j j y -   % 1 2 M M M b 9 c X.G.&XM.F.c.XXxX-Xm.o.l.M.G.h.P [ I.h.h.P.P.l.P.M.#X&Xh.h.fXLXcX%XM.0X-XM.#XyX0XfXP.h.M.h.v.O.X.x.G.>.n Q j.3.W.n.F.h.O.z.h.h.F.F.M.M.OXF.8.N.9.| =.} F K q.R.V.9XaXNXiXlXAXzXiXuX{.:.` :._ W W ) :Xe.) $.r.r.s.p.H.1.t.t./.4XuXrX`.R.Q.",
"L L B E w = # # & < 8 d m F { 8.B.S.S.C.S.S.k.C.dXfX%XOXg.U n.F.z.h.m.h.m.;.z.v..X~.$XU.E.~.yXfXSXGXDXLXDXvXCXgXfXvXfX5XtX@XB.j.o.5.c.-.B e s p 8 5 2 1 & @ .     .               r.lXNXzXqX;X;X(.a.^.,.A.2X7XuX4XZ.p.i.s.H.Z.S.+XeX`.@X[.|.4XN.'.'.|.>.~ >.F -   b U.rXAXy.u. ./.,X,XhXlXhXwXwX<Xi.N.'.V.7.i.[.9XrX^.E.>.0.rXuX2X^.).qX3X)./.r.:.u.p._.:X)./.:X:Xp.A./.R.(.'.7.7.(.u.3XqX1XpXqXqX>Xd.qXwXpXhXqX7X:XwXwX6XK.y.p.;X7X>Xe.7.e.H.2X_.;X3X3XiX3X3X(.:X,.H.2XK.1X_.V  .[.sXhXqX7Xt...f k a t y p n C C A C D N b x e w M R =.2.[ [ +XcXMX9XqXjXrX%XOXF.k.2.Q c c F 9.| X.! F F | 9.9.9.X.| N.J.8X7XN.D.N.9.3.%./ t.eXOX'.6X9X8XrXaXaXeX4X9X8X>XfXmXiX+X8.t.t.Z.6.6./ ! 6.@.#.| | t.F D =.J.dX`.V.nXdXgXAXHXAXKXKXNXAXAXmXAXZXmXlX1X,.).G f h s p 9 7 7 7 ; 9 d n Z A j C ^ g q 8 p c p -   @ 2 7 d U J v b o.l.F.&XxX0XxXVXVX-XXXb.&XG.P.X.h.L.L.G.h.h.G.G.P.P.&XG.+.l.nXAXNXcXyX0XG.G.yXyX%XyXG.h.G.F.c.k.2.! #.#.G ! O.c.$XB.9.,.Q n X.c.F.F.L.X.k.7.6.,.>.>.! / b F q./.A.<X<Xd.KXPXzXpX^.i.7.^ ) :.( Q ^ e.pX[.d.p.s.s.y.p.;XA.4XS.>.x.i.>.7.B.Q.",
"E.sXgX@X9.S.].9XcX8X8X5XMXDXBXfX0X0XvXcXfXMXMXcXvXtX9X5X9X|.G.}.tXCX@XOX@X5XcXbX%XoXoXoX=XxXCXFXFXCXMXNXDXDXBXSXnXDXNXnX5X#XeX8XOX@X#XG.l.U %.k.4...2.>.| H g - X               2 uXHXKXKXKXKXKXAXAXlXK.1Xy.#.;X(.%.( t.#.( #.L.[.8XcX>XZ.K.;XD.[.eXG.` S ~ Z i . x T '.pX@.>.,.G a.sXZXlXNXhXqX`.A.V./. X0. XaXrX7XuXrXi.E.1X1XsXuX:X(.H.a.3X).,.^.>XuX2X;X2XhXuXpX/.2.| 2.4.0.u.1./.hXpX,XhXiXqX;X2X:X/.>XhXwXiXpX/.r.J.iX).a.1XpXpX,Xu.<.p.p.u.2X,X,XsX3X3X,Xi.C u.(.pXzX:XV u.<XiXlXhX/.[.7.g f i u 2 g G ..>.G b V B e , r w I %.G.L.O.D.#XeXeXwXiXNXyX%XG.l.B.B.O.! ! >.] %.9.3.] #.t.k.2...#./ 2.D.8X8Xt.Q L.t.F c b ! J.6X8X4X>X[.`.>XsXjXnXsXlXfXsXjXsX7XS.:.g _ >.>.| Q ! | >.8.2.] ..] 5.9XMXsX8XFXsXNXNXNXHXPXKXNXJXAXAXKXZXlXZX'.^./.n g g p 9 7 9 y i 7 s f V S C 6 6 b e r r q w w -   & y i q U U h.h.P.M.oXcXbXxXVXVXVXVXVX0XoX0XG.G.0X0X%XG.G.k.M.0XP.l.P.P.I.P.eX|.MXPXBX}.j.+XN.x.F.z.%XW.-.5.......#.>.O.>.X.5.k.J.D.eX>XW n n m 9.6.#.#.9.D.Z.t.H...v M 2 N } N.7XsX<Xe.lXHX7X1X:X{.@.Q >.t.,.1.@.Z.}.6X7X(.p.y.e.e.e.(.J.A.'.C./ F ..R.B.",
"SXvXrX@X0X+XtX].C.=.C.`.F.@XMX@X8.|.9X8X#X5X0XtXaXfXvX0XvXnX5X+X].tXtXMXIXBXG.b.&XXXyXbXbXcXLXIXJXLXLXBXDXNX0XaXrXHXNXBX8X'.nXBXvXnXfX0X0X.Xk.j.+Xr.r.,.~ S j k 7 o           d g.NXPXKXHXqX2XwXzXlXhX:X! g n L.(.,.m ~ ` ,.J.J.A.J.}.>X6XeX>X>XZ.H.t.` f.Z m 9 0 R B 4.3Xp.x.a.) {.iXlXlXsXiXhX:X7./.}.rX6XaXuXuXuXuX6Xi.p.7X<X1X,X:X;X/.2X2Xu.u.(._.^.2XpX1X<X(.(.0./ { *.8.7.q.u.(.:X/.u.).iXqX:X1XJ.s.7.[.1X:X:X2Xs.(.uX7X/.p./.^.{.p.7.u.p.7.<.d.;X3X3X;Xp.G h @.s.(.;X@.:.:XpXiXZX(.C `.G a a t t a Q >.| / C A [ E x e e e O.k.D.L.L..XeXG.D.,X1XhXcXxXOXG.+XD.2._ #.Z.L.D.9.9.L.J.k.%.! Q ! ! ! L.}.4XG.[ S.F.%.] m M 9.S.D.t.9.D.`.'.aX8XjXNXnXnXmXkXkX<Xr.k n / 7.N.t.p.7.4.D.`.].S.9.9.`.Q.].cXMXMXnXSXHXhXjXHXHXKXJXJXHXHXlXHXNX).'.A.V k p 0 1 0 8 9 s 9 p d d 0 0 2 1 1 r w 6 < 6 q : . : 7 i v m.M.XXoX&X-X%XBXBXxXxX-X-XVXoX%XL.P.G.0X0XeX+XM.0XG.0XcXM.h.h.l.h.P.+X8XtXDXnX8XD.B.O.=.=.v.-.-.j.5.4.{ |  .%.6.k.8.3.S.|.J.4Xp.G | ! m ~ ,.t.3.O.L.8X|.r.Q m b 2 v Y 3.q.{.).s.lXAXi. .>.p.1._ i.A.,.@.6.Z.J.'.N.[.:XH.y.H._.e.Z.}.@XB.4.9.&.| ^ ",
"uXw.$X~.G.OXQ.3.O.x.C.5.9.|.9X@X|.C.F.F.|.OX+X@X9X0X5XQ.B.!.c.G.!.x.c.].9X0X8X+X9XMXBXbXbXvXvXvXZXDXMXtXcXeXB J P I ] [ X.5.S.aXmXfXaX0X@X%X.X3.@.n y y 8 - o o 2 i : o X o   [ 0XNXKXNXwX6.m v n k b F c g m e.zX,X,.,.#.D.>X>X7Xt.#.J.J.aXnXcXeX[.s.,.W ~ W 8 B Y.w.0.^./.]. X/.N.^.(.hXiXzXNXuX7XrX'.{.8X5X:XrX1X<X8X).0.(.rX<X3X2X1X_./.;Xu.a.).H.(.iXlX3Xa.:.) >.2.x.N.E./.'.3XqX).s.( 1.uXlXiX(.J.qX2XA.#.G  .:XsXpX[.iXiX).^.:.,.<.i.:X[.6X[.7.,.).:Xi.G s g Q <.7._ s G lXuX0.*.G G F f y 7 u V W X.] / C V G L B 0 x e e O.j.D.k.G.+X[.D.y.$.@.J.bX=XM.G.}.G.Z.#.#.m X.9.9.k.J.L.9.t.( m c g v X.5.G.!.D.B.O.O.k.k.J.L.5.8.[.|.>X'.8X8X+X7XmXNXNXNXmXuXG i S ] / 2.8.9.q.D.N.+X@X9XeX5X@X'.=.U 4XNXmXdXrXmXkX6XlXHXHXKXKXKXHXHXZXK.a.^.^ j s 7 1 5 7 0 p 9 8 9 e 0 5 7 p g s 5 q q 5 q 7 # . ; - 2 R n.M.n.h.I.F.%XnXLXVXnXcX|.M.G.L.! P L.P.+XeXh.h.c.P.0XvX%XP.h.h.l.F.8XeXeXcX#XL.%...=.2.] } *.3.v.W.F.5.9.] ! Q X.2.! 2.`.S.Z. .! #.#.` @.k.G.-.[ k.0XZ.@.Q J b 1 C K 5.[. X7XiXKXHXH./ n C 6.y.Z.S.A.J.S.S.S.'.`.}.{.;X>X[.(.r.H.J.C.8.>. .G c G ",
"rXrXrXmX9Xk.I ..~.k.c.F.B.8.O.].tX@XN.B.5.3.`.9X@X0X#X} x.0XOXB.~.vX].Q.|.F.+XfX0XfXyX&XcXvX$X5.z.C.~.#XOX=.J ! H D ! H J D 3.dXnXfXaX+X+XF.z.OX%X@XG g u y b H C F v - : @ X 5.aXHXiX8X|.| 2.9.#.Z m ! ] ! ! ` Z.wX,X6.H.6XeXJ.[.J.y.@._ _ 9.eXcX+XD.L.L.( Z y *.Y.z.].N.rX9X X XS.E.V.uXhXlX7X}.<XuXiX<X<X1XuX7X<X{././.A.i./.).:X[.<X,X,XiXd.d._.p.(.).a.>.( ) q.7.5.C.`.aXuX^.2X:X:X{.^.p.).2XwXpXwX1X2XJ.i. ./ 2.8X7XuXmX1X^. Xa.*.7.uXjX2X:X<X4Xi.A.A.*.g s V V A V 8 5 G '.9X/.7.&.2./ y i t p V m ! ! Z j K ] e e N E N q 5.D.D.G.J.|.t.r.H.6.#.#.0XBX$XG.G.D.%.| m n m m ! #.F.D.L.L.%.| _ G ! G I C.F.|.eXG.|.G.eXjX|.D.[.8XuX}.S.6X8X[.N.`.AXNXmX7X<Xk p | ]  .....2.9.x.N.+XtXaX[.c.}.Q.R.}.9XfX5XN.G.uXiX`.[.nXHXHXZXHXHXSXlX@.^ s.h g s 1 7 8 7 7 8 4 8 s q 7 - - 9 q p s q y f 8 2 o o - 2 P T h.+.P H F ] O..XcXD.L.eXk.X.! P ! O.k.k.D.k.P X.+.h.0XbX+XG.P.h.h.P.NXG.0XcX0Xj.O.O.H ] =.5.F.c.U.&XF.3.k.>.| ( / B.x...9.| | ! %.9.2.#.9.k.L.%.] O.L.( ( G X.J w b Y *.N.7XrXjXSX7X@.! S G @.t.6.9.2.B.S.|.@X].9X}.<X<XJ.}.1XA.S.S.B.N.k.3.2.|  .",
"q.uXJXSX8X8.3.x.+X0X9X@XcX5XB.[ '.OX! 3.N.N.OX5X8XOX3.2.3.j.OX.X9XnXdXB.[ ] *...V.~.@X%XgXZX+X~.].x.-.O.J [ O...3.3.8.O.k.#.] N.nXcX0XfXyX$X$X%X$X.X5.G H } z.z.D F U N : o 2 .XfXAXNXD.H b ] 2.9.L.9.F ! %.! F Q ` @.$.J.>XJ.H.r.,.A.K.#.W ~ | eXM.D.J.L.L.~ i h.n.~.5X8.6XhX7X7X8XrX<X}.jXuX[.:X(./.8X7X1XlXpXE./.i.&.p.R.Z./.hXzX<Xu.^.3XpX).d.^.:X/.p.r.@.a.(.{.Z.[.>X}.7X:X^.uXqX:X_.)./.1.e.i.p./././.[.(.p.A. .7.`.}.<X2X3XkX}.^.7XmXlXuX[.:X}.`.9...^ g A ^ V y q h V ) N./.kXNXfX7.n i V A V f h A S h h d e e B E Y I 9 E.@XC.k.G.[.A.D.Z._.e.7.cXBXG.G.9.@.%.W Z | #...#.B.eXeXeX|.k.2.( ! #.#.[ B.@X+X+X0X0X@XrX8X8XaXmX8X9X6XS.`.>X8X8XL.eXmXJ.A.` - S { { 2.8.4.5.=.3.C.Q.@XnX8XO.x.c.8XnXkXaXQ.F.4X3.#.k.3.6XSXPXHXKXHXNX:XV c G d s p 9 y y 7 7 4 5 8 9 9 5 - - 5 y q s p u f 4 @ o % : J h.T P F o.O.P M M m D.k.m k.k.X.! X.P [ k.k.P O.O.h.k.j.l.G.M.G.G.j.l.G.0X+XM.G.P.L.h.l.-.-.=.j.G.h.h.w.{ O.5.2.B.9.X.3.D.k.k.D.%.| / 9.9.6.t.,.O.%.O. .Q m S ! U I d c N J Q.7XpXlXrX7./ S A ! >.r.r.,.#.#.B.@X9X9X8XqX}.}.:XuXfX7X`.Q.8.5.C.v.,.G ^ ",
"v.q.7.&.] [ ] ..2.`.fXnXeXfX`.F F H H 2.9X8X+X8X9XOXS.8X8X@XeXeX0XtXG.G.@X5.x.5.3.~.'.Q.tX].].#X+XC.Q.=.I ! I I ! 3.L.2.2.%.[ >.|.0XfX0X}.5X%X$X&X*XXX;.v.U.n.v h C F h i % v .XfXAXqX| m Z ] 4.>.#.9.N.~ #.%.W ` ` $.H.;Xt.L.e.1.e.,XwXr.$.$.t.yXxXeXD.k.X.( i ;..Xz.Y 7.uXlXuX:X:X2XuXS.A.(.J.^.A./.}.<X<X4X X}.<X2.7.{.<X}.p.d.(.^.^.p.a.:X^.H.^.^.d.[.7X:X2X<X/.(.uX1X>X[.[.).7X7X1X2X(.s.@.1.@.<.s.2XpX3Xa.(.7X0.8.2.>.7.[.hXSX1X{.uXiX7X1X>XK.i. . .<.Z )  .N g c ) G ( 7.6.| 2XnX`.| a y / w.*.K V s 9 s h g e B E K K ] q '.OXk.OX0X}.[._.Z.y.| Z.}.eX! F W ! m ! #.! %.( N.G.G.3.L.}.k.#...3.%.] 2.C.5XOXn.j.G.5XrXeX8XkXmXaX'.S.D.9X6X>X8XL.[.AX7.! t u ( ..>...2.9.V.V.C.].@XkXjX>XN.C.'.7XMXaXuXaXS.c.O.>.L.}.sXAXJXHXHXHXHXr.2 y s s s p p p y t 9 7 7 7 9 u s 9 9 y y g s s u l 4 o . # p T T P b M O.[ ! m c b 3.D.L.G.G.k.h.%.X.[ j.O.X.h.X.P.l.P.G.G.G.P.P.P.P.G.G.+X+XP.j.X.O.h.+.l.;.P %.X.O.} =.z.=.2.c.} ! ! %.%.k.F.O.O.| ! ! #.$.` / j.3./ n l Z I P J q 0 w K <X8XaXnXR.G G ^ | | Q 7.u.1.i.A.{.'.6XaXdXaX<X[.4X8XuX8X8XQ.3.8.F.&.( G G ",
";.-.-.U O.X.[ 4.2.j.].].%.O.} ....] 2...k.+XG.D.|.#XtX`.G.aXnXeXS.`.=.3.yXcX].-.3.{ | v.fXtX].R.~.].Q.C.I O.} ] O.O.8.3.[ X.`.G.L.D.OX9X0X0XxX%X.X%XXX;.n.n.;.9 y C b m j 5 U #XfXhXH.7.N.>.#.S.N.#.( ( _ y.Z.e.y.y.y.Z.e.y.s.~ $.y.K.A.e.e.e.s.0XVX#XG.L.%.( 2 w.$Xg.V.<XNXlX_.p.N.2.8.S.8.J.J.V.0.V.^.[.E.`.}.{.{.>.R. X}./.<Xp.@.^.s.d.u.).^.H.<.,.u.;XH.a.{.pXiXqXuX2XuX1X:X(.^.<.u.^.A.<.<.p.A.r.).lXzXiXd.7X<Xi.i.>.7./.>X3X7X]. X X{.2X2X/.{.^.@.,.u.^ ) C n v / | | V./.A.:XqX[.| F y t V { I G G Z f s N V N w.K I *.K 5 `.MX!.fXnXB.#.,.%.F ! b i n n m Q a m O.] %.X.| N.B.F.>.L.G.|.8.9.k.] ..2.j.-.-.+.B.OX+X8XeXeXdXsX7XeX4X}.sX8X7.N.7.6XNXZ._ t Z @.#.>.2.8.S.Q.C.$XOXyXmXmXsXB.`.sXnXiXkXNXnXwXB.j.4X8XdXmXnXNXDXSXSXZX@.n C y y i u u p s u y 4 t f s n F V a y y s h u y i ; o o X J h.T T U o.o.] H ! ] X.k.k.j.+XG.l.h.[ X.X.l.L.X.h.j.l.P.eX%X0XM.+XG.M.c.P.P.G.L.h.X.h.X.+.j.o.%.O.O.h.k.W.W.-.] k.F.../ 9.G.9.| ..#.#.O.9.t.r.,.( m o.O.! n n ! [ Y R w 0 C *.`.8XrXuX| G ( ( #.,.>.,.@.,.Z.>X7X8XfXaX8X[.6XuX1X(.u.r.A.N.9.>.9.q.4.i.4.",
"K { O.j.x.v.j.-.F.|.!.X.M v b ! 3.2.9.x.9.8.`.2.|.5XB.2.`.5X5X2...-.3.;.0XtXv.C.`.=.K -.*.5.v.v.~.+X].F.I M I x.k.|.] M v 5.].9.3.2.2.].vXtX0X+X#X%X%X-.;.;.h ; 7 c C m s 8 -.5XnXlX(.(.t.A.J.`.+XJ.$.` ` e.y.Z.K.K.y.e.y.$.e.y.Z.$.$.y.e.y._.K.8XxXJ.X.~ S Z ; ;.xXtXS.}.uXkX<X6XS.8.9.3.`.8XD.2.^ ~ i.6X}.7X7X XS.7.S.p.{.E.A.).u.r.s._._.H.H.p.H.^.).a.,.H.:X7XsXiX[.sXiX7X{.A.).).p.u.0./.1X/.:XqXhXlXlXzXK.H.H.7.<.^.>X[.2X Xi.a.).).3XpXuX:X(.r.r./.` s C A :.7.'.V.i.@X'.:X[.K.:X,.| g C *.G 2.q.&.*.*.] *.Y *.v.*.,.&.K 2 :XMXcXBX0X3.| F m ! 9.X.#.] #.%.m c %.! ] %.t.t.L.G.].8.S.|.[.D.`.3.[ v ! 2.} j.C.#X}.N.jXJ.G.>X}.}.eXkXNX6X9.2.7.D.t.@.H.a l @.@.,.6.7.A.4X@X].#X5XaXrXsXmX`.8.aXjXjXAXAXNXnXC.`.mXaX6XsXmXAXAXHXHX/.>.0.v s p p p u u u f y 5 h *.A N p y 9 h V h a y u 4 :   o 2 +.&X&Xh.T P h.l.h.h.P.l.c.! h.%X%XG.l.l.%.l.G.P.j.X.P.#X%XP.G.xX0XM.M.M.l.h.X.X.h.k.#.h.G.9.P %.O.O.O.D.eX0X%XB.9.OXl.2.2.B.G.k.X.8.l.B.M.G.k.t.@.~ Z F ] } j.c.x.5.*.K e w v { /.9XdX5XA.{.7.,.r.,.1.>.` | #.N.>XwXfXaX8X`.uXuX:Xd.H.p.r.7.R.E.R.}.[.A.7.",
"I D I D U c.G.c.B.].C.+.=.O.I I x.~.4X+X}.x.N.G.B.%.H D.`.`.|.5.;.w.l.tXvX#X$X#X].4.R.N.3.C.~.].rXyX@Xv.Y K B *.3.Q.O.o.O.O.o.O.O.@XOXeXvXcX0XXX$XcXBX8.C s 2 7 7 s V c s q j.tXSXzX_.).wXqXaX9X+X6Xp.r.y.e.$.s.$.A.,XK.e.e.Z.Z.y.y.e.y.K.d.e.@.}.eX,.( @.Z W 2 2.yXQ.>.7.(./.{.'.i.C.C.3.B.8XJ.>.../ 4.J.S.{.4X@X4.R.}.i.A.^./.:.,.A i.2X(.H.p.p.d.d./.p.r.[.qX3X:X7X2X:X^.^.).A.7.u.{.^.{.a.uX:X:XzXiX,X/.2XhXqX/.p.:X(.6XiXuX<X X7X2X0.a.iXzX:X_.r.a.<.7 h G G V.V.7.:.0.V.R.>XK.,X2X,.#.n ] 8.G *.8.>.8.Q.~.!.9.N.S.x.>.=.V & 8.nXDXFX#Xj.K v D `.S.>XN.2.%.F Q Q [ #.9.3.D.4XeXG.G.J.[.J.J.].k.O.F v v 2..XG.S.G.D.S.G.x.J.|.}.>X>XdXHX7XL.J.9.m 8 b 2 2 _ 1.,.y.A.{.wXsXeXfXfXtXCXnX>XiXuX`.N.}.jXnXlXmXdX4XrXaXiXjXwX<XkXSXHXkXA./.D D ] V s u y u 7 y h n *.K N C h S G K C g y y i ; o   X w n.n.0X&Xh.h.l.P.P.P.P.z.%XG.P.G.#XG.+.X.j.G.%XG.G.h.l.M.0XG.dXaX+X%XG.h.h.+.k.j.+.j.h.k.L.k.k.k.%.X.h.j.k.L.9.l.%.%.9.9.9.c.9.k.c.G.P.l.&XOXk.,.%.F ! 9.k.O.l.#XG.9.g.] x 6 v O.J.8XDXSXkX`.2.i.i.@.>. .( ,.t.p./.}.}.>X9X7XiX;Xp.s.$.$.,.i.'.S.Z.7.8. .( ",
"j.3...H F O.Q.0X+X0XyXyX*X#Xb.g.b.B.x.8.L.D.B.Q.6.b ] J.].S.k.F.b.v.n.$XyXG.W.Q.q.Y =.7.3.8.2.K &.q.*.J N B K T z.-.-.B.c.W.C.!.!.OXF.+XFXDXtX+X+XvXvX] t i t u i y s h a q l.MXHX(.p.1XqX{.S.G.S.[.e.H.s.t.p.p.y.d.s._.K.d.s._ Z e.$.$.s.$.W $.D.eXeXL.#.( $.y $X].7.*.0.0.7.S.J.C.`.Q.B.5.`.`.E.C.S.Q.9.#.8.`.}.`.@X#X@XS.<X<X:.<.i.s.^ ( s.).2X3X,XK.d.J.[.2XqX1X<X`.).u.<.<X3X1Xa.u.^.^.:.A.7XsXpXuXpX).2XpXiX,XH.).:X2XhXlXiXuXsX XA.A. X7X7X XH.( d d C ^ 7.p.7. . .q.N.{.{._.:XlXwXW h ..V.r.9.7.7.7.3.j.C.B.4.*...*.Z 7 0 | uX@XmXnX!.z.Y x.rX<XqX].G.>.G p n / ! ] 9.J.|.|.8.|.aXG.G.G.D.N.6.| _ | X.3.8.O.X.[ 2.2.[.9X7X{.>X8X8X8XG.%.M m 3.9.m c @.t.J.A.`.S.N.`.9X].gXgXaXfX8X8XjXSXNXkXqX>X}.8X`.].aXfX8X6XHXjX/.fXHXAX8.D.C.v G Z j f u y u u f A A V V A K *.*.*.Z C g 9 4 ; - O   + w m.h.h.&XF.P.l.h.P.M.G.M.xXfXL.k.k.j.X.h.L.M.G.M.0XG.G.P.G.0XBXeXL.G.P.j.h.X.X.+.+.O.+.9.+.l.D.L.L.L.%.j.L.9.9.O.9.O.9.l.P.l.l.l.j.j.l.j.P.G.G.6.$.#.L.k.%.>.F.OXeXk.g.J w < b H L.5XDXLXdX<X1Xr.( Q s.1.@.e.t.r.6.r.7.Z.>XwXeX:X(.y.` _ ,.`.A.<.A.i.:.2.8.",
"c.].c.x.x.9.}.MX9XMXvX@X0X%X.Xb..Xx...k.6.2.X.k.`.3.x.G.`.G.c.5.[ o.-.j.5.} 3.5.J =.j.;.} J K b b D N b B L R ;.T -.+XQ.c.F.B.B.F.-.G.Q.9X0XcX$XOX+XOXS.g u g f 4 h F d 7 q U ~.SX3X/.[.H.[.A.N.S.A.A.H.p.H.A.r.A.s.$.s._.e.Q ` @.` 1.y.d.$.L.:XtXtXeXJ.J.6.#.y ~.tXZ.i.7.| >.N.N.9.4.x.5.2.k.'.@X@X].!.S.N.9.4.C.~.!.+X}.Q.7.p.i.,.,.<.( ^ >.p.,X3XpX).:X:XH.r.;X>X}.[.<.:.e.<X).1X{.7.0.<.7.A./.2X3XpX).:X3X2XwXhXsXpX3X<X:X7XsXrX{.E.{.(.A.{.^./.A 0 4 f ) E./.a.^.:.0.9.i.R.}.1X[.6./.>.G ..N.7Xp...7.) K E.B.S.8.N.9.*.1 8 q K { N.V.S.].v.g.E.7XkXrXJ.9.k...F n m %.! t.J.G.D.G.wXaXJ.J.G.G.eXN.%./ ..>.>.! I >.>.9.6X9X4XuX8X8XeXeX[.@.2 p %.L.P.3.c.C.B.F.5XyX`.#.N.nX9XaXkXdXmXsXnXKXJXHXNXhXhXhX8X'.8X|.3.9X{.aXfX8XkXDXsX4.5.k.K Z S j k f u l f A A C f V ) C V V w.5.5.] p 5 : >     1 w I.l.O.oXM.M.P.G.M.M.M.0X&Xh.! ~ ! ! X.k.k.P.G.M.+XG.eXG.P.P.+XG.G.G.P.l.U P [ U +.+.9.h.h.h.k.k.L.L.L.L.l.X.X.X.X.%XG.h.P.M.F.c.F.l.k.k.l.B.G.k.k.6.%.#.| O.9.L.eX+Xk.+.v < p F tXDXJXPXlXsXwX>Xr.@.@.@.7.Z.Z.r.@.6.,.t.[.>X:XqX:XK.H.e.(.[.i./.6X(.D.C.C.",
"&X!.OX+X>.[ C.nX2.A.{.Q.OX~..X5XfXaX@Xc.c.B.3.! 2.@XaX9X'.|.G.H x F =.C.x.3.5.2.] I -..Xj.J *.g.g.z.j.o.;.h.z.~.;.k.0X|.N.C.F.F.O.8.B.c.OX+X.Xv.~.yXQ.5XA g m C i p &.F s 5 ] =.rX,.:.(.4XaXA.,.r.r.e.e.H.K.A.#.s.Z.$.@.$.,.,.e.,.6.A.$.y.H.0XeXeX8XL.#.9.| ~ a Q.aXjXjX<X8.2.7.N.#.| 5.B.B.C.4X'.D.4.N.@X+XQ.2.F.~.F.x...F | u.:.&./ ( >.K ^ <.y.H.(.i.e.;X2X,X<X{.i.p.r./.^.a.).{.p.^.(.^.s.{.:X/.7.(.2X1XpX3XpXqXiXzXqXjXpX3XpXkX{.{. XH.{.'.7.V 5 f h q.2X2X{.H.1.] 7.i./.A.3X[.7.2.S.qX>.@...i.i.r.) h 7.{.4.C.`.A.N.! C [ p D Y V e v.].v.;.9X8XkX8Xk.2.%.%.} O.O.F >.Z.S.H.6XwXeX>XJ.|.O.k.N.%.! / 3.L.B.k.J.[.eX6X8XeX>XeXeXeXuXfXQ : n X.m m m m k.G.XXc.F.&Xk.N.'.wXnXmXAXJXSXAXHXSXHXHXmXmXLXAX8XdX9X} v 9.8XA.9.>X>X'.eX4X8X=.K Z W j k f y f A G K C V K w.*.A :.q.9.x.j. .8 % o     & M m.h.c.G.M.T.M.M.&X&X#XG.P.P g m m g ! h.h.G.M.0X+X#XxX0XM.P.l.P.h.X.j.%XG.h.O.X.+.+.+.+.+.%.h.k.k.X.h.l.k.X.+.O.l.%X9.L.XXz.M.&XG.k.l.L.B.X.O.>XD.9.%.%.%.#.J.G.8XaXJ.j.b < q F 3.rXJXLXjXiX).2Xp.,./  .1.,.r.7.@.@.1.N.>X8X(.H.s.y.y.,.y.i.p.:X<XA.r.G.N.",
"#X@XvXvX'...5.@X8.c C ] E.@X#XgXfXdXdX5X@X!.!.B.8.9X4X8X8X].Q...K 3.~.Q.`.x.].S.4.=.5.c.E.v.g.z.c.n.v.l.c.!.$XF.C.tX5X8XG.OXF.B.O.c.E.W.x.E.!.B.~.].;.C.] h U U g 7 >...5 % v j.E. X0.<.7.4X(.:.e.Z.Z.t.K.J.Z.$.y.t.$.e.r.$.Z.y.e.$.|.6.$.J.5XeXk.eXD._ S m S m tXMXsXuXZ.S.i.i.p.6.{ 9.`.@X].S.0X}.N.2.S.F.].C.Q.F.4.>.8.7...]  .7.:.| 2. ...<.K./.:X:X(.1XlXhXiX<X:X(.).{.{./.2X<.p.1XqX).s.^.(.<X^.^.).qX3XpX1Xa.:XiXiXiX3XpXuXsXrXuXuX/.E.7.,.9 s @.0.7.H.(.^.7.A h  .^.0.7.i.p.i.Z./.uX:X@.| 1.>.` 1.W _ #.7.B.S.C.S.n C K q L K 0 e *.w.w.k.rXmX7XC.j.3.O.+.+.B.L.2.aXwXeXS.|.k.9.k.G.J.! L.3.3.k.3.3.G.D.N.eXwX6X7X4XuXaXsXaX6X[.n : y J X.m m a 8 X.G.P.Y.n.b.x.S.eXsXjXFXlXdXlXHXHXdXuXjXwX<XjXmX9X@X~.J q O.fX8X8XdXZXQ.9XsXuX..S S f.S j k l f F H C D K { / *.*.q.Q.x.2.N.6.2 % O     1 R m.I.O.$XM.M.xXoX-XxXG.M.G.X.X.M m X.l.G.oXM.0X+X%X%X#XG.+XG.0X+XM.l.G.+XG.|.G.k.h.h.P.P.O.X.h.L.J.L.k.O.k.9.L.l.P.l.O.P.XXG.P.h.j.c.G.D.L.L.k.k.L.G.B.#.! #.G.9.L.dX+Xg.b & < b I =.DXJXpXqX7XJ.e.1. . .1.@.( t.t.Z.p.J.6X[.s.H.J.K.A.p._ ,.Z.t.Z.A.A.Z.i.",
"W.&X$X%X%XC.].B.k.H p { #X0X5XfXcXfX9X9XyX|.c.Q.C.D.eXdXNX8X@XB.5.c.F.x.k.O.F.`.D.D.9.k.OX~.c.j.z.5.R -.b.c.|.3.8.9XF.+XJ.OXeX|.B.].E.@Xx.OX+XfXyX0Xn.OX5X[ P b s 9 p b 1 % 6 J 5.S.R.'.0.7.7.) 6.H.y.y.;XH.r.6.Z.Z.r.A.t.$.p.y.y.e.J.D.$.L.k.Z.s.,.$._ W S ~ X.N.aXhXhX`.&.7.N.V.,.#.@.8.`.>X4XjX9X'.4.{ 5.N.[ | 2.D.i.S./.Z.t.7.7.,...^ ] r.7X>X(.1X(.2X2X2X[.a.).(.{.<X[. X<X).{.).pXhX{.1.*.<.u.(.1XzXpXiXzXE.<.:XqXuX>XqX7XrX X1XkXNXiX/.A.>.9 V u.u.G h V :.7.^ *.G ^  .i.u.A.7.A./.).lX:X! r.1.$.W n $.J.`.`.L.N.{ 1 c b q V L L N b K Y 3.nX8X9.3.O.k.j.3.j.c.z.2.J.>X9.X.%.9.D.J.D.%.k.G.j.g.h.j.j.c.! m 6.J.qXuXZXSXNXnXwXQ 2 2 8 m ! O.l.k.j.X.h.l.P I J P 3.J.@XnXMXMXjXsXZXHXSXnXuXkXfX].8.'.8X0X5X+X].+X].x.C.C.].'.aXMX2XC Q j S S k j j ^ ! C c K I G d j  ...4.$.%.G.t.: : O     w B U h.U l.h.&XBXyXM.yXD.j.o.X.%.! X.k.+XcX0XM.0XG.G.P.G.M.P.P.0XD.P.+XG.G.G.+XD.h.P.L.G.P.9.X.X.X.%.D.k.%.9.l.l.P.l.P.9.9.P.l.P.D.P.G.G.G.O.k.k.k.#.O.k.X.! Q ! 6.G.G.>XG.a $ , , D K 5XHX1XiXhXqXp.>.,.t.r.p.A./.#.Z.r.#.#.| r.qXiXwXqX;X`./.N.r.K./.A.t.,.",
"T ;.g.j.b.F.-.U v p ] !.0X@XtX4X8XtX5XcXdX#X|.F.D.x.'.>X}.Q.`.E.k.-.x.x.4.4.3.`.t.k.S.`.].B.x.c.g.=.P F.0XB.Q.F.x.j.|.@XG.OXtXtX@X!.C.~.F.0X8XtXfX%XW..XxX..J =./ p 9 q , % & x [ V.~.#X/.p.u.i.r.y.r.$.e.$.t.y.s.y.@.$.p.H.A.y.H.H.K.$.y.J.J.D.L.,.W Q ` e.$.H `.<XlXiX<Xi.0./.>.#.,./ @.N.[.7XuX8XQ.D.S.8.C.9.{ i.}.}.8.N.`./.7.8.H.7.K { H.1X2X;X2X2X2X:X(.;Xp.a.3XaXaX1X{.^.a.2X2X{._.0.*.>.'.7.^.iXsX:XqXhXuX{.1X3X;X>XiX7X@X1XuXlXkXhXrXuX) y S ) u.>.:.G ^ *.i.R././.{.:Xp.^.y.u.{.7Xp.<X1.1.e.` m ` {.}.`.B.N.G.| 5 H b 0 C K w.E 0 e N -.dXJ.} 2.3.S.eX9.j.c.3.k.9.P c ] 3.D.J.eX>XD.G.G.G.B.G.l.j.j.X.! v m 6.dXNXA.! n a 2 2 7 b ] 3.D.G.G.+XG.G.j.H F c v 9.N.5.B.`.5XrXnXgXlXSXkXMXZXkXtX`.q.rXcXyXyXyX8X8X|.S.V.Z.`.'.lXK.Z j j S j j n ^ { ..^ C / { V j / ] :.&.O.k.eXr.: :       w R M T m.[ P.nXBXyX+XxXD.] P +.X.P %.+.L.0XeXP.L.P.l.X.l.P.P.%X0Xl.P.G.M.M.+XL.L.G.L.j.k.k.X.j.! F ~ L.D.%.%.G.G.L.L.9.9.L.l.j.j.#X0X+XG.9.O.k.L.9.Q F j.P.l.h.k.( %.9.G.G.b + $ + * < '.6Xi.K.,X>Xp.e.,.y.i.#.t./.@.~ | @.@.6.K.wXiXy.H.:X4XS.i.r.@.@.H.:X,.",
"n.b.g.z.z.b.c.J v I K 8.9XtXaXfX8X@X8XfXfXaXcXfX0X@XG.C.4...-.E.+Xv.5.5.=.5.Q.3.8.B.}.5XQ.].C.c.x.3.x.OXc.z.OX#XC.j.OX5XG.eXOX0X~.H 9.].#XvXFXFXDXcXOX%XyX3.x.5.w w 6 5 X X + q e #XtXi.V./.`.{.>X:Xy.e.$.@.#.r.A.r._ @.H._.H.K.K.J.K.K.Z.:X7XZ.L.e.| W Z.eX,.c 5X7XpXsXwX}.i.Z.6. . .7.r.i.,._./.[./.x.B.C.x.B.=.`. XS.S.R./.2.2.q.].S.9.i.t.(.2X:X:X(.(.;X;Xp.,.;XlXiX X{.:X:X(.<X(.^.,.7.u.p.(.<.a. X).p.:Xp.(.2X3X:X^.qXlXsX1XrXrXhXsX7X1X0.p l C  .p.p.&.A C ) <.0.;X>Xp.H.(.H.H.p.,.^ / >.,Xs.` s.1X2X|.S.B.D.t.7...G 2./ s G / w.4.e * K j.3.aX8X|.4X8XfXD.} N.k.k.k.k.O.t.k.D.eXeXJ.S.G.G.+XG.B.B.C.k.k.k.3.#.[ C a 8 y y u y - a | 5.B.G.0X0XM.M.xX+XD.x.5.>.k.S.C.9.8.iX0.x.aXgXmXmXMXkXdX!.#X5XyXtX#X#X7X8XfXaXJ.4XgXZXaXAXe.j W j Z ^ G :.q.x.4./ K / / ! G ..2.2.i.L.eX0X,.: > O     w M P U m.P.G.MXBXcXvX8Xk.O.h.X.h.L.j.l.|.dXG.l.h.L.G.h.%.h.P.G.P.eX0XG.%X%XG.L.l.P.L.D.G.L.P.k.%.X.F F k.9.k.P.P.O.h.l.h.G.xXOXP.j.G.G.G.L.L.L.D.#.M ! k.G.M.M.M.j.3.k.+XG.x + # & $ 3 ].A.A e.t.6.p.J.1Xs. .r.#...( @.p.e.t.Z.;XNXiXH.>X6X4XA.`.t.| _ 7.[.r.",
"m.l.z.g.b..X;.U +.j.x.9.D.7XmXFXkX4XQ.F.tXtX+XtX%X#XyX9Xx.9.x.C.8XfXG.3.k.F.~.4...N.k.9.t.N.G.G.N.c.F.B.g.O.-.v.G.D.F.0X+XJ.+XOX5.B.].|.+XfXSXLXDXeX#XBXMXyX3.1 6 5 * #   . O & , 5.5XeX<XD.>XeX>X7Xy.p.K.$.` A.;Xt.,.s.J.;X[.).A.(.(.K.s.p.7XdX8X/. .r.(.A.Z.v x.uXmXAXiXN.D.7.>.7./.1X/.( _ A.y.N.'.}.@XQ.0XOX}.`.S.C.S.V.'.7.2.C.+X8...>.] 6./.:X>X3X:X).)._.).qXK.Z.Z.s.;XzX(.(.H.r.6.8.6._.1X^.).1X).)._.(.2XpXpX3X(.).sXlXsXpX1XrXuXrX/.A s S  .i.H.a.*.) | >.4.7.:X2X .^ 4.,.2X{.:.H | #./._.` s.qXaX4XS.V.S.5.8.N.#.] G d A *.S.~.w.e *.q.4.5XrX9XdXnXkX`.X.D.[.[.}.eXj.k.D.|.eX|.L.L.D.L.D.P.L.k.D.D.G.L.L.L.L.9.X.m a 8 2 ; g X.L.#X0X#XD.G.G.%XxX%XD.x.q.O.3.`.[.S.J.}.O.#.4XgXdXDXFXmXtX.X*XgXfXMXyX#XaXgXmXZX7XvXgX@XsXPXy.f j j S ( | N.F.k.7.#.! X.#.O.] 2.k.D.+XG.J.+X>.1 X       w R M M +.M.oXVXDXcXG.G.3.k.j.h.L.P.j.G.nXNXaXG.j.%.h.h.j.l.l.P.eX0X+XM.%X%X|.L.L.XX|.G.P.D.D.P.L.O.X.X.%.9.l.P.l.9.XXeXP.%X+XP.G.G.B.B.B.j.L.k.%.X.k.G.P.l.P.P.&XXXM.G.G.O.b $ # $ < x Q.7X) Z.:X1X(.r.K.@.Q }.[.D.r.p.A.A.p.:XqXlX[.J.eX{.fX{.[.L.L.G.G.N.e.",
"T Y +.-.n.g.R h.l.c.3.3.C.aXSXAXaXrXdX9XOXC.b.c.v.v.c.5.c.4X7X}.[.eX9XG.}.k.x.C.N.J v ..D.+X8X|.3.k.B.j.b.j.G.eX0X+XG.G.eX0X5X>X8.j.].].OX0XvXvXBXcXcXDXBX0XP 3 , $ & + . O   * Y -.A.eX}.[.9X8X[.;X,XK.K.e.s.,X3XK.s.p.A.s.7.r.y.).2X3X2Xs.:XMX5XN.( i./.s.y.d =.rXlXAXNX:XA.N.7.7./.:Xp.7.r.r.@.@.8.{.aXS.x.].0Xq.9.V.A.D./.@.( >.i.V.4.| ( ) #.A.>X:X).2X:X/._.2XZ.Z.(.(.:X>XH.1X_.r.r.p.t.[.<X^.).(.,.{.).:X2X).).2X1X:X2X1XrXuX1XrXsX<X2.V ) :.<.u.i.a.0.0.4.p.p.A.<.u.A.8.] N C N B ..K | <._.d.d.d.<X].`.`.D.J.S.N.F.8.] V *.2.S.E.E.q.E.w.E.k.Q.3.S.jXmXG.l.|.k.wXeX0XG.D.G.G.L.k.k.L.P.P.|.G.9.%.k.eXD.D.G.G.L.k.k.9.F i u m O.k.G.eXaXG.G.eXG.#XcX+X|.'.Q.5.} L.G.5XaXaXt.{ G V.dXHXAXFXgXU.OXvXrXfXfXgXaXZXgXrXvXCXZXfXmXPXe.f f.Q ` #.>...N.J.G.D.2.! Q 3.O.9.OX5X0XeX'.J...c d X     6 M U M I.T.-X0XG.G.D.h.B.h.[ h.h.l.G.k.eXwXaX>Xj.X.h.h.X.h.h.M.xX+Xh.l.P.+XXXXXG.P.D.L.P.8XG.G.+XG.9.X.O.l.+X+X%XXX%XM.+XM.L.G.+XG.D.D.3.| ! m ! %.9.l.G.M.oXM.M.P.G.M.h.] e = $ $ e [ rXmXiXiX>XJ.H.@.` ` #.'.J.A.t.,.6.$.@.H.(.H.(.:X1X7XeX:XN.r.#.D.5XH.$.",
"+.;.m.XX.Xc.&XXX%XXXF.B.C.F.S.`.Q.9XfXgXgXtX@XF.~.U.=...Q.9XS.S.6XS.D.L.4.9.{ C H J m G | x.C.-.j.v.c.G.G.F.0XaXaXaX0X9X+XOX0X5XC.B.OX+XtX5XfXvXyXvXBXBXBXyX[ w & $ # o X O . Y U.U.(._.}.A.[.eXZ.K.H.p.d.y.d.3X,X;XH.K.y.r.| Q ,.A.r.(.,X).:XS.'.>.n Z.:Xt.6.p J 9XlXKXKXNX2X7.>.r.).2XZ.p.r.,.7.a.^.7.V.N.....x.8.&.:.>.>...) ,.7.u.p.9.{  .( ( r.J.>X>X(.K._.t.1.e.e.$.e.Z.H.H.1X1X:X(.).r.@.E.^. Xs.( :.2XhXqXpX<X/.(.:X).<X1X X XqX).<.c s A 7.^.^.).7.p.>.] &.i.t.1.u.7.4.&.N g b v ^ >.@.@.s.hXiX[.>X@X'.S.C.D.Q.N...H ^ d G { E.~.'.V.w.v.x.K C F 9.9XnX+XL.G.L.>XeXeX+X+X|.G.+XG.G.P.P.l.G.|.|.G.eXeXG.eX+X+XG.|.+X|.D.k.k.O.%.J.D.L.D.|.eX[.}.+X0X}.eX8X@X'.E.>XnXbXBXBXvXCXsXp./.7XMXFX$X X~.*XrX$X*XkXCXrX'.~.MXvXMXSXmX:.k f.Q ^ (  .| 4.L.D.S.}.8.| X.O.j.>.OX+XOXeX0X|.N.F ! m & . e R +.R o.M.XX0XG.G.eXG.G.h.o.P.P.P.G.j.O.l.eXeXD.X.X.h.P.+.P.+X+X+X0XeX0XG.|.eXG.D.G.eXXX+XeX+XL.9.l.+.X.P.%XxX%X%XM.P.M.XX+XG.D.L.D.G.j.j.2.%.%.O.X.X.O.j.P.oXM.c.P.j.] v p 1 $ , Y 3.uXdX(.s.$.$.| Q ` ( r.:XJ.A.H.#.r.e.@.H.e.$.A.d.p.p.e.r.#.y.N.Z.J.S.A.",
"U..XyXxXcXBXDXvXbX$X5X8X8.I -.O.3.-.j.~.#XfXgX#XtX$X~.~.B.F.S.G.].}.4XeXC.Q.S.8...X.! F D H ] =.c.|.@XOXc.D.cXnXsXcXNXnXF.j..X+X~.0XtX9X0XyX+XG.0XLXLXLXBX!.M 3 , , % # X   * m.n.] H.wXH.s.r.H.y.r.r.H.H.;X;X,X3X;XH.;XH.e.` W 6.y.( | p.( A.`.`.8.~ N.[.D.N.! P 7XKXPXKX1XN.<.,.,.i.^.(.(._._.{.<X<XA.8.8.=.F K ..| ..>...A ^ ..:.7.i.:.../ / ~ ) s.[.(.H.qXqXK.p.r.y.r.Z.e.s.s.Z.;X2X2X2X:XA.u.u.r.&.,.&.,.:X3XpX<X<X2X/./.^.:.,.:.V 9 1 5 5 ) ^.E.(.(.H.7.*.G m G Q >.u.{ K &.I I i.A.N.:.7.<.a.(.iXlXsX8X].].S.9.!.5.] { G s b K =.*.K K E.w.w.w.*.I j.dXDXfXG.eXL.D.wXdXeXXXM.+XG.0XeXeXG.L.G.|.+X%XeX+XeX0XeXeXeXeXeX|.L.|.|.D.k.9.[.eXK.eXwX>X}.>X8X>XeXwXjXfX4XnXDXDXBXDXCXBXCXvXZXuX}.uX@XtXgXgXmXrXgXSXSXSXZXfXrXMXGXZX~.&.u j Q ^ Q S / N.L.L.|.|.9.9.k.j.%.t.k.B.D.D.G.J.t.Q P H g X e M P J b U j.vXCXcXxXG.P.l.h.P.G.M.G.O.k.h.k.L.k.X.X.P.+XG.0X%X%X-XxXcXG.P.|.G.P.G.0X%XeXP.+XP.X.P X.h.9.h.G.oX%XxXP.XX+Xl.P.c.j.O.O.9.k.l.3.O.%.X.] O.%.O.j.c.l.j.%.] M v x 1 X 0 v.=.R.rXAX[.$.$.e.W ( $.6.t.y.@.$.p.J.#.Z.H.e.e.$.p.p.J.K.Z.;XA.K.[.:XhXuX",
"0X%X$X$XxXyXfXvXyX+XfX8X8.+.-.J b P g.j.~.Q.~.5XtX$Xb.b.C.+XtXtXfXtXcXfXG.S.G.J.S.9.3.O.! F [ -.k.eX#XeXG.OXaXfXdX8XrXaXQ.g.W.z.F.yXtXfX@X|.k.] O.~.C.c.G.P.b & < & + + X   0 U.5.V s.lX3Xd.H.H.K.e.e.r.s.H.K.,X).p.d.H.^.d.u.u.p.>.@./ Z q F K V.].S.R.8.! 6.G B Q.JXPXKXuX^.p.K.Z.,.:._.J.p.Z.s.{.{.8.0.B.5.I C ^ &.( A Z Z ( >.r.i.7...{ 8.i.G / e.Z.K.2XsX1X).H.s.;XK.K.[.K.(.s.t.p.2X2X:X:X^.,.K ,.<.<.:.G :.) G ( Q @...S 7 - : * e h Z :.0.i.7.u.a./.^.0.>.e.G | r.6.6.#.} 7.:.e.;X,X_.p.K.r.$.K.hXJXDXaX}.'.x.S.C.C.V./ G | Z K J K E q.q.=.~.@X!.*.F H.NXaXeX|.eXdXeXeXeX%X|.P.eXP.G.G.+X+X0X|.9.h.+XeXeXcXBXcXcX|.X.k.|.L.eX>Xk.[.sXeX[.eX8XeX[.jXeX`.aXmXG.wXHXNXNXLXSXSXCXtX@XfXkXMXrX{.rXJXSXJXJXJXLXLXLXSXJXJXJXLX@Xz.) f.n Z ^ ) ..#.9.D.L.S.S.D.k.k.k.9.k.L.L.9.L.t.t.Z.#.%.H n $ x R P w x P U eXGXBXM.G.P.h.P.P.P.P.G.l.0XG.%.X.H X.O.G.fXVX%X%X%XoXxXBXP.D.P.l.P.P.eX%X%XXXP.XX|.D.P.L.9.9.h.+.l.U l.M.G.+XxX0Xj.! O.O.G.G.j.X.G.M.c.B.P.c.P.j.j.O.X.[ H P B r # b W.Q.}.6XnXJ.@.p.$.e.y.r.6.@.#.e.#.i.] ..8...e.e.e.y.J.wXnXJ.e.e.r.A.D.,XeX",
"&X0X$X0XfXXX%X%XW.&XXXc.F.B.b.b.g.b.E.B.B.C.~.tX5XyXQ.!.#X@X5X8X8X5X8X@XD.J.D.x.L.N.L.C.N.O.O.$X0X5XG.G.OXrXaXeX4X8X+X!.l.j.!.-.$X@XI } P b 6 1 D -.J ] c.O.b , & # @ o O   9 W.*.h ;XlXzX,Xd.d.t.Z.$.6.y.y.K.H.,.d.p.r.@.,.a.(.A.>.^ K K J e e M ..0X`.A n ! v T k.AXHXuX/.V.A.s.(.J.H.:X_.H.r. .7.0./ 2.~.l.=.[ &...] F G >.2.p.a.>.A.|.C.8.N.7.$.:.r.Z.:X1X(.r.,.H.:XJ.J.A.:XK.,.#.s.K.^.p.p.7.^.s.p.2X^.a.:.d 5 8 - % 7 5 % - 5 p N K <.q.A.,./ K y.{.2X^.0.9.:X6XK.9.X.9.9.7.7.a.K._.d.;XH.t.,.H.y.;XNXLXHXvX8XN.N.2.>.{ ! h G  .q.*.*.*.*.E 4.&...! V h 8 %.ZXfXeXJ.|.|.G.G.|.G.G.G.|.L.L.D.P.D.P.+.h.G.P.G.cXaXeXaX0Xk.9.$.%.L.J.D.D.D.`.,XeXdXjXsX8X8X8XnXMXfXSXJXnXNXHXFXZXfXrX@XfXgXsXsXHXJXHXFXFXJXLXIXPXJXFXLXIXJXMX~.4.f k k u S 3.k.%.#.t.S.L.D.G.L.G.L.k.L.D.L.k.+XG.G.k.X.| I D @ x M x x b M M +XDXcX0XM.M.l.P.P.G.D.G.L.M.D.X.P X.X.X.L.0XxX+X-XxXXX0XcXG.l.+.+.+.+.XX%XM.P.P.P.XXP.P.P.l.L.l.P 9.9.0X+XP.-X+X+.H j.G.c.P.P.P.h.&XM.c.l.P.X.%.k.h.O.h.h.[ b v 0 = R v.{.[.7.A.s._ ` $.t.t.Z.Z.J./.[.J.S.F ] #.%.e.$.$.t.1X8X8Xp.t.e.#.$.$.$.$.",
"c.vXGXbX0X$XXXM.M.c.5.O.9.A.F..XW.c.q.&.8.].tXtXfXgX5X5XcX8X#XtX|.2.`.].G.J.L.`.@X+XJ.H.].`.j..X#X+XJ.+XcXfXeXG.!.F.v.g.;.!.g.;.n.} 2.Q.B.3.I H !.+X~.O.P P p 1 , & + . X   q E.<.@._.;X2X:X_.K.;X>XK.r.e.y.Z.H.:X_.e.r.$.@.p./.4. . .I } Y K N b N .Xx.! ( S 9 P Q.HXhX/.A.i.i.6.p._.,X1X2X:X2X[.).#.F C.~.j.;.=.=...4...^ *.p.H.Z.Z.i.S.Q...x.`.i.1.y.A.K.:X(.Z.$.s.J.K.;XH.J.s.e.;X1.) d.r.<.7.p.1X1XuX1X<Xi.( g y 8 s s v g n V A >.a.^.(.u.*.0.x.*.K ,.7.:.r.[.qX(.$./ m X.E.7.a.K._.d.(.,.m p n n N.iXmXHXFXcXF.F #.,.>.C d ( 0.E.K L E E Y 4.C s m G ^ S m ~ jXjXeX|.eXG.G.eX|.|.L.9.9.+.9.l.l.-.P.P.M.P.l.G.+X|.|.eXD.%.k.~ ~ 9.D.D.D.D.}.nXdXeXeXL.K.jXaXsXNXNXnXeXnXNXFXgXkXJXrXrXlXSXAXIXJXmXCXFXFXJXUXIXPXFXBXCXMX*XW.) f k u l l K %.9.9.k.S.S.J.D.|.eX9.k.}.eXG.k.k.L.k.L.! | [ F & 3 M M U R M P k.NXBXyXeXM.l.l.|.dXD.G.l.h.9.9.k.%.l.|.G.G.G.M.+XM.XXM.h.P.M.l.l.G.P.P.+XM.-XoXP.XXM.L.L.P.l.9.+.P.xXcXcX|.+X9.F +.eXM.l.O.X.j.-.M.#XP.G.l.X.j.O.X.j.M.m.P P B 1 1 J ].H.h s S _ Q n @.[.D.N.J.)._.p.2...H ] | #.A.K.$.,X>X[.:Xp.r.6.y.` ~ ~ ^ ",
"+X+XOXxX0X0XW.T j.k.5.N.V.'.qXN.x.v.N.N...i.5XaXdXtXfXfXsX8XvXyXeXJ.>.|.9XeX8X'.}.eXeX+X@XG.k.B.+X5XnXBXeX5XG.G.x.B -.I J U v B } c.=.g.G.$XOX0X.XOXB.O.c M w & , & o o O   e E.i.d._ ~ e.K.Z.d.K.1X<Xs.t.A.y.y.K.H.y.) ,.a.H.7.<.A.| { *.[ =.3.w.j.] N.t.7.>.d *.1XlXHXjX<X^.r.r.[.[.).:XqX:X:X2X/.4.=.OX].5.[ 9.D.i.4.7.( ) u.A.s.A.<.7.].].`.`.(.p.:.y.:Xd.A.s.p.s.H.;Xp.A.e.#.;Xp.( ( s.<.7.7.7./.(.).(./ A V C d d Z ^ C C K { 2.(.2X(.&.:./.*.*.&.:.<.7.:.r.L.e.K.Z.t.~ L.7.r.:X,X;X;Xd.f p G b I z.8.J.fXmX/.Z j >.t.t.G D q.3.Y N e L N =.0...| 2.&./ ^ ~ m F 3XNXeXeXcXP.G.G.P.l.9.P +.P.P.P.h.M.%XM.P.l.G.|.+X|.+XeX|.L.F F %.L.K.L.G.|.L.eXaXeXL.;XaXaXcXfX8X+XJ.+XnXZXaXZXJXJXHXSXJXIXJXsXgXFXFXSXLXIXUXPXJXrX~.$X*X=.C S S l l k :.] k.B.J.G.G.L.k.+XL.$.#.G.eXG.P.G.c.l.G.G.8.%.G 2 2 R P R I.h.R I.MXvX+XfXF.P k.eX+XD.+XG.h.X.k.X.L.eX0X%XG.+X|.G.|.+XG.h.h.+.+.9.L.+Xl.l.G.+XM.XXXX+Xl.O.l.9.P.9.D.VX+X%XcXP.X.[ G.G.l.G.k.+.c.l.P.G.M.c.P.P.P.k.k.h.P.T P B 1 < 0 R ]...f u p g Z _ | p.6.>.y.A.`.[.7.J D ] ] @.$.6.6.eX{.6XuXp.7.$.@.~ ( e.r.",
"|.>XG.j.|.#X!.G.8.B.S.J.J.[.6X[.'.S.9.7.7.4.Q.8XaXDXMXvXNXMX4X!.`.].J.S.9X5X+XD.J.G.].dXeXOXeX0XeX0X#X+X|.9X8.@X@XS.O.4.;.B c < N *.P H v b K =.3.O.=.N...p w , & # @ X     p `.:X,.@._ p.:X_.(.H.r.@.@.p.H.y.s.t.@.$.p.u.<.7.u./.>./ =.j.4.2.k.c.Y.~.S.t.6.#.d v.lXlXZXAXkX7X).;XqX:XJ.K.J.3X:Xp.i.H. X9X|.x...D.{.`.Z.i.:. .>.p.A.V.u.r.R.].].].<XuX7.r.H.,.e.r.H.K.A.p.r.e.$.~ @.,.#.@.y.7.i.7.7.>.^ &.^ s 7 p Z / | H C v H ] D  .u.p.t.r.2.4.Y v.@Xp.H.,.u.y.K.y.y.d.K.e.k.e.L.,X,X,X,XL.$.Z.7.2.F.M.v 2.#.f y y n 6.t.`.2.) V.*.L e 0 h L 5.q.x.E.N... .@.%.$.m m ,XmX+X%XG.P.P.G.G.l.O.P.XXXXXXXXxXXXh.l.l.l.P.|.0X|.|.|.h.F ! P.P.L.D.D.L.D.|.8XaXaXtX8XaXFXuX'.9X5XE. XfXrXSXJXJXJXKXZXNXmXaXmXMXFXIXGXGXPXIXLXZX'.].yXb Q Q f.l k m %.c.B.G.G.eXS.+XeXL.! ! L.G.D.D.G.M.M.P.eXJ.9.#.F 8 2 M b R I.M.M.m.#XnXk.G.cX>XG.dXwXP.#XG.L.k.k.X.X.G.0XG.G.+X0X+XeX%XP.h.+.X.F m [ P.L.k.h.l.D.M.l.l.X.[ +.eXBXeX0X0Xl.L.l.l.h.h.M.G.P.c.P.G.M.P.l.G.P.l.G.G.P.l.c.O.h.P M p w 1 < P { n k u i i a ~ ( ^ @.:.( ( >.Z.>.D J ....^ @.t.[.4X`.>X9XN.s.$.` ` ,.S.`.",
"+XS.B.l.F.b.b.|.4.8.'.Z.A.J.i.{.fX8X/.4.>.8.#.C S.kXnXsX4XB.] [ .XeX9X|.>X|.2.O.8.6.k.'.aXfX0XfXF.b.G.5.4X8X8XS.t.-.2..X.Xv.I D o.b..X$X=.[ =.[ [ ] H S.-.q 2 & $ & X o .   v '.qXK.e.y.).;Xd.p.A.y.( 1.@.r.K.K.A.e.A.;Xa.i.).2Xi.>.>.2.7.2.x.4.;.n.OXV.7.r.t.v ~.mXHXKXPXKXAXuXqXwXK.N.S.J.6X6X[.H.[.7X7X4X9X].G.D.N.Z.i.7.7.7.>.p.p./.{.r.^ &.D.wX<X,X(._.:X).;Xs.r.Z.p.y.e.#._ ( 1.r.r.,././.7.>.A s 7 5 p V b m G /.6.J { 2.4.:.) >. .@.7.7.( &.*.=.G <.p.s.$.e.K.K.K.d.L.D.3X;X,X,X3X3X;X,XA.p.6.XX&X3.! c u a y Q i.2.N.>.C { K A L N x N { ,.0.4...@.(  .%.X.$.m L.IXCX0XG.G.G.G.G.G.l.P.XX%XeX-XXXP.P.P.+.h.P.+X-X+XG.XXO.X.L.oX0XM.P.l.c.G.eX0XeX0X+XtXBXMXkXgXkXrXrXdXfXtXSXJXSXJXPXlXuXfXfXgXmXJXJXtXDXJXPXJXJX@.C ..F #.~ f.f.~ Q ! 3.G..X+XD.k.k.M c ! 9.D.G.L.D.G.+X+XP.G.+XX.W m 2 & b M P m.m.m.M.M.eXD.P.eXaXnXDXMXeXG.L.k.9.L.k.L.+XeX0X+XL.G.L.j.l.9.9.+.+.X.[ h.h.+.k.j.l.P.l.P.P.h.X.9.cXaX%XxX+XP.P.L.eXxXP.M.G.h.X.h.P.P.l.O.+.P.M.P.M.M.M.l.O.h.M 8 w d , 6 P I C Z C n f g f W ( >.4.7.8.7.7.O.H [ =.5.4.t.p.p.y.r.@.,.t.N.V.`.8.@.2.x.",
"6X+X+XG.m.b.XXk.8.t.A.J.D.t.7.J.7X`.0.] q s p s ..4X4X].5X9X8X@X8X9X9X].|.} ! c.3.%.3.k.C.4X}.9Xx.C.Q.`.rXdXnX7.$ -..Xb.z.g.=.;.~.#X0X%Xv..X.Xx.c.k.D p b d $ $ & + X O     V '.[.;X;Xr.d.>X:X(.i.1.1.r.@.@.A.:Xs.A.Z.r.H.p.{.(.V.^.7.2.i.i.D.N.!.oX~.r.K.wXN.b ].5XsXZXPXUXlX7X>X>X1XH.G.>XwX1X:X/.p.r.:X<XS.B.-...t.H.Z.i.i.r.i.7.A.(.A.u.<.i.F. X8X1X:X_.K.qX7Xr.$.e.y.y.e.,.,.r.r.,.,.V.uX`.>./ V 9 y s C C d C ..p.8./ 2.7.p.p.7.,.y.@.7.6. . .( / C S p.(.K.,X3X,XK.K.K.,X[.(.,X;X(.K.;Xd.A.J.c.F.n.O.! >.W y 2 A A.Z.1.Q A { A L L L L e J K  .{ 9. ./ ( ~ ~ ~ ` 9.JXLXVXM.+XG.G.l.P.l.O.l.+X+XXXP.oXM.XXP.+XoX-X+X+XeXXXP.P.-XxXoXoX-XoX%X0XeX0X0Xk.j.fXmXNXSXHXSXZXCXZXtXgXJXJXJXLXPXIXJXJXmXgXSXLXJXJXJXLXJXDXLX( c :.~ H %.W k c ! #.O.G.$X+Xj.H y 2 2 p F X.! H %.G.k.j.G.F.eX9.~ H 8 < b M T I.m.M.M.P.eX|.h.G.0XeX0XG.+XeXeX|.|.D.D.0XG.G.+X|.|.G.O.X.X.F X.h.+.l.h.+.h.U l.#XP.h.l.h.X.P U P P L.%XP.P.|.+X-XcX%XG.G.P.o.X.o.c.P.P.l.h.G.0XP.c.%X%XoXj.O.F b b < , - 6 b J ] F F / | | .. .7.9.7.B.D.C.S.N.x.k.k.9.8.,.>.6.i.A.>. .>.N.k.5.8.9.#.",
"D.+X9X.XM.z.G.|.}.`.`.`.7.9.>X8XD.>.F ] 4.9.=.F ] x.8XeX}.dXnX4XeXeX8.D.k.3.x.B.].+X] X.D.B.[.+XC.X.] 5X4X`.@XQ.x.J I j.5.O.j.!.%X!.c.OX$XW.l.=.v b ] 3.>.d & # $ X . O O   c }.(.).y.e.d.K.K.p.H.H.p.Z.A.K.;Xp.:...2.V.q.8./.Z.p.0.t.N.S.'.].bXxXyX].<.#.N.v 2 z.vXaXMXHXAX2X<X}.[.1XJ.D.D.J.J.A.K.[.:X[.R.D.9./ @.H.[./.p.H.p.p.p.a.Z.7.Z.R.#XfXfXkX7XH.u.p.(.:XK.:X(.p.r.#.,.s.7.<.>.y.J.S.2.>.) ( | u...V C ^ 4.S.i.2.>.6.i.H./.;XA._.J.t.6.2.q.7.&. .~ ( K.zXlX3X_.K.3XwXiXK.L.9.e.D.K.,X3X;XN.G.XXj.F ..9.6.Q h Q N.6.,.m C q.L V L L N e N s G 4.#. ./ ! X.X.~ X.` NXPXCX%X%XM.G.l.l.P.G.P.P.P.+XP.XXXX+XM.|.P.eX+XP.G.eXeXM.xX0X0XxXxXxXG.P.&XeX+Xj.P J.AXJXPXPXJXSXgXgXfXgXSXPXJXSXHXSXAXSXFXZXJXCXFXLXPXPXIXLXSX7X{.[.#.k.9.m i u F O.F.G.F.%.%.! p 2 3 2 < & 2 8 P G.k.k.c.+XB.D.G.~ ! w M P P T M.P.P.+XD.k.h.G.D.M M P O.L.j.h.|.G.0XcX%X|.P.eX%XeXD.l.L.k.h.l.h.l.l.+.[ X.M.G.%.h.9.+.O.+.X.9.O.P.+.+.P.0X0XxX0XP.P.+XM.c.h.h.j.P.l.l.k.h.P.M.P.#.+.j.X.h.v b U 8 * 6 e K F d b V ! 9.S.Q H i.i.i.S.N.t.G.F.x.C.B.4.>.6.>.p.t.,.7.( ..X.D :.5.-.5.",
"fXnX+X+X+X#XB.`.nX5X}.S.J.eXfXdXN.H 2.D.D.G.|.=.! D ] D.`.+X8XJ.}.[.>.>.N.`.C.3...5.5.N.`.'.|.H b D G.8X].'.C.OX0Xj.G.c.C.W.].%XyXQ.F.~.#X5XG.g.! H |.|.D 6 & , # o X X X   s C._.[.p.H._._.H.,.H._.;X>X;X).s.| >.H J ;.-.x.Q.C.V.0.2.7.Z.N.].0XB.F.L.p.#.c ! 9 I g.~.rXmX>X4X6X>XJ.K.J.G.J.D.D.Z./.>X6X[.t.[.[.@.<.K.7X{.A./.A.^.,.>.7.A./.].E.].aXaXwX2XJ.e.H.).,X7X(.p.( / _ @.>./ @.>.>.2.] G >.u.V.7.^ ^ ( >.N.q.&.i.@.>.i.^._./.H.K.p.t.N.S.D.L.D.H.s.,.@.y.,X;X}.wXeXK.K.e.y.9.$.L.d.,X3X;X9.G..XL.k.L.9.N.D.t.p.L.r.| a c 0.{ N N L e d *.1 0 h C | ,.| k.e.$.` X.lXUXBXcXyXcX+XG.P.P.M.P.XXP.+XXXh.oXP.+XP.l.P.M.9.+.L.k.G.G.G.%XG.P.G.G.l.xX0XxXxX%Xl.eXHXAXHXHXHXSXFXCXSXPXJXSXSXLXmXgXSXSXLXJXSXJXKXLXIXIXUX[./.AXmX9.D.9.F c a F B.P.9.X.X.2.b < 2 < 1 1 1 3 2 w M H O.D.G.}.L.G.c.L.M M M P m.M.h.J.dXaX+XO.%.M a a w 8 8 3 2 w P G.&X0XXXXXP.l.P.G.G.P.M.+XP.P.h.+.P P X.l.h.h.h.+.9.l.P.l.X.L.P.+.9.P.P.P.l.U X.o.G.P.l.P.j.o.l.h.l.k.2.%.j.j.B.F.m %.P.M m D w r B +.R 5 - p u./.Z.E.:.( >.<.,.6.t.t.N.`.G.F.k.N.t.i.p.,.7.D.i.q.7./ G ..w.F.v.",
"G.eXtX8X0X|.B.9Xk.L.D.[.}.eX@XeX'.S.`.].}.C.G.3.M =.=.[ >.x.! ! 2.N.S.k.3.S.D.F ] 5.j.3.3.j.H [ i.9X4X} k.8XQ.@X#X+XG.v.~.OX.X+X%X@XQ.F.!.OXOXc.-.c.|..., 1 1 * % # % > O   & V.qX2X:X2X2X2X2X;XK.7.(.:X;XH.@.| G G { { *.q.q.] D ^ @.7.D.`.@X#XB.%.| | d X.[ 1 q.-.Y ].JXlXmXpX}.4XD.B.F.B.G.D.'.4X`.}.D.(./.,.,.i.a.(.:X[.(.(.H.:.@.@.q.Z.].Q.|.9XrX8X:XK.| ( t.H./.H.#.( )  ._ ^ / / / ..| ^ >.V.p.>.G G &./ >.,. ./ 7.i.s.(._.p._.y.( @.J.qXZ.@.$.K.H.#.r.s.L.D.K.K.(.K.D.L.L.Z.J.L.L.eXzXL.>..XXX.XD.Z.:XH.7.s.K.A.e.6.@.p h 4./ L N b N K K h 5 0 8 5 g 7.[.k.9.` X.|.JXBXdXeX|.cXGXVXoX0X+X-XXXP.P.eXl.+.cX0XXXP.P.P.+.+.I.P.M.M.M.P.P.M.0XM.oXxX=XxXoXl.P Q.JXJXSXHXJXlXuXsXmXZXlXSXJXSXZXFXSXLXLXPXIXIXIXIXJX).( 1.u.iX,X@.! ( m m j.k.H m M m 2 2 3 1 1 & < 1 1 & - & & P eXG.D.k.O.O.h.v M P I.M.M.%.X.>XwX8XO.m d d 8 8 w 2 2 2 2 2 w P l.XX%Xl.l.G.%X%X+XoXG.G.P.U M D h.P.+.[ L.l.[ +.X.+.l.l.l.P.%X0X%X+X+XeXXXL.! [ P.P.h.h.j.j.o.j.%.%.#.] | g.M.h.Q X.c a w 2 w E R 6 4 0 e ( 2.7.7.( ,.,.( A | e.Z.9.`.OXOX8.N.J.4XH.7.p.V.8.7.2.&.2.5.5.v.v.",
"#.S.9XrX>X0X8X}.L.7.}.8X+XJ.G.|.>XG.].4X@XS.=.O.O.-.b.[ M | a 2 m F J 2.C.|.C.=.-.g.c.3.] 5.K 4.v.0X8XD.k.2.0X5Xb.W.~.*XOX%X$X].@X].@X].B.G.$X+X9XvX/.n 5 7 5 & # # & >     X  .t.:X:X_.A.^.p.r.p.H.:X;X:X[.s.7. .|  ./ *.} { ..) ! | D.}.G.rX].].`...c d ] v , k.Q.N.3.8XPXKXHXiX+XS.S.G.G.c.G.8XcXOX[.[.i.1.1.u.(.[./.qX2X7.i.r.)  .>.>.8.R.'.S.@X6XZ.#.,.~ G @.` 6.1.( ( ~ / (  .@.4.2.| K { p.i...C A /  .4...S Z 7.>.A.(.H.(.K./.H.$.( K.1XK.K.Z.p.p.$.e.y.K.K.9.` ~ $.K.3X,X>X:X}.;X>XK.k.L.F.%X0XJ.Z.r.6.A.2XK.r.t.K.t.a s L e b N S :.w.&.) 0 0 5 - =  .K.K.L.k.K.jXDXLXdXeXaXBXBXVXxX0X+X-X+X+XM.XXXXP.-XP.P.+X0XP.P.P.P.P.P.P.P.l.h.P.M.0XM.oXXX&XXXM.OXOXJ.MXJXSXkXgXgXnXrXfXZXAXAXSXSXSXLXLXSXPXUXIXIXPXA.( ,.) ( G Z m _ ! H 9.G.m y a b a 3 2 1 1 1 1 2 < 2 < 1 & m k.j.k.%.#.! m ! b M T m.M.M.+.9.eX8X%.b b 2 8 w 2 2 2 2 2 2 3 a M M P P T l.P.%XeXl.O.h.h.h.h.+.h.M.l.I.#XxXl.U X.+.9.G.eXh.l.+X-X+X%XXX+X%XX.[ l.P.P.h.l.h.h.O.X.! | | ! ! ] j.P.! 2 y c m < x E 9 8 *.w.d L C C ^ A Q | (  .6.t.S.D.4X0X4Xx.>.8.>XA.7./.V.V.4. .&.V.v.q.} } ",
"|.|.`.>XeX}.[.eXeX7X|.F.F.D.+XG.G.G.5X8Xk.8.5.=.j.B.} X.G.Q i 2 7 g ] !.$X+XQ.c.U P o.+.*.-.O.v.|.}.0XsXnXfX9X.X;.*.Y E.E.].].~.].#X#XOX#X|.!.}.`.[.Q n 9 q p & X & 5 X .   . K i.H.H.^.H.s.p.p.i._.>X1X2XK.t.t.V.V.7.8.7.V.{.4X/.r.) ) s.t.K.H.,.Q n M [ B.| @ } `.C.S.3.nXJXPXKXNXsX8XG.M.c.G.8XtXB.|.6X`.r.r.:X:X/.^.7X{.p.p.@.:.>.7.0.i.8.C.N.`./.,.@.$.@.( @.@.@.A A / / #.2.i.8.] { F G 9.0.| V V G / &.,...,.A >.7.R.:X/.<XK.H.i.p.1.$.r.H.y.K.;XH.$.| ( $.$.$.y.` $.,XwX:X3X3X,XeX$.%.[.G.M.bX+X|.:X6.t.wXzX:Xr.J.A.W 2 - D V G K q.4.4.q.*.0 5 * * 0 h X.K.K.J.>XeXeXJXLXnXDXNXcXM.0XvX+X|.P.0XxX+XVXXXP.P.+X0X-XT.P.M.0XM.M.M.[ I.M.0XM.G.M.%XcX%X0XxXcXCXjXaXZXgXZXZXtXtXuXfXrXSXSXSXSXSXIXPXLXUXUXIXJX^.V ) G C V h i f ` F ! j.! b a b p 2 2 2 1 1 3 8 2 < 2 2 < 2 H ! X.#.L.L.X.X.M 8 M l.m.M.P.P.|.eX%.a 8 p q p a M b 2 8 a M a w P M w 3 w b F P P %.X.! P +.X.+.l.oXG.P.xXM.I.P.l.P.l.+XaX+.l.P.%X+XP.%XP.+.+.h.F.P.P.P.l.l.j.X.H F Q ! ! ! [ P.M.g.: m ] b 2 N B x Y .Xw.D K H C g ( ^ N.8.9.8.{.J.J.@XC.`.6X<XJ.p.6.u.V.i.:.{ 5.5.q.3.3.{ } ",
"aX|.N.`.eX6XeX0Xk.8X5X#X0XB.G.G.F.N.3.3.] ] G.0X#X.X.X|.9.g t 2 : y O.$XyX0X#X.Xj.=.C.b.x.F.~.+X@X X*XgXMXU.E w.&XU.;.~.#X~.#X#X+X5X$X+X].q.0./ s V 8 y s y h - # 7 5 X     X I *.p.p.r.<.u.H.H.J.K.:XqX1XH.6.k.N.C.~.XXD.G.8X9X<X}.K.s.( j g a u a I ] G.!.p X v j.C.S.N.V.NXKXJXHXkXnX+XF..X8XeXrXeXB.N.A.p.K.[.A.@.1.Z.t.e.Z.Z.:.0.8.2.7.8.8...>.y._ k j | 9.( _ ( | ( #.#.,.N.{.S.>.F D K { D h m ) 4.7.N.Z.:.A.S.>.,.t.Z.H.A.H.,. .$.@.Q ( ` e.r.K.e.m f y f K.e.$.! e.,X(.Z._.3X3XZ.$.K.eXc.G.#XJ.wX;X>X,X,XAXAX:X,.Q ` u O h &.4.&.q.q.7.2.&.C 0 b N h q h ( p.>.V 8 g ..aXDXFXNXvXXXM.xXxX+X+XeXBXVXBXcX%XoXM.G.M.M.oX0XM.cX0XP.P P.#XM.XXXXW.OXfX$X!.eX#XmXHXmXnXMXaXsXkX8XfXAX8XnXHXHXSXHXJXrX{.uX<X1X/.1.^ A G V h C i c ! Q X.! b p a 8 2 i 2 8 w a b M b 8 3 2 2 g m X.9.9.eX2.| O.M < M T o.P.G.G.[.M q w x 8 w M M b P b 3 a b M P P M M U M M M b P b w b H +.+.h.P.M.oXG.xXxXP.M.%XG.M.fXG.h.h.j.l.[ h.G.P.l.j.j.j.P.P.j.X.j.P.k.O.X.! X.! X.h.l.M.+.n G.O.g 9 e N R ;.~.#Xw.K C p - s G w.g.b.+XaX:Xt.u.) H.:Xr.` ` ( r.D.! V x.+Xv.q.5.q.3.&.",
"@XJ.J.N.D.G.J.D.G.8.#.4.8.P | ] F I D q 2 * p ] `.4X+XB.c 2 2 t 2 9 v j.G.n.W.G.G.eX5X5X5X!.OX@X'. XzXAXrXw.w.U.U.XXU.!.fX$X].OX!.!.~.!.E.*.K d 8 8 f V 7 s h 5 7 p 1 X     # Y v.R.:.C G ( u.:X1XJ.1XqX>X6.r.7.x.W.XXG.W..X}.eX<X/.y.i.F.b.2.[ I =.-.B.5Xm @ @ N [ 5.8.E. .| iXlXhXqXdXnXeXeXhXnXaX.XB.B.S.t.Z.H.@.6./.Z.H.J.J.A.p.J.V.&.7.N.c.&._ m m m Q 4.J.#.W  .(  .6.9.8.D.V.9.8.8.2./ F G ^ &.i.2.7.i.<.>.p.<X>.6.p.7.r.,.>.( 1.$.#.m t ; ; i n a i u 2 n | a i a j Z W ~ Z.;Xy.L.K.eXeXD.k.9.e.D.[.;X(.,XqXpX$.$.$.$.y   5 :.q.0.i.A.q.q.*.*.E E L N N q s A g s C ( #.5.DXGXHXGXcXP.&X0X|.D.P.VXjXjXBX$X#XOX$XxX%X&XcXP.0XxXM.h.%.] m H 9.}.nXkXmXaXkXnXSXHXHXHXAXsXuXsXsXuXuX2XZXZXlXPXAX7.q d V ) ,.4.>.2.C h b N v 2 y m | ] b a 8 a t 2 2 a g g m g P P M g b M X.g.c.k.| D.Q Q | m 3 T T +.B.G.L.P b 8 w p 2 w M b b M M P P P M M w M T h.P.T U h.G.l.O.[ M M P j.P.M.M.M.M.M.T.P.P.l.G.G.X.O.L.j.O.P.0XM.l.O.c.G.h.k.P.h.h.X.I.X.h.l.k.X.! %.j.g.z.-.9.&XO.s 5 $ B E w.~.gX'.*.A h d 8 p { ;.E.nXmX7X(._.(./.,.Q m g S $.i.^ ^ N.E.`.].#X].V.A ",
"3.b 3.`.D.J.>XeXt.b 1 , & 1 1 % , 1 1 8 p b d < 2 1 8 y 7 n | v I O.v w v M x.c.F.5XkXkXrX#X0XrX@XE.E.^.w.w.U.w.U.U..XtXyX+X~.].G.|.OX!.].*.N N e d A ^ y t 8 7 7 s 0 > O   e Y *X.XG  ...) ,.H.1XA.$.[.H.Z.D.L.F.$X$XXX%XF.D.[.{.^.>.O.g.G.XX.Xz.XXO.F.c.w - X F 2.8.9.N.1.( ,.zXNXlXaXMXBXjXBXnX+Xj.G.G.].`.J.H.6.r.J.(.(.6X[.t.N.D.8...&.9.+.5. .Q A ! >.9.>.| @.6.#.#.2.8.N.8.4.N.B...{ ] #.0./ &.7.2.>. .) | >.@.| #.i.i.t./.V.6.p.6.r.Q i ; : ; 2 t i t p c ; : : : : : : ; a g a e.wXyX+XG.D.J.(.Z.Z.J.e.e.$.@.W $.s.` u X - K 0.V.E.2.*.q.&.{ w.E L *.E Y *.G V K &.3.4.5XbXfXGXGXBXP.0XxX+XD.|.eXBXcXaX#X0XXX0XG.G.xXnXG.M.yXVXcXB.%.>.Z./.qXnXNXAXmXAXmXHXSXHXPXNXaXkXsXqX8.K p.i.{ v G h h S K :.*.A G C G c h V F h i 2 c M b q a a a 2 i i a a g a M P P P P h.P.P.l.k.3.2.O.m m ! m 3 I.R [ [ m H m d p w x M M M w M I.T U M M x w M U +.T h.+.h.P.P.G.G.P.l.O.! M h.+XM.oXM.G.M.P.eXBXeXX.h.D.l.j.P.P.h.P.G.G.P.h.l.G.l.l.P.c.h.O.G.P.j.%.%.j.h.g.g.z.b.G.3.m 5 w E h.E v.U.q.:.K Y G N J =.5.Q.aX4X2Xt.H.,Xa.s.,.@.W g p Q Q g C S i. Xq.' _ W ",
"l.v 2 m | t.8.( c p 9 9 9 1 < e q J l.n.n.n.m.n.+.c p 1 2 F k.3.O.G.v.} v 1 6 D T c.dXFX5XC.5XfX).L *.L w.U.U.~.U.~.~.#XfXOXOX@XOX.X|.$Xv.N x x h g j ) ! 8 5 7 9 y 0 *   * L *.*X%X0.Z.i.u./.;XH.;Xs.J.:X1XeXeXeX%X@X5X|.8.t.L.H.[.i./ ] h.n.XX%XOXQ.F.M 1 1 @ v 2.3.N.9.>.@.Z.zXHXNX0XBXvXaXDX0X+Xc.G.&XOX0XN.7.r.i.8.A.J.7XJ.9.A.8.7.2...| [ } >./ S ( 9. .A m | p.,.6.6.t.i.N.S.V.9.>.2.i.>.C S ^ ..:. ./ ! ( ) ! @.@.7.t.e.7.7.8.p.e.@.@.Q n f t 7 2 a W #.Q k f a i i 2 ; 2 t i m k.|.aX0XG.L.eXaX,X` @.~ n S S e.K.d.$.8 O 5 0 ,./.A.*./ 4.4.x.;.K *.q.q.E.=.E 3.5.} b.+XcXcXG.@XaXvXxX0X+XD.eX0X0XcXnXeX0XMXeX0XcXxXvXBXxX0X0X0X|.S.:X[.7XfX<X>X>XaXJXAXlXAXJXJXHXHXLXKX[. .( d e 9 q Z ( (  .&.( ( ^ A C C ^ V g N C h 8 a a 8 2 i p a a 2 2 i a a m m ! P X.F X.l.P.D.3.%.9.D.6.m f m a 3 T +.[ M M x d a p w M [ P P P P M d w P +.T P P +.+.P P U +.l.l.h.h.h.l.h.l.k.I.G.M.P.P.M.M.%XcXMX`.D.`.D.j.k.P.l.h.j.j.-XG.l.G.P.P.G.P.l.M.M.P.O.X.k.h.j.k.3.o.XX].j #.| 5 w E E w.~.w.E.7X*.=.L J D F *.&.}.:Xa.).>Xa.u.` @. .#.:.Q S ) / ^ ( / ,.` A f.k ",
"g.N , * , , , 6 p q d 7 # w h.F.l.n.XXG.XXM.G.%XF.b.-.3.I m O.c.O.-.~.$X|.!.j.! K ].~.G.`.G.].fX/.L <.v.U.U.xXxX$Xw.w.V.].~.#X#X|.~.#X].I J N e d L V V @.H 5 - 4 p d 5 O x E q.i.tXE.^.i.).:Xp.A.(.;X>X:XrXdXwXdX9X6X8X[.8.7.>.r./.,.#.8.+.b.&XG.c..X[ p 6 1 X v x...5...p p c ,.iXmXvXGXDXBXHX0XxX%XG.oXOX!.L.N.8.8.S.aXBXBXG.8.8.t.D.J.|.J.G.2.| @.>.7.#.G G ! 7.7.#.@.#...2.&.>.H h C m m m Z / @.( ..,.S S ^ H ( 7.(  .Q Q Q  .<X@.Q ( W m W Z m p i W r.Z.9.` ` | Q Q m n m W ( y.k.$.[.[.6.~ %.y.6.~ @.Z S m ~ K.3Xd.' 1   4 q G N.R.q.2.&.&.5.C.x.w.].~.x.} g.!.*Xb.%Xq.K K 8.2.D S.GXfXeXwXnXNXNXwXeXNXDXnXnXrXnXdXFXDX8X4XeXsXaXuXwX>XQ h G J.uXAXAXZXNXlXHXmXjXHXmXA.v p h g p q e F i.7.(  .) ^ 1.) b V G C h n C b a a u a a y i i a i 2 2 i j F F F F F X.X.k.L.L.k.9.8.#.F b i p w 3 T [ I.l.U b 3 8 8 3 6 b M M b w 3 b M U h.l.+.I.P P +.9.[ M w M o.h.I.G.&XP.P.h.P I.X.P.xXG.0XCXL.%.L.,XeXD.D.l.oXxX&XG.VXVX0XM.M.M.G.M.M.G.G.P.%.X.L.+XG.M.-.g.XX..s f.f.= 0 E E w.U.w.<. X7.2.w.*.K S A ) G.eX:XH.H._.^.(.y.#.....:.7.>.7.7.<.a.a.W p p 7 ",
";.b 6 5 : , 2 2 6 7 1 < e T M.oXG.l.l.c.OX%XXX%XXXz.-.j.l.F.x.k.B.} B.5XW..X.X+XfXjXJ.d 9 H 2.B.'.~.E.$X.X$X*XU.v.q.E.~.#X#XbXvXOX0XyXI v L L b b e V n c | q * 4 0 0 5 0 L *.q.;X).)./.^.<XA.` y.K.Z.J.[.9XuXtX9X9XwXeX|.x.F.L.@.( Q 6.!..XXX~.3.] b 1 3 1 2 @ b j.2...C 9 9 9 a c J.MXBXDXDXBX0XbX0Xn.&Xb.G.G.N.k.3.|.NXBX#Xl.4.9.x.`.}.`.'.|.7.7.>.| 2...6.(  .>./ r.9.9.9.| b q g F | S S W ( r.r.1.) S G K K { ^ Q h A n Z ] N.sXj W W n n W W ! S n u W #._ ~ | $.( @.` #.$.L.e.9.$.~ W m n c m Q | $.,._ W F ( K.p.S j %   = q ,.2.V.4.*.E.rX'.].Q.v.C.9Xx.w.+X0XJXdX4.e q w g b b N x.E.eXdXnXjX|.%.~ 9.1.r.p.H.[.[.7XuXS.>XwXsXjXfXqXp.A y 1 m 2.7.}.mXNXAXJXsX! | b 1 , 6 r q d d s q s c S C V ^ s.G d g h c C v m h a f f a f f a y i 2 i i i F X.F F m F k.k.k.k.O.k.2.! c g p q q & 8 P I.I.P b 2 2 m 3 a m b w p a 3 M M M P +.P.l.l.[ G.P.P 2 3 & 3 X.P.G.P.P.m.h.[ h.P.c.P.0X0XcXeXL.L.%.L.eX0X#X%X&XM.M.G.M.0XVXCX0XM.M.M.M.M.P.P.L.%.P.0XeXP.*.b.0.k l k u > e R E g.~.L L *.0.i.i.N.i.( ^ ( 6.}.Q k k ' y.s.e.7./ / #.4.{ ..4.,.( j 8 0 0 1 ",
";.P e 1 < q q 2 < 1 6 B +.-.+.h.l.O.j.O.j.G.xX$XXXj.O.I [ B.c.2.v.5.[ j.|.G.!.#XMXAXwX#.d 7 3 e L w.~. X*X].E.rX'.0.7.E.xXbXcXxXVXyXJ s f G v N N s d j g G q % - 0 5 = N E *.u.;X' ` p.^.a.p.:.K.[.J.<XaX7X7XeX>X8X[.J.4X].G.OX| A ( 7.`.!.Q.] b M 1 , 1 , < @ 9 ! ! e q a p p w p D iXHXmXmXnXnXDXOXz.M..X&X.XF.~.|.#XBXvX%XOX5.8.F.].].G.8X>XN.7. ./ >.>.] ( t.t./ >.V.i...v 9 8 C 2...( ` #.r.r.1.#._ ..q.} I *.&.S g Z / K 9. X<.j ` W Q | X.! | @.! W n n %.e.,.,.@.,.` ,.L.K.L.e.9.` W m W Z Z ~ ( | | $._ m Q ~ V 8 5 +   # 9 d s ( q.7./.rX[.0./.`.'.4X`.V.!.gX`.c q q 0 w e w w w r e b M 9.9.a m X.k f @.,.@.s.p.:Xu.s.qXqXJ.t.y.e.#.H.H.d 1 6 9 D 8.wXjXuX! < < < 2 r < < < 6 q d p d q s V A :.s.V b c b h h c d f k g m W n l u y i i i i F %.! F F F F k.k.k.k.! m n d g y b 2 1 X @ M U M b 2 1 2 3 8 p p 6 w 6 2 M P T I.I.T M.P.l.P M w & < & < & < M h.h.[ [ %.U [ I.P.G.G.dXJX3XZ.K.>XD.0XP.h.%X%XP.#XbXcX&XVXGXyXB.G.l.%XG.L.P.L.h.%.O.%.P v.q.s l l f.u > N E L w.E L N e *. X@X5.G A ^ u.x.D i a s f l s a j S ^ ..>.2...*.n 0 5 5 0 0 = ",
";.O.B r 1 w 2 6 q d M P P U D p %.b.c.[ [ 3.l.3.[ D =.Q.[ 3.B.F.x.k.5.! k.9XnXfXkXmXiXhX6XA.6.t.d.<.N L 0.'.q.4.K  .E.~.!.~.;.*.9.d y 9 s c G ~.L s h n A C c e 0 0 - r L L e :.y.k f.) s.^.(.i.8XfX8XjX8X>X[.7XaXwX6X9X8X#XXXC.A.A.,.7.N.B.C 1 2 1 - , & , & X # 9 p p f 6 9 q 8 2 6 s.HXKXHXHXnX4X}.G.&XxX0XoX%XbXnXMXfXvX0X.Xx.B.}.9X>X}.].t.7.@._ 2.Q.Q.9.>. ._ ( #.t.O.J F ! #.t.8.#.| ( @.( | ` ` ( ^ ..q.;.k.8.@.@.8.S.8.Q.}._ V ~ @.#.>.2.#.| | L.k.6.! 6.e.! _ _ W Z ` $.` ~ W k i i g Q F W Q _ ,.9.,.r.s.@.m e * # X   # 0 9 9 8 V j S Q ! _ @.r.s./ F :.4X4X0 , < r r < r 3 3 3 r r 3 w F M a a m W C G f n 7.s./.a.>XsX[.,.6.t.#.t.J.Z.@.d 5 < 1 0 C ..v < 3 < w < r < , , q b w < 6 0 0 V ) u.,.b c b h b c g 9 n k m _ ! m c a u i i i i ! l.j.X.! F 9.l.k.L.9.m p a p p 8 w 1 @ . + 3 x 8 2 < 2 w 2 1 < , 1 1 2 b T T T T +.+.h.P b 3 < & & < & < $ 2 % x P.l.[ M P T M U 0XnXMXjXL.L.,XeXeXeXl.P.G.P.l.G.aXdXcXxXD.c.j.Z j.P.%.F 9.%.%.j.P F F w.A k l l f.l * x L E w.;.L L N L L B A G C ) 5.G : * 1 1 7 0 5 8 8 8 j | i.0./.) e 0 0 0 = = , ",
"x e I O.J Y J q 9 x v P I D J -.j.%.O.h.[ b w w e 9 b O.x.3.N.c.OX+X].Q.=.[ o.J.NXHXNXlXjXZ. XkXKXSX(.0.i.*.A *.q.&.| K *.E w.C s 5 - 0 s d K U.K g 9 9 h h h N e 4 % 5 L L c V S G A f.S @.^.{.D.aXAX<XZ.wXaX2X[.[.p.`.'.S.k.}.t.S.N.i./.D 1 5 < 1 & - & & $ . X , , < 9 q e q q 9 9 q G }.sXPXmXJ.<X+XC.%XCXcXyXvXDXZXMXtXvX0X].C.>X6XrXtX'.4.>...9.].0X`...! S / ( @.#.H #.2... ...m p n Q Z ` 1.` ( @.~ ! G.j.5.2.t.i.t./.4X>Xp.$._ ( ( 2.#./ 6.H.#.2.S.[.{.A.@.! S g n S W ~ ( m i t i u f n f m ( ~ ~ L.r.F | c r $ # # .   X * q s s 9 7 h Q ` Q W Q c ! N F / b 0 < < < r < < r r r r 3 8 b w w e w 9 s p 9 q p s p V A.{.`.6.Q / ) ,.4.2./ G V - 5 6 6 , & , < r 3 3 r 3 0 r e v v 3 6 6 w e b N G d w 3 e e d b b g Z k.k.,.9.X.Z m a y t i c F P X.%.X.9.D.P.G.G.F 8 a a a w 2 5 2   . + & < q 9 6 q e e < & 1 2 6 p R R I.I.m.U M e < $ $ $ $ $ $ + + + < 3 w x P.h.M R R M B $XcX3.9.J.nXSXdXeXeXM.xX%XO.6.Q d d n J v D [ G [ H c m m Q F | L.L.h.*.G k l l k k 4 e N N E w.L N L L x x L x 0 0 0 * - : - 5 1 5 * 4 5 5 0 p G  .:.V h d e 5 # # $ ",
"x 6 x B M I J v } M b M 3.&X%XXXG.&Xn.P x w w 3 < < < < b x.5Xk.O.Q.C.=.D e w v 2.<X7XnXNX7XZ.>.).pXrXV.G /.fXrXyXfX~.=.F e d 0 9 p 5 p h j s p d h g e V V s h e - > x L E L h A V ^ L n V a.q.i.7XR.@.7.A./.Z.p.r./ ~ @.#.p.Z.6.J.'.`./.s 5 1 1 < , - & & @ . . $ $ $ , 6 6 0 q q w q e b ..8XDXlX4.4XnXtXnXGXDXZXFXDXSXdXmXmX8XnXmXnXfXS.N.7.7.8.8.j.Q.C.4./ / / G ! / ( G a 7 6 p d & 5 g n m G Q ~ W Q / F F #. .>.p.{.<X{.y.` _ Q _ / N.t.@.#.,.#.8.Z.i.{.e.N.D.N.p.( c i t f a u u u y f f n S #.%._ F w < $ $ # # + X     . = , q s c Q n n m m S / / G b N d q 6 r < < r 0 r r r 3 3 r 3 w w a w w 3 3 r 6 < r r < e C v F H ! K d d D V 8 V G v 9 , , , , & $ < w 3 e e e d b b 9 6 6 0 w b 0 w w 0 0 6 w e w e g p n K.eXL.X.6.%.2.Q u c a m P ! h.j.9.%.l.L.X.8 a w a a a w 6 2 +   . . + & , w q x b B J b 9 e x R m.M.M.P.T x 1 < $ + $ + + + + + X + + $ 3 3 3 R M R R M R [ c w F %.k.X.X.j.X.j.T B +.B.v b b b e b N b I ] D v m g m 9.9.K.eXj.*.L k i l l l 0 L E e L L e 0 e x x x N x e 0 = 1 5 * 5 1 - 5 0 0 0 0 0 0 d s 0 N N 0 $ X X X X ",
"< 3 q w w 3 r x J [ x x I U M b M P P b 3 w w 3 $ $ < < < w ] G.~.=.I b e w b D P [ ..2.V.i.>.D e N *.A d J / D b { Y v.*.s 9 8 0 s s h A s 8 8 s s h h C V h V e * r E E E L d c K h h G A &.G  .>.&. .@.i.4X[.|.@XN.#.,.7.t.,.t.|.'.H p q 5 1 1 < 1 * & # X .   . $ $ $ $ , , < r 6 b C v v B ..I D H ..4.4.'.}.mXSXnX9XsXkXMXMXsXSXMX6X`.<X8.3.#.G k f -.%X5.#.:.@.( @.( 2 : - 2 1 5 1 , 1 < - 1 7 6 h >.2.H >.k.#.^ { S.uX}.J.`./.J.D. .#.7.#.>.#.>.Z.H.A.@.H ..C.+XB.2.m t i t u f f u u l f k f ~ ! < & + + # + + X X .       # , , , d  .@.| @.$...G v w d b e 6 < $ $ $ $ < < r 3 < < < 3 3 3 3 3 < < < < $ $ & = < < < 0 N M B I 4.*.N C G G K v q , + 6 w 6 < < < < w w p e q r r 6 9 q b w < e w 0 3 3 w w w r w 0 p k.eXL.~ #.O.j.[ H %.m H P +.l.O.! ! L.l.[ i a b a g a 8 2 o       . o + $ < w q w e I U M M R T T I.P M w $ + + + + + + + + . . X X . $ < < 3 3 x x x M M x w w d w w d x a b w w w b w 6 w 6 w q v B P D q q e 2 2 a b c b b a s s j j k l u 5 L L L e 0 0 0 0 0 e e 0 e N N s 8 5 5 2 * * 5 0 0 x e N N b d N C 0 X X X . O X ",
"< , < 6 w w w e w 3 < < < < < 3 w 3 < < < $ < < $ $ $ $ < < $ , w w w r r w x x b v x b b H 2.K N N s e e 0 0 w 0 0 0 e N J N s 8 9 s A ^ n c h e s s 9 h d s N b 0 E w.*.L *.c 5 e x N N E *.*.*.*.^ h a h Q  .k.Q.@XJ.S.N.! @.|.4Xi.f b q * 1 1 1 2 # # # X         X + X $ # # = , q N b b b w w w 3 r , e c G S.}.6X}.sXdX>X9X#.#.S.i.H.<XN.N.>.Q k s V F.3.k...>.>.W 9 - : , 1 1 5 5 , & * , & & < d b d C / #.| ..!  .N.i.N.`.B.J.7XZ...N.s.qX:X1.` @. .m c m [ [ J %./ c g n @.s.m g j j n W a n 2 X X + o . . X .           . # , , , F S.N.N.#.N 6 0 e e e < = $ $ $ $ $ $ # $ $ $ $ $ $ $ < < $ $ < $ $ $ $ $ $ = $ $ $ < < 1 , q b 0 r b b e w w 6 6 6 < 3 6 $ , < , 3 3 < w w q w e d e 3 < r < < < < < < 3 6 r r e M a a F k.X.h.l.h.h.%.h.[ O.h.! F F G.M.P b g a a w a w @         .   X X & < 1 6 9 w e b P P B x 3 3 & $ $ + + + + + . + . . . . . . + + $ $ $ $ 3 < 3 3 3 w 2 3 w w w 3 3 3 3 < < < < < < < < 3 w w b v d g e 2 < 3 2 2 < 2 i - 0 s W k y z - 4 0 0 0 = = 5 4 r = = = > > * > % % o X O O O # = = r 0 0 d N c 0 + X O . . X . ",
"+ + + $ $ < 3 3 3 3 < < < $ < < < < + + X + X . + + X + + $ < $ $ $ < < , , r r 3 r e e e e q 0 e 0 w 0 0 r < , < < < < < 0 0 6 5 5 p s s s h h h e p 9 e 9 9 0 * 0 E E L E w.b 1 r r 0 w w d e g d 7 : : % @ % & p q v F G J >.@X|.! p q 5 1 1 , 1 & # # + .             . . . + $ $ < w e w r 0 3 3 < r 6 r r 6 6 e v ] S./.R.N.] m ] ^ ^ {.9XN.^ j f.S  .v.} w.j..X=.i - : - 1 1 1 6 6 r r , , & * q C G K D b m m ] / m m Q G F ! F Q @.$.$.@.,.2Xp.>. .H d a p q 8 s C ] ..a F N.S.C C n b p i - X . @ .     O                     $ & , , b d 0 6 r w 0 0 r 6 < < $ $ $ $ # $ # + + # $ $ + $ + $ + + + $ + $ # $ + + + # $ # # = = , , , < = # * r r r r < , , < 1 r e r 1 3 3 6 < e e 3 w 3 3 r , $ = $ $ $ # # $ # $ $ & 3 6 e M U I.I.h.+.h.P.O.| X.H ! %.G.+.h.h.b 2 2 a q : . .             X % & $ # # $ < 6 2 , + + X . .         . . . . . . . . . . X . . + + . + . $ $ # & $ $ , @ $ @ $ & + $ + # # # + $ # + + + + $ $ & & $ $ * % & @ @ * & > = - 0 : 4 0 0 = e N 0 e h 0 5 0 j ) <.<.1.` f.W _ _ ( W V h a s 5 = 5 6 0 , $ + X X     O . . ",
". . . X + X + < < < < < < $ $ < $ + + . X + + + . + . . . X . X + + + + + # # $ = $ , $ = = = & = = = = $ # # # # $ # $ = = < , $ , 7 0 0 9 i 8 5 5 - = 5 0 * > % = e L L E L N * 5 = = $ + X .   . + X X # : % 2 - - & % # & 6 p 9 & & % # # $ # + . X o                         X X + $ r 6 < < , & , , $ < 1 , w 6 6 q 0 N c b n d d e d G { V p s s s C 5.j.g.n.%X5.2 & & * 1 , 1 6 6 0 0 , , 1 0 e e J K J w 6 w w w b v b d q d p 1 p m k n c h V F [ x.Z y 8 2 u 7 8 h A Q m m m f 5 - % .   . X . .   . O O . O                 O + $ $ < < r 6 r 6 < < < < < $ $ # # + X + + + + + + X . + . . . . X . . . . . . X # $ = $ $ # # $ # X # # # = = * = = $ # # = = < < # $ $ $ $ $ $ $ + $ $ $ $ # # $ # # # X X X X X X + @ # # $ < < M b M M v m b m H ! ! F m M F v a F m : o                 O     2 ( a.<XiXdXjXnXmXdXaX6X|.Z.#.G b q 6 1 & + . . .     .   .       . . . . .           . O + . . . . . . . . . . O .   . .       X X X . . + X . . > > > 0 w.E.w.w.E.U.~.E.$X*Xw.w.).pXkXrX X XhXpXlXmXqXqXaXdXaX9X@XE.q.w.5.] K / c %       .     ",
"        . . . X + $ + $ + + X X X X X . . .     . . .   . . . . . X . .         .     . O X O O X X X X X X X X X X X X X # X . . . X X % + O   O O O O X = # o : - N U.;.E E { K L N h f d n Q G @.1.#.,.p.>X[.H.(.6.~ G S S G #.t.Z.p.N.,./ s 9 q 7 %                               . . X X # # # # % + X . . + . + # * 0 h v c v S C d h C G m ^ ^ A Q / =.~.N.] K m 8 i 5 5 1 1 < $ $ * r r * x L 0 5 0 e q & $ $ % % $ < $ , & & @ % # @ + # 2 s ..7XmXnXmXsX<X8XjXkXdXiX8X7X4X'.Z.Z.,.n t i , @ @ X O O .                                 . + $ & $ $ $ $ $ $ # + + + X X X X . . . . X . X . X X . X + @ + X @ o + % & : * & & > # # > # o + + X X + X X X # # # # % X . . . . X . . . . .   .   . . .   . . . .   . X . .       & t p t X.r.L.H.J.J.[.J.D.D.|.|.G.|.eXwXdXnXjX8Xr.t               7 t.kXnXdX}.:.[.MXkXuXHXJXPXLXJXGXCXvXxX%X0X%X.XOXF.XX.X~.~.].c.C.G.`.[.D.>XhXqX:Xy.$.e.m i 2 - : - @ o @ @ @ + % o                     . X o % & * 2 s V ^  XMX*XE.~. XE.E.E. XcXrXrXsX Xa.<.:._.a.1.K.y.A.2X6X:X{.}.7.0.{.`.>.@.t.S.'.@XG .   O     ",
"              . . . . . . .     . .                   .     . + .   @ 7 f j j f & - 7 7 - > o o o > X O X o # X X .                         O : 4 ; 4 t u j ) 7.q.~..XyXyX#X$X].$XrXrXrX8XaXaXaXsX7X4X>XuXsXuXqXuXwX/.}.J.N.J.N.9.}.MXDXDXAXvX'.5X@X0XdX3.e +                         . . . . . X X   . % 5 q h h A s.pXlXSXJXJXHXJXJXPXPXPXSXkXdXlXZXsXNXlXAXlXqXiXhXhXhXNXAXAXZXaX2XS.r.*.{ K ) q.K Y K K L d w M w b x w a c g 2 1 % % : 7 Q t.iXPXUXUXUXZXfXmXnX9XuXDXHXJXZXkXaXuX>XJ.}.t.6.[.s.W k 4 7 z 7 m ,.>.F -                 o 9 F { / q + % & % + X + + # $ & * * & & & % & & & % $ $ : 1 6 2 t 2 2 7 7 7 2 2 7 7 9 i i y 7 7 0 i 9 - : : & : - 4 7 i i y h 7 - 5 : @ .                               . O # & % % 1 n d.iXNXSXNXlXAXKXHXHXLXLXPXSXCXBXBXBXMXMX0X+XeX0X0XNXHXMX6.          m 8X8X4X XA.) h ) <XeXH.qXNXLXJXMXuX4X5XaXvXyX&XyXyX%X%X$XbXBXxX%XbXGXGXPXGXLXLXJXmX7X[.2X[.Z.6.$.~ m c h k f f i u y X             X 5 c Z m n V ! 1.y.a.^.7XgXpX X X'. X'.E.'.). X'. XsXpX Xa.u.a.u.w.;XwXmXjX6Xs.Z.`./.:XV.R.n k >.x.N.aXfX9.7   O   ",
"                            o % > > > : : > * > > > : > : ; ; z z <.q.u.E./.'.'.a.).:.' f.l u z 4 4 4 : 4 l h l 4 - : > O O O O       > z k j k k k S ` $.J.#X$X+X%X%X0XOXG.|.G.5XcXwXNXNXmX;X9.>X;XJ.7XjXlXiX(.H.J.p.A.(.S.A.] / S.D.].mXcXD.#X0X>.G.cXC.! D #                     > # > > > > > > N  XfXgX5XrXrXGXJXSXAXJXSXJXJXmXJXPXLXhX' ^ {.).:X).:X:X/.p.i.A.(./.<XSXZXiXZXSXLXLXJXPXUXDXSXDXaXaXgXtXtXfXxX%XY..XW.@XfXdXaXuX}.:X/./.rXiXrXHXLXIXUXIXLXDXLXSXsXFXZXmXJXLXUXUXUXIXLXZXhXkXkX<X<.S 7 ; 7 j 7XGXMXyXv.) q X O O > 0 E w.w.E ~. Xw.*.s 4 4 > > * - - 4 0 t 0 0 0 7 5 - ; * 4 4 0 7 - 4 4 u u u u t i u u u k u 4 7 i i 8 i u u f V d i 7 u k S S :.^./.A u i f f 8 ; % .           O O O O > > % * - 4 4 ' pXKXUXUXmX{.7.@.r./.kXiX{.(. XrXrXZXSXSXSXHXJX X;.z.!.].9XiXhXvX)       ^ ]. XaXE.q.&.^ ( 2.^.).{.kXHXJXUXUXKXmXsXZXSXFXOXfX#XMXyXOXbXDXCXvXvXCXMXfXSXMX@X4X'.Q.S.8.N.S.B.S.i.0.u.( ( W ' W W f.l O         > 5 K rXrX<.7.). XFXPXmX4X7X{.V.N.i.t.`.[.`.Z.H.J.>XsX8XeX8XuXD.| ]  .[.jXhXuX2X#.| J.Z.8.6.8.Q F  .B.F.5XeX5.3.n     ",
"                        X o - u l z z z t t 4 4 4 4 t t i i z t ^ ). X).u.).pXkXZXkXA.^ j V k k l l l l j f._ f.l l l t : O         ; k f.j k S 1./.rX5X|.G.OXXXM.G.G.B.k.k.>XJ.J.{.sXNXnXhX7XZ.D.9.#.K.pXwXiXiXr.| i.i.1XwX<X0.N.|.>X8XaX].O.].#X%.k.#X8X`.8.c +               % - % - * = % = s E gXvX*X~.rX'. XsXpXkXAXNXAXmXsXsXJXlX) V L <.u.2XsXuX/.i.0.p.}.).7.7.7.sXlXdXmXAXDXLXJXZXmXaX<XrXrXR.Q.}.[.@X#Xb.~.].4XaXnXNXkXsXuX7X<X3XlX1XuXZXsXSXJXJXJXSXZXSXmXFXlXmX7XV.'.pXmXmXgXsXmXSXnXuXrXuX/.<.^.rXvX X~.].@XtX Xq.* > N E.'.E.w.E.*X'. XrXw.^ 0 : - 4 - * - 5 4 t u u i t 4 t s y l l l y 7 s l l u 7 t u u u f j j h y 9 y y 9 f s n _ f.k @.7.@X'.E.V.u.) ' W l f l u k p i -         X # > * * * 5 4 - - A JXUXUXKXpX2X).:.<.^.,XrXiXuX'.7.'.lXJXJXSXHXlXsXaXE.v.g.v.5.p.<X<X6X2   D ].V.R.fX@XE.q.&.2.*.q.E.^.^.1X1X3XhXNXpXqXuXgXJXZXLXZXFXZXMXAXJXJXSXFXZX<XrXgXC.@X#XQ.S.'.S.S.#.7...| p.nXaX'.x.` ` $.' f.z       % - K 4.E.rX`.fXnX$X~.gXvX4XN.V.,. .( ( 9.>.A.H.t.t.D.:X|.#.r.K.r.#.] ! ( $.$.6.t.y.W #.J.D.t.D.L.G.b.z.n.l.3.8.5.B.! 1 ",
"                      o 4 7 t k l z l z t z z z 4 z l l u t l W ) K ^.zXlXAXKXmX{.p.2X{.7.^ K S j 1.) <.) ^ *.^ S k f.k 4 >       - u f 8.~.8X9X+XcXtXx.+XG.F.G.c.O.9.k.L.Z.D.J.D.8.J.{.D.L.J.J.9.r.( ! | @.#.X.#...S.7XsX6XQ.S.|.D.eXaX5XeX@X#X|..Xn.M.OXN.( H *           > u S f 4 - 5 = 0 U.*X*X$X$Xw.*.).rXu.u.E.).pXlXpX).w.L ' V A S ' ' ( 7.^.7.7.>.7.A.7X4X}.7.G 7.). X7XuXrX7X<X[.E.(.p./.`.R.V./.V.~.g.c.W.@XnXjXNXnXkX8X<XiXiXsXkXDXSXpXfXlXgXSXSXSXJXPXSXJXJXZXSXSXgXqXV.) h 0 s V A V. XtXkXtXgXfXgXfXsXfXrX].'./.K w.E.w.w.q.E.'.*X7X Xq.e.).*.4 0 z 4 4 4 - 4 0 l l 7 i l j l k f.f f f f l y y u 4 7 i u l u A q.9.) s y 8 p l f j n ^ x.tXfXxXvX*X:.W ' ` r._ f k l l l k y %     O % % % * - 4 4 4 u p. XNXHXAXzX).(.pX^.H.^.^.A./.7XuX<X1XZXlXsXlXmXnX7XuX9X@X].C.'.'.p.;X X~ + N.E.:.] '.#X$X@X XE. X`.&.A.R.) A ( :.) ) (.rXrXvXiXpXNXJXNXZXHXKXZXmXiXsXuX8Xt.8.}.}.7.,.#.t.{.`.`.A.7.4.`.aXrX@X<.' 1.$.' u O X : ; K v.q.w. XrXfX'.&.*.*.=.4X4X'.2. .(  .e.@.6.N.r.t.$.%.@.r.| Z r.6.! ! ( ( $.~ ` #.6.[.9XG.N.N.D.F.G.k.B.k.c.l.W.F.W.|.",
"                    o - y u k k f.f.f.l l l i t t l k f.k l :.E.^ S ^ <.lXAXzX XH.p.).).{.q.V.E.w.<.q. XE.^ ' A ^ f.h k ; - O   : d y ] 5.j.cXyX!.OXF.9XxXOXb.F.G.j.k.`.J.|.eXG.k.#.H X.,.9.9.9.c.D.>.%...] H ! ....J.`.J.`.S.OXOXB.9.D.G.D.G.9X#Xn.l.G.n.4.S H d X     O 0 h V Z V d 9 0 0 L w.*X X XE.E. XrX'.E.a.w.w.E.qXa.L A h h j V A ' L ( ) ( >.^./.<X7XhXkX4XA.(.V.,.7.7.1.C ) <XR.A.i.A.D.4X/...2.S.v.v.9X#Xb.].`.8XjXuXuXaXjX7XhXZXSXPXgXjXsX7X<XpXZXSXSXmXAXSXlXlXZX^.2X).) f V j V *.^.*.^ q.,.2.i.V. XDXZX<X XrXi.K E.E.E.w.q.'.*XE.).E.<.a.a.i.S t l 4 t t y y 4 l l l l j f.k l l y k j l u l t 7 f y y u u f 5.z.5.5.5.) Z c G &.v.$X$XE.E.].#XxX*X<.,.,.^.#Xi.f.k u i i u f y .   O = * - - 4 t 0 K /. X7XpXpXNXzX Xa.^.p.u.u.,.:.:.a.).<XpXqX:XH.kXkXiX7XrXaX5XtXfXtX].>./.sX>.q '.9X'.E.].rXfXrX XE.uX{.rXAXrX/ ) u.G _ ` ) <.^.uX^.p.2X).jXiXuXiXpXjXjXsXlXhX2X/.r.t.Z._.J.J.7XsX9X@XR.0.8.>.>.E.R.' ` $.' k > & - e C.=.{ 7.'.].v.*.5.v.w.[ |.}.N.#.>.<.,.t.#.Z.J.t.#.e.6.#.y.6.@.p.t.#.( $.#.` _ _ | 9.k.N.k.L.7.k.G.xXG.D.F.L.j.O.3..X$X",
"                  > - 4 h j k k ' ' ' f.k f.l y l k k k k ` <.u.<.) A A 3XNXqX XqX1Xa. X X'.@X@X2X).:.^.{.).u.:.^ f.k f.; : o O 8 8 G j.3.3.k.c.!.OX3.G.0XOXOXB.j.j.3.3.S.J.D.G.k.D.N.#.9.>.O.l.j.#.%.9.k.t.#.3.k.S.J./.[.|.OX!.OXS.2.S.`.B.@X#XXXn.l.z.b.G.Z v C 1 O   s h C G A S h h j L L N ].*X).@X@XrX].E.E.E.*.E w.3X^.<.u.s.p.:.L A ) :.>.p.p._.:XzXZXSXNXiX/.(.^.7.>.u...^ / ^ 4.>.q.V.q.7.C.5.I 5.E.Q.vXfX0XW.F.}.sXsXuX<XR.{.lXPXHXFXLXSXrXZ.,.>.:X^.:XlXkXAXmXZXlX7X^.^.^.^.<.^ *.:.i.<.A h G K ^ *.&.7.Q.'.{.rXkXA.L E.~.OX].$X~.E.'. X).w.a.u.i.u.A l y u 0 l l l l l f k f.h k l t t l f.l l k k u j s i u j :.v.E.v.v.v.x.C.E.C.~..X~.Q.x.S.C.Q.'. XgXgXtX#X%Xx.A ^ S Z f u j u :   # - 4 4 t 4 t ^  X7X).pXNXhXsXsX2X^.u.u.7.u.<.p.{.(.{.:Xp.) i.^.A./.lXiX).ZXmXdXuXaXC.=.9XfX/ C tXrX'.5.Q.@XkXdX].1XsXdXuX7X/.u.a.).:.@.@.1.p.,XsXH.e.7.,.:X>Xy.H.<XzXhXlXZXmX2X).H.p.p.s.d.7X<X`. XR.V.S.V.7.q. X@XE.<.<.:.f.- = 9 { *.*.4.8.5.N.C.@X#X@XQ.>XC.S.D.>.#.,.6.#._ 6.r.t.r.y.L.t.6.@.r.J.D.t.#.,.r._ ~ ~ | j.c.9.t.r.L.k.G.5Xx.2.D.D.x.k.!.$X%X",
"                o * 4 4 A A l u l ' ' f.k k l l l l l j ` ^ K ) *.:.) V :.hX2XpX^.).7XrX XrX@XrXaX X*.:.a.V.V.7.:.A j ' t > > ; - d 4.-.] 2.x.G.%XOXt.6.5.G.OXB.L.9.9.| %.9.L.L.#.t.t.6.>.>.D.eX2.>.H.6.2.8.7.2.`.J.`.A.S.}.|.G.+X+X}.}.G.J.S.OXM.F.$XB.G.A.k 6 N d O s K N S K A S V f.L V.w./ '.gXsXsXpX7Xv.w.w.w.w.E.).^.a.u.<.u.p.p.a.) S K ( r.(./.2XNXZXjX<X^.A.{. .7.u.( ( ) @.@.^ G G F N F C K w.E.@XtXfX4X~.F.MXJXNXmXlXuX`./.rXmXmXZXSXdXr.) _ ( ,.( <.uXZXZXgXlXsXqXsX2Xa.a.^.u.V.).u.A j C ^ G ) )  .>.N.(.a.). X7XV.q..X$XE.@XE.'. XpX^.s.E.u.a.w.w.W h l l l l u l f h l l u u y t i s l k k k f.V j d S >.x.].!.tX@XN.N.V.N.S.Q.].~.Q.E.V.N.9.V.dXkXgXyX%XyXyXD.q.i.{ f.f f f p 7 O & i u k l N q.*X]. XlXlX7X7X).).a.).2X,X1X/.(. X).2XiXrX7.7.1X7X).7.1XmX1XpXsXuXaXQ.Q.x.#X@Xg N rXfX4X'.rXrXsXsX<XgXsX7XA./.'.^.,.(.p.( ) H.(.:X;Xp.p.y.s.y.2Xs.r.A.).:X7XiXiX>XH.A.y.p.| r.<X<X{.A.8./.Q.N./.9X5X'.E.].#X X@.u G K E { 4.q.2.#.2.7./.}.6X}.aX`.6.i.2.9.#.6.e.#.#.$.$.6.Z.t.$.#.$.H.Z.| 8.2.1.@._ W Q ..3.k.L.x.6.9.6.G.L.6.t.J.8.>.].tXyXfX",
"              o 9 4 4 7 A j u l l f.' f.f.f.l k l k ' 1.<.1.) ^ 1.u.) A L a.kXhX{.qXsXiX7XrX}.A.{.).A.)./.H.A.E.A.E.0._ u > : 0 f [ O.] ! ] ..3.+X].G.+X'.D.8.6.D.Z.S.D.Z.8.L.6.#.2.%.m ! 6.:XJ.#.y.L.2.3.#.9.5.5.4XwX`.D.`.S.G.G.+X|.|.>X>XL.X.%.F.+X8XeX| h 9 d b * J *.*.K A A V V K w.*. .7.7XsX{. XNXuXE.v.w.U. XfXpXa.a.d.p.p.:.w.u.A ^ )  .,.d.qXpXhX2Xu.@.>.p.i.C / >.) p.(.i.) $...( ) d q b B K I =.5.C.|.F.fXNXhXkXAXSXnX7Xp.S.'.nXFX<XH.s.r._ / ^ 1.).3X^.sXlXpXuXgXmXgXuXE.a. X7XH.y.@.A G ( / ^ ) / ,.E.).<.~ s.0.*.w..X$X*X X X@X XsX^.a. X{.a.q.q.w.) A f.k j l l f l l f k l t u u l f.k k f.S @.) :.r.p.E.V.`.dX/./ ( >.u.p./.'.].aX X].].D.8.S.E.q.i.`.].~.x. XC./ G j u f u y % i f.k l ^ ~.$X*X#XpXpX{. X X Xi.i. XqX2X^.,.(.1X7XpXuXuX).:XiX{.u.>.,XpXuX2X^.A.V.@X7X@XOX9Xh G gXgXdXdXdXrXkXZXzXkX{.7X).7.^.E.7./.(.H.:XiX:Xy.H.y.p.,.6.t.d.:.,.y.r.a.u.u.1X2Xa.d.d.y.#.:X4XZ.V.{.4.N.`.`.rXrXgXrX X~.*XvX~.d L K *.&.( &.4.>.4...N.].<XJ.8XJ.| #.8.2.X.>.N.Z.t.t.,.e.$.$.e.6.H.:X1.( 2. .,.@.@.#._ O.l.#.t.J.N.! B.OXN.t.7.k.t.>.D.fX0XS.",
".           o t u u u 7 t u u f l k l i l l f f.' <.<.<.u.r.:.) 1.u.) ' ' V pXAX XE.kXkXuX9X1X7X7X/.{.rXgXaXaXgXtX*XyXq.5 > 7 V ] l.G.>.%.X...%.O.N.N.J.>X9.( ! N.>XS.D.L.X.>.>.6.7.>.| >.7.A.D.9.#.#.k.k.8.5.5.6.>X>XqX}.J.+XS.OX8XeX+XJ.S.2.7.S.Q.].vX].W a 7 d b N K K K G A A V A w.q.4.u.V.q.^.A./.uXAXpXR.E. XrX'.^.^.a.w.*.<.:.a.).^.u.).).^.<.p.<.( ,.r.H.u.p.Z.<.^ ^ G ) 7.i.:.7.7.*.] D K E ;.*.} Y K } c.fXZXmXNXhXaXiXaX:XE.7.) ).7Xs.7.1.) Q ( u.u.<.p.<.a. X2XkXSXkXgXmXuXV.R.1X{.p.@._ :.:.&.G K 7.V.i.,.^ g j _ s w.U.E.'.'.~.).hXhX^.2XrX~.E.q.E.w.w.*.*.^ A h s l l l k l u l u u l f.f.f.S s.{.p.a.u.<.r.p./.(.a.7.( Z C ^ ^ ( ,.^.0.9X].i.6.i.V.7.,.6.| 0.0.~.5.2.>.V h s t 9 - f.` ' :.].$X*XfXgXNX^.*.^ :.u.<.H.a. X X^.{.iXlXrXrXsXsXiXiXiX(.p.qXpXqX/.p.@.a.A.V.4X9XvX}.V 7.SXgX{.<XsXsXuXlXZX/.i.pX7X7.0.^.p.^. X,XzXkX2Xe.@.H.,.1.1.,. .,.r.r.p.s.s.(.).:XH.s.H.d.;Xp.2.>.7.8.2.7.N./.sXmXsXrX7XrXOXj.K j K K G *.2.4.8.8.2.>.#.i.<XFXnX#._ #.N.2.O.N.N.O.9.>.t.A.r.9.r.e.;XH.,.,.t.9.| #.@.#...+XL.Q 6.[.N.#.F.j./ ! 6.k.#._ e.J.:X:X",
"O         > i u l j <.G f u j V S S f.f.' 1.e.d.H.s.u.<.@.K :.r.<.*.<.:.` :.p.{.{.:.7XrX}./.A.a.E.{.kXlX1XrX$X].w.A K *.s > V *...j.v.5...| | #.9.J.4X{.'.#.| | #.J.|.8.=.9.i.9.A.A.t.r.S.J.K.1XZ.r.9.N.C.k.k.|.G.A.H.J.J.S.`.iXN.D.G.}.[.9.N.>X@XJ.}.sXfX@.c 7 q N c K K K *.) A A *.E.<.w.u.:.K ,.4.:.0.sXKXAXmXmXuX)./.<Xu.G A :.s.{.).d.p.s.u.p.@.) G @.H.a.).A.^. .( :.^ ^ ,.<.r.i.u...^ F K 4.5.v.w.&.*.;.~.vXSXiX1X).)./.[.hXwX7X:Xp.,.1.,.@.1.( A ) e.@.) <.).7X^.A.qXrXpXmXgX XpX{./.p.p.:.) :.:.*.>.<.4.<.>.u.V.<.S S > E w.E.'.E.0.r.u.u.i.u.pXE.E.a.V.E.w.*.>.>.w.:.{ K S f l u u f f l k f._ <.:.@.&.<.i.7.^.a.p./. X/.i.p.<.^ b s m S m Z S.C.2.>.i.0.7.#.,.7.D.i.B.k.8. ...3.[ Z p 7 &. X].#X#XyXrXfXsXlX/.4.) >.)./.A.p.A.)./. XpXrX9XdXuXhXpXiXlXuX<XiXhXpXa.,.>.a.^.0.N.x.'.7.j )  X^.uXFXAXdX}.hXAXlX2XuXkX2X<.p.).[.).s.p.qX[.y.<.p.u.u.:.( r.H.).d.r.#.p.p.H.K.(.;X;XH.A.:.A.A.>.&.:.4.8.i.V.uXuX8X}.'.!.b.^ y L N 8 c w.V.#...0.p.:.8.kXFX`.6.@.,.#.#.3.8.Z.N...#.>.6.r.A.6.A.K.K.H.,.$.r.#.t.9.>.9.D.#.$.r.6.%.9.-XoXc.O.9.G.9.p.K.Z.;XH.",
"X       % t i i f.A. X/.<.V V 0.7.` e.u.p.H.H.a.H.u.u.0.u.i.a.r.<.) _ s.0./.^.:.0.0.A.0.,.4.0.0.^.A.gXgX@XgX XV.u.W :.w.j 4 G { k.3.X.{ ] ..{ ..D.cXMX9Xt.D.,.%.| 8.>.N.N.i.N.4.N.6X}.[.>X<XJ.:XqX2Xt.N.9.S.S.G.J.7.#.#.6.9.[.HX>X>.#.H.eX>X7XeX[.`.D.p.7._ Q y q d q *.*.;.w.*.K K q.rX7X/.:.*.i.p.&.<.,.pXKXKXKXiXuXqXrX<X^.<Xa.H.2X^.^.u.^.).s.` ) G G ^ _ @.,.7.7.@.:.r. .( <.<.,.,.( V G ) 0.E.V.2.] 2.=.E.~.rXlX:XA.0.).).lXSXsXuX/.).A.,.y.Z.>.@.<.a.A.'. XsX1X).).^.H.:.).ZXkXrXgX'.a.q./ ^ A { A G :.0.V.q.<./.{.) V i O ^ ~.E.'.E.E.0.*.a.i.E.2XE.q.V.E.w.w.q.w.w.q.q.~.E.4.{ ) G V j k j A 0./.E.H.0.7.>.:.:.(  .u.{._./.u.7.<.:.>.r.,.! #.#.2.`.N.t.S.A.,.8.C.D.2.#.N.D.G.F.B.B.l.[ d d V.9X'.].#XfXgX'.pXlX{.u.<.<./.E.4.<.^.H./.).E./.uXsXsXsX XpXlXqX<XpXuXhXiXuXrX{.i.q.#X].rXV.C h *.7.CXLXSX'.(.jXlXmXHXlXSXHXpXpXsX:Xp.<.i.p.7.:.u.A.^.H.H.s.H.;X(.(.@.W :.:.r.A.t.p.H.d.H.i.A.}.r.>...4.i.8.t.}.mXfX4X/.>.E.v.h N L h h =.c.9.9.>...4.`.9X4XA.p.r.@.,.! W | 6.D.5.7.>.7.r.p.K.:X;XZ.s.y.Z._ ` t.@.,.9.2.,.e.#.$.#.P.oXM.l.O.3.F.L.L.k.L.#.$.",
"X     O - z i _ '.].].].E. .C E.V.>.a.a.a.u.<.) ) 7.u.,.<.0. .:.w.<.) u.^.u.a.a.a.7.) V C <.A.4.q.a.). XkXrX XuX,XW f.0.j 9 G ....2. .{ | ] ..8.D.fXuXN.2.t.L.8...2.3.}.[.D.D.D.9.S./.J.J.[.2XH.2XwXZ.,.6.A.S.t.N.L.7.| Q | qX7XL.J.A.D.>XeXqX8XG.H.6.| ' W A y y 9 q K K *.=.K ^ <.gXAXpXa.) <.s.u.*.:.>.lXJXKXlXqXA.0.7.p.,.p.) <.).s.^.)./.3X3X^.) G ) ( ^ G S Z ^ u.A.7.7.( :.( ^ G ^ V K a.A.{.p.....V.v.~.~.q.) ) @.p.<.u.qXmX>X{.p.7X6Xp.i.r.r.e.H.0.u.E. XpX X{.{.<.A ' :.<.<./ { { q.0.) ^ ` *. .{ q.7.u.4.<.7.) h h 0 O *.w.q.E.V.V.4.*.:.<.). Xi.E.).E.q.w.q.q.0.4.0.E.E.E.E.E.E.q.>.{ { 0./.E.a.).E.p.7.r...( 7.7.<.u.>. .&.r.r.p.J.J.6.,.r.6.7.6.8.Q.R.0.Q.8.2./ #.G.B.k.5.c.k.j.! h G /.}.].fX X X).*.7XkX{.s.u.*.>.0.<.4.a.^.'. X X<XrXsXlXlXpXzXNXiXhXlXlXlXZXpX{.^.7.>.c.%X5X~.^ y _ ,.tXLXMXH.p.uXsXsXdX7X7X7XdX>X1XuX^.A.pXA./ 7.,.( <.(.^.(.K.Z.d.p.@.Z (  .| s.K._.3XK.H.p. .7.i.>.i.i.t.A.V.0.:XkXA.,._ R.) h b N N N D *.4.S.`.i.7.}.4X2.p.6.#.e.,.$.( #.Z.k.} =.O.>.9.2.9.y.H.;XK.Z.p.e.,.t.,.@.~ $.$.| t.r.t.G.oXM.9.%./ B.G.G.c.j.] Z ",
"X     > : y 7.OX].Q.^.E.0.:.K A K ) H.).a.u.7.i.<.@.) <.q.^.@.) ) ) ) u.i.p.u.<./.<.<.7.:.)  .<.u.q.0.aXkXtX7X:X$.k f.<.k - c 2.#.{ D.i.>.#.8.S.S.`.7.9.S.D.N.t.2.2.eX6X[.J.D.D.A.A.S.Z.H.H.[.H.[.[.[.t.,.7.$.| 6.N.N.t.p.@...[.J.eXJ.S.[.[.eX>X|.{.p.` ` W Q h ; & d K { Y w.A <.gXzXsX).<.u.^.<.u.<.7.) 2XPXKXAXzX0.) K :.:.&.u.p.u.u.<.p.:.<.7.).(.).H.7.7.,.) G C S Q @.7./ | K F K C N / A.^.A.H.}.R.c.$X*X/.<.u.u.a.a.a.a.[.<X/.J.[.jX>X).:X^.H.uXrX^.p.u.a.a.3X X<.^ A ^ >.*.A ) ^ A u.a.E.<. .*.*.<.0.E.V.) q.E.S S L h > E E.q.E.V.<.V.a.*.u. X).{. X'./.E.a.u.H.H.q.~..X~..X~.E.w.q.q.w.*.V.A.^.A.V.i.A.7.<.7.4.>. .A V ^ ( <.J.2Xp. .t.r.@.#.| | 7.9.C.C.].Q.9.#.C #.|.].G.k.2.5.j.[ G  .0.4X XyXfX'.a.u.2X X/.E.E.a.E.(.0.:.4.4.p.^.).uX2X1XsXmXhXsXhXpXZXAXAXpX1XH.7.<.&.{ 4.&XxX#XA 8 C ,.7XLXZX8.a.uXsXsX<XqXuX/./.^.3X/.p.uXiX<Xr.p.( W <.p.d.a.K.3XH.( W A ( e.r.H.;X:X2X:Xp.( 7.R.A.7.7.r.7.V.A.{.7XkX:X,.@./.A s e h N L I *.7.x.@X9X}.}.7X}.D.6.| _ #.| 6.[.>X3.O.O.O.2.] #.>.Q ` 9.H.Z.$.A.,._ ( ~ Q _ | e.J.S.2.Q L.F.r.D.J.OXM.j.g.l.P.[ ",
">   X % Z '.].'.'.(. X7XrX X:.C s ^ /.a.a.p.V.a.0.i. .r.V.^.p. .) :.) ) <.u.:.7.).a.<.a.^.).r.*.<.q.0.i. XkXZXs.' $.` ) u > f K &.] 4.9.9.N.|.eX8XjXJ.D.}.9.D.N.N.G.rXwX`.>XJ.}.<X[.J.6.@.p.H.J._.p.K.[.J.J.@.$.i.t.t.D.[.r.#.H.D.D.D.[.J.6XaXiX>XJ.L.r.~ W A } 7 > q K *.D q.'.sXuX).H.0.u.p./.p.u.<.s.<.zXAXNXKXqX:.:.*.^ G { <.0.s.u.e.<._.p.H.^.3XpX:X1X).(.^./.u._ A A G K K / / *.G K &.<.A.{.<X Xv.E.~.E.i./.).1X3X(.).u.@.H.7XiXqX7X>XiXhXlXlXkXlX7X_./.^.^.u.<.^ ^ A K { A A ) K u.7X XR.V./.'.0.V.7X Xu.A K rX>.d K A : L OXx.0.E.^.'. X X{. X'. X'.'.E.V.V.E.rX{.E.E.~.E.E.'.~.V.E.x.5.;.V././.'.p.2.i.S.S.V.V.q.7.7.>.p.A.H.[.:XJ.p.Z.p.s.#.@.7.<XQ.T C.B.#.6.| C 7.!.B.k.k.9.O.2.C h ^ >./.R.#XfX Xa.a.rXr.a. Xu.E.).E.E.i.) ^ *.a.rX7X7XuX{.uXqX7X/.A.sXlXzXqX2XpX[.A.>.) 4.&X%Xv.p 9 A &.iXJXMX#.:.q.7XrXsXjX7X:Xp.i.7.i./.:X^.A.u.i.p.p.p.(.^.i.p.).:Xp.) Q ( ,.r.H.(.iXqX7X(.r.7.A.J.J.A.p.Z.7.6.,.>.1X7X$.) u.f.y d N K E *.q.t.r.6.D.[.8XkXsX[.{.H.Z.2.,.S.9XC.O.N.j.O.O.X.k.k.$.W ! p.J.A.#.#.@.~ _ | ,.Q ,.G.D.#.r.Z.y.L.D.eX+Xc.c.B.P.M.M.",
"o O g >.+X5X X X@X@X9XgX2X7.q.E.0.*.*.H.p.u.0.a.u.A.V.&.7.^.(.<.u.1.<.u.u.a.u.^ ^.7Xp.a.rX).1.*.<.4.0.i.a.aX7X_ y.1.,.Q 7 : 7 G ] ^ ..:.#.A.8X8XMXBX6X@XeXN.S.`.[.[.S.S.J.4X>XJ.9...| 8.Z.1.6.Z.H.D.Z.t.r.r.r.Z.J.N.N.A.#.6.J.D.t.2.J.eXeXeXD.G.J.S.L.#.W j c I c > % d e { E.^.7XlXpX X<.^ K ^ ) ) *.u.a.3X3XkXAXpXp.:.^ G G A { a.2X2XpXqX;X^.3Xu.u.:X X/.a.H.s.,.u.a.y.) / ^ >.>.,.&.2.a.a.u.(./. X'.'.E.E.7.7.).{.1XqX2X2Xp.<.:XkXlXkXpXhXkXlXkXiX(.).lX:XpXNX).a.<.<.1.>.) ^ ) _ ' @.p.'.{.7X0.R.>. .7XpX<.u.:.h 4.:.y s s 1 E E.R.). X/.i. XsXzXqXE.'.E.'.~.'.E./.7X X#XA.7.7.&.,.<.i.^.i.w.*.5.N.7.*.) 2.{.8.8.A.}.1X{.{.i.7.p.J.Z.H.K.r.t.t.#.Q ! ,.(.S.*.Q./.J.6./ @.4.B.5.6.X.9...l.] V K _ ^.`.rXZX1Xq./.uX(.1XH.>./.'.E.).0.4.^.0.H.2X9XA.7X6XuX<X4XE.V./.pXuX X(.(.{.6X(.i.E.~.q.) 7 p '.{.CXFXaX/.a./.).rXSXkXuX7Xp.A.R.(./.A.A.,.>.(.{.A.u.u.:X(.:XK.p.1._ ( e.e.s.r.K.J.(.6X(.p.p.^.3X).(.p.Z.0.r.p.7.uXhX@.Z ) V t 0 h L E L *.J.J.6.J.sX<XH.(.t.r.| | Q #.] I b ] N.J.9.O.8.L.9.p.y.6.r.p.$.%.#.,.,.e.t.9.F | k.y.t.A.L.r.y.,X>XJ.[.G.G.G.M.G.",
"  y U.].9X6X X[.}.'.{.p.:.:.( ) 0.{ V ^.i.q.0.>.,.^ ^ <.H.H.^.a.^.u.u.a.a.u.<.:.<.hXpX).^.u.7.7.i.V.^.V.7.0.).' 1.K.7.S 4 > - G m ] t./.t.8.4X9X0X}.J.}.].}.8.#...!  .%.7.G.J.N.2.9.7.6.S.J.@.r.J.`.N.t.Z.J.S.N.S.S.D.t.t.J.D.t.Z.Z.L.t.D.Z.J.eXJ.t.( _ | ] [ Y s > o * C 0.E.hXuX(.a.H.:.^.^.` A C V A <. X2X1XpXuXrX:.K | K G c A { 0.a.^.3XhX).,.u.d.H.a.A.(.a.d.d.H.@.H.H.H.p.:./ ,.^.H.^.q.p.Q.C.E.'.].'.2X2X).,X).2XqX).:.@.H.7XhXiXhXlXwX2X{./.p.i.1X7X7XpX^.).2X).a.a.a.<./ A L ) 4.A.{.{.a.A. XE.2XuXa.<.1.n V A s s q 1 *.`.x.v.a.>.q.7.).{.u.i. XE.~.E.E.E. X@X X{.*.,.7.p.i.7.u.V.E.x.=.&.>.4.2.*.{ &.7.i.u.(.2X}.Z.N.p.r.2.>.t.Z.s.r.e.@.( _ | ,.Z.3.Q.qX3XJ.t.D.8.c.8.X.>.C.2.j.} V )  . XE.yXFXtX'.1XrX7X X(.7.V. X'././.{. Xa.H.(.uX^.^.7XuX7X}.V.R.0.}.<X).i.7.[.rX1XR.4...rXa.: p  XZXgX'.4.H.).^.<X1XjXnXrXkXgX<X<X{./.u.Z.,.p.<XZ.p.p.>.H.2X,Xa.y.~ $.p.p.p.>.y._.Z.H.y.r.7.i.:X(.wX1X{./.p.i./.).lXlX,._ ^ f t - b B N b [ OX8Xp.,X,XZ.J.A.H.e.@.( #.| h 1 C 2.X.4.D.9.9.t.L.p.e.#.s.$.| @.@.L.Z.9.,.e.! ~ #.D.t.A.J.D.K.qX1X(.J.J.G.B.G.M.",
"p ~.C.V.E.'.<XsX/.u.W 4 *.7./ ) :.K { *./.a.a.A.u.4.u.H.H.,XqX).).).^.a. Xs.<.:.<.^.3X3X).H.0.p.R./.(.'.1XiX_._ ' u.>.f.: > & d D 4.N.S.V.J.8X9X6XaX9XOXD.t.N...Z c Q | | >.N.J.A.J.9.8.4.N.J.}.G.D.N.Z.{.G.t.Z.J.N.J.H.e.J.`.J.eXJ.y.,.#.r.J.J.G.Z.$.%.5.o.;.o.d O 1 N L a. X X'.r.H.:.A ) e.*.A d n V :.7.).pX4.A / 7.p.8.:.:.) G N L b N <.).u.,._.e.' _ K.(.^.).^.d.H.^._.p.y.a.u.7.^./.qX/.>.{.0.{ / q.'.<XrXuXpX2XH.a.<.1.s.2XhXlXzXqXwX2X^.A.A.1.( ,.,.,.u.1.) u. X2Xa.<.) ^ ^ :.u.A./.i.<.E.{.7X{.p.^.2X^.:.:.) j N G e 0 K q.a.E.0.:.) :.q.) *. X~.].'.V.E.@XSXSX X:.:.u.s.:.>.:.:.7.p.8.i.S././.q.7.4.i.:X(.^.p.:X/.8.5.[.J.t.p.H.J.(.s.r.H.K.H.i.( !  ./ p.qX[.`.G.'.B.2.>.k.=.;.w.*.C K ,.uX XfX Xx. XpX X7X1XpX1X{.{.{.}.7X X/.{.7X<X1XpXzXlXZXjX[. X/.{./.<.E. Xa. XtXaX1Xp.A.@Xn X h *XfX].{ #.6.A.1X{.{.A.{.7XdXgX8XuX7X).A.>.i.:X<Xp.p.,.A.).2X/.p.,.e.p.,XJ./.p.H.H.H.i.1. .6.H.1XqXkX6X(.K.(.<X<X<X^.A.A.,.) V i - N P B m B.3.:XqXA.p.A.;XA.1.| $.e.#._ Z F ..X.| | X./ | 9.9.6.6.e.t.#.6.A.6.` $.,.#.9.D.D.6.L.J.Z.L.J.{.K.Z.J.D.J.G.F.l.F.",
" XdX X(.'.7XkXuX<.h s 4.E.V.E.E.q.q.3.{ A.pXiXuX).p.p.p.a.^.:X2X)./.u.p.V.) V Z ) _ uXiX1X/.V.A./.{.9X<XdXmX).e.e.i.e.i - o & V ^ 8.x.0.8. X<X4X9X`.N.C.N.N.S.S.N.:.#. .@. .| t.D.9.9.L.r.t.t.L.`.S.N.t.A.t.A.7XeXD.D.$...6.[.>X:XN.#.$.$.Z.>X|.|.D.N.| #.B.F.-.K s ,.c.5. XQ.&./ G ^ A  .A V V C C C n h V K @.c m | A.`.}.7X:X{.{.] } I N m D G G j f u g 1.;X^.p.s.7.^.d._.<.(.(.^.a.u.p.R.^.A.'.A.7.| | N. XsXhX1X<XH.1.:.^.(.3XmXAXAXiX3X2X^.H.:.L W L ) u.u.a.a.s._.qX).a.a.p.u.a.^.).E.u.*.^.). XpXzXAXNX>Xp._ V V / q.K 0 *.V.).).R.E.*.,.&.7.].@XE.~.U.].rX).).).u. .:.u.a.p.^.i.u.(.E.8.A.<X{.t.i.A./.H.2X(.s./.:X8.8.N./.i.Z.H.H.Z.K.:XJ.:XK._.t.@. .&.G  ./.R.V.S.B.F.Q.8.-.=.5.=.] F C i.nX@XQ.E.V./.ZXlXlXpX7XsXiX<X X Xa.i./. XuX7X/.iXNXNXlX3X).pXpX1X).a./. X0.'.vXnXfXuXE.A # . V *X.X3.D.D.p.p.i.<X7Xp./.rXrXuXfXkX1X<XqX/.H.p.#.i.p.^.p.^.qX{.s.u.p.d.A.Z.H.p.^.(.^.[.).s.r.A.[.iXqX{.{.H.{.[.<XJXpXr.p.7.u.V 4 5 N N K N *.=.uXpX1.@.#.,.$.( #.r.t.@. .t.N.6.>.r.t.9.$.,.#.^ | #.e.7.D.G.H.s.#.t.p.A.G.|.D.9...6.t.t.e.K.$.e.D.J.OXD.G.XXOX",
"E.1XrXrXgXgX1Xq.0.p.i.V.^.V.E.q.q.v.q.*.*.iXNXuX Xa.a.p.p.p.s.u.a.1.) ( g g *.&.u.p./.i.,./. X{.E./.'.S.(.pX).s.<.^.( 4 : X % G F ....C N.9X@X>X/.S.i.N.V.{.`.N.S.S.7.i.D.#. .8.N.6.N.S.L.N.r.#.+X+X}.H.K.A.J.:XeXeXD.r.e.9.G.[.| @.$.e.t.L.D.eXG..XD.>.G.&XXXk.F ..8XQ.A.'.N.^ ( A h V :.Z h G ,.uXu.A C h p 0 p c m / 7.{.7X<X}./.<.9.7.] | ..^ F A V A ~ :.s.d.^.^.p.H.(.(.H.K.1.,.<.s.)././.[.`.A.<X<X(./.{.{.1X<X^.a.^.^.^.).a.p.3XlX)./.d.w.N y ^ :.<.).).a.^.d.a.u.2XpX2X X{.).d.H.).<.<.). XpXhXzXAXIXKXsX:.k f W q.~.3.N u./.a././.^.V.R.'.].tX XE..XQ.<X^.` ' W @.<.^ :.7.).a.( i.2X3X[./.H./.J.{.2X[.>X7XwXH.H.i.2.{ *.8.8.[.H.p.H.:X;X;XK.;Xs.s.t.7.&.@.p.hX8XC.C.N.v.~.v.v.5./ S S ^ ^ p.kXsX].rX9X'.tXMXZXiX).). XuXkXrX/.`.2X<XsXuX2XqXrX3X X).s.2XpX X2X/.'. X^.,. XBXgXaXa.n > 7 U b.F.].eX`.N.a.i.i.A.i.i.<X1X7XrXuX{.{.4X1XJ.:. .) / 7.i.H.p.hX{.i.@.<.i.4.7.^.p.a./.:X1X1X:X(.H.:X:X^.u.i.p.(.^.uXuX^.r.,.7.V i 5 h L L *.*.3.7X/.r.1.$.@.1.H.K.i.,.#.,.6.N.>XJ.k.A.,.t.Z.X.r.N.t.D.#.O.S.:X6.t.J.t.H.r.N.L.r.D.t.e.t.` e.e.e.Z.L.G.G.G.G.M.",
"i.H.s.{.rXaX^.^.V.'. X/.V.rX'.E.4.K Y { N V 1.i.<.u.a.<.<.a.a.s.u.,.:.,.,.,.^.a.7.r.i.^.u.i.'.R.i.7.7.r. XsX1XZ.i.V.V t - O > c C | { c i.@X5X}.Z.i.7.p.J.S.J./.`.`.N.8.N.6.t.'.:XJ.D.N.D.t.#.t.|.G.>X>X;X<XJ.J.J.J.D.D.D.Z.D.S.t.#.#.Z.J.t.L.J.+XM.F.8.+X%X4.] V D 5X*.0.{.i.i.7.<.:.( / h s A s.iX1X:.G / :.( #.Q Q m Z ) R.Z. .i.J.Z.0.4.7.8.2...>.,.:.,.s.:X2X(.H.^.r.p.A.t.,.,.p./.2X1X:X/./.2XuX7X XuX<X(.a.1X<Xp.:.7.).1X2XqX).).7X:.*.K A 0 e N L a.^.3X3X).u.u.<.1.).2Xu.,.4.,.V.E.u.^.2XlXAXKXPXKXNXlXmX^.S V ^ >./.Z.G ).).V.p./.^.'.rX XrX$X.X.X*XgX:Xi.r.u.7.u.<.:.{ G K ) ( :.).pX[.:X(.2X2X2X>X2X,X2XqX:Xt.| >.! F ..{ t.K.J.:X:X:X:XJ.A.e.t.#.| / 7.s.2XuXS.E.E.x.c.c.k.>.Z n Q G K 7.uX9X#XfX X'.~.gXZX2X,X{.2X2X1XqXrX XuXuXuXiX X2X/.).a.)./.3X2X;X X). X7X X^.*XBXCXkX9XA % N Y C.].+X%X[.K./.(.<.^.1X{. XrX{.}.9X/./.S.p.<.Z.7.^ ^ |  .>.,.i.^.,.&... .^ G p.H.(.:X1XqX:X(.Z.H.i.t.y. ...u.^./.{.3X1Xr.A ( ) h - x *.Y *.w.E.S.S.p.t.,.#.| | ( _ #.7.7.6.e.%.6.r.t.r.:XJ.] 9.2.[ ] ! ] t.D.K.S.L.N.S.9.H.L.L.L.L.H.r.K.>XD.D.G.S.%Xc.L.G.G.",
"a.1X{.i.<X).:.'.V.A./. X'.{. XE.E.v.0.q.*.c 9 g <.<.<.).a.a.^.a.<.:.a.).<XuX1X).u.,.:.<.i.:.7.^.0.>.7.9XnXrX{...5X8Xf 7 : X o C F K  .Z ^ 4X6XZ.r.@./  .6.| / 8.}./.7.r.i.N.t.[.uXuXH.D.9.6._ L.G.6.H.eXJ.J.[.J.t.:XD.G.G.L.D.eXeX6.N.J.S.G.J.G.G.F.!.4XeXk.m n 9 d ^.i. .^.^.^.).7.s.>.>.( g g ^ q.:.^ ( 7.^./.[.D.>.@.&.>.i.^.<.<./.K.Z.2.>.4.>.0.7.7.,.s.d.:X,X:X(.A.r.r.H.y.r.[.(.,XpX:X:X1X2X7XuX7X7X7X:XA.>.(.1X).H.,X;X).2XqX).0.>.7.,./ K ) a.*.) ^ K { <.a.a.E.u.*.u.) ^ <.u.).^.4.pXmXmXlXAXAXlXqX;X XrXA.) Z ( 7./.<XG 7.q.a.R.^.'. XrXfXfX@X@XgXSXpXd.<.` @.,.p.7.p.7.:./ G <./.2XpX2X;XA.A.2XqX:X(.p.H.{./.9.4.2.H v ] [ { t.A.p.e.K.K.H.$.| @.@.! | r.e.d.jX9XQ.~.B.j.k.9.F j W Q C b ,.7X/.R.rX]..XvXkXuX:X:X).^.^.(.(.^.).rXuX{.1X<.s.^.H.). X(.).^.^.a.^.).pXsXsXZXZXuX^. XA 4 c C ].5X!.C.eX6X).^.u.{.<X{. X<X<XS.}.{.uX<X7X}.A.:.&.>.>.:. .| / &.:.^ ^ &.) ( ,.H.:X7X1X6X1X).H.Z.8.i.>.7.<.^ V ~ p.iX/.S y ( ^ s - N *.w.E.q.W.J Q.R.9.@.1.@.#.( ! X...,.Z.9.Q r.#.$.6.r.Z.1XL.%.! [ ] >.r.H.:Xt.N.J.k.>.L.>X+XS.}.J.Z.J.J.L.D.B.F.G.c.k.c.l.",
"/ V.u.g f S <.'.E.0.a.V.0.V.).V.R.E.v.q.7./ G s A a.e.a.^.a.7.:.( i.p.>./.uXqX1X^.u.7.1.1.:. .V.A.^ n 6.#.r.A...9X( u t : O o S / ..[ =.&.[.^.<.@. .@.( ) ..>.] ..>.2.p.t.6.e.#.1X[.(.J.9.r.r.p.Z.9.D.J.,.e.t.Z.>XaX>XK.G.J.J.J.G.L.r.G.+XS.+XD.X.X.].fX8X! g g 5 q V.<Xi.7.A.^.{.[.^...7.<.:.>.>.@.@.@.s.s.i.i.,.6.Z._.:X;X,XL.r.:X3X_.r.i.9.#.7.2.4.1.e.d.;X2X_.a.i.r.H.:X2X3X,X>Xu.i.A.i.A.:XqXqX/.{././.[.^.7.,.,.7.:./.<.:._ j n h s d N K A 0.H.a.).E.u.^ ' w.a.q.) ) w.:.) a.).<X7X{.hXiXpXNXSX'.a. X'.{.0.0.i.W <.a.(.a.s C N *.(.2XaXfXrXrXaXkXFXSX/.) Q ~ ) e././.K.i.<.7.>.) p.2XqX3XqX3XZ.,.r.K.p.r.r.r.7.8.V.J.N.8.4.2.2...{ ] @.K.K.A.r.$.>.>.@.#.<.u.y.y.3XqXC.9X8XF.4.6.G n S g C G ,.<XR.).r.x.].ZXmX^.s.(.3X).<X1X<X1X XuXrX^.<.u.p.a.p.3X).u.u.s.u.<.<.a.).pXkXsXpX^.u.'.V - V F ].0X5X8XZ.6.s.H.1X<X2X XrX'.8.7.'.{.jXsX<X7.a.7.7.<.7.i.7.7.,.) G V <.E.&.:.( ( u.).<X)././.Z.>.| >.0.V.>.n 4 4 h Q g j ,.@.s 7 % K P U.~.@X0XE.x.Q.N.>.8.2.X.%.O.j.8.#.e.7.6.$.! f ( K.r.1Xt.9.#.2.>.6.p.H.#.6.t.D.J.D.S.G.|.J.L.r.K.J.D.H.k.2.j.%.] %.o.O.",
"D G V 0 7 p :.p.4.:.G K ) 4.0.q.7.0.0.q.4.2.a.*.K p.a.s.) :.^ ) 1.7.:.7.<X1XuX).i.u.s.,.,.7.i.^.| p 7 2 m p.{.V.S k f 2 % o . s &.V.5.'.V.2.7.,.@. . .>.]  .7.#. .t.t.,.N.Z.#.,.6XJ.J.[.K.A.J.D.Z.J.:XJ.6.D.L.J.|.>XG.G.G.G.J.G.J.+XS.D.+XS.k.3.=.O.k.5X8Xm d e 1 q ] `.uX(.:.^ ^ <.u.p.A./.7X3X[.H.r.| r.^.<.,.#.r.Z.K.;XJ.;X,X1XqXuXiXqXJ.r.J.{.N.r.p.;X2X2XK.p.s.s._.^.^.[._.1X/.<.i.u.).7X:XiXpXZ.p.V.0.,.^. X7.) 7.( V C s 9 0 0 = * = e { *.) a.a.a.s.u.V.K V ^ ^ L <.{ V *.) *.@.<.2X1X0.p.a.pXhXzXkXsX7X^.^.a.` d.:X{.:.4 e h N 0.rXsXuX{.7XsXH.:.<.' k k j Q u.).:X/.K.a.0.u.(. Xa.,XpXwX,XK.d.i.y.r.,.>.8.8.>.t.A.Z.A./.D.D.J.i./ >.[.;Xy.r.e.#.r.,.r.7.^.,Xd.` _.sXuX4X`.=.2.S S d f K J G K V >.Z./.tXfX^.).^.^. X:X(. X<X<X{.1X2X).^./.i.p.,. X).7.:.) :.u.u.a.u.).mXzXlX7X^.).A % S v 8.aXaXJ.| @.r.(.qXsXsXkXkX X7.V. X^.{. XZ.A.V.7.i.R.p.i.7.<.7.*.*.r.p.^.<.) ..7.,.a.{.3XpX2X>XH.@. .^ 2.^ u 7 u s u f W H.>.g 9 # e K =.E.ZXBXQ.x.9.2.5.D.#...O.l.8.#.7.Z.A.A.r.@.m ( p.e.J.S.Z.;X%.6.y.y.6.e.N.N.N.J.G.|.|.G.G.s.p.J.J.Z.Z.t.t.D.! a a J ] ",
"d N V c C ) K N V h g ^ 4.0.a.^.^.^.0.q.4.7.7.^ / p.<.^ h A @.>.7.).^.^.{./.A.^.a.H.u.0.:.:.G v p 8 8 7 h >.{.( j S u - > >   V q.=.R.rX{.A.7.)  . .&.>./ K ] { ..>.7.#.6.@.p.#.6.H.[.:XqXJ.Z.eX;XJ.J.L.6.J.[.J.>XG.+X:XJ.L.7.S.+XD.D.L.G.5XG.c.G.+XD.D.|.g 9 w $ h >.K {.>X7.( ^ ..>.^.1X7Xd.>.H.(.K.H.e.;Xs.,.y.K.p.H.K.D.Z.;X2X;XK./.2XH.d.:XH.i.(.;X;Xd.d.H.H.;X(.H._.(.;X:X:Xp.i.s.Z.<X7X3XpX3X^.:.>.0.^.<X/.,.G V b e d b N K V s 9 9 c N K / p.^.^.a.^.a.u.).a.1.a.^.^ N N N K ) ^ :.^.a.{./.).7XsXqX4.>.H.i.,.u.:X,X{._ - 0 K { G ^. X^.<.rXa.i.) ^ S j g j S @.<.e.#.@.H.a.d.(.K.,X2X).2X;X,X:XJ.r.( ) ,.p.>XN.i.`./.J.J.[.(.{.[.,.,.J.J.#.| #.6.H.H.J.,X_.pX,Xs.) qXlXzX/.#.| V G v H K N Z :.| V.7XZ.A.u.A <.a.^.^.i._.^.a.^.(.^.0.H./.(.(.p.s. X2X/.a.<.:.u.^.).a.).pXzXpX1X). X) > N C 9.5X8XJ.p.H.a.p.(.lXiXZX Xu.8.0.^.2.i.V.0.E.q.7.p.i.V.p.7.) <.^.(.E.>.'.'.<.,.>.,.a.).:XpXpX;X:XA.r.4.:.g 4 u j j j n ~ 6. .h 8 + b L q.rXnX7X`.'.c.O.j.8.` #.c.3.#.p.H.H.J.J.L.#.W Q ( #.Z.Z.H.6.Q $.p.t.t.J.7.8.`.'.|.G.|.|.|.A.e.J.t.t.Z.>.#.L.9.9.3.k.! ",
"N { *.:.2.&.,.( K G *.4.p.^.V.H.7X X^.i.q.,.&.&.,.{ C C / &.7.p.s.'.s.i.s.d.p.(.).2X).^.i.7.G S p s n A / <.^ 8 j Q u ; % > . c  .K V.gX<X^.u.*.Q :...| { &...#...7.K.,.( #.p.p.Z.Z.p.t.H.J.r.r.J.J.wXK.#.#.D.>X|.eXJ.+X[.eXZ.G.|.J.G.k.k.eXG.&XXXOXeX8X`.q 2 < $ 6 A / / E.{.7.>.:.:.p.<X:Xi.) ,.K.K.r.a.,.d.K.6.s.e.Z.K.;XK.K.:.( A  .y.r.:XH.(.s.i.H.;X:X2X3XpX3X,X;X:X2XqX3X2X3X<X^.s.r.u.e.` ` H.:XH.^.<XA.*.A K ) ) D A N N N A K ) *./ ^ *.s.^.a.a.).2X<._. X).).2X).a.) V A A *.a.:.*.:.:.) <.*.N G N C '.sX(.H.iXsXp.A 5 b *.*.*.G A h h >.w.pXpXp.) V f y f V ~ _ @.,.p.a.a.s.a.2X3X).2XzX2X:Xs./ Z S Q ..t.[.{./.[.`.[.>X>X2X:X/.A.y.:XH.e.A.e.J.:X;X,XK.,X,X_.e.e.uXlXi...0.| &.[ H J D N A &.0.0.<X4.A j  .(.a.a.(.a.s.(./.E.,.( a.^.a.d.s.2XzXqX XE.^.a.). Xa.^.3X2X:X{.3X3X{.).4 H N 7. XjXfX'.2XuX[.(.[.gXrXa.V.7.7./ G 7.*.u.7.7.,.i.7.A.).7.,.).2X1X<.) R.V.<.>.( :.s./.2X<X[.:X:X`./.A.j 8 h ..7.i.i.@.u.u.,.^ 9 o q N q.rX@X}.4XS.2.O.k.0.( #.B.>.>.r.Z.t.p.J.K.t.#.#.e.,.p.Z.A.#.y.A.t.#.m >.G.}.|.G.+X9X|.G.[.Z.S.J.L.L.9.X.t.D.k.S.B.F.c.",
"F 2.R.0.q.i.7.7.A.{.0.V.^.E.^.V.a.a.q.<.0.<.7./.7X).).a.:.K :.@.^ ( ) s.H.u.<.a.a.H.2X:X(.A.>.G G &.7.i.p.R.A.,.>.n u 7 % o O h &.:. X<XV.i.<.) V ^ ..] { &.:.2.7.>.A.Z.t.,.6.J.>X:X[.(.Z.J.J.H.>XwX7XZ.7. .i.S.D.J.G.S.D.t.L.>X0XeXG.D.!.+X.X0X$XG.G.G.9.d 1 1 < v C  .4.7.7XJ.i.>.,.>.r.A.u.e.( ( r.H.A.e.H._.K.H.K.H.;X,XK.t.r.y.y.$.@.,.A.H.wX3X,X;X,X:XK.:X,Xd.,XpXzXzXzX,XpX3X;XK.y.e.$.e.y.$.s.y.Z.V.] V C  . . .>.<.:.&.^ A K ,.7.J *.<.K u.).).2X2X).2XhXpX3X,X).2X2X).a.<.*.^ a.:.j s 0 h A K L h N -.*XbXvX/.hXmX(.) % J q.*.>.*.d 5 N ) q.sXuXH.u.u.,._ m g g n ( ,.,.6.,.p.:X:X:X3X2X2X2X).r.,.$.) ) (  .Z.{.S./.S.p.<X(.r.A.:X:Xi.6.Z./.:XK.Z.,X;X,XpX3X,Xs.r.p.1X2X@.=.[ =.*.I U I J C >.:.0.] E.(.7.) :.^.a.a.2Xu.^./.(.7.,.i.).).^.e.s.d.(.:X).^.E.).).a.^.).pXlXpXhXpXpX2XhX) I v H `.8X].}.7XlX,X1X X'.a.7.4.:.*.) ^ V c ^ :.0.>.:.p. X(.q.^.a.).2X:.a.E. X).p.p.:.<._.2X(.>X6XJ.[.>.j y m 2.9XS.S./.^ S S s h p - w N a.'.'.9X'.>.G ! ..i.:.6.Z.p.e.t.Z.Z.D.`.'.N.Z.t.S./.p.K.K.Z.H.s.Z.J.>X6...S.Q.F.k.k.F.G.N.N.S.D.S.D.t.k.J.t.L.t.L.L.! ",
"K R.'.^.V.&.{  .0.R.8.Z./.H.V.^.^.q.4.i.^.0.A.{. X).).(.H.&.:.7.7.<.,.u.s.1.<.(.^.2XqX).y.! g c >.V.A./.R.p.( h j 8 7 5 - % . S 7.7X[./.u.<.>.) ( <. .&.8.0.N.8.Z.p.r.A.).:XH.Z.i.t.J.[.:X7X>XeX6X6X>XZ.y.6.H.`.K.S.Z.J.J.y.y.D.G.t.O.Z.J..XyXBX0XG.eXt.b w 3 < < p >.t.2.D J.7X>X(.J.r.7._ ! ( $.@.( ;XqX;XH.A.J.;XA.;X3X;X;XZ.s._.,X_.K.K.y.r.p.).qX3X2X_.r.a.d.3XpXpXpX3X3X3X2XpX3X;Xd.s.s.e.e.p.i.p.A.i.i.<.,.,.>./ ( A.qX3X X^.u.0.0.&.K K N A u.).p.^.a.{.2X2X).).).).)._.u.:.*.N N A h h G *.*.:.) G / { ;.;.n.OX X{.,._ - N *.K *.*.C e e e C 2X{.^.u.u.6.#. .G c a a n Q ~ ,.J.(.K.).;XK.d._.(._.s.i.i.p.u.u.4.A.'.R./.A.7X(.i.Z.(.:Xr.y.s.r.y.[.;X,X3X3XzX,Xd.p.y.u.:X6XN.;.*.;.U x.x.x.H b &.i...4.N.rX/.4.<.4._ ^.2X^./.(.).).A.E. X1X).r.e.d.y.^.).).^. XpXpXqX2X,X3X XpX7XrX).lXu.I b d &.4.B.].fXhXhXrXa.J N N n A ) *.A s s A *.&.&.*.&.7.a./.{.^.0.r.V.a.r.{.3X1X X`.r.p.@.>.A.p.6.>.h 7 n F 5.`.r.~ Z j s f n f q q 6 L '. X`.R.>.| ^ G ( r.u.p.D.N.N.p.i.p.J.t.8.L.J./.S.8.>.e.L.[.K.r.,.r.D.#.@.>.B.N.2.8.].OXS.S.Z.S.N.D. .#.9.^ D.D.t.D.! ",
"{ R.[.V.,./ G &.p.q.&.:.*.p.V.a.i.u.<.{  .*.E.u.0.:X^.H.0.s.s.*.<.^.1XpX3XK.^.,X(.s.<Xu.F n p g 7.p. .A.).^ 7 ; y p - - - % o C 7.<X/.u.i.7.>. .^ ^ ^ | >.7.0.S.`.A./.p.Z.:X:X6.,.>.t./.:XH.H.:XqXeX6X[.Z.i.J.[.K.A.Z.H.A.d.p.C..XS.r.! Q 9.xXnX8X5X`.v 3 3 < < $ h `.D.G F }.rX>X<Xs.[.[.A.r. .$.) @.r.:XqX2X(.Z.,.Z.;X3X_.3X1X2XiXzX3XqXwX2Xp.:X3XqXiXqXH.@.1.K.zXpXiX,XqX3XzXlXPXzXd.,X:X;Xd.p.A.{.6X/./.J.}.{.'./.,.) &.i.p.a.H.).{.R.a.2.*.*.h K 7.).{.7XpX).a.).).a.u._.^.u.a.u.<.L s h V *.V.u.:.4.4.0.i.J.{.}.cXrX,.S n p J K K 4.4.A A { N A rX^.p.a.r.@. .G G ~ G Z n G | 1.e.e.s.A.H.s.s.p.p.,.r.K.[.A.Z.Z.7.A.`./.S.A.K.J.K.:X_./.7.[.iX_.7.,.t.[.,X,X,X3X,X_.s.,.).pXx.T g.j.;.;.z.q.n f &.F | 5.*.q.x.q.0.>.<.:X/.s.(.:X{.2X<X0.).3X2XE.(.(.<X1X'._.a.3XkXpX X{. X).a. X2X XpXHX2X*.b p 8.4.N.0.wXAXmX<.K A C V N V L K ^ N V :.>.>.*.@.^.). X{.^.a.u.*.p./.4.:.^.7Xq.7.i.p.A.^.7.m s c 8 5 y m 8.Z.Z j S f j ^ Q g g b 1 0 q.E.^.>.( Q _ ) ) 1. .#.t.H.J.A.r.H.A.7.7.#.@.2.N.6. .$.H.K.J.$.$.Z.t./ | 7.D.t.D.S.S.7.[.eXD.Z.6.A.N.$.L.L.6.uX|.Q q ",
"N.E.,.0.V. .V *.A.,.{ >.:.V.r.<.0.4.:.{ C K p.^.,.s.).a.p.>.) ) :.s.).(.qXsX:X^.).,.( n h y f n ..7.^ :.^ 9 9 y C n - - 2 : @ g *.0.x.u.4.,.>.^ C A ..t.4.7.p.N.i./.H.r.|  .e.Z.r.7.,.H.J.#.#.Z.>XeX>XK.:XH.[.[.J.H.r.$.e.A.N.|.F.G.k.>.6.k.aX+Xx.] d b 3 < + < + p S./ c F h 7.}.t.y.1X,X).H.p.@.r.p.y.p.,X2X,X;XH.;X1X3X3X(.K.2XiXpX;X$.( | @.p.{.H.3XwX,Xp.H.,XzXAXNXzXlXHXlXzXzXpX;XK._.J._.).7.A.`.7.H.<X`.Q.{.<XR.7.)  .p.2X{.2X<X^./.i.{ *.K N ,.V.a.^.).).^.u.u.u.).).).).a.u.a.a.u.E.^.p.4.A.a.A.).:X<X8XH.+XCX).W j h i N J D G L J G *.4.4.rX/.,.u.s.e.s.| ~ / @.>.,.@.@.6.r.~ #.@.e.H.H.a.y.:.@.e.J.).R.p.7. .N./.{.J.Z.s.6.r.s.A.K.A.K.H.r.@.@.p.s.y.d.H.H.p.H.s.p.7XC.Y g.~.~.E.v.{ 5 u R.N.C.v.x.E.$X].]./.0.(.(.). X<X3XuX:X^.).).^. X X@XfXuX). X X).hXpX7X X^.).E. XsX X2XrXqXc.b p i.2...S.qX_.) C V V V G K K ^ *.K A V :.*.,.q.>.u.^.).:X{.(.u.p.(.H.) G *.@.A ^ 7./ S.S. .j h q t t 7 f G @.( n g f W S q 0 e b e * N E.K ( _ Q ^ ( ( A ) #.#.N.J.N.`.}.}.G.7.@.Q S / y.6.$.Z.J.r.6.t.S.Z.( 9.7.A.`.J.[.jX>XN.r.#.( Q D.+XJ.D.6.%.7.M 6 1 ",
"`.Q.E.2XpX/.G i.V.4.>.) n *.0.0.p.<.>.>.{ K 0.a.a.p.H.H.,.^ ^ ^ ^ ( ( / ,.2X1X/.H.s.h 8 y f f h ( ) ( A 9 7 y s C g 5 5 - : @ 2 e G *.&.*.( 7.&.G ( &.i.A.R.A.Z./.}.p.>.Q m Q | >.<. .i.J.(.[.[.J.Z.6.#.t.[.[.2X>X1X1XJ.y.Z.k.k.B.B.>.L.+XH b w w d x x 3 $ + $ . 2 4.H C C p / (.2X>X/.1.@.@.( ,.H.).;XK.p.qXiXhXZ.Z.;X;X;X;X7XqX[.p.e.$.Q ~  .@.:.p.:XqXqX6X_.:X:XJ.iXNXHXHXKXzX2X2X;XA.H.A.A./.A././.A.).7X/.2.V. X[./.{.7X}.:X7XrX'.R.i.4.7.q.:.K >.4.a.(.).w.:.` :.) ) a.<.u.a.u.d.).).i.w.@.7.^.R.7XhXsXsXsX1XkXkXQ h W j 4 e { e q J *.K J 3.q.uX^.,.a.y.,.7. .( @.,.>.>.,.t.1.#.p.e.s._.K.a.y.i.p.r.@. .( r.V.A.>.Z.2XJ.t.p.,.1.,.K.H.p.J.H.:XH.p.e.| ( e.#.$.7.a.d.r.u.{.Y Y E..XQ.v.v.v.p ; { q.w.w.tX X X@XrX'. XH.:X:X:X2XpX1X7./.^.p.u.i.'. XrX<X{.).).qXpXhXpXqX X).^.sX@XE.pXlXlXN.q p m C r.sXr.f N h h s V { L A :.K K { / { >.q.:.7.7.p.,.^.).a.) ) @.G A ^ V V V ^ :.V / { S p s y 7 7 p _ F :.8.>.h f h 9 5 * 0 e x N r N h j V n h j G K &.>...:.i.R.}.Q.V.t.#.V V C Q 7.i.| #.@.J.6X6XeXH. .#.N.D.`.S.t.t.8XJ.t.#.] >.S.D.S.| r 6 < , < < ",
"R.N...{.uXR.>.:.G A G j u C :.) j N C ) K { 4.q.u.<.^ _ >.:.:.:.:.( A >.r.>.s.H.i./ j j f a f V A G @.G s 9 9 h 9 & ; ; * % % o 5 q e L G *.;.,./ ^ &.{ 4.7.7.8.i.i.i.| W d g v N L C C F @.Z.>X;Xt.>.>.t.J.H./.t.Z.6XJ.$.N.|.!.#X+X'.N.F e w w w x x < $ + $ +   - ..F  .C v d ^ J.Z.#.,.r.<.y.r.s.K.qX2X_.qX;Xp.e.K.3X;X1X;X;XH.y.r.p.e._ A /  .&. ./ p.}.:XJ.H.<X..9.<XiXiXNXHXlXiX2XH.7.9.S.V.`.4X{. X).R...G ,.E.R.q.p.7X7X{.<X^.^.^.i.^././. XV.0.*.:.4.>.*.' L <.<.) <.<.:.<.:.s.;X X^.u.<./.'.{.2XiXhXiXpXjXJXqX5 j h 7 , b N b N K K *.*.=.V.6Xa.<.p.,.@.@.@.@.r.s.6.G #.t.@.#.(.3X(.p.r.y.p.p.r.s.y. .( #.1.r.7.1.,.1.s.H.1.,.,.,.Z.,.A.p.e.,.r.t.@.S W ` ! ^ >.u.i.(.jXx.x.0.V.N./.<X{.s 7 v.;.L x #XfX'.). X X^.p._.^.).:X1X3X/.;X^.a.^.,.i.E.<X/./. X).). XpXhXqXa.E. XsXrX XlXlXlXrXd U G m  . .g A b 0 0 0 h w.V A / K ) { *.w.*.) q.i.p.i.,.,.:.A h V ) :.:.( ) ^ n A G n C V 8 7 5 5 8 V ^ ^ ,.N.{ ( s y s q * # # e x x N h s h V C C C K ;.*.w.c.v.v.>.&./ C F G v D V h F F v m C ] k.J.|.6.#./.>X[.}.D.S.9X}.N.@.( 4.`.N.N.[ e 3 r 3 < 3 6 ",
"E.E.*.^ 0.{.`.*.G d f s V V j V s V A h G *.>.>.^ A Q @.) ,.( )  .Q @.<.F f n Q F n g a a p h s 9 >.,.V _ y - ; & : % % % % - d q 5 e e N N J *.K G  .{ >.K | G d c C C h s a c d b J N F @.y.7.6.6.9.#.J.(.r.t.A.2.S.N.7.`.9X@XeXG.! b 3 6 w < $ $ < + + $ + +   8 8.:. .g s g c F 7.s.p.).>X[.#.,.1.( @.p.:XpX;XhXzXqXK.Z.e.#.e.H.;Xp.s.y. .@.<.p.i.>.>.t.J./.t.D.t.#. .i.[.,XqXlXpX3X/.^.`.}.1XwX8X2X<X:XA.7.8.7.u.i.5.i.{.uXjXuXA.7.a.a./.^.}.).^.'.^.:.,.>.^ ^ q.u.u.a.<.<.u.*.` a.).).d.<./.{./.). X2X{.).:XaXqXQ u f : 4 5 0 b N K *.*.K L >.i.hX).7.<.,.r.1.1.i._.A.7.7.i.6.1.A.K.;X:XK.J.K.r.s.(.p.1.@.@.@.| $.p.y.1.6.(.J.y.#.#.@. .@.( ~ ~  .e.[.r.n V A Z ^ u.A.).>XsX/.p.q.q.2XkXuX^.y : w..X~.E ].lX<X2X).).<.H.H.).:X1XqXuX).(.a.:X).a.{.E.A.i.i.^.a.).). XpXpX).). XsXkXpXmXNXlXkXJ e / ~ G ^ A q 0 0 0 0 e L V A N A *.4.*.*.E C *.7.,.:.<./ d h e h ) :.:.^ A Z V j y u 7 8 & 1 5 8 A 4.^ | | | V s 8 0 0 * = o # 0 e x x = 0 q s V D C N w.v.;.w.j.=.m s 9 5 9 p b F s p b b N | n S G Z ^ Q ( 6.[.[.i.A././.#.! D / H N c b < < < < , 3 6 3 ",
"K 2.N n G 0.4.A g 9 h ^ A ^ ) &.i.q.*.L *.*.*.p.,.j V _ K ) @.,.A Z Z m 9 5 2 - 5 f k f a f y y <.i.F g 0 - > > > > o o o # 6 Y D , 0 0 0 e N Y *.0.4.7.>.&. .N 0 d q q q n n q 9 e b F :.7.>./ ! 6.Q c ] /.>XwXJ.m b F v v D m b e , < < < $ $ $ $ + + + + . .   p 8.N.E.c h ^ ..G {.sX6XjXqXd.s.( S #.y.A.wXiXqX3X;X;Xy._ e.H.K._.;X:XH.e.H.A.r.i.Z.Z.,.~ ! #.,.>.#.e.Z.H.J.3XlXlXhXwX:X7XqXiXpXsXsXpXuXpX}.i.0.i.p.S.[.A.7.i.A.V.N.p.E.)./.E.^././.a.'.A.0.^.^.u.u.) <.<.<.u.<.' <.;X3X2Xu.a.1XuX1X7XrX:XrXuXqX4X .g u t - 7 4 s L *.Y *.B J *.&./.2Xp.y.>.:.6.,.,.K./.p.s./.(.Z.K.).p.r.r.,.r.y.:X2X(.H.r.r.:.@.| ,.p.r.A.s.e.p.J.e.$.#.@.r.6.#.#.( #.:XH.$.(  .>.>.>.(.;X>XkX{.E.a.^.mXAXsXq.1 > *.U.$X$XtXZXrX).R.^._.(.'.).).,XqX:X7.^.7.:X_.:XpX).R.A.p.e.) w.u.E.pXlXNXlX7XqXrXpXNXmXlXSX7.1 ^ / S b w 0 0 0 r 5 0 e N N A ^ ^ 4.*.*.*.G ) K V :.S d h g h c b s V V j 9 y 8 7 ; ; 5 7 0 9 C ^ h h s 6 0 9 9 * # o O O   . r x e 0 > O . & e d b N *.w.K G H K G h 5 5 1 2 9 q 6 q e q g F ! 6.6.6.( n n v S r.,.7.| d d d e < , r < < $ , < & $ , $ $ ",
"N h s y s s h l h A ) :.1.w.*.V.'.q.<.*.*.q.*.a.H.V f j h ^ <.>.h j s h A h 1 $ % - 8 c h ^ j 0 :.s 5 * + > o O O o O O O & L w.w.b 6 5 1 0 d d e N *.G / ] H g e s q 9 q G Z 0 1 < p b C | >.( G ^ b d d H m n b 2 < 7 2 * % & $ # & = = $ $ $ $ + + X X X       h Q...0.] F ! :.2.| nXZX1X1X2XqX;XH.A.A.,.p.K.p.y.s._.K.p.p.;X3X,X;XH.Z.e.Z.[.[.>.:.A.<X[.y.r.,.,.r.D.A.p.lXlX3XiXqX_.H.7._.iXhXpXiXzXiX7X/.>.2.S.4XuX<XN.A.i.i.V.7...4.V.`.<Xs.2X'.<.^.1X^.u.2XpXu.<.i.^.).).^.).).2X).u.^ a. X7X1XpXiX1X/. X XuX7.k u 7 u u : x L *.w.L n K 4.R.kX_.Z @.s.<.:.p.(.,X:Xr.s.;XK.;X;Xs.s.r.,.1.<.y.i.p.7.>.7.a.s.i.e.,.p.H.H.(.(.H.H._./.H.t.H.r.e.A.J.7X;X6X7X(./.r.6. .| i.:X:XsXiX).7XAXAXuXE.- X { E..XCXLXaX4.u.u.^. X2X(.a.).qXpX{.).).u.^.).pXpXrX).^./.^.<.` :.u.).hXhXlXpX). XsXzXNXNXhX/.5 g c s 5 r r 5 r 6 , 1 0 e h h N A ^ *.w.) G G V S V 9 9 h V V e 5 - , 5 , : = & 9 j y 5 5 0 5 n S % # > % > # O X         O O > N ;.G q & # - 0 e 8 5 5 , 9 V d h g 9 1 - 1 1 5 5 5 5 1 5 6 1 v >.../ m s n a p n g s 0 1 = $ $ $ = = # # $ $ = $ # # + + ",
"0 t 0 4 4 4 4 0 s V >.w.i.:.) V.E.E.0.<.C c V ) h u 0 5 4 - s u 5 5 * & & % % X .   . - d Q n = # > > > o O O O O O O   # D E ;.g.w.L x e w , b N b 0 > X + $ , 0 0 q q b b d e p 8 w 2 6 p Z G c F ( 6.7.p.,.a 5 1 @ . . X X @ o o X X X X X X . . .   .         8 &.7.^ h n h G i.G ^ sXiXlXzXiXiXzX2X;Xy.p.e.,./ @.@.| e.H.:X:XK.H.$.$.N.|  .t.D.7.>.Z.1XwX3X2XK.y.,. .<.jXlXiXqX/.6.8.i./.7X2XpX>X2X3X2X}.'.S.Z.i.A.<X<X/.x.8.4.>.....2.0.^.q.a.^./.<XrXqX:X).7X{. XrXpX7X X XpX7X).).q.).7X<X1XiXkXuXgXuX).^.'.,.n u u f l 4 e E E N 4.'.4.q.E.pX3Xr.^ u.a.^.(.(.:X,Xt.Z.H.u.#.) @.( ,._./.A.u.<.,.` A Q e.H.A.p.:.p.u./ d.>X(.A.s.,. .7.:X:X>X:X:XqX:X,X<X:X(.1X:Xp.>.>.7./.2XNXZX>XAXmX Xi.:   { *XgXJX@Xa.<.<.u.^.).(.a.).qX2X).).{.).).^.uXkXuX7X X).{.{.p.0.a.{.uXpXuXrX).w.a. XkXAX2Xs.>.# + $ # # $ = = = = = = * 0 e 0 0 0 V / S 0 > O % - - * # > + # # + # X O O X O X # & & 0 J =.Y *.K L b * O O O   O           O = L g.Y w.w.w.q.q.q.F 2 O             . o @ o # % % % & - % % & 1 c / ( 2.x.8.7.C 0 +   . X o o o . X O X X X + + X X .     ",
": 4 t 4 - - 4 - - t f A :.q.w.:.E.{.4.K V 9 0 0 5 - : # # o O X # X .   X O # 5 s N G 4.}.tXfX].G -                   . r B Y ;.E w.h.;.*.w.w.~.E.q.w.4.4.>.2.7.N./.<X2X>X>X{.p.K.:XeX[.`./.`.>XrXgXkXnXMXMXHXHXkX7X8.Q y : X     O O     .   O                   X G R./ 9 h b h C 7.}.6XlXNXAXNXzXzXqX;X:X3X;Xp.1.~ G | K.:XK.,Xp.H.iX2X:Xp.@.G #.S.t.H.qXwXpXhXiXiXJ.>.,.,XqXqX<XS.q.3.q.S.[././.E.(.(.uX}.N.p.A.Z.}.iXrX7.K (  .>.{ >.2.8.7.0.^.H. X/.:X1X^.a.a. XpX XsXsXsX7XqXqXqX2X).hXlXAXmXlXiXuXkXuXpXdX^.G W u k u u 7 N L L B ;.w.w.I G {.3X,X:.^ ) r.H.:X/.>.1.,.,.@.( W G ( ,.H.p.7.) s.(.p.:.,./.{.<X(.i.A.7.7.,.<.r.H.H.p.7.p.K.,X7XK.;XJ.K.N.2X7X2XqXwX:Xi.r.t.@.F 7.uXlXpX;X) Z -   V E.GXdXa.H.^.).^.u.^.^.^.).2XqX^.a.u.H.).7XrX7XuX/.E.).)./.a.u.).{. X1X X^.u.^.).).kXAX<.) ,.+   . O . . X X X # + X X X O O O O O O % 5 y 0 0 * X   O X O X O O O * d C L I K I J } w.q.v.~.$XyXfX*XE.N 0 1 * - $ 5 e e N L E E E L w.k.Q.'.'.@X].'.N. .C s s q q q 9 b N b s 8 - & 5 c / =.0.Q.].].*XyX0XGXIXJXfX^./ p % X o X O O   . .               ",
"- : - 4 - - - - - - - - 0 y f 0 h *.N :.N 9 s 9 # > X > O O O O X 9 Z *.>.q.E.Q.].].~.}.9XtX#X#X*X~.*.D G G ..p.H.i.i.u.4.q.*.E.~.Q.].+X#XrXfXrX XrXsXrX9XdXkXmXZXJXJXHXNXlXkXkXnXmXkXjXZXkXnXZXAXFXnXsXlXhXNXIXJXNXnXfX@XB.O.F s - > + o O .                     p 3.].>.h ^ { C C 8.7XuXlXlXAXPXNXNXqX2X1XpX;X_.K.` ( ` #.,.t.H.N.$.:XhX;XqX6X:XA.2XJ.A.2X2X:Xp.:X1X>X).1.J.wXpXH.8.x.*.k.3.2.=.4.p.i.A.1XA.<.p.a.).>XjXpXi.( :.7.>.| 7.i.p.7.).1X:X2XH./.pX:X).2X XpXpXqXpXzXhXlXzXAXpX).zXzXhXhXkXlXlXlXuXzXZXrX) _ u u k u 5 x N L L L L 4.G >.iXe.1.:.1.G W _ :.$.1.r.Q ^ ,.p.p.s.r.,.A.K.u.7.u.7.i.u.A.4X}.{.`./.7.:.7.7.@.u._./.(.K.A._.[.K.D.(.K.#.Z.2XqXiX1XK.J.,.{ / m F / 7.lXZX:X` f %   b rXyX XjX7X2XpX7X(.<.<.^.:X).:X2X{.a.a.a.1XuXaX7XA. X7.0.0.e.u./.a.^.uX{.<.a.). X).gXkXW Q 2.:   O             O > 4 y f f.A K E w.r.V.E.'.E.E.E.q.s X O     X 5 &.Q.].].R.E.v.~.~.b.E.E.E.~.$XtXgXfXfX*X.X~.~.~.E.E.~.E.q.w.v.E.E. X<XrXaXuX5X9XrX9X9X9X~.Q.v.5.=.=.-.v.C.v.E.E.v.N.S.|.Q.]. XfX@XB.%X%XfXBXDXDXDXGXGXfX0.f.i : % > o O                 ",
"0 > > > > % - i l y l s V A ) ^ K *.<.u.4.4.E.0.{ s X > : 4 s K q.'.$X X~.'.E.V.V.V.E.R. XtXrX X X#XyXvXFXDXtXgXvXnXSXSXFXSXkXgXNXBXHXJXHXNXAXHXSXmXhXmXZXNXlXAXmXSXAXnXpXiXNXZXKXNXNXmXNXNXAXHXAXZXHXKXIXIXIXPXPXJXmXnXuX0X$X.XQ.0.K 9 % % % > X                 C H v K { ..#.{ >.8.J.AXHXAXSXHXAXqXs.s.2XiXqX>Xs.r.1.e.)  .@.,.$.@.,.Z.J.,X}.[.2X6XH.p.[.K.(.qX>X,X:XwX2XqX6X^.r.Z.D.N.'.V.N.2.2.2.2.7.i.A.H./.3XlXlXqX).&.@.>.V.^.i.7.N.i.i.7.). X1X'./.iXzX2X).). XiX3XpXsXpXzXlXpX). XpXqXpXuXpXpXhXpXpXZXHXsX_ A k l k u 5 x L L L E L ;.*.^.kX<.:.H.p.<.( S Z ( 1.,.u.p.A.(._./.r.@.1.r.<.,.<.:.<.u./.R.R.Z.V.7X<XA.8.0.e.e.p.:Xd.s.K.H.r.,.| Q _ %.;XwXwX2XK.H.[.H.i.7.2.{ { { (.iX>X1.u >   e `.rXlXkXpX{.uXiX1X(.).^.s.2X{.2X^.a.2XkXlXkXCXlX{.i.) @.>.r.(.^.).).).rXa.^. X X{.gX7X' A { :       O   O > : ; t u k a.fXtXvXtX#X X@XtX@XE.v.v.v.4.b d h J *.x.]. XR.`.C.V.v.C.x.0.v.q.E..X$XvXZXCXZXMXmXCXsXgXmXgXZXSXmXrX5X0X$X#X9X5XlXZXjXrX4X`.x.x.R. XV.S.J.`.F.`.'.Q.].~.G.|.|.C.Q.'.].dX@X~.yX$X5XcXMXNXMXLXLXcX#XtXE.) l - ; 4 - % O           ",
"V V A ^ >.H.u.V. X X X X2X XrXsXlXiX'.).'. X XE.w.&./ *.q.V.E.E.'.Q.R.^.E.0.7.E.V.N.S.Q.9XgXZXSXHXDXFXDXFXvX+X~.|.dXZXnXuX9X{.rXeXjXMXNXBXDXAXJXJXPXSXSXZXZXZXAX7X>XwXiXsX>X>X2XsXwXNXKXAXKXPXPXPXHXHXJXPXPXUXPXKXAXnXjXmXnX9X#X$X.X].q.C 9 : > @ + X             h Z G ] G | { >.x.8.t.AXJXNXsXqX3XiXiXqX3XqX3XH.Z.@.n (  .) j W ( m #.| W ! t.(.qX[.[.(.:X[.K.2X;X2XzXhXwXkX<X1X[.H.d.A.H.i.^.Z.A.4.7.7.a.{.(.}.iXZX{.>.7.A./.A.[./.V.7.>.i.i.0.u.u.:X X).2X).^.u.<.s. XpX X).pXqX^.:.) ).3X XqX3X3X7X:X1XuXpXAXpXl l k W k u = e x L E E L *.&.).<X@.1.u.0.7.i.,.@./ Q / r.H./././.A.A.p.<.! :.:.:.( @.A./.i.0.V.V.i.i.8.7.7.t.(.(.H.r.H.K.d.,._ W F $.;X,XwXqXJ.A.(.s.J.A.Z.N.9.3.2.^ @.y.` p o   V  XsXuX<X1XpXsXsXhX3X2Xa.).qX:XH.a.a.qXlXgXfXfXmX7Xa.0.H.).a.^.(.^.^.E./.).qXsX X XZXs.k V *.&       O > : ; 4 z z 4 `  X@XfXgXMXFXkXrX0.E.E.V.w.q.q.E.E.E.'. X X'.'. X'.V.E.C.x.v.v.j.w.U.~..XgXJXJXJXPXIXJXLXJXSXSXZXMXZXMXnXyXtX*X#XrXrXgXMXdX5X6X4X{.}.<X}.dXnXkXwX8X8X6X4X}.@XeXeXQ.@X8X5XtXgXnXvXkXnXDXJXIXPXPXPXaXi.~.#X#XR.) f i u y 7 ; o       ",
"0.'.rX7X1XrX'. XuX7XpXrX2XrXpXpXlXa.K :.). Xq.Y w.E.^.E.E.i.V.V.'.}.0.<.:.,.,.,.V.E.].rXkXFXSXHXSXSXHXSXHXtX].@X8XDXAXgXi.7./.'.[.5XeXeX>XfXnXHXSXJXAXHX7X`.S.9.Z.>X6X>XS.S.i.i.D.3XKXAXAXKXJXJXNXaX0XBXnXMXPXPXAXaXqXNXLXHXfX5X5X#X#X].$X].0.| 9 X . X o         h G ..*.H F H 7.x.0.7.7XiX1X).J.K.;XiX3X3X;XH.,.y.@.1./ @.@.V Q H.,.@.$.A.Z.p.qXiX2X6X/.H.:XiXiXzXlXzXiX1X(.2XqXiXiX3XH.p.A.7.u.}.p.^.uX1X(.p.r.p.:./ A.{.1X).7X}.p.p.;X).p.>.u.(.a.).).H.^./.^.a.<.{.).pXkX).pX X^.:.a.qX7X7XpX7X2XuXqX X2X7X7XzXf.k k k l u % e B L L K *.;.q.sXs.&.) @.^ ) | 6.Z.H.p.>.@.p.(.i.Z.^.(.N.p.,.s.<.,.,.) :.A.0./.V.A.p.:.7.7.7.t.r.r.s.s.y.s.A.p.K.p.1.,.s.H.;X,Xy.H.Z.@.r.J.t.7.N.=.2.i.A.d._ i o * 4.rX<XuXhXzXhXpXuXpX<Xa.a.).{.:X;X X{.uXgXtXrX XuXrXqX X).{.).a.^. X).).a.s. XrXpXpX@Xf.l V K * O O o : : 4 z z 4 z A '.E.9XuXgXmXaX7XR./ a.R.q.v.'. X'.R.'.1X@X<X).{.].N.E.E.x.x.5.w.k.v.E.W.@XSXIXPXJXnXpXHXJXFXSXDXZXtXfXMXgXMXMXfXtXrX9X@X].].!.#XMXnXmXFXnXMXBXsXnXMXZXDXMXZXDXNXMX9XaXfXnXMXJXPXPXUXUXIXPXPXHXLXLXqXa.q. X XE.].R.) j u i y 7 % O   ",
"w./. X7X X X X{. X X).E. XsXlX X) V ) w.q.E.q.:./.'.^.a.i.a.).A.A.^.A.7.,.:.,.E.].tXtXfXMXfX~.~.ZXJXPXPXnXrXSXJXFXMXgXdX{.<.R.rX{.N.J.8XaX>XmXnXlXkXmXSXSXqXS.A.iXHXhX/.A.7.r.D.k.J.iX3XHXNX9X|.OXOXOXxX%X#X@XnXHXPXPXLXHXAXBX{.V.S.V.F.0X#X%X$Xx.2.G 7 .         c ] x.=.| / H 7.2.C.i.>.t.3X2XK.K.;X;Xt.1./ ,.t.7.1.6.@.r.y.<.( @.( r.K.;XK.3XhXhX:XJ.(.K.2X3X3XwXzXlXlXzX3X[.3XhX3X3X3X_.u.u.^.{.2X).>X).s. .A G ( A.7XqX<X).>X(.3XiX1X<XpXA.0.^.A.:.H.)./.s.q.<.q./. X7X).).).^.<.) :.1.:.<.2XqX3X{.,X X).(.<Xa.' k l l l u : e L L E E w.:.^.iX:.S V ^ <.a.A.i.H.i...( >.>.A.6X[.H.A.A.K.^.)./.7.r.<.) :.H.<Xr.7.i.8.p.7.Z.H.A.s.Z.,.$.#.@.| $.e.@.r.H.;XA./.H.p.A.H.p.r.y.i.8.>.7.^._.,.( y   A x. XsXsXlXmXsX3X Xi.^.a.(.{.2X(.).1X2XlXkX@X X(.rXsX2X2X2X).2X).^.^.^.^.u.u. X X XgXpXL s I K % > : : ; ; z z 4 f @.i.E.a.{.sX7X X^.).<X^.2XE.&.i.{.9X1X9XrX9X'.{.R.(.'.0.x.k.w.c.S.].tXgXCXCXDXbXtXnXnXtXaXSXLXrXE.rXGXZXtXvXdX7XgXlXZXaX#X#X9X#X8X5XyXcXMXDXLXnX9XfXdXnXZXdX}.7X6X6XaX8XvXZXSXLXLXSXkXMXAXDXSXFXPXJXLXAXlXuX<XtX<X0.V.].'.0._ g i 8 - X ",
"u./.'. X1X{.[.R.p.i.V.q.^.7X X1.^ u.V.w.V.E.E.'. Xi.A.)././.^.H.0.p.V.,.*.u.'.*XrXaXZXgXgXyX*XtXPXPXSXtX+Xx.S.mXnXsXMXMX{.#. .1.i.V.J.D.J.i.Z.S.[.`.>X8XNXAXnX>XqXNXNXNX4XA.[.>XhXiXNXKXZXaX!.B.W.#XOX.X.X0X~.G.aXZXLXPXIXSXNXlX}.[.6X@XOXXXXXF.G.%X0X0X5.y @ O   n ..=.D v ^ {  .0.Q.7.`.{.).qX>XK.:Xp.$._ ^ _  .( ( 7.:.7.@.,.s.y./ y.K.Z.(.K.p.1XzXhXiXhX,Xp.d.;X3XpXlXpX3XqXuXqXd.;X3X_.e.a.A.^.^.(._.H.^.a.<.^.:Xr.p.(.7XlXpXqXlXzX;X).:X/.{./.).:XqXhXrX/./.'. XrXpX X).^.a.>.H.<./ <.u.u.2XpX2XqXpXpXuX7XHX:Xk f.f.f.u t % L E *.*.w.:.w.hXu.) ) ^ V j ^ i.>.@.@.^ :.@.:.i././.A.H.).:X(.i.i.A.0.,.<.0.H.:X8.E.7.#.2.<.i.y.r.p.H.y. ._ Q ( Q $.s.A.H.H.p.K.A.u.y.p.(.2X1XK.A.A.s.a.Q ~ j 4   V q. XZXSXdX9X X).2X).a.H.).).2Xa.u.).(. XuXMXtXgXmXhXsXrX3X/.).).2X).).^.).).).uXrXrXnX$XE w. .> : : ; z i z l _ <.q.&.0.i.1XjXlX1X^.'.2XR.0.'./.'.'. XuXuXrX<X`.`.S.R.R.0.3.4.v.rXkXFXgXyXvXDXbX*X!.0XvXvXvXvX`.! ..vXLXBXMXDX1XZ.s.p.1XqX7XuX9XjXBXSXSXfXfXSXLXnX8XLXGXLXJXfX8X9X>X>X9XsXmXUXPXFX7X[.`.9XvXCXtX@XsXAXHXHXPXHXZXgX5X4.4.B..X*XyXQ.^ j y 8 ",
"'.2X/.(. X X/.0.0.a.A.).2X2X)././.V.>.q.E.^.V./.].a.>.0.E. XV.a.p.<.:.V.rXgXtXfXaXmXZXrXvXgXCXCXSXZX$X].@XD.=.`.X.3.nX<X6.@./ ~ S | ,.$.1.#.r.,.#.>.#.| S.8XsX8.8.O.8.J.`.D.`.uXJXHXNXnXC.F.k.k.3.! O.O.9.9.G.OXG.G.aXmXhX#.6.`./.R.].}.OXOXOX0X0X&X%X%XxX0X7.@   g 9.&.K K ] &.2.{ S.V.{.{.[.qXlXH.e.#.| e.K.J.i.>.r.7.7.A.7.p.,.A.:XA.1.H.d.( y.(.qXwX:X1X;X2X3XpX,XpX3X3X3XiXiXpX2Xy.y.:X<X2X(.p.s. X).i.^.H.A.{.p.A.(.A.).uX(.2X{.,X).>X<.>.u.u.^./.2X<X). X).sX2XrX X{.pX X2X X/.<.E.pXuX3XhXiXzXkXhXpXmX X'.sX_ f.W k k t * e *.*.w.*.) a.pX<.:.<.4.:.A t 7 y Q >.i.i.7.<.,.) p.).A.p.)./.u.7.^.p.u.A.A.7.i.p.Z.^.>.:.,.s.p.p.r.e.r.u. .:.7.@._ u.;X).A.y.@.,.p.H.;XqXqX,XJ.H.A.H.<._ :.^ 7   $ A ].FXJXsX^.H.). X2X7X).2X2Xa.) <.<.E.7XuXgX*XtXkXpX2X7X<X7X X{.{.).). X2X X).rXsXfXnXE.w.q.*.: - i j Z ) @.q.E.E.0.:.V.^.iXlXHXsX2X X9XR.0././.{.'.).lXsX<XS.A.{.Z.V.p.0.=.@XgXZXFXfX&X%XCXvXyXvXDXDXBXxX%X&X].7.+XNXNX`.nXFXZ.r.r.` W | $.Z.1X[.>X1X[.p.i.4XfXmXNX5X`.`.8X8X9XfXMXLXLXSXNXAX{.[.<X'.8X!.+XG.@XfXQ.8XNXPXPXJXPXKXsXF.k.2.=.q.b.-.x.x.{ F ",
"aXrXR. X1XV.>.i.0.<.a. XsX1X^./.V.u.V.E.'.^.'.'.E.{.R.a.^.^.A.^.0.0.E.mXZXgX*X7XmXSXgXgXFXnXfXgXyX0X-.B.|.@X8XC.H -.R.2. .#.7.>.A S @.@.| r.[.Z.t.r._ ] #.8.'.D.S.t.2.%.| ..#.8.S.nXvXL.X.3.k.2.9. .#.%.8.k.B.F..XW.9...2.L.x.0X+X#X4X4XtXaXfXBXnX0X$X%XyXC.G ;   c 2.[ ..4.&.{ ..G 2.7./.7X}.:XlX:X@.#.e.H.J.;X)._.2XK.u.i.1.K.H.$.K.;XK.[.s.y.:X_.,Xp.d.K.H.H.:X2X;X,XqXzXpX2X;X2X_.,.a./.4X X X<XH.:X;X(.(./.(.r.<.Z.(./.:XhXsXiXpXpX3X,X_.).d.p.^.{.(.u.1XiXpXuX).qXsX X3X X).).*.:.^.7X).).kXpXpXkXhXsXsX).0.rX` k f.k k z % N E E L *.*.rX).u.u.u.G ) :.:.) d 9 f A  .&.,.>.r.s./.).H.).(.).^.0.7.). X^.<.>.q.Z.A.7.:.7.).).H.r.e.7.r.<.p.H.r.>.,.y.y.p.>.( r.r.y.(.2X,XH.H.;X;X@.W Z ~ ( 4 . 1 p q.a. X).a.u.).2XqX).).).).p.:.*.u.E.7XgXAXmXrX7X(./.).7X2X2X2X). X2X X'.'. X@XOXyXJXmXw.q.w.4 - A 0.v.v.E.E./.E.4.7.R.V.rXZXZXpX1XuX{.E.}.}.{. X X).7X9X{.V.7.V.p.V.x.v. XFXgXSXAX%X*XyXBXMXMXvXbXCXvX%XyX%XF...#.N.N.2.F.}.N.#.#.@.( ` ( $.t.:Xs.#.#.#.( #.t.t.}.J.7.#. .7.7.Z.`.7XwXjXNXfX].8XtXOX].j.j.~.cXcX#X#XtXDXKXSXDXmX7X`.@XF.5.*.=...5.W.$XyX",
"E.^.{. XR.>. .<.<.:.<.).kX2X{.a.a.'.'.).E.a.E.{.).rXrX`.p.q.4.0.E.$XrXmXmXhX2X*XFXnXfXgXrXrXCXSXaXtXc.F.k.F.C...3.x.2.7.N.N.J.i.>.| ( ~ @.( p.[.6.[.2.#.>.9.7.6.9.`.D.S.S.8.D.6X6X8XC.9.| X.L.k.j.B.B.$Xk.k.W.G.yX$XB.9.x.5X%X+X%XcXdXfXdXkXkXPXPXMX0XeXQ.S 2 u o C } { =.4... .&.| { 7.{.uXpXiXwXK.6.$. .s.H.J.[./.1X1X(.i.:.7.:X/.p.H.K.H.J.>X:XK.K.s.p.p.d.d.H.,X;X;XqXzX3X3X(.K.1.A :.5.Q.{.1XpX2X)./.(.a.<.7.a.2X2X).:X3XqX_.iXzXzXZXAXlXzXhX<X^.). X^.).sXhXzXgXlXpXsXpXpX7X7X2XlXhXpXpX7XqX3X1XpXsXpXpXhX7X1XW k f.f.k z * L E E L L w.$X{.a.a.*.,.p.r.1.:.:.:...! K G G 7././.s.(.3XwX[.'./.).).2X7X,XH.>.~ u.}.Z.4.7.s.@.| 7.6.:.) ,.i.H.y.#.@.Q | r.s.@.e.:X2Xs.p.H.d.(.:X1Xs.@.@.N.) -   7 * *.'.a. X(.u.r.7XhX).^.).2X{.2X2XrX7X2XsXkXgX2X). X3X(.7XpXpX{.^.^. XaX X^.rXyX$XyXgXgXpXx.i.9 j R.E.Q.E.E.E.Q.0.N.V.v.V.,.^.rXlXhXpX'./. X). X].7XsXrX).S.V.V.x.V.Q.].$XvXZXZXJXPXZX*XW.vXyX$XtXZXLXSXfX.X%X+Xi./.sXJ.#.N.Q.].Z.N.N.N.@.@.e.#.#.t.s.e.e.,.( @.t.S.t.t.J.7.7.p. .@.6.6XZXvX9X5.B.F.4...H G O.C.F.`.OXj.F.R.7.2.n u W J.5X#X].C.x.3.g..XCX",
"`./.[.R.i.i.q.<.4.<.4.q.1X7X1X).2X<XR.).^./.a.^. X1X{.a.0.R.`. XrXrXfXSXJXJXSXfXtXaXfXgXgXFXSXKXkX5XC.|.S.S.@XS.k.S.9.2.Z.i.N.t.7.>.| ! ,...| ,.#.A.6.2.>.{ ....>.2. X9X9XS.4X8X0XF.O...! ! O.k.k.c.F.+XG.F.].c.yX%XOXC.N.XXxXxXxXG.`.eX8XfXHXLXLXNXMXaX^ u > l h G U { C.x...2...4.&.>.qXHXHXNXiXH.A.A.6.( @.$.>.,.J.qX1XpX3X2XqX_.2X>X;X3X3X;XH.;Xe.r.H.K.H.K.,X2X_.,X2X;X_.d.y.1.1.7./.A.V.{.s.A.).2X3X<X).{.:XiXlXiXH.).>X:X7XlXsXiX3XiXiX1X^.p.(.'.(.pXhXhXlXhXkXlXhXmXlXsXpX7X{.{.).H.^.).^.).).2XqXpX7XsX7XkX,.k j f.k z - L L L E L E  X/.<.*.:.s.a.0.:./  .>.>.&.&.| D &.^./.{.1XqX<X<X'.R.).2X^.1XrX2XZ.i./.^.A./.V.V.7.r.,.r.u.:.p.^._.H.( #.@./ ( r.Z.r.p.y.1.H.:X(.:XiXwX:X<.2XdX/.; . 1 s * 7.7XpX X2X).qX).).2X2X).7XsXkXsXlXlXgX#X X{.2X1X1XqX2XhXpX). X Xa.^. X).7XrX*XfX XlXmX'.E.9 C x.q.].~.4X'.@X6X X@X`.E.2.2.0.7XlXkXrX<X X7X'.E.].lXuX XS.N.N.].tXyX*XtXZXJXIXIXPXDXyXcXBXcXnXJXPXJXJXDX+X.XnX7X6.[.[.#.2.S.F.8.9.`.J.| ^ | _ ~ ,.Z.H.t.7.! 1.i.Z. . .N.`.S.{.H.:XdXmXvX].9.F ..G.Q.D.2.| 2.N.|.N.=.n.j.G m / 2.G.OX|.@XtX}.OX%XOX~.0XbX",
"}.8X/.R./.(.^./.A.H.a.i.'.7X7X}.rX XE.R.E.q.q.'.E.`. X'.'.fXfXgXaXsXkXmXAXgX X XtXFXSXHXFXHXJXkXS.9.] 7.! @.H.N.8./.i...]  .{ 2.>.| >.@.r.#.,.7.6.8.| @.Z C | #.3.D.`. XN.4.J.8XS.V.j.>.| ] H | H ! 5.B.OXk.] O.XX%X].k.2.5.3.c.c.F ..6.>.D.[.eX>X`.rXcXc 4 - ; 9 J  .{ !.8.{ 2.4.9.8...[.qXNXzXjX,Xy.e.r.6.( ( _ ,.<.7.A.:X}.{.qXuX[.K.(.2X:X:XK.;X:X[.(.(.K.d.K.(.3XiX).1.1.,.s.).:X^.@X<XA.u.,.e.u.(.<X:X2X:X7X1X3XpXsXqX_.[.pXpX3XhXpX2X1XuXpXuX{.a.(.uXpXiXlXqX X).2X7X XhXhX1X^.p.p.u.H.2X7XpX3X X).^.<.{.MX/.j f.k l u 2 0 L L w.E I.w.5X Xu.u./.{.).a.s.>.:.:.>.2.,.,.>.:.7.,.<.(.p.).{.^./.uX2XV./.:X1X/.>.7.Z.i.p.A.V.S./.i.H.Z.p.d.(._.[.p.7.>.( / _ y.K.,.@.6.,.s.A.e.A.7.Z.7.iXMXt.8 X 1 s O -  XiXpXpX).{.u.^.<X<X7XlXlXkXmXlXsX'.gXgX1XqX3X{.<X1X7XpXpX X).).'.u.^.sX{. X X<.). X(.'.h p G q.E.'. X<XiXkXlXuX9X6XE.0.0. XkXdX X'.rX9XR.'.rXrX@X].Q.V.'.vXvXtXdXZXJXKXPXJXnX$X%X*X%XnXPXLXDXDX5XB.8...2.@.W ( [.[.0.D.N...| t.9.@.@.@.( ( $.#.t.d.( ~ ,.Q @.>.7.3.N./.<XH.iXuX8XV.4.9./ ] 3.N.8.k.B.`.S.2.8.F.G.n.=.] O.c.0XbXBXVXbXxX}.FXbX$XbXBX",
"'. X'.<X/.R.A.R.E.^.^. X^.E.E.<.).<X^.q.w.4.0.'.]. X]. XrXfXuXdXmXmXZXFXtXE.U.U.*XZXHXJXJXHXkXH.8...C ,.,.,.6.,.7.S.'.D.8.2.6.>.8.i.6. .0.>.@.>...F h  .N.#. .| ..S.{.D.S.8.6XSX`.8.8.2.X.....{ D >.C.G.F.{ ! O.j.OXc.5.B.].N.#.6.S.0XaX}.9.k.t.S.8.N.V.s l - : i K [ =.x.{ H { 0.B.Q.>.8.J.nXqX[.(.[.A.7.r.,.#.,.@.7.r.r.}.2X/.}.A.d.:X2X_.:X1X1Xp.r.;X(.(.K.H.:.:._.,X).3X).(.2X3X2Xq.E.^.<.<.K.).) a.H.H.<X(.(.3XuX3X3XqX3X2XiXiXjXsXzXiX<X:X1XpXpXqXsXpX1X7XpXsXuX{.{.a.u. X).u.i.u.u.i.^.pX7X2X3X). X^.u.7XAXA.k j k k l z 5 L w.w.w.U.U.E. X).A./.). X^.s.u.,.@.6.7.<.7.i.p.A.1.( / ) A.^./.uXpX1X^.i.'.u.! { i.<X/.S.R.N.`.).a.H.{.pXiXuX[.r.i.,.@.p.K.H.J.:X;XZ.A.r.~ G Z.t.D.D.( >XdXA 8 o + 7 * # 4.lXlX3XhXhX3X(.2X1XsXAXZXlXkXhXuX2X7XsXkX7X7X7X).pXpX7XpX3X/.).{.).a.).^.<.u.<.<.).1XrXV V 3.E.`.}.rXuXpXaXkXkXkXgXrX@XrX X].rX X9XrXaX].'.rX#X].rX5XrXtXfXuXsXZXPXUXJXvXtX$XyXyXvXFXAXSXKXNXMX9X9.4...i.u.$.@.6.}.S.N.7.( ,.>.@.#.6.@.@.#.6.r.#.@.W t.7.@.y.7.8.t.S.}.t.p.8XaXtXN.....| ] 4.N.>.k.OX#XQ.V.N.|.XXXXb.3.j.F.XX%X$X.X+X%XyXVXCXLXbX} ",
"`.4X}.6X[.^.E.^.(.{.'.(.V.(.).'.1X<Xa.V.0.4.v.~..X$X#XyXfXZXZXJXPXJXSXtX~..X~.~.sXZXkXSXAXgX Xw.>.t.7.`.J.7.#.>.@.#.J.}.L.J.D.G.D.J.S.2./ / >.>. .:.#.S.V...7.2...9.2.9.{.}.'.aXQ.8.k.N.N...X.3.x.!.OX9XaXk.2.x.j.G.F.N..XOXG.L.G.x.D.D.+XJ.G.L.5X@X'.j 9 u : : 4 *.=.k.} ..4...F.}.2...Z.1XuXp.e.7.6.r.p.p.s.#. .@.H.:Xa.A.{.1X<X/.H.r.1.)  .1.p.H.H.K.,XK.H.#.Q g h <.(.a.;XiXiX3XqX7.A G A ^ ~ :.d.s.@.:.u.a./.3XpXuXuXzXNXNXzX3X:X,X,XA.A.>X1X).3XjXiXuXuXqX2XqX2XpX^.a.d.).3X X^.V.).^. XiXiXpXpXpX).a.u.rXMXy.l k k f.W t - w.U.$XoX*X*XE.*.u.<.:.<.u.u.^.p.r.r.>.u.p.p.^.).^.q.&./ G &.p.2XiXuX<X<X<XA.^ V G ) A.<X{.A././.}.H.).pX1X2X[._.7.H._.H._.s.p.H.(.7X_.@.Z S  .S.S.,.~ Q /.^.7 7 X X d h N V.ZXlXlXNX7X).qXsX2XpXNXlXpXuX7X1XuXsX7X X X2X).).7XqXpXsX/.V.).).'.a.a.u.^.a.<.a.qXAXmX>.A 0.].uXuXuX7XuX5X7XaXgXuXtXgXtXtX X9XrXuXlXdX]. X]. X@XkXJXJXFXlXPXKXJXIXZX X~.*XyXFXLXSXMXSXlXSXHXMX`.J.A.p.2XH.#.,. .#.Z.V.N.t.>.i.t.#.6.$.#.t.t.e.,.@.r.J.i.@.6.r.,.8.<X<X,.6XkX9X+X4...../ ] 9.| O.F.F.!.@XS.9.5.G.$XW.x.k.c.c.3.I 8.F.G.v.l.oXvXcXQ.",
"S.V.N.`.4X}.}.`.{.<X(.&.E.7X<XrX X{.E.q.E.E.rXgXyXgXvXvXZXJXAXAX3XmXrX].~.Q.dXSXSXJXkXkXZXlX@Xi.A.7.A.1Xi.i.7.&.:.{ / C / t.<X8XS.`.'.}.V.t. .i.i.2.'.`.7.N.7.7.8.8.9.S.A.S./.`.k.2...2.O.#.9.c.G.G.3.G.|.3.3.o.5.F.k.! -.G.G.B.3.N.k.3.G.fXG.L.8XG.N.n j i - ; 7 } -.3.=.5.v.F.x./ m :.8./.qX[.<X>XK.[.6XsX6X1X/.[.qX7X(.i./.iX[.J.:Xr.e.$.t.s.K.(.>XH.p.@.>.p.p.u.,.)  .u.^.3XiX2X{.A.>.( ( ( / ( a.:X/._.^.p.2XlXlXAXlXAXzX2X).;X)./.:.:./.(.,XwXwXqX_.J.)./.).^. X2X).(.1XzXkXqX7X3X X^.).sXjXsXqX7X:XJ.A.{.uXkX,.j W W j z - B W.CXGXCX@X .S Q @.7.u.p.(.).H.a.r.:.r.^.(.(.).p.7.4.>.&.7.p.[.1XuX3X[./.Z.i.>.)  .>.>.Z.{./.{.:X).pXpX).s.r.,.,.r.i.e.r.p.r.:.F C ^ / / ,.Z.p.p.t.1.,._ a - 1   - { *.} =.7XsXJXhXp.).:X7XqXlXlXsXsXpX1X<XsXlX<XZ.7XpX<X:XpXpXsXsX<X X/.(.<X^.).^.:XE.:.,.E.2XSX,X .E.E.7XrXuX8X8X{.{.fX'.@X@Xv.@X5X#X5X6XrXhX9X`.9X9XtXtXZXPXHXSXPXJXAXnX@X#X$XW..XtXFXSXmXZXHXHXHXAXuXa.^.;X6X>XN.r.r.e.| >.8.S.[.`.S.7.t.6.>.6.t.e.7.#.y.,.p.[.i.<.,.>.2.7.A.}.>X8X`.4.8.2.{ { 9.2.[ l.b.W.OX#XD.>.O.B.OX.Xc.x.c.G.!..X+XG.G.D.>XG.G.B.J ",
"0.7.2.i.{. X>X/.{.8X<X7.1X1Xi.a./.^.). XgXAXJXFXZXmX$X].dX'.{.7.^.<X>.N.[.uXAXJXSXNXdXFXnXMX8X[.7X<X}.{.[.(.7.7.>...| ..{ H ] ] ] t.D.8.J.S.7...2...4.7.D.'.C.8.3.4.>.N.R.N.`.`.N.6.3.X.2.3.3.3.F.F.G.N.j.G.c.=.j.-.[ H I %.[ G.|.G.N.D.c.8XvXcXxXeXk n A 4 4 ; f *.] *.*.&.{ K x.V.}.aX7XhXlX:XqX,XZ.A./.qXwX4X>X[.7XjX4X<X).}.7XqX:Xy.1.r.1X1XwXhX1X_.:X(.(.1.>.<.y.,.7.(.zX3X3X3Xd.u.<.7.r.,.s.<.^.).qXsXpXlXHXAXlXlXiXhXiXpX3XpX2XqX1X{.H.(.1XzXzXwX:XA.y.s.<.a.^.a.^.). X2X2XqX2X'.^.2XsXuXaXsXsX<X<X:X<XkXZXLX:X,.d.W ' i * E $XCXrX'.2. .! Q ) 1.r._._._.)._.s.,.i.(.u.i.A.A.p.i.u.p.A.p.,.,.i.[.7X/.V.V.q.>.&.i.i.7.A.).<XuXjXlXsX1Xs.@.$.@.@.1.( Q @.7.7.2.N v G >.p.2.t.hX6X`./.A 2 2 %   5 J *.4.N x.JXKX).s.H././.:X[.7XiX7X<X}.3XsXsX{.Z.V.0.i./. X'.).uX2X{. X`.rX'. X2X/.p.i.i.0.x.tX X4.'.9X:X X8XuX<X6XaXaX}.9XQ.8.rXvXrXrX}.{.].1XfXAXJXMXrXCXtX$XrXaXrX@X$X@XOXE.*..XSXJXKXAXNXAXSXAXAX7X0.^.;XH.J.H.p.y.e.s./.! v >.8.i.4.N.8.7.7.p.N.t.n A N.r.>.>.>.7.>.:.( r.).}.>XC.2.9. .2.>.S.8.3.c.XX&XcX|.8.8.2.k.~.W.] 9.c.XX+X#X.X.X9.D.DX#XB.c.B.",
"D.N.2.2.i.'.N.0.S. X}./.V.i.R.`.{.rXAXKXPXAXmX#XrXtX*.q.E.'.iXa.>.| >.'.gXSXHXAXHXHXHXZXnXNX9XN./.{./.^.A.:.4.N.7.>.2.S.#. .] /  .#.| C / 8.9.F ..2.] / N.S.x.q.4.....7.D.V.S.].D.2.9.%.#.2.j.v.] -.G.G.XX$Xj.c.4.O.! O...| ] =.5XG.c.G.2.|.vX0X0Xr.; k u - 7 4 s =.] =.v.v.x.=.C.8XV.9XjXHXzX2X6XA.Z.J.7.,.S.}.9X{.V.{.aX6X<X6X>X}.t.}.6XH.p.s.e.,.r.r.1.#.A.r.A V G @.p.{.p._.lX3Xd.,.s.u.s.,X2XpX2X<.a._.<XqXhXiXHXlX3X1XuXpXpX;X:X;X<X:Xy.:XqX3XqX3X:X;Xp.6.^.).2X).).2XpXpX1X2X1XH.s. X X XaXsXsX{.<X/.7.{.dXmXA.1.e.d.$.k 5 E.yXyXq.N.7. .( G Q _ >.u.).>X:X_.H.K.H.p.6.r.a.^.(._./.(.^.s.i.7.~ @.{.}.[.p.V.V.>.>.u.7.,.r.[./.{.2X{.^.a.<.:.) ,.,.y.p.s.,.| D C F V V C  .Z.<X>XH.,.c - & o   5 I } &.K 2.IXHXH.<.p.H.Z.A.p.q.0.i.N.}.pXqX<X:XR.7.7.^.{.'. XqXhX<X{.R.R.iX1X].{.E.i.^.>.) 7.#XrXi.SXSXzX}.'.4X6XuXwX8X8X4X}.S.@XyX~.].rXfXlXJXPXUXPXgXrXfXvXW.v.iXAX).~.'.iXuX}.lXAXAXmXAXNXAXpX XkX1Xi./.J.A.s.r.e.H.Z.@.A.V.| _ F ..! /  .7.7.#.>._ 6.N.S.5.7.:...:...4. .t.p.S.7X|.>...#.>.../ ..9.l.n..X$XB.S.B.k.8.C.j.2.k.;./ O.G.k..X3.#.0X+XL.#XM.",
"`.S.7.>.V.`.7.>.V./.A.7X{.'.R.E.pXKXPXIXKXmXmX'.v.rXE.~.].aXkXZXkXMXDXSXAXSXSXNXZXHXSXHXSXAX'. .i.i.p.p.a.{./.V.5.t.7.N.#.{ >.|  . . .2.7.5.O.5.C.x./ F { i./ =.5.3.8.5.2.] H } 3.9.N.2.P >.B.G.} k.O.3.n.n.j.F.=.F ! >.] P 4.4.O.S.OXG.3.B.fX0XfX! : u p h ^ f u { ] =.v.b.~.-.E.mX<Xt.iXKXhXH.i.t.[.Z.t.@.@.i.V.6.S.[.8XsXaX`.S.'.>X`.`.}.>Xt.G W ( p.r.r.y.<.@.>.| :.p.s.d.qXzXpXK.e.) ) :X1X^.^.p.).,Xa.u.:.p.,XhXlXlX:Xa.,.(.qX>X:X,X>X:X2XwX2X3X6X).K.(._.).3XpXzXzXiXlXzXpX2X).{.7X).{.).7XdXaX<XaXkX/.V.MXmXa.` ` ` s.e.h E.`.2.2.t.] S n V Q Q ( r.K.A.u.A.H.^.A.7.>.u.K.:X,X(.;X(.i.^.[.H.r.| |  .i./.A.A.0.A./.A.p.>..._.:Xa.{.rXuX<.1.e.1.r.;XwX2Xp.:.&.>.:.>.,.7.( n / i.S.( 7 - #     8 *.{ 3.5.*.lXiXH.,.u.p./.N.R.'.R./.{.2X<X{.1X<X{.p./.uXsX).7XkXrXR.].E. XaX'.^.:.E./.i.>.0.V.V.4.V.ZXZX7XrX{.S.<XaXaXuXaX6X8XkXnX%XyXtXgXAXPXUXIXIXIXAXfX@X$Xv.uXAXzXhXhXlXKXKXHXZXlXZXhXzXAXiXsXhXrXE.a.^.H.J.t.p.N.p.r.( s.7.#.2.@.( Q Q #.N.9.7.8.G `. .8.V...<.:.K ..:.] 8.0.N.Q.B.2.! 9.k.t.{ :.V.~.b.j.b.5.k.F.G.5.3.] ..l.v.c.3.j.}.!.k.! G.G.+X+XO.",
"].<X}. .7.C.7.>.:. XkXSXSXMX*XfXSXPXPXPXIXAXFXaXU.fXfX.XyXZXFXGXGX5XZ.(.Z.uXlXMXAXZXnXZXmXAXV.F ..u.).(.H.3X1Xp.8.7.9.t.S.6.] #.7.N.V.S.x.8.x.'.`.N...2./ 0.&.3.k.9.w.3.} ..=.9.N.x.V.D.5.C.!.B.3.3.] U m.z.3.5.! c D 2.|.B.4.H P %.c.B.+X0X0X+X0XG : y @.i...j 8 F H &.x.v.v.q.+XNXnXJ.HXUXlXp.t.i.t.t.Z.#.#.@. .( :.N.`.tXvXfX0X#XeXJ.y.p.V.s.Z ~ _ #.d.r.,.>.r.y.7.| ,.:X;Xu.s._.).y.:.) 1.:.i.u.:.u.(.a.(.).d.s.p.A.,X/.p.&.:.u.H.2X:X1XwX:XqXwX3X,X).).^.H.).2X7X2X3XiX3XiX1Xp.7.0.a./.1X X8XkXaXsXaXSXLXNXZXrX1.W ` S s.2X,.*...@.4.7.F h g f n G ,._.H.r.r.H.p.>.2.7.>.,.,.y.p.K.^.p.^.:X[.K.(.).^.{ / 7.A.S.q.).uX1X/.Z.:X7X7X^.>.p.7.7.<.7.<./.:XwX1XA.p.^.A.i.A.i.p.r.Q n  .,.n - % o X   5 N { C.0.I uXpXA.7.i.(.).7.`.rX<XuX2X/./.^.rX(.(.A.R.<XuX3X2X X<.*.E.Q.q.i.'.a.7.{./.'.{. X}.7XC.p. X).{. X}.S.A.S.S.`.7XAXHXKXFXcXvXCXSXHXIXPXIXUXIXIXIXIXHXHXNXlXAXAXKXKXlX^.a.u.u.}.uXpXAXjXqX3X^.7.p.u.Z.r.e.[.[.Z.r. .>.Q _ #.Z.,.>.H.<X`.0.N.9.8.C.] ( { 2.q.2.>./ | ....q.>.2.4.`.Q.k.9.>...@.7.Q.OXW.j.c.x.C.~.O.G ] -.g.k.j.b.j.5XL.] 3.B.G.+X$XC.",
"9.9X X&./ | &. ./.NXZXgXnXtX*XZXKXAXKXPXIXJXJXZXCXZXvX$XrXvXtX].x.>.A G !  .>.i.Z.iXZXAXlXdXV.,.<.,.r.A./.i.(.7.9.N.i.7.8.N.#.>.8.N.[.S.C.N.>.t.A.A.{.7X<XS.C.x.=.v.3.=.5.x.E.k.O.[ ] ] >.W.%X3.[ ! D j.U -.3.v g a d D O.G.O.] %.2.O.G.OX+X0X0X0X#.i i | 0./ S y V C [ j.z.k.].>XaXjXS.iXKXmX;X'.>X`.D.i.D.A.k.N./.4.7.7.i.<XfXyXOXD.6.1.) @.r.r.p.A.e.r.,.@.,.t.>.r.y.7.).H.s.H.:XqX,X^.p.i.<.d.s.p.<.@.<.7.) <.:X;XH.e.>.,.G :.^ :.,.s.:XqX:X3XiX).K.H.d._.d.^.).^.).pXzX2X).^.^.p.<.>.u.).).>XnXNXBX8XaXDXsXnXaX@._ _ ( ,.@.K E.&./ ..F d C ! n g Q ,.p.d.y.y.s.r.<.:.( @.@.@.( _ | @.s.;X(.;X(.[.:XA.p.r. .,./.p.(.1X{./.7.:. .&.A.i.:X<X/.(.:X:XsX>X:X<XA.<X{.0.i.H.D.S.V.J.{.6X>.9 % o o O   5 F 7.N.q.D <X3X^.{.{.{.R.i.a./.R.E.0.A.1X1X1X{.(.{.^.^.).<X1Xi.@.,.0.`.0.&.*.*.7.(.1X'./.2XrX6X2.8.).q.<X Xi.@.#.( ! s.ZXSXZXCXCXCXbXDXLXPXJXJXJXHXPXSXAXaXrXpX:XE.sX).&.:...&./ G ^ 7.p.p.1X7Xp.7.( A  .i.p.r.Z.i.p.t.p.e.,.>.,.t.{.H.Z.Z.A.i.E.3.*.E.x.R.`.2.x.0.2.v.k.5.=...K ..2.2.0.F.8.9.#.s.D.r.8.k.v.-.O.j.c...n n D z.l.b.-.3.O.v.l.j.D.c.+X!.+XOX",
"0.S.V.{.7.F ^ '.mXmXgXMXfXfXZXLXHXZXHXJXZXzXFXsXsXuX@X.X&Xv.*.} { G ( / S / / V / ^.A.pXA.,.p.p.,.u.7.u.A.p.i.i.A./.i.V.2.t.| ..J.`.4.i.8... .7.^.A.H.A./.}.<X'.E.v.=.8.S.].'.`.`.`.2.2.9.F.U.O.! ! O.n.h.+.] c p d D X.S.!.O.3.j.%.-.B.-.j.0X0XyXZ.i j :.9.G j a s c *.v.E.E.@X|.eXNXS.wXKXqX:X8X6X[.N.t.N.7.t.<X}.4XS.7XuX2X8XyX}.r.,.7.7.H.H.H.i.H.K.(./.r.p.p.,.r.p.u.2X(._.,X;X2X:X(.p.u.a.a.).).(.^.a.a.s.s.(.2XH.<.<.) G Q ^ :.<.r.H.(.1X1X,X(.(.d.p.r.u.<.<.u.s.s.).2X X'.)./.^.'.pX2X).>XuXfXNXnX4XnX8X}.8.j A ) S h y V 9X}.N.&.! V Z G C Z G C ^ s.(.p.1.@.@.( :.:.>.1.( @.1.1.p.(.^._.K.).A.r.i.7.y.i.(.<X<X{.E.^.u.G V ( 7.4XjXiX7XuX2XpX:XA.A.H.t.A.p.p.^.A.Z.2.9.[.7X2XW 5 > > @ X   1 { C.0.x.v.<X7X3X7X{.{.V.Z.A.A.^.i.^.{.1XpXpX7X<X<XR.^.{.).{./.).a.>.V.'.q.&.<.&.^.1X9X X<XuX7X&.K {.S./.{.S.8.| C r.mXMXgXvXGXCXZXDXLXAX1XrXmXZXsXjXE.E.D.^.E.4.J *. . .K G ^ ^ | ..<./ | 7.7.>.( ^ >.<. .t.r.t.Z.6.#.6.e.Z.,.7.i.p.r.Z.p.) ..>.! ,.>.p.9X Xv.'./. .5.3.3.5.&.| i.i.9./ ^ | ..#.S.N.N.3.g.T o.I D ..Z g f D b.o.c.c.-.[ } 3.k.3.G.%XeX#XG.",
"@XS.A.C.S.7.1XSXFXZXkXSXMXAXNX2X).<XsXZXpX{.^.7.^.].E.Y ;.Y w.&.K  . .) >.{ @.A G >.7. .( ..>.@.:./ @.i.r.:.:.<.i.H.i.D.9.t...2.`.J.D.8.#.@.@.,.A.u.7.p.8.4XfXjX{.C.Q.q.C. X<XaXaXA...{ i.+XXX&Xb.} b.n.g.+.} H c F ! [ !.2.P 9.3.9.3.3.3.-.XX+X$XD.j ( }.V.( A f C ] ;.b.tX$X5X}.:XNXjXjXAXwXJ.8X8X[.`.S.t.k.J.uX8X7X>XqXmX7X}.N.N.2X:XA.y.|  .9.N.k.[.1XR.7.A.A.Z.p.Z.u.:. .>.^.).>X2X^.u.s.a.^.a.r.).).^.(.H.^.a.7.>.<.&.C ^ C A A _ e.y.A.;X1XpX3XqX>X_.a.u.:.:.r._.).2XhXzXlXiX1X2X1X<X{.R.J.D.}.6XaXdXAXMXuXA.p Z ( S h S h q.~.>.{ G K ^ K &.,.:.^ A >.r.(  . .) ( ) @.^ (  .r.r.<.a.H.s.;X:X2X_.u.^.Z.p.u.7.{.}.'.{.E.i.>.{ ) ( >.J.kXiXhX3X[.<XH._.{.y.i.A.:XR.A.[.p.6.t.N.e.c - > % @ o   8 5.`.E.V.R.sXjXiXuX:X[.N.p.7XpX{.7X7X1XuXuX<X1X^.,.a.).{.<X(.{.2X).^.q.'.q.,.0.E.R. XuXkXkXiX Xq.N 2.4XA.R.'.`.{.>XAXMXBXCXgXJXPXFXZX:Xs.*. .A.Z.R.[.i.>.:.p.^.'./.7.{ <.G Z H ^ ^ ( u.>./ ,.:.@.>.<.V.0.) | #.e.s.6.e.A.t.y.7.r.t.J.H.y.6.( ,.r.>.i.A.`.<Xa.A.5Xa.0.0.7.C.N.4.V.R.Z.A.A.7...5.8.S.G.g.-.U +.+.o.! m y 2 g c F O.eXl.[ =...P L.S.G.S.OXOXn.",
"x.A.E.R.fXSXJXZXkXFXLXJXSX2Xu.K &.i./.(.{.R.q.>.:.q.Q.].~.] ] ..&.( ! ( >.@.@.^ C G C G 7./.Z.:.( @.@.e.) j m #.J.(.[.Z.2.J.J.4.7.<X{.( H.7.>.u.p.(.H.#.@.>.t.{.}.}.'./.S.{.6X8X<X,./ 4.i.Q.!..XW.o.j.n.B.+.[ ! } -.-.2.O.O.B M [ l.j.O.%.[ -.G.!.{.>.i.@XJ.#.W j ] ;.v.v..XtXfXsX>XaX1X{.aX5X9X5XsXdX4X9X}.'.>X}.J.7.Z.[.:X>XJ.N.0XkXpX2X7X:X<X7XuXE.V.q.=.=.4.&.] >.6.<.r.r.s.p.^.^.).:X>X:Xp.H.).).3X2X(.).a.<.7.:.<.r.0.>./ G ^ C S ( :.:.$.r.^.).,X,X<X;X^.s.a.i.^.3XpXzXNXAXlXlXzXqX(.i.7.7.8./.dXaX}.fXDXJXsX8 V ) A ( ) Q C. XuX7.2.E.,.6.Z.p.r.| m C n V ) :.:.:.( A C / @.:.:.,.<.u.^.;X(.K.r.u.r.i.y.s.A.7./.{.V.p.0.i./.N.E.A./.rX<XqXsXsXhXqX6X>XH.(.{./.(.(.2X6X).p.Z.~ 7 % : : % +   V ~. X5.I E.uX3X2XqX<X/.7./.7XhXuXqX2X).qX3X<X^.i.^.<X(.).}.1XiX3XuX X/.w.'.).^.V.E.A./. XfXnX9Xq.d N ~.R.].].rXFXJXCXSXSXPXIXJXZX^./.4Xi.{.S. .`.V.2.>./ F A G { / ] | ..{ ) ( @./ :.r.i.:...,.r.V.A.9.N.<.@.y.Z.) @.p.H.H.H.p.>.7.t.(.Z.p.,.p.r.#.y.A.Z./.r.d.qX2X[.J.J.S.V.i.J.H.^.^.^.4.....7.'.@XF.g./ 3.b.O.| F f m 9.2.D ! 2.J O.O.O.9.J.[.8XeXG.L.L.",
"~.Q.<XZXAXZXgX<XmXJXrX'.u.*.4.4.R.p.&.i.V.7.8.7.K  . .2.*.....#./.{.A.i.>.>.>. .^ C Z V :.R.S.N.D.t.W Q Q m ~ #.7.H.[.V.S.V.J.`.`.7X[.,.s.7.r.H.>X2X,.r._.p.p.J.3X7X}.uX4X4XA.7X1X(.>.>.Z.[.}.C.|.D..XOXn.l.j.l.n.n.l.z.c.I Y o.b b M P M b H l.!.BXnX}.0XrXt.m 7 K ;.w.U..XfXkXNXhXwX6XC d b g s b /.JXNX8X@X8XA.F n Z W $.@.@.S.5XgXwXqXqXsXmXlXzX,X{.i.i.p.7.r.s.i.H.r.p.A.A.A.p.u.:X^.p.H.a.p.u.7._.).a.a.a.s.u.a.u.:.,.,.,.<.@.:.<.u.>.@.,.) ) a.:X,XpXpX2X{._.'.a./. X2XuXNXlXNXZXhXpX^.0.4.2.rXnXaXuX[.tXFX9XZ V h V _ G A @X].kXiXi.p.^.K.[.J.t.6.,.G m G >.r.s.,.( A C Q ! *.>.:.e.u.y.i.r.7.r.(.A.i.H.Z.>.:.i.).p.u.).{.A.A./.{./.>.,.H.>XiX6X:X(.t.H.^.<.#.y.^.).1XhX3XA.W 7 : 2 - % O   h 3.'.Q.5.'.7Xp.r.^.<X<X{.<X9X1X7X2XrXpX X1XiXkXiXpXpX1X<X/.E.1X X7X(.L K ^. X/.0.^.{.9XrXdXrX'.2.=.v..X XtXCXZXSXSXLXLXIXLX X7.) ) [.>Xi.Z./.&.N.0. .( C h d A G G ^ ] 8.{.i.r.7.^ <.V.7.>.,.) >.R.N.t.i.8.@. ._ Q | $.@.r.p.t.7.A.Z.p.3Xi.( @.@.7.t.K.H.H.r.p.e.1.H.H.A.S.S.D._.K.).2X:X<.2.-.9.`.[.9XOX3.2.C.5.3.X...5.c.j.k.3.O.p b H +.[ 2.O.9.L.k.|.G.",
"R.rXJXZXZXkXdXmXgX>.A A G p.a.,.7.i.i.7...7.0.,.| / F K G ..*. .{ V.7X{./.@.:.r.&.:.7.7. .0.2...D.7.Z h W Q S m W | A.`.[.A.Z.>XZ.p.u.i.A.s.p.H.2XqXp.e.d.r.s.r.y.a./.p.{.3X}.>X(.i.p.t.H.[.}.V.4XDXMX$XXX.Xl.M.G.b.z.2.3.2.O.h.l.h.M O.P F w b U j.9.>.S.].Q g y F E z.OX$X9XmXHXJXjX6X).F 6 2 * 5 9 >.NXLXMX}.D.].D.#.| m g m / / >.7XlXqXhXzXlXuXp.Z.Z.<.A.H.H.i.1.:X;X_._.a.u.7.u.i.1.@.r./.a.p.p.p.H.,.) <.:.:.u.u.<.7.a.u.i.7.:.(  .{ )  .:. .V V n :.2XuX1X).<X3X7XuXpXpXzXhX2XiXlXhX X:.:.N.[.R.R. X8XMXdX*.A G s j _ ) G ]. X9XsX)./.}.qX,XK.A.,X1X).e.( A.>X_.^.1.^ @.>.:.,.u.r.<.,. .,.7.6.s.2X2XH.p.,.7.u.y./.2X<X<XE.7.{.<X).7.) ,.H.A.J.H.t.p.Z.r.,.<.p.d.K.2XwXqX[.#.j 7 2 1 2 % O   h C V.'.Q.^.A.p.1.:./.uXuXiX2X1X1XuXpXpXiXpXrXpXlXsX1X X:X1X<X XuXpX0.4.>.^ 7.E./.<XrXrX'.^.5.2.J ~.b.%XCXSXLXSXDXSXSXdXdX6.C >.a.&.,.Q  .7.V.'.8.2.2.>./ Z  .<.2. .^ ..V.sXjX/.6.,.<.i.7.7.p.7./ >.2.8./.7.W m n S ` _ ! e./.Z./.[./.7.A.Z.t.y.A.6.,.H.K.(.p.r.) @.>.| | 6./.7.H.:X2X2X{.p.4.4.N.[.8X8X].@X}.}.|.x.=.O.3.-.k.k.%.O.c.F p c P 3.! ! ! X.N.G.",
"SXHXSXDXDXZXfX0.K >.u.V.4. .<.7.A G 7.i.7.u.7.../ ,.4.>.| V G &.:.:.{.i./.i.,.@.,.u.u.0.i.}.S.4Xi./ ) @.S n W ( i.S./.{.2XwXqX1X).A.A.2XiXH.t.7.,.p.d.#.@.$.$.1.:.7.u.u.u.d.2XpX(._.H.p...p.^.p.`.NX6XG.!.!.z.G.n.j.N.3.O.t.].].c.0X5Xk.+.j.+.P U [ | c ] | | #.C [ E.$X~.~.-.}.(.#.m p G >.N 5 & & , r I aX6X9.!.8X+XeXJ.t.e.9.r.i.s.A.(.(.(.H.Z.^.{.i.A.2X1X).p.s.H.[.2XqXiX2Xp.).^.^ ( ) @.i.2X1Xa.>.^ A A N V V A ) ,.u.a.u.r.&.7.0.<.>.( A ( :.Z s s s V W >.H.s.).pXiXhXpX2XpXuX2XuX'./.1X7XdXaXMXZXJXIXJXi.,.s.) V V u._ V ~.'.9XuXqX1XiXiX6XH.J.wX2X2X;X:.(.qXp.a.7.>.,.7.p.p.p.p.u.,.@.@.6.s._.(.,X:X).p.H.H.i.7.u.(.:.) u.1XuX/.<.0.p.#.6.t.H.J.(.;XK.:XH.(.(.H.3XhX;X,.! h t i 7 2 : X O s C q.@X XE./.7.$.@.,.).iXiXiX7X<XqXpXhXNXsX XpXkXpXuXrXrX:X<X7XuX<.<.rX X].i.&.A ,.^.4.0.i.V.7.s Y ~.CXSXJXJXJXJXSXkX7XaXN.@.<.*.( 7._ ~ Q @.Z.p.Z.7.7.7.,.&.&.( :. .{ 7.A./.<XA.Z.<.( >.A./.^.7.^ >.C.x.>.( | ~ S m ^ 6.t.[.4X>X7XJ.@.K.Z.A.r.8.i.>.7.>X[.r.a.(.d.y.1.@.#.y.1.d.:X2Xp.p.<.7.9.8.>XaX`.G.eXMX'..XB.o.g.b.F.-.O...| 9.j.l.J b v M [ ] J | t.",
"SXJXJXLXSXaX4Xp.,.,.,.2.) G ) <.:.)  .| V./.^.&.4.,.2.&...^ C ^ Z.A./.iXqXA.6.@.@.r.A.p.#.t.rX@XH ( 6.@._ Q #.r.t.+X[.J.pXiX>XH.wX:X@.r.<X:X/.V.G ! N.(.s.H._.,.@.7.,.,.d.:X3Xa.A.H.r.i.:X>X>XJ.'.k.r.9.L.B.&X&XG.k.k.J.J.J.G.>XJ.J.tXG.O.h.z.G.c.x.] ] | a ( 6.G >.b.Q.Q.C.=.g 8 , 1 7 1 # , * $ % , q w J eXsX8XeX{.eXqXqXwXwXuXsXqXiX:XZ.@.F / 7.2.>.7.^.u.r.p./.H.p.)./.^.).:X_.(.^.A.p.^.^.(.{.:XqX).p.<.) *.<.,.:.:.1.:.:.r.p.^.1X<X2X).^.s.,...( G h y 8 *.7.:.a.<XhXqXqX3X1X{.{.^.,.{.kXkXdXsXSXIXUXIXkX<.^.<X( n ,.:XV c x.E.uX<XpXsXzXiXqX3X3X3X2XqX3Xi.H._.i.A._.J.a.a.^.H.a.<.:.,.7.1.@.,.r.p.A.^.:X).r...<.:.r.:Xs.,.^.pXpXi.p.7.:.@.$.>.;X,X1X;X,X;X(.7Xe.H.[.s.#.{ D.Z t i s y % >   8 G 7.tXrXV...,.<.^ A @.>XzXpXqXpXzXhXkXhXiXhXhX X'.}.1X1X7XrXpX>.G 7.E.]. X X].q.{ 0.V.]. XR.G - s | 6XpXHXPXLXHXjXuXMXjXS.#./ A Z u.r.) ~ j  .i.7.7.Z.7.8.7.:.:.( ^ G ^ | i.V./.&.1.u.s.i.{.).7.&./.S.7.( _ @.| $.| Z.N.N.B.`.6X>X>XH.:Xs.i./.C.+X].>.i.8.#.H.s.s.e.p.s.1.p.H.r.t.H.Z.i.0.0.8.D.`.`.N.C.$X'.B.OX.Xl..X%X!.4.>.N.8X>X3.G.k.2.M c O.+.M m m ",
"{.SXLXSXSXMXaXV.i.K A A V A ^ *.7.( ) { p.p.,.u.u. .<.<.>.<.@.G ^ >.8.[.<X/.A.t.>.,.H./.! { dX8.Z Z ( y.K.H.H.p.9.B.S.iXjXpX6XqXA.1.@. .<.:X<XV.>.{.[.[.r.y._.y.@.7.@.y.d.d.d.) Z ( r.2X6X(.>XeX4X'.J.8.2.G.G.OXM.B.2.#.D.Z.N.D.D.D.D.9.! ] l.G.~.9X4Xp.g t g m c G N.v.v.8.F 9 2 2 2 5 1 , & & % & 5 5 q e 2.HXsX7XeXuXnXNXNXAXAXAXSXHXuXt.] H / ] <.p.<X^.| ( ^ #.r.7.( Q A.).J.:X2XiXpXiXpXrX/.p./.).{.<X^.H.(.)._.;X_.e.) p.a.7.,.{.).^.^.(.[.H.a.a.i.7.u.&.,.i.&.( :.s.).).7./.2X). X).<X1X1XrX7XlXFX<X7X^.a.p.1.A f <.).^ G x.'.8XiXwXhXhX6X;XqX2X2XK.(.1X).p.p.r.K.[.[.2X).2X)./.a.<.,.1.,.7.r.i.^.(.;Xa.A.^.p.p.a.u.<.@.,.:X7Xp.>.:.)  .r.,.N.A.qXqX_.;XA.K.,X;Xe.@.1.2X0.'.) t 7 y f 1 &   5 A { tXfXE.>.*.^ F ( ( :.u.7.).zXmXkXpX7XiXhXzXuX).2X<X X7X<X,.^ >.a.'./.'.'. X'.^.A. X X].4.s & V Z c C hXIXSXkXdXkXnXS...@.Q C S ,.6.,.1.) ,.i.N.7.Z.V.`.(.i.&.:.<.^ G 7.^.Z.Z.s.7.i.7.a./.A./.&.Q.x...Q ,.e.$.y.A.p.|.G.'.[.6X:X[.J.K.r.@.i./.9X@X:.1.6./.[.:.p.e.1.$.r.Z.K.r.e.Z.`.2.:.@.y./.`.`.c.~.F.k.C.OX].].|.`.N.8.t.A.N.D.[.S.N.D.9.X.g.+.M O.[ ",
"i.).FXFXmXZXlX5X^.{ A A S A ) ) &.:.@.r.,.*.&.<.^.'.^.A.r.p.,.*.p.A.}.4X}.A.A.p.A.i.H.).>.2.`...>./ ( H.J.A.r.J.Z.D.N.i.p.(.hXzX#.|  .) ( u.(.}. XhX7X/.r.>.@.<.7.@.( e.s.s.e.e.p.>.i.uXhX6XwXJ.F.8XG.D.#.X.#.9.D.D.#.9.k.>.@.#.#.! | %.L.k.c.%X0X5XdXiX` ~ ` W 4 N 0.E.{ b 2 1 2 2 8 8 0 1 * # & 2 6 2 1 w 8 J.zXjXlXhXmXmXjXHXNXhX(.>.| C ] i././.:X,X,X2X1X2X:X/.i.7.:. ...|  .:.i.qXiXuX:X>X1X{.H.7X<Xu.,.^._.H.r.^ ` u.(.^.u.s.:X:X^.s.u.i.a.).).(.).(.<X Xa.E.a.,.^ C / :.:.(.3X{.^.2XsXkXkXjXjXC.J d b J <.:.W W ) u.p._ S v.Q.dXjXhXwXqX;XH.2XqX;X1X3XH.d.p.a.e.7._.3XqX3X3X,X_.r.r./.s.a.s.A.H.,X;X,X(.,X:X).:X/.e.( :.:X1X&.:. .7.y.r.Z.y.e.Z.K.K.,XqXK.H.;Xy.$.( _.H.>.x.:.f p p V A * O * h G E.9X X{.>.N G G C g d *.p.).sXhXpXsXiXpXSXsX2XuXrX<X}.7.W ) ^. X{.`.R.Q.R.R.R.E.E.@X'.2.c 8 G K G v A.SXuXuXnXNXMXsX[.:.A Z Q 7.r.@.(  .>.i.7.:.,.7.p.9XrXA.p.>.>./.7...<.V.}.^.7.p.(.H.u.7.G 8.x./ ..6.H.Z.J.Z.%.k.|.eX:X:XJ.p.>X:X$.W ^ p.(.J./.{.>X6X(.1.1.y.$.` s.e.7.y.@.<./. .@.u.^.[./.S.!.yXcXF.t.#.,.Z.J.H.Z.S.Z.r.1.r.t.D.7.#.Z.#.P +.o.G.&X",
"r.^ rXCXCXLXZXgX9X^.>.) ^ K ) ) >.Z  .i.i.>.&.7.i.{.<X2X/.u.7.i.p.7.7.S.:.7.(.p.i.H.).[.V.i.7.] ..] ! r.:X:XJ.D.}.eX`.7.#.,.qXqXA.>. .^ ) ,.p.qX:X9X6X3XH.H.r...:.Q _ ` e.e.y.H./.N.6.H.aXwX+X>XeX#XG.>.m F m | 9.O.! Q | ! | / ! Q Q %.eX5XS.0XnXkXmX,Xs.s.t.@.; d K D 9 1 2 2 7 t y 8 5 , - 2 2 2 2 7 2 , w >.wXKXLXAXAXlXhXAXsX( p p C K / 7.s.H.3X,X;XqX3X3XlXzXiXqX)./.^.>...i.7.A.,X,X:X).p.a.H.<X7Xi.,.,.y.r.d.1._ A s.r.>.a.^.i.i.i.<.a.u.H.:X(.1XiX<X'.A.&.) ( ,.7.&.( ( ( *.a.2XkXZXmXkXkX XN w e 0 r q V y._.^.^.,.W Z x.B.>XkXhX2X:X,XwXwXqX1X3X:Xp.a.y.r.r.>.y.;X1XpX1X1X).K./.).a.p.i.p.i.r.^.>X,X2X3X:XH.^.u.7.p. .&.F s h ^  .<.Z.Z.A.K.;XJ.y.d.p.y.#.` _ ' Q ~ e.p.7.S f k h e 4 O 1 h A 0.fXlX{.i.<.) C h c V h C :.^.qXsXlXlXiXrXaXrXfXuX<X<.V >.}. X/.R.'. X$XrX X].'.q.'.gXV.d 8  .J G c @.7XkXmXnXSXSXSXJX7X| >.,.@.@.,.>.@.) ( ( 7.V.0.N./.p.7.*.>.&.i.7.| &...r.i.7.(././.^.^.7.4.p.] ..9.t.H.[.K.t.N.}.>X7.$.r.1X:Xr.1.` ) 1.i.y.H./.J.1X;Xe.1.<.~ ` ` ) ` ( d.` ,.s.1.H.2X>X[.4X5XdXcXQ.#.Z g m >.6.,.#.@.>.#.| #.H.( m #.L.t.k.F.#X.X",
"@.G S.MXnXSXLXLXMX`.`.>X8.>.1.|  . .| / ....( (  .,.7.^.4.7.,.0.>. .G ) ) 7.A.Z.^.:XrXpX<XuX X7.2.q.,.(.).(.E.Z.`.>XS.>.@.e.Z.t.J.H.7.1.p.).2X;X,X2X1X1XK.2X[.p.#.@.1.d.A.e.` 6.N.D.9.Z.D.t.#.k.xX0XN.m m m ( | 9.9.O.| #.r.L.t.>.:XeXS.|.eX[.[.nXLXmXd.$.$.t.m % s { / 9 7 2 7 t y i 5 2 7 t y 8 7 7 7 5 5 0 c ! H.sXAXHXAXAXwXF p a a g ! p._.[.d.;X3X3X;XH.;X,XwXqXwX2XwX1Xp.6XpX:X2XqXqX1X[._.[./.:X9XV.).hXpX:X^.s.p.s.<.r.r.s.0.,.t.p.i.J.{.[.[.1XiX1X/.J././.uXuX<X/.V.0.,.:./ ) {.kXJXJX/.G w 3 < , $ , , 0 K <.{.^.Z V y 5.].`.6XqX1X:XwXlXNX2X2X(.A.s.s.y.p.i.p.K.,X:X).H.;X2X;X[.p.p.A.H.a.Z.r.,.r.2XzXpX3X;XK.H.<.,.@.^ F C ( r.7.>.! :.H.,X;Xd.s.e.e.e.$.e.~ u t n 1.1X>XQ f.n k y 2 . 7 b v / 2.7X X7.:./ K @.1.:.*.(  .[.kXlXkXhX1XfXsXgXkXkX^.*.>.{.@X X/.`.#X@X].$X#X]. X XvXaX..c 8 >.] F m C /.aXZXZXLXPXZX}././.A.r.r.<.,.t.r.r.,.@.7...:.6. .&.:. .....&.:.4.{ V ,.R.<X)./.(.H.,X>Xp...| ..D.7./.<X`.S.V.>XA.| ,.K.uX[.a.a.e.y.d.K.s.e.d.H.>X,X,X;Xy.` y.' S Q 1.y.r.y.p.e.a.:X>X>XfX<Xi.S.i.( A n / | ! G  .m C D C Z / G n 9.c.eX$XOX&XXX",
"V &./.fXDXLXZX5X[./.8.S.V.r.>.2.>.7.>.! S A :...| >.7./  .7.:.:.:.A./.^ G *.p.i.A.A.:X).).'.(.i.).).qXiX:Xs.7.<.1. .| @.>.r.qXp.@.6.,.H.K.i.K.3XK._.2X:X1X1XK.(.H.r.e.y.e.e.$.6.#.k.2.v v M c b D F %.! >.2.3.L.+X>XG.[.S.H.t.k.L.+X7XeXJ.D.dXjXfXmXiXK.` $.t.W - d D 2.K p i y t t 8 t i y u u t i 7 5 9 6 q N C p p W y.qXqXQ y a g n m #.J.2XiX;XK.;XqX2X:XqXqXqXwX:XqXwXZ.s.>X;X).1XqXpXhX>X6XuX7X/./.^.:X7X).H.<.e.e.u.,.( ` u.^.^.p.H.(.K.).)./.{.H.t.{.6XsXuXhXzXlXjX1X1X'.V.a.7./ ) ^.0.0 r 6 < < , = < r e c e / ( V d - K '. XfX1X[.1XlXiX{.K.J.K.Z.e.H.r.7.K.[.qX1X:X(.:XqXqX[.;Xs.6.H.H.H.t.,.7.K.2XqXqX3X;Xy.,.( 1.r.>.:./ &.7.,.>.7.,.^.A.r.d.H.p.H.H.e.S a u f k n ~ #._ n n ~ f 2 @ 1 c p b D | ^.p.^.a.:.:.:.*.@.<.7.4.<XMX2X<XmXAXuXMXmX(.V ,.].@X`.9X5X9XrX@X X]. X].].].*Xq.=.Z 9 C.C.F m C `.dXnXJXJXsXp.t.{.<XJ.p.p.,.7._ #.>.7.2.>. .| ,.<.7.2.2.7.7.| >.'.a./ &.u.^.{.^.(.a.^.<XH.p./.qX{.:XA.D.#.@.|  .@.6.t.>X/.a.d.y.s.d.;X,X3X;XK.K.2X;Xd._.;X;Xe.~ $.s.u.y.K.d.p.,.i.).t.7.| ! G @.>.! Q @.2.2.t.>. .>.2.9.9.7.2... Xx.3.aX%X%X%Xl.",
"s :.A.}.dXMXA.R.N.4.7.8.i.N.t.:./ i.7.>.K c F { 2. .>.2.>.:.q.:.A *.E.) / ( Z.{.p.{./.A.^.s.^.0.2XiXhXsX(.7.u.,.>.,.r.:.,.(.qXZ.y.i.#.$.p.;Xp.K.:X:X:Xt.8.`.J.Z.J.@.( e.$.e.H.{.:XB.c.F.j.F.g.O.m b G / ! %.%.#.k.[.6XJ.G.N.9.7.t.D.>XwX7XuXeX9.x.`.S.W ' 1.p.W - s 4.=.8./ Q f 7 t u u y y y u a y 9 1 a g e c C G m e q p h p f b c Q G Z ,.,XH.p.p.e.r.(.J.:X:XJ.7XqX[.>XA.[.>X(.:X:X;X2XqXqXhXwXpXzXsXpX(.<XiX2Xs.r.<.,.1.e.H.A.(.7X{.6XhX:X^.<X{.<X6X:X[.2XiXiXhXiX<X).kX1X<X<XE.i.,.C 5 , r 0 , < 1 1 < 1 r 0 w e q w 1 * + N E.'.>X2X2XiXhX:XH.p.r.A.(.H.s.1.r.t.p.2XqX:X:XqXqXqX,X:XJ.p.)./.Z.,.r.p.^.).:XqX:Xp.r.>.|  .! ~ >.7.:.^ / 7.i.r.,.2.Z.,X;Xe.$.@.m u f m ~ Z k a Z r.m ~ _ f 1 > 2 2 5 N ] C ) 7.0.a.'.^.<.7.7.A.N.0.7.N.7XkXmXkX Xu.7.V ` i.}.}. XtXtX#XtXtX#X$X#X].E.E.'.].x.v s =.=.F C ] 0.7XkXJXgXp.r.Z./.i.7.7.i.A.r.1.1. .:.>.@.( t.7.&.>.N.A.i.i.....,.| *.1. .u.^.^.a./.p.u.p.u.H.iX3X:X(. .( >.>. .6.,.| r.d.<.e.( ` s.d.d.;X,Xp.K.7X>X).1X,X(.u.) e.H.u.u.r.e.A.9.C A s C c f p g Q  .#.2.t.7.D.N.[.'.`.N.8.8.9.N.4X4X`.eX+X+X$XB.",
"V K V.7XkX7XC / 7.4.p.`.S.i.2.t.8.9.4.8.7./ G Z / &.&.0.V.q.A.a.,.V N *.>.r.>.H.).A.u.^./.a.p.7.i.uXZX:Xi.@.@.@.@./ s.A.H./.[.i.A.Z.@.( | $.K.:X1X1X[.2.9.8.J.s.A.K.e.r.y.t.J.:X>X+X+.3.G..Xn.n.n.3.H  .k.3.6.2.9.D.eX}.L.7.L.k.k.S.#.#.N.iXkX+X+X4XN.p W $.A.S % - c ..{ / 2.| S a u y y l S n f u y p f q 0 5 6 q 6 6 r 6 < 9 c G ~ | ,.s.1XwX(.d.y.;X3X[.:X6X>X>XJ.D.A.H.H.J.[./.(._.A.H.K.iXiXiXsXhXlXZXjXlXlXjX2Xp.u.,.<.p.(.{.E.{./.J.6X1X:Xp.Z.:X>X:X[.`.}.7XuX<X/.^.uXsXuX7XrX7XA.:.A d 0 6 , 5 , , r < , r = # $ # # 5 + Z } R.D.;XwXlXqXH.H.;X).K.(.:XH.r.p.r.p.).qX3X2X,X2X;X;X:X(.K.H.K.K.[.A.^.,X:X,X2Xr.r.t.>.] >.u./.^.r.` ) ..p.p.i.6./ 6.;X3Xr.$.S f n @.$.#.( n W #.L.e._ 6.n 2 @ 8 m 8 d K ^ *.:.1.u.(.<X^.0.}.uX7X<X XN.7.7X7X7X<.k f ) H.V.`. XrXtX5X].tXtX#XrX$X Xv.E.].~.q.c p } ] G { c ..}.4XAX7X>.A.J.7.S.:X:X/.Z.A./.N.>.( ^ G / #.7... .7.E.`.[.7.G N F ) 7.<.<.p.^.a.H.7.p.7.:.p.(.iXwX{.,.7.@.@.^ @.6.e.p.}.S.r.:.d.s.e.e.y._.H.t.<XH.p.[.^.p.y.$.,.) ) e.e.p./.G.c.K >.5.O.=./ G ( @.6.2.t.S.`.D.4X|.8.2.9.7.8.[.S.].rX@X!.>.G.#X",
"F :.0.dXSX9X! V ! i.<X4X'.i.i.}.{.i.8.>.....| ] { 8.2...i./.R.`. Xp.&.&.<.u./.^.^./.u.^.).(.s.p.H.A.1XqXr.i.p.1.i.r.7.Z.K.6.i.[.J.7.r.e.#.r.K.qXwX;XJ.7.L.6.J.K.K.J.J.$.t.J.H.[.[.6XS.C.%X%XXX+XW.G.B.k.B.2.9.j.O.6.] #.S.S.J.G.L.k.#.6.6.r.J.eX9X`.| ] ! r.N.C - * C 4.>.Q.S.2.#. .n n Z n #./ S S A ( n d q 5 : r r 1 < < 6 6 , m 7.2.1.p.).:X3X;X[.;X[.6X6X4X`.`.Z.`.>XJ.J.D.p./.A.r.( ~ 1.u./.<X7XpXiXiXlXZXlXiX^.r.y.u.u./././.`.N.i.J.1XwXp.,.[.:X[.H.>X<X}.1XrX1XuX2X2XrXiXuX1X^.^.<.h 9 0 1 , 5 1 1 < , = $ $ # # = % 0 : & N x.V.2XsX7X:XJ.J.(.1XqX:XH.(.A.p.H._.H.).wX7X;X;XH.Z.r.K.:Xp.s.J.:X_._.[.K.).,XH.Z.N.{ ..>.A.[.i.1.r.p.7.p./.p.#./ t.>XK.r.@.j f Q @.6.@.( @.r.Z.D.[.H.}.G 5 % p *.C 9 C K @.@.@.:.0.V.,.7.R. Xi.R.}.4X9X/.K j y y S :.p.a./.@X9X+X@X#XrXtXrX*X@X@XE.V.OXOXx.C s 2.H ] 2.C K C.hXAX7.Z @.i.i.A.2X[.}.A.[.`.V.8...(  .( / ..:.7.9.V. X X<XN.>.0.>.a.^.7.<.a.H.A.s.i.@.) p.p.a.wX,.2.7.&. .@.r.K.J.r.8./.7.@.d.d.` e.d.d.;X>X/.<.<.y.r.r.t.,.,.>.@.r.r.r.B.XX.X4.8.k.z.F.b.=.m G | |  .#.8.S.G.D.8.t.V.8.N.N.>.N.L.>XaXeX0X5X",
"C 7.V.uX X:.| ^ / ..8.S.4X{.N.2.N.'.S.S.N.8.8.9.H / 2.2...7./.}.^.'.).i.4.a./.u.s./.A.a.7X(.y.).s.i.a.{.,.7.<XS.p.H.K.7.Z.A.:X(.t.Z.,.6.t.1XH.r.J.(.Z.>.6.N.Z.2Xr.r.H.#.@.2XqX>X>X}.@XfXaXF.c.F.|.G.N.G.C.N.B.8.6.3.[ X.J.eXeX|.G.!.D.N.6.| | r.N.6.2.z.v.C.A.n % 0 8.k.Q.'.'.S.8.{ | ..k.2.4.9.4.8.x.x.A p e e 5 & = , 1 < r d p q / t.Z.p.A.:X;X1XJ.H.J.1XN.t.S.i.H.sXrX|.S.>X}.>X>Xp.>.@.Q S ) r./.>XrXuXpXZXpX).(.H.p.s.A.(.:X/./.i.7./.6XsXkXhXjX7X>X/.J.}.7XdX7XiXsXuX}.4X<X^.@.,.^.G s 9 r , 5 5 5 < , = = $ = # $ = : - : 0 N 5.&.9XjX2X:X:X(.(.:X1XwX).:X:Xa.)./.i.y./.,X1X;X>XJ.e.(.K.p.r.p.y.s.p.H.p.s.p.Z.>. ...>.,.,.r.@.7.Z.H.).H.H.A.( _ _.[.,.>.| ( ~ Q Z S Z ~ #.N.N.e.#.Z.F.F y % d v.| C C F *.r._ ) ) ) ) *.7.8...N.`.4X4X4X0.K ^ :.f.A ,.u.7.i.R. X X#X#X*X@XrXyX Xq.E.gX@X~.K s 5.2.&.7.4.7.`.SXaX1.@.| ( #.7.[.<XJ.:.t.N.7.i.A.Z.8. .{  ...8.C.{ 0. X<X{.(.(.7.i.)._.a.^.e.a.(.,.,.p.p.H.H.p.| >.N.3.0.).A.p.p.r.e.7. .$.r.e.e.H.H.(.}.J.p.7.s.p.A.J.Z.7.,.@.e.D.N.x.G.z.N.R.Q.D.+XG.k.5.H ^ | #.| =...] ]  .S.{.`.8.8.9.#.e.7.6.6.J.8X[.",
"K N.`.dX/.V ^ ..( :.7.4.8.S./.0.| 2.S.S.N.9.=.4.2. .>.2.2.>.2.V.^.).A.^.).a./.H.p.7.u.^.1XiX2X(.^.a.7.( >.i./.0.A.y._.[.A.p.A.>.6.p.t.r.@.(.>X[.A.D.t.9.2.r.H.>Xr.r.7.#.@.Z.hXjXsX9X9.D.fX+XG.`.fX8Xt.|.|.G.x.2.%.[ ] t.[.>XJ.[.G.S.D.3.6.#.( W S S | 3.b.F.8.h o % [ x.Q.5X'.9.....>.9.=.D.B.j.B.x.c.5.{ G h c e 5 & & * * 5 9 h m F :.6.,.A.H.A.t.t.[.>X>Xp.7.7.i.`.qXqX}.[.>XJ.}.7X[.y.7.) ` _ ` <.,.Z.:X<XpX{.^.u.p.r.p.a.^.:X>X(.p.p.p.A.>X7X7X/.uXuX/.[.{.4XhXsX6XuX6X7Xp.,.^.0.7.G p s 0 , * 5 0 1 = , $ $ $ + = , 5 4 4 o G { 4.G Z pXNXqX7XH.[.[.;X:X(.1X2X(.;XH.H.t.e.K.qX,X:X(.;XJ.Z.p.H.H.y.r.$.,.#.>.@.,.>.&.4.i.Z _ ) 1.p.H.H.(.>X:Xs.! ,.Z.Q ( 7.| ~ ( | | ~ _ | $.| Q ! ! | i.] 9 # c E.{ V ) K ) a.:.K ) *.<.0.R.R./.7XuX8X Xx.i.,.u./.:._ @.<.u.i.E. X#X@X+XtXtXyXyX*X].OX XQ.!.{ h 4.9.4.N.=.S.<X<XA.t.r.r.#._ ( i./.[.A.i.#. .>.i.D.2.] H | 5.4.C.N.*.2.E./.<X1Xu.{.'.r.^.).p.a.).;X3X1X).;X_.e.:.,.4.p.4.0./.t.p.s.#.,.#.,.e.,.A.[.D.Z.J.s.y.,.u.}.{.}.t.@.1._ ,.S.3.B.B.6. .8.9X5XOXx.b.XXj.=.2.k.=.O.! v D 8.`.<X}.`.i.{ ..$.#._ W y.J.|.",
"] V.8XfX7.7.p.7. .~ 6.S.<X{./.{.i.7.7...#.3.9.&.V.2.] >.&.{ Z  ./.,X X3XqXa.>.A.A.^.a.^.).3X1XuX2X/.u.:.:.>.4.9./.).J./.7.p.>X[.p.7.r.p.<.#.t.(.;XS.7.2.>.r.[.H._ >.O.7.#.J.6X7XaX8XV.2.OX|.B.].fXuX8.9.`.Q.F.B.%./ t.J.J.A.t.G.S.:X[.Z.s.r.$.@.W Q #.8.j.].2.V % # v =.'.9XD.2.0.N.4.4.! 2.O.H 5.C.c.5.=.4.5.G d 8 * & $ & 5 w c @.S.i.Z.i.>.i.7.,.6.H.(.qX>X:X/./.`.7XeXeXiXqX1X<X:Xp.t.y.r.y.<.<.i.a.u./.uXAXmXmX{.H.p./.p.u./._.(.>.s.H.:XuX}.Z.7.N.{./.<X<X7X7X7XkXrX8XuX^.aXvX'.*.h j d r * 0 q 5 1 1 = $ # # $ * 4 7 t - O 9 { { *.g V sX8X6XqX[.:X(.(.H.Z.p.(.pX6X:X:XH.J.>XK.A.K.K.H.r.K.K.p.y.r.@.( @. . .7.r.4.<._ j ) 1. .1.7.a.[.3X/.1.,.d.| W |  ./ n l n m W | ! Q Q Z W 6.t.p.`.c @ h v.3.d h d V <.1._ u.p.0./.7XrX4X4X8X{.i.0.0.i.<.<.p.e.<.,.0./. X~.$X@X+X+X#XtX*X X X Xw.;.$Xx.d 4.N.7.4.9.8XHX>X( 1.r.( @.6.t./.{.[.:X:Xt.r.i.>. .>.{ ....N.0.0...Z / ,.u.E.1X<X^.i.^.).).A.^.^.:X:X^.[.i.J.Z.(._.$...u.H.Z.s.>.,.y.r.p.d.i.r.7.A.S.[.>XH.r.s.H./.A.r.#.W ~ / 7.`.eX`.|.].8.B.%X+XC.C.W.F.j.j.3.4.] ! / { 7.,.A././.J.i.7.t.J.t.s.| m @.N.",
">. XdXA.,.7.,.>.>.( n / R././.}.{.S.Z.{ / H ] { ....2.:.&...>.D.p.0.).1XqXa.^.>.7.^.u.^.^.).:X).K.2X_.i.7. .q.}.{.7X/.>.~ #.t.Z.H.H.H./.).p.6.,.A.r.#.>.t.A.K.H...| N.8.#.Z.J.A.J.{.}.|.G.|.4X8X9XsX9XJ.9.v.~.B.2.D.H.J.p.2.t.S.J.1X:X>X(.p.,.$.W ( #.8.5.j...F & o G N Q.fX`.N.J.S.8.N.t.9.#.#.Q.#X0X].v.&./ 2. .V e 5 * * 7 d D S.].@XR.( ! r.A.p.i.s.pX>X/.[.<X2Xi.Z.7.u.).1XpX[.A.2X7X2X:X:X)._.d.^.:XuXkXsXZXlXdX).:XiX7XqX,X[.(.<.7.H.qX7X<X>X{.'.uXaX[.V.7XfXfXaX7XS.gX<Xp.Z.! g f h q , 6 8 8 9 8 5 , $ = = , 5 t u 4 : X d e A S G s ) NXmXmX6XZ.(.H.H.s.7.s._.[._.(.(.H.p.s.d.2X_.e.| e.K.J.H.s.,.:.:.^ :.p./.(.p.j y.(.,.:.:.,.7.A.^.r.r.#.| $.y.H.,.Q a f _ | S S (  .( @.@. .u.^. Xy @ d U q./ V Z W G /.2X'.{./. XkXsXrXrXE.>.0.:.D 0.7X)./.p.:.,.7.E. X~.].@X@Xx.( C.#X@XE.&.A F K d d 2.q.K 2.S.4XAX}.W S ! e.#.#.,.#.p.J.>X>X>XA.V.7. .A ^ >.4.9.S.`.N.>./ Q #.:.).7X'.a.p.'.a. .d.).i.p.p.^.^./.i.7.^.s.7./.:Xp.:.C ,.p.:.,.qXa.<.y.>.<.^.[.A.i.s.A.H.i.` $.e.@.@.| ,.A.}.@XOXN.8.B.9.k.G.@XtXv.3.x.q.9.7.&...r.t.H.N.V./.`.7X[.t.#._ A j k W ",
"&.H.7X>X .A G ) @.) ! ( p./.2.i./.6X/.N.>.! ..=.x./.N.7.9.&.| >.<.E.7./.pX_.(.).H.0.a.,.<.^.^.p.H.r.,.&./ K {.sX1X<X/.<.1.t.r.1.t.:X:Xp.t._.y.t.i.H.p.p.J.J.J.L.Z.8.|.4.6.6.S.4X8XdXnXnXmXwXkXnX5X}.`.5.B.G.C.S.8.J.J.t.p.[.N.t.J.[.:XH.p.i.,.@.S ~  .3.b.v.] ^ 9   0 c X.9X0X`.8.t.J.Z.Z.k.t.G.5XyX0XQ.q.] 2.-.{ { Z d d 0 5 C H J D N s g m Z ,.[.>X:X2Xp.@.| ,.7.,.@.( :.,.A.:X(.>XpX7XhXuX1X).>X<X:X/. X<X XuXZXAXlXaXjX7XhXqX2Xa.7.,.s.[.1X:X:X2X>X6X/.Z.r.p.:X7X<X}.uXdXi.Q k j f h 9 , 5 5 6 5 8 5 * 1 , , = * 4 t i 7 7 X V 9 9 K s f j p.NXsXH./.:XK.(.).(.H.(.2X{.H.H.i.p.p.H.H.s.( _ @.H.;XH.^.a.7. . .>.7.p.^.` _ s.<XA.i.p.u.u.e.u.t.y.@.` d.(.d.#.m A @.,.>.( r.1.$.y.p.p.e.2XA.s 2 & & q =.q.K *.) n <.{.). XrXuXsXkXhXsX7X'./.0.0./.{.).2X'.E.A.<.2.N.R.~.Q.:.V s A #XyX..N g 5 % . s =.N.| >.N.A.{.2X@.( G @.6.,.@.H.p.e.N.A.>X{.^./.p.>.{ ..9.N.N.N.t.>.{  .Z.).1X).2X2X).u.).1X2Xa.^./.A.s.A.7.*.G :.7.^.).R.R.7.1.e.a.p.e.A.A.r.d.p.7.i.A.7.s.1XA.r.s.` @.t.@.,.,.@.i.S.4.S.N.9.N.N.S.8XnX0Xc.j.z.j.c.8.^ 7. .7.J./.S././.}.6XH.7.1.` @.W S ",
"..| / 7./ n h j V Q ) _ / &.>...8.[.{.}.`.9.&.4.9.V.N.2.7...F N G ) 7.(.:X X(.pX1X).a.^.^.i.d.^./.s.,.*.G G 4.{.7X:X/.A.y.A.r.H.Z.s.r.Z.H.J.1.>.#.( @.r.Z.p.N.6.@.S.i.2.J.D.8XtX{.eXqX,X<XmX7XZ.J.Z.`.S.N.N.}...3.t.p.H.J.H.t.Z.Z.[.[.t.i.s.J.s.~ W Z >.F.}...&.p   % b C 8.9X@X`.J.N.|.G.J.|.L.Q.C.2. .7.8.=.O.I ] G C A C C D J g 2 5 9 s n G ! ,.6XiXhX1Xp.r.#.| i.H.r.,.e.p.>XiXjXwX1X:X).3X_.H.[.i.:.2X7XrXmXJXLXkXuX7X2XiXuX7X{.uX[.2X2X:XrXhX<X2X7X/.[.H.:.>.r./.uX<XC _ j f j c s , , , < 5 0 0 * $ = 5 5 - - 5 7 9 4 %   % : # A V 0 j Q p.N.Z.nXuX[.[.2XH.H.7X>X{.(.J.s.7.r.,.6.) _ ( r.H.K.:X/.7.:.)  .>.>.@.<.( @.u.i.^.).^.7.A.u.:.@.` @.d.$.| r.( ~  .@.| G _ s.#.>.,.:X2X>X).c 5 5 % * 5 b 4.N.>.:.G d K ^.7XuXuXsXsXiX7XrXsX X X2X{. X X).{.rX2X<X{.q.A Z h s 9 8 8 { q.F w = #     g 7.V.7.8.B.&.|  ._ @.( _ ( @.@.Z.Z.7.6.s.Z.p.{.rXR.Q.S.`.S.J.N.6. ./ / ^ r.u.:XqXH.^.,X X,X{.i.p.a.A.H.a.7.) ^ _ ( ^./.A.Z.i.,.>.>.i.r.s.@.<.:.@.<.e.s.,.~ 1.:XJ.y.i.@.r.7.#.#.>.8.{.`.8.4XfXuX9X4XuXS.D.eX].x.5.c.E.C.,.S.i.>.7.r.7.r.H.S.`.[.A.r.@.( _ ` ",
"c.V.A.,.G ! ~ ! A Q >.9.>.( 7.i.Z.8.S.`.{.V.7.4.4.i.S.S.0.4...^ ^ 0.(.:X1X3XH.3XhX2X_.K./.).2X(.u.,.*.:.&.2.4.2.<X2X_./.e.A.Z.y.Z.H.H.Z.A.Z.p.,./ S  .7.t.p.p.p.6.:X2.Z.2XJ.4X8XZ.Z.K.2XqXK.:X#.}.7X XR.9.D.8.D.N.H.p.Z.t.N.`./.D.D.t.J.[.2X<X7.~ m g Z ,.H.i.] p   . d b M C.S.N.`.J.S.>X5XsXfXS.4.~ n ! | *.] I { F G K / &.K e 5 1 8 0 1 9 ^ r.! 8.kXmXqXA.J.r.K.@.7.H.p.a.p.H.2X1X2XuX1X7XiX1X).p.a.Z.}.kX<X6XkXuX4XuX7Xp.{.s.:.7.7XuXiXZXjXiXiXuXuX<X2X7X(.A.).8X8X7./ A.r.n j j n 6 $ < , * , 5 1 * - 5 7 5 4 5 4 4 5 : o     O # % :.K 7 f b m #.`.>XJ.Z.r.<X6X`.N.Z.(.[.Z.i.H.H.i.y.1.@.r.Z.K.:XH.>.F |  .(  .<.u.) ^  .G ) 7.G >.(.,.G ( ( ` #.1.e.,.Q 1.,.@.@.( #.t.A.#.s.[.(.p.h 7 9 7 % 1 6 , =.tXA.:.7.,.S K ).uXuX{.0.^.mXSXlXhXuXuXrX X(. X<X9XrXfXuXuX<X1.V s q q 9 6 d 0 # X .     d x.S.A.rXbXx.8.( Z ~ ,.r.| ( 1.6.@.r.H.2X6X{.<X1X1X<X7X`.9.N.i.1.@.S W ( :.p.:X^.p.^.rXiX:Xa.a.^.e.1.a.(.i.>.:.) <.p.7.0.i.,.,.1.@.s.y.p.i.7.s.,.) ,.1.( ' 1.@.,.i.p.@.H.6.| 7.J.p.{.<X:X9X<X}.2XkXuXt.(.S.C.5.5.E.0.| 7.V.A.i.i.r.>. .i.V.`.>X}.H.N.e.` n ",
"W.q.7.<.^ i.}.p.>.~ ^ ..,.7.a.V.J././.}.pXiXrX`./.`.S.i.N.2...7.p.^.E.p.:.^ ).pXqX2X).(.s.7.^.(.<.:.&.:.{ 0./...E.:Xr.p.7.p.).J.p.p.y.@.#.7.7X6XJ.J.Z.t.6.A.A.r.r.p.#.J.hX[.8.H.>XK.;X1XH.| | 7.9X7X/.V.V.8.2.|.8X>XK.6XJ.8.7.9.J.A.N.t.J.>X/.r.,.@.k ' J.y.Q G q O   1 v b J 4XmXrXaX|.6XNXnXJ.i.t.@.A A 3.v.} ! ] ]  .7.2.&.^ v * - 1 * 1 2 5 _ m e / #.| | /.lXZXuXhXpX>X[.(.e.p.i.^.^.{.iXjXuX/.H.{.<XS. X7Xp.'.mXmXjXp.c C C h C :XiXlXmXZXAXZXZXkXhXAXZXfXsXmX5X0.V.6Xi.A W _ C a , < $ & $ = = * 1 7 i 8 9 t 4 5 4 5 #         . + d 7.s 7 s G ) i.4XqXJ.t.uXfX1XH.i.i.A.s.A.1XJ.<.@.1.7.1.r.p.p.,.A ^  .( ^ / ( ^ V Z S G &.^ V C c 9 9 s b S ) r.H.e.@.,.,.@.$.:.u.s.(.r.~ p.a.g s h s 2 % s q 1 *.fX9X*.7.).A.r.K N 9 0 0 9 ( i.a.p.A ) a.@.A ).2X1XuX<X:X<Xs.n 9 0 0 6 r 1 $ # # #     O C 7. X<X5XyX#X@XA.A.A.H._./.,.@.p.y.r.A.[.p.s.^.a./.A.(.).{.A.p.s.<.p.H.a.a.).2X<.) :.`.1X^.)._.H.:X).)._.,.:.,.) *.p.7.u.,.<.d.s.:.d.;XH.s.#.,.J.N./.>Xi.1.r.,.,._ W ( J.6.#.1X6XH.:XwX2Xy.^.:X).:XZ.H.uXS.i.C.N.V.7.>.7.N.t.A.i.Z.A.A.>.7.t.V.`.qXK.6.$.n ",
"$Xc.I x.rX'.{.8.>.>. ./ >.A.[.i.../ 8.`.}. X{.rXkX[./.i.7.| G s.(.a.i.^.) ) ).<Xu.a.<X)._.^.).,X^.^.i.>.| V.{.A.7.:.r.i.e.r._.wXd.#.1.<.H.[.1X6X|.J.}.`.#.Q @.#.r.t.t.t.1X}.p.H.A.p.(.J.t.| #.#.] N.B.5.4.9.Q.C.8XqX1X[.>X1X[.H.[.J.D.9.#.2.8.i.7.1.` ` ( j f S y o   o b } ] 4.jXBXnX5XcXnX5X%.] | / ~ G 2.q.*.{ >.6.{ >.K { *.| q * 1 1 , < 5 9 q 9 1 2 q p C  .,.:XkXiXiX>X/.@.) @.( ( 7./...V ! N.7X<XrX7XuXiXS.iXuXc d c c D >.i.}.sXrX..A.uXiXuX`./.nXgXZXIXJXdXgXuX^.W V W >.h < & $ & , * X X % ; 7 i 9 7 7 4 t 7 * +         . o * ) J 9 h G I B.HXKXmXdXJ.A.<Xp.7.1.>.y.:XwXH.r.r.>.,.#.| ) ) F S  . .^ h g h h n Z G >.,.d 5 1 1 5 6 5 1 9 q f m m ( 6.s.r.r.p.H.i.7.@.u.u.Z Z ^ V 8 & % v b 6 I }.fXV.7.}.u.A n s h s p 0 p 0 1 r = 5 0 q d ~ ` _ A V V s 8 0 0 6 r < = , = $ $ X     + D 8.].~.'.tXw.j.S.<X[.r.6.r.7.7.i.A.H.H.r.Q Q u.a.a.A.:XuX1X/.s.s.a._.>._ p.).a.^ ^ /.1X^.^.2X)._.(.p.s.u.<.&. .:.<.(.r.7.y.e.d.d.,.y.H.d.$.W Q t.t./. X4X9X[.Z.#./ | 6.t.t.6.;X3XA.p.(._.Z.K.H.r.) W | S.J.`.N...p.}.{.p.A.S.Z.A.t.8.Z.<.6.8.t.6./.Z.@.` S ",
"$X%Xb.Q.}.i.i.i.7.&.>.i.p.i.i.A./ ^ i.A.V.R.9XjXsX(.0.q.7.i.i.,.7.).A.(.i.&.<X1X7.*.u.H.^.r.<.a.^.(.p.p.>.)./.u.,.,.d.d.A.r.y.Z.r. .@./.:X6X6X9XN.J.4X8X,.| r.H.p.Z.J.p.7.s.A.,.e.e.,.7.#...] ] G H =./ 2.V.S.S.`.6X>XZ.K.qXwXqXqX4X8.#.8.>.8.t.t.Z.e.W f.j k g 8 X     , v B N v |.nXNXSXeX9.#. .@.G h V h h ^ t.>.{ 4.*...2.2.] C w 1 1 6 1 3 6 q q 9 q q q e s h Q y.).<X/.s.$.^ A _ @.:.! S @.A.A./.7XZXnXlXZX/.i.N 5 x b e d C ^ F v F h C G  .4.7.:...V.8XZXdX4X4X/.:.^ A ( [ , $ $ & % @ = & : - 4 u i ; - 4 4 9 4 * X         O X # N / d Z / ] [ [.SXNXaX>.( r.i.).2X3X2XuX}.6.r.8.,.#.! G (  .^ { >.| | / A S n h h s h d 5 5 5 5 5 * , * * * , & 1 5 s Q 6.e.s.1.S s C ^ h a s s i - % 1 F b 6 K I ].1X7X^.A n h s j Q e.) s 0 r < , = , = < , = * = , , 0 9 q q , = , = = = $ $ O     % C { 0.V.v.8X].S.aX6X/.H.i.6.1.7.p./././.p.~ <./.).(./.).pX:X^.a.<.r./.y.$.u.7.u.1.<.}.7X^.<.s.).^.<.u.s.<.<.1.,.s.).(.u.1.1.y.y.d.,.y.e.@.S | s.[.1X[.qXA.7.J.t.Q ( #.i.t.#.p.1X1X6.7.1.y.s.7.,._ Q W | #.9.}.V.( i.@X/.`.'.'.}.6X{.i.J.{.A.Z.7.6.t.7.6.r.@.",
"yX$XE.vXfX8X{.i.Z./.p.p./.A.0.7.7.).[.[.(.<X1XuX<X Xp.7.^.{.<X7.0.A.(.A.{.).uX7Xp.,.:.7.H. .&.7.u.s.u.p.7.1XqXi.7.a.>X:X_.i.J.r.,.s.).qXwX6XwX1XeX'.2.k.S.,.:X7XH.p.2X6X[.[.K.r.( | @.#.( ! ..| ....] | <XaXuXsX}.>XZ.H.1XwX1X2XiXt.2.#.@.#.>.2.8.S.[.H.K.' j j ; o       O e B %.rXaXS.r.H %./ { / b 9 g V n v | >.4.].x.>.{ I N b 9 5 6 5 1 2 6 6 r r w 3 < w q e b C ~  .>.7.7.( V V Q ,.r.Z.>X6XuXNXJXJXSXdXV.d q e q 0 0 r r r < r r , 6 6 q w c C / G H 2.{ v g d G K G | F 6 # + @ # @ @ > : - 4 7 p f y 7 5 0 7 * X X O         X % 9 A G J ..S./.N.8X+XV.8.i.S.J.H.uXhX1X2X>.@.6./.V.| ,.>.! / ..7.8.7.&. .{ K g 8 7 - & * * * & # # & # & # & , * & , & , 9 c Z Q V q 5 1 2 , * , - & > 5 } [ D d 6 K  X{.) V f.V j h f.Q h 5 < = = < = = = = = = # = * , 1 r 1 = = = * * = $ * + O     2 b &.V.].].fX5XuXSX1X}.(./.t.s./.a.i./.<Xp.p././.{.R.^.(.rX1XA.i.(.p._.:Xp.<.u.u.H.0.a.7Xa.@._ <.u.u.a.0.:.s.p.<.<.s.).s.' $.y.,._ ` (.;X>.1.t.H.:X3XhXhXp.6.>X1XZ._ _ 6.,.Z.[.1X>X(.K.p.,.r.,.@.! W ! #.@.G ( / A.uX}.[.4X XQ.S.8XmX<X8XdX>X6.{ ..! X.>.6.6.",
"tX@XE.ZXmXkXkX:XJ.(.J.H.J.r.#.#.i.H.Z.y.A.A.(.:XA.p.A./.r.p.p.7.{.p.V./.[.A.<XuXp.4.i.A.^.,.*.7.Z._.,X7X(.3X1XH.r.1X;Xi.u.<.<.r.r.^.7X7X<X[.qXV.t.N.`.'.>XJ.4X3X6XqXqX6X<X6X/.p.>.y.r.| #./ ..2.>.*.,.A.<X{.{.sXiX[.{.iX6X2X7.J.V.&.i./.1XJ.S.0.=.U.@XnXlXy.Q u ; o         % w B [ c 3 6 6 q r 6 w e b d e s b m i.E.=.d d q 8 - 5 6 9 6 , w q 6 1 r 6 3 6 6 < < < < < q g C F / ! V n n C  . X9XN.9X#X/.K *.F e w q q w < $ < < < < < < 3 < < < < < < 6 w r x m b w w x b b p 3 # & + @ . X @ @ o % % % : - 1 & & % - %                 + p q c b D 8.0.S.E.0.K q.x.v.7.E.jXKXeX6.| Z.6X}.3.Q | 4.H C / i.>.G Z  .A y 1 : & & 5 * : % % & & % $ % # # # + + # # + + X = * r 5 0 6 = % % + # % + 6 I 2.X.8 < p V 8 f p y p g y 0 5 1 , = = = = $ $ $ # # # # = * , * = = & $ & * , * $ $ .       9 v | /.].dXDXfXlXHX7XuX7X/.i.Z.2X[.Z.s.i.<.u.H.p.p./.).u.<X{.<.^.p.i.).a.<.7.p.i.a.2X/.{.a.1.<.<.).a.p.<.:.p.u.:.a.p.d.<.` 1.d.y.@.1.,.1.<.s.p.:X2X3XiX1X^.}.uX7XH.:.Z./.p.{.<X/.(.:X[.y.( @.,.) A !  .| @.&.! >.pXsX8X6XR.'.'.V.}.uX`.<X<Xi.:.4.}  .4.{ >.2.",
"tXC.~.MXgXkXmXiXqX7X2X>XZ.t.J.H././.H.i.Z.A.7.A.Z.A.H.7.@.7.7.:.^.{.7.7.V./.1XuX(.a./.^.^.0.&. .>.:XqX(.).2XpX<X[.1XiX(.H.@.,.p.s.(.>XA.A.7XqX(.>X/.`././.7XuX2X:XqXJ.t.H.>X,X/.t./.6.G ! ]  .#.4.7.>.H.<XA.i.7.p.Z./.{.:X1XhX4X].].S./.qX_.7.5.c.W.].vXrX(.2XS - o           # & < & $ $ < $ # $ $ , , 6 6 , 1 6 C 6 # % # & & & & 1 1 , , 3 w , , < 3 3 3 3 < < $ < < < < 6 1 q p b c g c h v N x w w 3 w r w w r w 6 < $ < $ , < < < < < $ < , < $ < $ $ $ & $ & & $ # X # $ + # + @ @ o > > - 9 p C G F H H ! G C C F ^ D F s 5 9     . $ * 1 2 q q d d e q q N h N N ) /.mXN.Q m a C G g h p 5 s h b b g 8 9 7 # o : - - 1 4 $ % # @ @ @ X + o X o o O X X X X O X X X + X + % + X X .   . . 9 B I ] b , & o o % % % & 1 - 5 5 * = = $ $ # # # # + X + # # # # # & # # & $ # # $ $ X         d { x.Q.~.fXFX X'.ZXjXsXuX2X_.:X<Xp.r.$.r.r.7.a.p.d.A.i./.{.A.s.a.r.,.e.^.r.u.7.p.R.{.1X<X1X[.).1X2Xp.u.4.u.).u.s.).^.)._.;XK.e.d.,.p.<.` s.:X:X<XA.p.<XZ.7.7.<.).H.a.{.:X{.:X1X/.i.).r.( $.Q ( ( A ( :.| ( >.>.u./.}.}./.aXtX@X4X<Xu.J.A...( i.<X<X{.8.] ..7.",
"gXQ.v.MXaX7XkXwXJ.H.1XqXZ.s.y.r.[.[.[.[.J.K.K.>X(.a.7.#./ :./.A.7.S.R.x.S.<X7X1X{.:X1X2X Xa.7.&.>.A.y.H.2XzX^.a.(.p./.p.H.e.1.^.p.).2XuXwXwX1XhXuXH.p.Z.i.D.[.7X>X7X>XH.H./.uX/.J.i.8./ C K } &.i.p.u.<X{./.^.p./.(.^.R.<XlXSX<Xi.0.>.s.:X(.i.].+X0X X9X<XH.a.f.2 o             + & $ + + + + + X + + + + + + # % # # + + % # # # # + $ & $ $ $ + $ $ $ $ $ $ $ + < < < < < < < , < 0 r 6 6 w 6 0 w w 3 3 r < < < 1 < < $ $ + $ $ $ # # + + X + + + + + + X X X o o o @ X . . X o : ; ; z ; f Q Q.!.-.c.b.W.&X0X+X].@X~.V.E.~.F.=.v.w.p C 0.! g w - # @ # X # % % & & & & & * * & + @ % : 2 p a h m / >.:.( ) ( Z N g 8 +     @ o o X O O O . . . .       O O O   . X   X o X : - 5 5 5 - 2 q v N I %.O.[ P b a 8 % o o > > o o X > > > X o X X o # % % # # % # % # % * > + $ = & & & o         . c &.x.v.`.9XfXx.E.mXJXAXjX7XA.J._.y.t.y.,.s.p.p.p.H.^.H.r.>.,.<.u.:.) @.e.u.8.Z.^.:XA./.1X3X:X).3X:X X4.K 1.a.s.a._.:Xs.) u.a.e.u.s.<.e.,.s.^.2XqXqXqXiX;X(.p.u.<X<XH.(.{.:X6X{.).A.[.r.r.r.,._ W Q @.&.,...>.r._.{.:Xp./. X{.'.{.[.rXrX<X<.:.r.H.:X<X>.| i.r.",
"fX@Xc.rX<X4X4XaX>XH.J.Z.6.@.@...s.N.s.A.[.p.A.A.7.t.i.N.9.>./.).7.>.q.'.R.A.<X7X2X2XrXpX1X{.2Xi.0.p.<.H./.:Xi.G G >.V.p./.1X1X:XH.p.;XqX:XwXhXmXiX{.A.i.>.>.2.Z.J.A.7.#.>.i.`.i.`...9./ C G { ..>.u./.1X2XZ.}.(.A.A./.A.A.:XiXsX[.V.8.(.7X2X[.6X8X<X7.R.1Xy.` k z %           X   . .   . . .           .   . . . X X + + + + # # X # $ $ # + + + + X + + + + @ . X X $ + + + $ + # $ $ < < , < r r < , , , , $ $ & $ + + + + X . . X     .           . X % % % : : : : 2 z z z i l k u W ` L.+X#XyXyX0XW.l.F.$X#X#X~.Q.F.C.].].5.`.].5XtXaXaX<X{.J.S.O.C s 5 5 5 & % - - & - 5 2 ] J.<XhXmXmXSXHXPXHXSXZXdXMXdXdXrX9XgXaX>.c 7 #           O . o o o o o o X o o o > o > : 9 A G { q.q.x.k.k.c.C.Q.'.|.].+X+X>X@X[.t.V 8 : : : : > > > > % - 4 2 7 i u 9 8 ; 7 7 - ; 4 : # > # % & o         . X d I N.E.'.9XnX1XR.[.kXZXkX:X}.).Z.Z.H.,.A./.p.A.u.(./.p.,.:.@.,.i.(.<./.H.A./.}.:X1X/.C.:XuX:XpX).{.2X).<.H.<.:.:.<.^.:.C C C @.a.^.(.3X,X/.).3X3X>XqXNX2X3X/.u.7.7.<.r.p.(.N.7.7./ 7.y.V.A.,.( ! C S K  .,...A.<X{.).H./.)./.S.p.Z.`./.R.Z.,.r.p.:X1X,.,.Z.i.",
"#XrX].{ <.7X<XuXqXJ.p.t.#.#.6.6.t.A.p.J.K.#.e.D.V.Q.#XOX$X].R.V.(. X7X<X1X)./.<XiX1XpX7X1XsXzX).:X2Xi.&.>.) 4...K &.7.i.[.<XuXuX/._.Z.(.p.i./.7X(.:X1XA.7.&. .>.J.A.2.>.>.2.0.4.t.>.G c c D I K | /.{.}.6X:X[.<XS.p.7.>.i.7XqX<XsX{.V.( ^ :.i./.H.^.uXuX<X( W j 7 @ O     o u i - +         O   . . X o % # # @ X X + X . O X X X X # $ = $ = # $ + X + + X . . X . . . . + + . + & * & $ + $ $ $ $ , $ # + + + + X . . .                             O - 4 z t t t i u l k f.~ ' ' e.6XfXeXG.J.x.>...3.B.G.0XyX.X!.5XvXxX@X@X#XeXeX0X0XgXdXvX<XeXaX>X>XuX8X>XJ.{.N.t.`.'.R.:.V.}.aXNXSXNXNXnXnXlXJXSX3XjX7X[.J./.rXfXfXBXCX%XOX~.v.+.! c 8 2 : % : : - : - - : - 2 i y g m H ! K o.D.+X5XtXdXdXMXMXMXnXNXMXBXNXfXfXtX0X'.%.f t u z 4 4 ; 4 4 z k l l j k k 4 t t i u l u u 4 - : : > o       O X V } 7.Q.'.gXSXfXt.C >.7XwX6XqX6XZ.y.,.r.s.r.e.,.u.^.@.p.Z.,.7.^.R.}.A.4X<X[.3X7X<X{./.p./.2X^.).^.).).).{.).a.:.) A <.V.*.K V ..^.H.).;XpX:Xr.2X1Xp.(.:X:X1X2X_.r.7.1.6.t.H.7.7.u.:.p.>. .V.>./ C S K V K &.7.(.{.A.s.p.A.7.1.7.^.R./.6XA./.p.p.7.>.,.,.<.<.7.",
"#X#X'.A S >.uXqX6X{.i.t.t.#.y.J.Z.y.p.t.e.Z.[.+X#X$XxXxX$X$XC.Z.uXuXpXuX2X/.{.7XuXpXpXpXqXpX:X XpXpX(.r.7...x.0.&.*.{ &.p./.7X(.A.:X/./.7X(.p.p.J./.>X[.i.2.>.u.i.`.N.7.A.{./.>.H *.K C K ..} { F ^ u.A.Z.K.:XA.7.| A  .R.7X7X}.A.>.7.u.( ^ ^ :.{.sXlXaXpX` ' k t % O o @ u Q n t : % % > o > ; - 7 8 y f Q | W ^ ) ^ _ Z y q d b h d g V d 5 4 2 1 2 - - 2 2 1 & - : & 1 7 2 1 - 5 8 i t t 2 - - % % % % % : : % : : : > o o o O                     - i i t u u u k W ~ ~ e.H.r.W 6.D.L.G.wXJ.7.6.r.r.e.>.B.G.S.N.C.E.`.D.S.S.OX>X+XeXtXtX8X}.8XJ.e.>X0XwXcXeX4X4X6X8X{.i./.'.eXdXFXSXsX:X[.eXr.s.a.p._.K.H.Z.Z.6XDXMXtXfX.XY.oXU.XX%X&XM.c.h.j.3.O.O.*.K H / } =.-.j.j.b.n.T x.dXSXcXG.|.eX9XfXZXnXnXfX8XnXSXBXmXaXnXcX0XB.h l l u u u t 4 t l l i k W u 7 u k l k k f.k k l z ; : > O     O % c } N.8XsXlXAXaX..C F D.uXiXqX[.H.Z.s.p.e.6.,.,.,.C y.[.7.{.wXuXsXkX4X}.{.[.:X)._.A.s.p.{.2Xu.a.^.1X7X2X7X).a.:.<.@.a.0.:.*.^ :.p.K.).).^.a.a.p.A.0./.s.[.H.).[.H.r.@.>.t.H.Z.i.{ i./.( F J c m V G :.G |  .:.i.A.J.(.p.^.7.) ) ,.i.Z.7X8X<XA.@. .W W Q $.a.}.",
"#XgXE.K >.9.7XNX8XwX_.p.r.N.6.r.A.s.p.N.D.wX9X].fXxXyX0X%XOXN.8.A.{.2X:X/.^.^.:X1X3X{.:X7X).^.<XpX3X1X/.i.7.V.0.N.8.N.N.A.A.R.Z.A.<XwXr.i.s.H./.Z.p.r.r.7.y.A.H.t.J.i.Z.<X<X1Xi.6.{  .K H K 2.2./ C G <.p.^.1Xp.| ..] 7.A.<X<X7.7.<.7.7.s.:...:.p.dXkXjXAXH.` k t : > : o y n k i z t t z ; ; y f u k k | 5X8X(.<X4X}. X[.i.4.5.} } *.] K | ) p i i i t t f u t i z 2 i u l y t t i f j k k l u y t 7 ; 4 7 4 4 y y 2 ; ; : ; : ; : o O             : t t u u u f.Z.iX1.$.e.,X,Xe.m m Z ~ r.eX>XA.H.t.#.$.| | 6.t.4.A.6.8.@.#.#.].+XN.6.N.`.S.`.eXJ.K.>X6X7XwX1XiXwX6XwX`.[.7X4X>XeX<XeXJ.G.J.eXt.@.1.(.qXiXiX2X^.{.uXZXMXkXdX%XM.l.&XoX&X-X%X&X-XoXoX&X-XXXXXoX%Xn.h.n.n.m.h.!.SXJX8XeX'.2.6.#.t.>X[.A.r.#.p.|.>XnXcXeX5XfX@X] ~ A f j l i u i i i t l k k u y l l k f.f.f.f.k l z ; : o     O & C *.4.uXmXiXZXjXC.k.[ [ D.4X7X>X[.Z.t.,.6.,.r.r.t.r.{.{.7XsXlXpXiXpX4X}.`./.)._.).^.s._.,X:Xp.a.).).pX2X2X7X^.s.u.*.<.G ) *.) <.:.,.<.r.r.H.H.[.7.i.K././.<.u._.A.,.#.>.y.p.H.,.>.A.{.0.7.G S ^ F ^ | | =. .| ,.Z.A.p.^.p.r.,._ ~ 7.:X6X{./.>.:./.u.:.A Q a.).",
"vXgX'.x.-.z.O.F.4X8X6Xt.7.J.6.%.@.#.t.J.eXJ.D.'.tXrX!.'.Q.F.C.`.A.{.zXpX{.A.7.V.A.pXuX2X).2XrX3XuXiXhX:XuX:Xi./ ..V.Z.i.2.&. .8._././.p.(.:X7X2XJ.s.p.Z./.2XqX7XH.A.A.Z.{.Z.0././.i.,. .| ( / 4.N.i.<.u.:X[.[.(.7.7...>.7.{.<Xp.A.A.^.^.A.u.7.7.S {.}.1XlXe.' k z % 7 _ @.#.,.1._ k z z z ; i k u l k Z p.9XvX@X`./.}.{.].kX9X5.j.8.4.V.@XA.2.A k a u f u f u u u i i t u l k W k l u k ' W k k l u u t z t y u l y u t ; 2 z i t - : ; %         o 7 t h c G 2XNXNXhXiXzXL.e.%.#.Q ` ,.e.9.D.:XZ.#.~ @.| W @.t.9.r.@.t.}.6.Q ( ].+XS.8.N...B.S.D.:X>X<X>X;XZ.K.>X[.J.t.>XaXsX>Xr.[.:XZ.J.eXG.OXD.,./.<X:X2X3XqXqX1X7XuXkXAXZXtX!.%XxX%X&XoXoX%XXXXXoXY.XX%XxXcXVXxXn.n.n..XBXHXCX}.S.eX4XB.#.6.Z.[.t.s.e.y.A.D.c.OX.XG.G.S.8X{.9.9.&.=.A V J A n v C D J / / ] ( ^ V j f.k f.l k u ; : > O     - J =.8.R.rXiXSXdX6X8Xj.5.X.5.J.eX6Xt.6.N.e.,.#.,.7.A. X7X7XsXpXiX<XZ.A./.V.p.).2X_.s.<.a.^.(.a.<.).^.pXpX{.3X).2Xa.:.u.` A @.^./.7.) :.^ u.1X;X(.p.:X2X(.>Xu.@.r.t.t.H.(.p.A.i.p./.i.^.(.0.@.>.:.( >...:.V.0.| ( r.J.A.p.,.(  .,.,.A./.V.i.<.s.A././.i.s.:.,.uX",
"gXMXE.q.~.v.T T 0X0X@X}.J.S.t.>.#.| 4.'.8X9X}.}.S.8.].}.'.].}.`.p.Z.a.A.^.7.Z.p.:.<X7X2X1X^.3X<X7XjXiX1XlXuX<XE.>. X}.Z.8.N.7.i.p.>.7.Z.2X1XiX<X<.u.(.1X:X[.:X2XH.A./.2.9.t.7.i.p.s.J.J.p.e.Z.#.N.N.( #.Z.,.#.,.s.:X/.7.7.7.7.p.p.V.[.>X:X6XH.r./.{.pXSXmX(.S p t : _ aXdXNXfX8X8X[.,.1.s.a.a._.a.s.u.u.{.<XvXgXfXdX8X XnXnX8.V. X{.'.a.'.7.:.0.Q Q <.7.W S f.f.n ~ >.C 9 u j W k t u u k f.k f.k k k i t u l k k ' ' W k u u i i t z z ; >       - s ] T U 8XIXPXJXiX6X;X%.! c W y.,.| %.#.L.$._ e.t.N.$.Q 9.J.9.@.@.t.6.~ n W S.`.G.S.`.S.`.S.6XsX>X_.y.$.~ Z.5XD.7.#.N.'.Z.s.N.6XJ.e.,.k.M.XX3.V.N.,.#.K.wX;Xp.A.1.i.S.4XZXZX8X#X#X#XXXXX%XVXxXbXVXcXBXxXxX%XBXCXcX5XF.0XcX>XeXZ.t.S.6XeX7.#.6.G.|.|.A.H.J.0Xl.z.b.|.`.}.gXMXgXtX8X|.k.x.z.v.G.W.&X$X.X%X$X*XvXbXyX~.aXqX~ l f l z : : O   O 2 J ..q./.7XAXSXi.S.tXV.Q.3.S.vX0X@XD.|.D.t.t.6.#.>.S.`.qX6X>X<X{.<XpX3X^.7.i.a.y.<.e.,.` <.p.^.qX7XH.2XpX^.2X^.a.7X2X{./.0.4.p.V.0.>./ ) <.u.^.i.a.).1XwX,Xu.,.r.:X1X:X(.^.(.p.S.S.A.p.7.7.i.<.>.7.,.@.>.>.i.7.6.Z.A.i.7.A.`.Z.,.:.,.,.r.r.^.}.[.7. .u.<.^ 1.6X",
"aXsX XR. XS.C.v.F.D.S.J.N.L.9.2.4.t.k.|.#X+X`.9.|  .`.FXMXdX'.9. ./ ( >.).A.p.V.^.uX<X2XsXuX1XsX:X).1XuXdX).{.).2X(.H.`.`.A.[.A./.V.,.@./.(.>X[.{.A.i.^.d./.(.).<X(.Z.r.i.K.t.Z.:X:Xp.J.(.J.i.,.e.@.( ,.,.,.( ` ,.A.7.:.i.A./.}.,.:.{.uX6XJ.a.{.{./.:XAXAXqXf.y t ; ) lXHXsX4XwX/.t./.7XuXuXaX9XuXkXpX(.1XrX3X^.fXfX<X/.{./.7XlXmXiX4.:.^ ) :.s.<.&.`.C.>.Q ^ ^ S #.c. .j f l k i t u k f.k k f l f k k k f.' ` ` e.$.e.` f.a l u i z t z : o   : - +.m.T x.FXMXnXhXeXy.$.%.~ W X.| ( $.` ` 1.` ~ 6.s.D.#.#.>.k.#.r.t.>.@.m S | 6.@.( Q ` r.D.6.A.rXuXeX;XJ.Z.>XnXB.e.,.N.B.k.S.[.r.#.Z.y.j.XX%XOXF.9.6.,.d.,X;X).H.| ~ 7.N.rXIXPXFXvXfXW.yX&XoXxXxXxXxXxXF.G.M.vXPXFXfXG.k.2.X.6.6.| Z.>X>X#.| 6.Z.l.l.N.p.J.S.F.B.9.N.[.[.N.7XMXAXLX6XN.C.|.#X%X+X$X].Q.9XfX5XyXZXLXLXIXHXJ.S u k i z : o     & / &.4.'.jXFXZX{.4X X/.D.N.x.+XF.C.{.S.8.e.#.6.r.8.S.{.6X`.7.#.2.i.uXuX7X).s.p.u.d.<.u.) :.d.2X3X^.^.).qX1X Xa.).3X2X(.H.a.:.:.i.7.q.i.&.:.A.H.^.^._.).).(.r.H.;X[.H.H.^.;X^./.i.@.i.Z.,.>.7.@.r./.p.t.p.t.>.! ( ,.>.>.>.0./.V.( ,.@.:.r.A.<X}.p.H.u.>.>.>.^.<X",
"ZXaX7X2X<X[./.0X.XN.>X}.G.t.8.D.C.B.B.c.F.c.k.9.{ ..| S.5X|.S.J.0.N.7.:.^./.(.2XsXhXuX:XqXuXpX1XqX2X7X:X{.{.3X7X7XA.A.H.i.7.A.(.H.i.:.7.(.^.H.a.p.u.p.i.A.H.:X2X1XsXZ.i.Z.p.[.Z.i.,XH.K.H.2XK.[.1Xp.@.6.r.#.$.$.>.| | r.0.N./.:X).{.1X/.r./.).:X7X(.<XmXjX,.k u y ; ` dXHX[.p.6.1. .7.p.A.i.r.i.,.).uX(.H.^._.r.d.a.a.<.) <.pXlXmXrXa.<.:.:.) Q W :.@X].q...2.5.#.2.j.=.^ h u u i i u l l l k u f u u f k f.W W W n 6.p.^ Q r.Q a u i t 7 z % O - =.&XY.h.+X8X6.$.| ! ( | | ~ %.` ( $.1.y.$.%.f.W @.#.>.X.6.9.9.! W W ` ` #.,.8.>.@.$.@.#.,.2._ @.6.t.N.[.+X+X5XnXG.6.t.S.8.%.5.J.t.6.t.t.| 9.-X-X&Xc.2._ 1.:X2XuX:Xp.^ A ] 4.7.N.5XLXBX+XyXXXn.M.M.G.F.G.l.G.F.tXAXNX8X!.2.[ ! ] r.J.eX>Xt.W F Q >.O.F.D.k.r.9.B.`.Z./.H.,.s.p.4XuXJ.6.r.i.i.'.8X@X`.t.u.:X/.). XZXMX1XH.N.C.>.S k k z ; o O   + Z 5.I V.<XV.aX8XuX7X<XN.R.3.#X%XF.}.S.7.t.Z.r.7.N.S.Q.|.D.2.O.4.4./.uX(.Z.i.:.i.<X^.a./.,XpXpX2X7XpX{.u.p.i.H.^.2XhX3XpX/.).a.<.^.s.q.*.:.e.<.) u.a.(.p.r.7.y.s.(.H.(.).(.>X>XZ.>.p.0.,.,.1.7._.H.H.p.p.[.i.@.` >.e.,.:.( >.,.,.7.,.r.,.,.,.( p.<X{.<X<X/.E.A.",
"gX1XrXsX7X8X}.W.b.B.6X{.H.t.L.D.G.+X~.X.8.B...X.3.=.2.G |.5XQ.|.].S.C.C.V.4.Z.uXlXpXpX).2X'.^.<XdXiXpX{. X{.{.{.7.] i.1X:XA.A.H.:.:.>.7.^./.y.r.u.p.r.^.:X[.pXhXiX1X<X .:./.}.{.7.#.[.qX(.[.(.(.K.:XJ.s.H.s.Z.A.,.) >.t.0.p.(.sX7XhXuXy.H.aXuX2X1X<.,.A.^._ k u t ; Q J.`.,._ #.r.7.i.t.i.u.r.r.:._ <.s.a.p.H.K.d.^.e.e.@.:.).pX1X:.*.<.q.E.i.&. .3.8.5.&.6.&.>.N.B.8.x.5.C p u l y u l l u u l k u u y i u k l u l m ( ^ ` | m Q u 7 ; : : > o p b.*XXXM.HXnX5.,.%.H m m W #.$.%.$.k.;XZ.9.~ ~ @.@.$.#.r.,.2.O.#.W n k m ` @.| | 6.,.7.>.#.7. .>.5.D.7.F..Xj.cXBX6.( e.#.( W 6.N.$.Z.N.9.$.,.k.~.c.k.7.| Q ( r.2X:Xu.^ Q @.:.Q / J.IXDXyXyXOXW.G.$X0Xj.W.XXG.F.dXHXHXBXk.[ [ / | %.9.t.e.$.W m m _ O.B.G.S.t.k.V.7.,.r.| r.{.N.S.7X6.Q ,.i.7.>.N.J.r.p.).uXu.p.s.i.u.,. ./ 3.w.( F 3.m % o O O . q =.] N.A.A.aXnXmXsX1X[.<X}.v.W.F.[.>XN.Z.L.L.N.D.8.i.5.9.k.Q.C.9.i.:X(.A./.p.>./.{.^.a.qXiXpX(.3X{.p.p.). X7X).uXlXpX:XH.(.7.A.{.).(.).^.:.^ ( u.r.s.u.>.@. .6.s.Z.1XpX3X2X).K.N.'.4.8.D.6.r.:X_.p.i.H.[.A.u.J.D.H.p.a.i.7.y.u.p.Z.r.i.2.7.Z.'.<X4X X/.i.7.:.",
"gXiXsXZXmXdXV.+.+.C.4X4X`.S.V.D.S.].F.2.=.j.j.z.g.g.=.#.S.tX5XxX%X!.%XbX0X|.{.<XhXlXiX1X^.V.4.{.2X{.V.^.(.^.{  .>.7.i. X(.).<XA.y.@.>.r.H./.i.:.@.:.<.d.,XhXlXwXqX/.7.| i.C.8.J.:Xp.t.p.:XJ.>X:XH.J.K.:XJ.@.,./.6.( @.>.i.A.7XuXS.<X7XjXhXsXjXuXiXA.( }.:X' W k ; 2 W @. .( @.p.t.p./.V.Z.Z.u.7.( ` <.,.r.y.^.).a././.H.@.) :.,.:.:.@.,.0.].E.E.v.E.U.5.q.v.7.<.v.R.^.i.p./ h p f u f i i y u f k u u u f k n k f f f a f n n m m ! m u 4 : > @ D o.XXXXcXIXcXc.#.X.#.! Q $.$.9.y.9.9.y.Z.y.` ~ W W W Z ` t.9.] ] | ( ^ | @.! W G 2.#.#.>.@.8.2.9.B.!.N.B.%X+XbX|.` @.y.e._ Q ,.#.| 7.r.6.r.#.$.@.@.@.:.7.7.! ( 7.) G ( >.>.:.( ( #./.MXLXdX5X+X!.$X0XB.F.|.}.sXHXHXSXAX9.[ O.] %.6.6.( @.c W | ( Q | >.L.>XJ.G.S.t.( ( ( u./.A.J.tX<.( &.:.G ^  .).a.p.7X,.G i./.s.d.<.i.4.{ 5.>.%.b.n.a O O     & D 2.9.A.dXnXmXZXlXjX1XuXD.d ..|.t.A.D.A.S.`.`.2.9.N.9.2.2.C.C.4.t.7XpXpX>X'.`./.).s.:./.pXhX2X).(.0./.pXqXqXuX X).(.A.{.^.0.N.S./.'.^.u.@.<.>.a.).y.,.<.s.,.7.H.;X6X[.hX X[.Z./ 2.9.E.i.i.y.p.y.r.>.y.(._.N.'.`.H.p.s.r.r.( @.p.A.A.J.{.7X{.[.>X6X/.7.p././.",
"SXZXgXlXkXhXfX`.=.O.k.S.N.{./.J.`.|.5.j.c.z..Xn.l..Xx.t.`.9XxX#Xv.$XCX%XQ.`.C.N.{. XuX2X1XrX/.7./.<X<X{.{.<X'.{.p././.S.Z.pX).)./.r.,.<.H.K.H.s.,.<.u.u.p.;XqX6X_.H.[.Z.7.6.#.t.r.,.#.Q H.J.J.Z.Z.J.[.[.r.,.r.S.A.6./ ..7.A.{.^.7.H.2XMXkX[.:X{.7XuXqX(.S ` ` k ; t @./ Q ,.H./.`.[././.J.A.r.<.( ) 1.1.@.,./.:X)._.(._.s.y.:.r.<.,.<.7.V.~..X.X~.v.3.&.v.E.5.0.R.R.u.y.i.,._ n u u l u i t t f k f k k f.m S S k u l u l k h n m +.3.m l t % - B U b.oXbXGX%Xk.%.#.9.r.y.9.e.e.,.y.9.$.9.Z.,.| W S n Z Q t.L.X.%.] ! ..^ ! m W n h Q 1.Q A N.9.2.B.B.8.N.OX+XG.@.` @.$.,.,.$.1.@._ ^ #.r.$.,.y.,.$.@.1.@.| G m m V / :.7.7.1. .^ _ / 7.dXPXmX8X4X5X8X@XsXmXHXJXLXAX>X+X|.O.%.! 7.N.6.~ Q ( ] %.] #.#...6.t.t.K./.,.) H.<.<.E./.S.8X .A f b ^ ( @.7.V.N.i.7.i.:.e.3X_.` R.@XU.z.F.O.n.g.-.s   O O > b v.] V.#XZXZXAXmX7X/.].@X`.D.].t.Z.[.].J.9X'.N.N.8.4.5.!.$XC.i.A.uX<XpXp.i.aXfX1X(.s.a.1XuX{.7X3X).^.).<X{.^./.)./.7.{.^.i.i.i.7.).(.,.,.:.:.(.d.u.u.r.>.,.<.p.p.Z.H.[./.:.2.7.7.9.S.N.A.A.Z./.t.r.7.N.S.S.7.S.A.6.6.@.$.1.>.i.N.4X4X`.R.<X8XA. .,./. X`.A.",
"ZXlXsXuXuXuXkXkX'.N.8.:.i. X>X4X8X}.c.!.n.XXM.n.j.$Xv.B.@XyXcX+X#XfX0X].D.N.8.q.7.q.{.^.:X7XrX/.7.0.2XpX<X(.uXrXN.}.{.y./.iX:X7.7.>.u.A.K.H.i.r.>.@.( 1.r.e.r.s.H.>XiX2XK.Z.p.t.#.e.K.[.`.8Xt.[.6XiXfXJ.r.@.1.4.2.p.@.A ..p.A.H.>XuX/.{.uXuX1X/.`.:X1.h m $.n a o S 7X6.,.( i.[./.{.{./.p.t.7.<.@.1.:.( ^ ,.).(.s.^.(.(.).d.1.$.<.1.u.(.^. XgX~.W.x.{ 5.3.3.q.0.a.u.$.y.e.$.) @.Z f f i i t t u k k f.S S f.S k f l l a u k j c F [ j.3.h u : 1 I [ j.F.VXGXtX8.$.#.e.y.#.$.6.9.e.9.L.K.L.,.e.9.$.! _ #.,.t.9.! 2.3.O.| ( ( ( ( h f m / n _ / 2.F.S.7.r.7.9.B.x.( ` $.m ~ Q #.r.e.y.6.s.Z.s.6.$.r.e.$.:.<.4.F n V ^ ..:.>.<.@.@._ W Q 1.8.wXLXNXjXkXsXmXAXHXkXaX>X9X`.].BXJ.[ O.S.H.$.^  .] / %.t.#.>.2.e.6.L.9.7. .( _ ` p.i.<.2.9.G V V s V @.7.N.OXC.N.5X4XA.u.,.1.p.^.tXfXyX#Xb.b.+.l.;.9   . & J E.&.7XtXtXZXSXdX`.Q.Q.@XaXS.J.t.p.J.`.[.J.D.C.B.5.B..XXX!.C.i.Z.7X{.<X7XuXjX<X/.u.e.<.a.s.^.).(. X7X^.<.i. X^.^.^.<.^./.A.^.<X_.3X Xu.@.@.<.p.,.,.@.$.>.:.^ ( ,.H.>XqX/.p.p.S.A.H.D./.i.t./.V.S.A.`.9XQ.Q.~.|.J.r.e.y.,.,.@.>.i.'.6X}.<XuX4X[.[./.}.7X{.V.",
"kXaXsXuX{.5X{.pXuXiXZ.8.A.D.S./.4XS.+X.Xz.&XY.c.c.oXb.b.@XvXyXF.].nX`.2.7.>.0.{ | /.{.7.>.).uXuX{.0.rXdX X(.'.).J.A.}.H.^./.(.i.:.p.i./.p.7.) ! ( @. .| >.H.qX6X:Xp.p.H.K.H.H.H.r.6X>XaX8XS.@.>XdXnXsX}.p.#.7.W / ( / @.H.{.<X[.2Xa.>.t.7.V.6X4X7.a 8 p p f m f X _ wX>X^.@.>.i./.[.[./.J.K.A.r.r.s.r.7.:.,.).1X1X(.a.)./.s.,.:.) :.:.,.` >.{.tX4.{ / &.&.i./.^.u.<.1.$.' _ ` <.7.:.C f k y t f k k k f.W f.n k k f a u u n j c F { 3.-./ a @ 1 J P O.j.b.DXmXJ.,XK.L.Z.%.! $.e.Z.y.L.(.y.9.L.J.J.! W @.6.t.J.9.9.!.L.( _ @.%.( g m #.t.5.>.] ] 8.,.1.6.>.S.+X8.%.$._ Z _ #.$.@.e.r.Z.s.e.r.$.@.@.e.,.1.V.$X} m G 7.i.p.>.( | ( Q S / 7.2.}.JXHXJXSXNXNXLXHX[.N.J.`.sX8X8XcX#.G.S.6.#.%.G ] ..%.6.t.L.8.9.j.F.O.S @.1.~ <.<X X>.Z F F F F C v ....N.7.u.^./.p.`.<.' ` _.u.^.FXLX|.0X+X+.z.g.T % X q *.v.8.N.dXrXgXgXfX9X9X~.C.+Xi.#.y.p.p.Z.J.D.N.C.B.N.OXXXv.5.x.i.p.}.'.^.s.^.^.7.,.i.>.:.( ,./.s.u.^.:XrXi.:.:XuX).{.3X(.1X).(.(.,.s.K.u.<.y.,.e.1.p._ ! _ ^ ^ ( r.H.;XqX3X[.:XS.i.A.>.Z.i.K.:X<X{.A.y.e.V.0X@XJ.J.p.y.>.@.@. .6.i.{.|.`./.i.J.>X6X4X<X7X4X9.",
"*.^.1XrX6XS.>.! ,.zX>.r.p.:.A.7.i.C.~.j.+.Y.n.XX&XXXz.j.~.yX~.].x.>. .`.0...i.4.p.R./.p./.{.uXdX0XQ.}.Q.9X6X}.J.:XpX{.A.Z.>./ ,.i.p.A.<X:XA.p.<.) :.>.7.a.).1Xa.p./.@.r.p.}.:X;XwXwX:XuX8XS.>.N.`.[.8X(.y.6.>. .^ S | /.(.{.S.Z.V./.A.i.>.| / G d 7 7 4 y F h t o y.6X>XA.$.6.r.t._.:X:X>XJ.H.J.(.H.H.p.p.u.(.>X_.a.^./.).(.a.d.^.r.r.) ` @.@.#.:.N.9./.<X{.nXkX).,.` ` ` $.,.s.a.p.&.G F G G S W W S f.W k k f.W f a l f n n S / ] 2.=.! y o 2 h.o.I +.h.cX7X#.t.p.e.#.%._ ` #.y.L.(.J.L.,.,.9.r.,.,.9.y.k.L.L.F.G.k.` W Z _ $.a i ( F.~.5.8.8.N.@.u.7.t.~.#X7._ Q ~ #.#.6.7.p.r.( 6.H.,.) ( >.t.r.s.p.rXyX;.G G G W / 7.7.( ^ W G 7.<.) V.kX9XsXJXHXZXlXsX).i.`.}.>XkXrXFXS.2.2.O.] O.I =.2.7.s.Z.>.7.S.G.$X}.^.u.) ` s. X^.&.,.&.) G ^ K { { / ] :.a.).p.p.p.<.<.u.r.y.r.uXSX}.`.&.o.g.z.v.N - C =.=...{ C.5X'.2.:X<XaXrXvX}.6X/.p.(.r.#.@.,.S.|.=.B.%Xc.j.F.|.D.6.A.qX1X^.^ ^ u. .^ ,.u.u.^.i.^.H.[.uXsX9Xt./.iX3X:XpX/.^.:X2XH.1.1.:.e.a.H.(.p.,.7.r.@./ ( ) A.2X/.p.p.u.t.>.,.p.r.i.r.K.iXjXhX7X/.r.$.H.6XA.#.e.$.$.Z.1.Q @.}.`.`.+XJ.D.4XiX/.7.@.@.7.>.| ",
"0 e C q.8.F n C A 7.a./.[.H./.7.i.!.G.k.z.%X&XxX&XW.c.b.~.#XyX@XQ.].8.p.'.2.,.4.V./.A.i./.7X7X7XvXyX9X}.'.`.`.7XjXsX/.[.Z.p.&.<.V./.>X(.:X/.[.}.{.{.i.p.(.(.:Xi. .H.1X(.).;Xp.;XzXlXlXkXaX6X6X{.1XH.@.t.r.,.( 6.6./ | 2X`.S.S.R.Q.B.9.2.&. .u 8 : - ; 7 g g - : > 7.}.S. .i.:X[.[.1X7XA.[.[.(.:X:X/.p.p.p.p.p.i.<.<.<.p._./.(.a.<.$.u.1.( @.@.6.V.S.i.A.sXdXZXlX(.y.$.` ` e.p.a.p. .] / H ] ..#.6.,.| _ _ W m j W k f n m A m ! G G | [ m ; @ x h.+.j.M.#XBXH.| @.@.! W W ~ _ #.e.H.K.Z.Z.K.L.$.` %.#.,.L.K.+X+XD.Q Q ~ @.` | 9.c h #.8.Q.Q.Q.S.8.V.tX9XN.z.W.6.Q ( @.,.r.6.t.s.J.K.6.6.y.@.>.#XvX5Xp.lXdX@X'.^.| =.7.) 0.p.7. .^ W p.(.^.E.sXZX'.kXmXuX7X7X<XZ.H.:X(.qXkXsXnX5.O.5.[ [ O.2.9.t.r.p.r.r.9.S.|.{.a.) ~ A ' A / E.].i.{ ) / ^ ) 2.4.*.F N 7.(./.R.). X X)./.r.s n K d s D b.W.l.H b N ! ] ..F D 2.i.) n n W A t.t.| r.H.t.s.6.( ,.C.N.9.OXyX%X].&X!.|.<X{.1X<X}.A.i.7.<.( ) 7.Z.p.&.p.{.}.4X6X8X4XR.[.)./.H.^.).3X1X(.H.,.:.:.e.(.2Xr.<.,.p./.#.G :.s.).,X).A.r.2X(.H.[.H.:XhXiX6X:X:X4X_._.y.J.1XJ.p.$.Q @.i.7.S 7.9X].|.J.J.J.>X8X[.<.^ A d % & ",
"e d w q D ..| G Z ) d.(.<.u.u.:.V.5X!.j.%XcX%XxX#X#X#X0XfXxX}.`.}.`.C.>.x. X7.D.7.7.Z./.V.{.4X4XfXaX7XgXmXwX<X7XuXsXp.:X:XA.[.[.p.0.a.<.7.H.)./.)./.7.7.a.{.<Xa.>.p.2X).2Xy.p.wXiXqXwXhX6X4X;Xi.D.e.` y.6.r.A.t.8.9.V./.R././.8X9X'.S.[.R.7.C S i % : - i 2 z : 7 7.7.t.( s.>X(.[.:X(.A.`.J.[.(.p.p.s.7.r.y.,.>.:.:.:.,.e.r.<.:.( @.<.:.>.@. .{ 8.7.6.m | A.E.{.^.e.e.1.1.e.d._.p. .] K ] X.=.=.%.L.%.` ` ~ ~ A j h Z ] G Q #.,.G ! ! ..G b w M U h.oXF.yXaX@.,.$.6.#.e.$.%.` ( ` 6.e.9.y.Z.y.Z.L.` $.%.#.eXyXeXD.` Q _ _ Q 6.t.n ` Z.r.N.{ /  .@.N.E.x.[ l.W./ S S _ #./.J.7.Z.A.[.H.@. .$.9.$XVX#XH.).r.H.rX1X}.V.x.7.>.^.R.1.:.,.,.A.). XuXmXkXpX1X3X7XuX<X}.^.[.2XuXA.V.SXvXx.=.F +.v.*.] ^  .@.6.r.7.:./ @.1.@._ f V K i.R.E.<. .:.&.) ) / &.4.q./ C >.q.Z ) ) D N 0 9 0 h | F J J -.m.;.] m F *.#.8.C 6 b / 2.( Z n n h m Q @.,.1.1._  .7.9.>.C.%X%X0XOX].S.9X6X2X/.i.:.G G | i.).7.&.>.G  . .4.S./.'.].G.9X8X<X/./.[.uXuX/.H.^.<.r.,.r.p.^.y.p.r.e.u.r.,.u.p.^.<X/.e.7.A.(.H.K.[./.[.:X<X1XqX1X>X).y._.J.e.p.(.` _ t.@.G D.N.C.S.eX9XS.|.N.../ h 9 5 2 & ",
"s s 0 0 9 v ..i.>XqXp.:.r.@.A ( 7.tX].E.vX}.'.fXgXyXdXZXMXdX`. ...x.`.@X@XC.7./.9X/.{.`.7.7.Q.R.}.9XlXAXNXHXsX3XA.<X/.p.:X/./.p.7.7.:.i.A.^./.H./.0.A.i.7.<.u.,.( p.:XpX3X:XqXsX6X/.[.p.2.`.t.d.J.A.#.s.Z.i.4.S.8.7.`.V.}./. X<X4X6X}./.8XR.7.@.j t : t t t u : a `.#.| t.A.Z.p.t.6.7.i./.(.H.6.r.H.p.p.y.7.p.K.a.a.i.e.p.<. .@.>.1.( @.1.H.1.@. .i.7.! | { / :.,.u.e.1.y.e.e.^.y.#.>.4.....x.>.X.9.X._ ( ( ( _ _ ! >.%.G _ Z.@._ 9.C.9.F P w c I.h.n.$XGX[. .#.%.| W ..1.%.$.@.%.` $.,.y.9.r.y.e.1.,.r.L.eXeXk.! ~ @.` _ #.$.$.m K.s.7.1.>.H.R.2.6...i.2.!.x.W C Q @.i.}.}.Z.,.i.Z.>.y.p.i.N.`./.Z.7.,.u.'. X'.<X`.9XN.:.>.&.,.,.7.7.,.,.^.u.u.^. X1XrXsX<X X1XuX:X`.uX>X^.nXDXNXC.5.-.z.j.| | #. .6.r.Z.p.1.>.*.:.) w.E.E.E.^.'.0.( ( ( :.,.0.7.4.5.4.*.b 0 = r 0 5 e d A ) 4.7.{ =.g.Y N -.] d C G / 7.G w w q C :. .n ~ $.y.p.| _ _ ( Q _ G ! i.`.cXtX5XfXuXsXNXlXhXuXA.,.7.^.^.A./.0.7.A.a.V./.7.4.S.D.k.B.8XZXlXuX:X:X).,Xi.u./.H./._.y.a.s.s.p.y.,.(.(.H.a.<.) u.,. .y.H.(.:Xp.(.).:XqX6XwXsX^.y.p.p.t.s.p.,.t.r.| Z.6.@.'.D.Z.S.`.].|.>Xr.>.p...h 5 5 - ",
"e 0 , 0 q 6 9 Z /.lXiXJ.1.c ~ / ! ^ 4.tXsXsX'.8XFXFXFXZXDXmX`.8.8.] ] &.B.].7.<XkX{.S.9X`.7.] #.,.(.iXNXZXAXSXhXp.p.^.:.{.{.{.N.i.V.8.{ ] 7.A.R./.).). X{.^.A.7.i.r.).).iXmXjXjXiX>X/.8.2.S.(.t.,.r.6.(.>XD.k.D.R.R.S.S.N.Z.>X2XqX2XS.V./.[.4Xu.j l t u 2 y f % n `.A.7.D.p.A.i.7.i.u.0.t.V.A.1.,.r.p.a.7.y.H.(.2X7X^.p.A.H.,.>.r.1.Q @.1.i.,.i.7.p.>.../ | ( F G >.,.u.a.A.7.<.>.7.N.C.N.C.V./ _ >.k.$.L.$.,.@.>.2.2.2.! ( @.| #.9.B.k.P P M P I.l..X0XGX7X[.N.@.$.( | %.$.,.$.$.%.$.r.L.K.(.K.J.J.J.eXeXD.#.Q Z ~ ( $.,Xs.` Q m H.@.( ^ >.0.>.,.s.i.Z...4.8.@._ ~ ( 8./.D.{.i.t.p.J.A./.A.N.7.@.:.&.,.r.a.<.u.r.u.'.>.:.1.,.7.<.7.H.a.1X^.,.@.>.7.i.A.{.R.[.rXdXkX8X1X2X/.8XFXLXCXF.j.j.F.*...=.&.,.p.<X Xi.x.:.4.q.'. XE.x.a.(.) K @.<.u.7.<.i.0.q.E.0.D 0 h L L g h ) 0.4.<.p.2.*.g.l.*.} [ p q a j ..] e w w 3 b ] ,.$.@.| H.(.6._ Q Z ` ~  .`.jXwX`.8XmXHXPXHXNXsX/.4.7.N.S.0.J.A.4.(.pX>X1X[.Z.Z.A.2.| R. XlXKXlXpX1X{.{.>.7.>Xs.s.i.p.<.7. .( ( s.1X2X:Xa.^.i.u.7.@.[./.p.2X2X:XpXNXzXjXpX:X,.i.K.;X/.J.6.@.e.r.H.S.A.D.J.`.t.'.4X`.}.'.V.p.`.{.:.n 2 % ",
"q 0 6 9 q q 0 , p #.e.Z.&.S @.| | / /.JXNXlXaX5XdXHXAXZXfX5X~.~.0.../ H 8.Z.7./.mX<X`.'.S.{ c f  .>.{.uXlXKXAXNX X .<.7./.A.7.>.A.R.:.K &.p.A.).2X{.1X^.(.:X(.<XqX7X[.pXsXaXuX}.sX>X7.[ 2.t.s.A.J._.J.A.V.Z./.S.V.| >.t.s.<X2X:X[.:X:X:X/./.}.1.l f i 4 - i f : 8 D.{.A.`.D.V.2.4.7.>.7.t.t./.Z.<.A.d.a.r.H.H.H.H.:X/.A./.p.<.i.7.,.>.,.,.,.7.7.>.:./  .| | ( G / { | <.i.).).(.A.N.k.4.9.S.>.$.e.Z.J.J.N.>.#.7.8.#.| { @.7.8.4.#.>.9.8.[ T U R m.m.oXbXFXp.Z.6.#.6.#.` | ` #.r.r.$.%.y.Z.y.,.$.y.{.G.J.r.! Z W _ | %.$.1.` @.#.g p W | ( >.>.( ( r.r.@.,.s.(.A.p.>.>.>.A.t.V.p.p.7./.{.J.>.p.,.( ( :.<.,.,.@.r.:.) /. X .7.7.<.u.(.^.2XpXi.,.:.7.u.7.V.[.6X X}.<X}.6X XH.<XrXgXMXBX+Xc.k.XXc.o.&.4.p.{.`.N.q.4.0.q.q.E. X0.>.>.0.:. .u.a.i.u.<.| G G  .E N K ) A N V V ) i.u.:. X<X5.g.j.C.F.*.p 5 Z a S ^ e 6 q r 1 q ! @.$.1.e.H.K.y.,.,.#.#.8.D.hXzX:X7XhXhXHXAXzX:X#.2.N.k.*.:.H.y.) i.hX3X:X:X ...C s | i.>.{.lXHXjX3X<X).r.p.p.<.r.i.a.<.) ) :.7.A.7X2X/.a.1X`.i.p.7.p.K.a.:X7XqXwXpXsXhX1Xt.6.t.>X;X/.p.e.Z.J.Z.s.8.t.t.8.N.N.`.`.`.6X}.>XJ.[.[.S.{ 5 @ ",
"5 5 6 0 0 q q q 2 9 h d i.4XC.N.S.N.2XHXHXHXkX{.N.ZXFXaXc.OXXXb.c.j.V.0._ Z j G i.uXhXJ.F b D c ! <./.lXhXHXZXzXuX^.p.p.Z.u.<. .@.] ^ 7.A.qXpX3XqX2X7X:X1X1Xa.a.}.).:X}.{.wXaX`.N.F H O.O.>.>X<XJ.J.J.8.S.}.D.N.^ p G _.iXiX>XqXqX2XuXqX[.<X7X@.k k f l u n k @ Q S./.A.i.`./.S.i.4.7.>.8.8.H.i.s._.H.^.p.d.a.i.u.:X[.{./.7.r.i.7.<.r.r.,.i.7.@.>.0.|  .>.|  .^ ^ ^ ^ :.>.u.}.6XE.'.S.|  . ._ ` ,.6.t.Z.6.@.#.#.2.{ >./ / ( / >.6.#.9.2.O.U x I.M.M.XXBXsX>.>.Q Z Q Z.>.X.` %.#.9.9.$.9.` ` e.L.K.}.[.r.%.` ~ ( ,.$.$.e.e.,.L.>.c c ..t./.`.'./.:.G C @.(.:XwX(.:Xp./.<.r.i.i. .| 6.>.>.:.:.[.,.(  .:.1.p.<.) ,.@.) [.`. .&. .:.7./.^.pX1Xu.7.0.<.^.R.(.<X}.7X<XS.S.7XgX].tX5XvX8XmXaX9.V.c.v.].2.V.{.1X'.`.q.q.E.:.:.w.q.q.C G &.&.i.<.7.,.K V N A G b h ) >./ V  .&.^ A ) <.&.{.{./.~.].~.].2.c & F Z n q r w 3 r r 6 q c / 1.e.~ h n #.r.@.7.9.6XlXzXiX7X6X>XhXaX<XD.`.N.4.[ V.V.,.( j A ^.>X^.:.m C 9 m 7.7.A.^.pXZXlXiX2Xd.d.(.(.e.r.u.1.C A r.i.{.:X7X<X(.7.uX6XA.i.y.A.:XqXpXuXZXlX{.J.Z.7. .....>.H.H.,.J.[.J.t.r.7.| ! F /.aX7XwXaXjXwX:X:X[.>X>X>.- : ",
"& * , 5 5 6 6 q 9 3 a b b H 2.N.>.| jXPXHXHXHXkX<X5X#X#X!.#X%X$XE.c.'.i.g g C G J D D v D J / t.>.6.{.uXA.qXdX{.s.pXuXqX).7./ S S :./.<XiXsX2X:XpXqX[.1XiX{.{.^._.^.7X9.k.`.'.4X9...N.O.} k.`.9.| D.N.2.i.S.S.i.c s #.N.J.qX1XpXpXhX7X<X{.S.{.( ~ W j j k m c o @.8XH.a.#.r.i.7.<.>. ...#.7.H.>.r.(.3X2X^.p.r.(.^.[.<X}.A.p.p.p.A.^.a.u.i.s.p.6.,.>. .7.<.:. .^ ) &.^  .( >.<X}.>.`.`.t./ @.,.@.y.y.H.Z.#.@.] ] #.>. .#./ ^ G ! ..>.X.9.c.U b T 0XxXcXDXsXp.#.@._ | ,.( ` | ,.k.#.#.%.! ~ ` $.$.9.J.}.J.D.D.k.9.t.Z.J.(._.s.$.Z h @.N.N.A.V.V.p.( @./ ~ J./.K.:X/.7.:X).[.).i.^ ( @.1.:.1.:.,.>. .1.r.p./.{.'.1.7.2.5X^.) :.:.:.,.a.).pX7Xp.7.p.i.V.{.6X<X X8XaX<X'.vXgX#XvXfXCXvXGXmX .N.i./.@XD.<XuXpX{.E.E.0.q.>.h y f d N | 7.0.a.7.:.h c G q.V.4.i.<.&.q.u.:.i.a.7.>.( / ,.N.A.4X9XtXtX X*.F %  .A.#.8 , 3 w 6 r r w 6 6 h G A m h n m ( #.7.NXHXlXNXiXA.t./.J.N.}.'.S.N.V.Q.7.h f g V C G G C C D C N :.A.,X_.qX3X^././.{.3X2Xi.<. .F V ( 7.d.1XsX:X<X<X1X2XuX2XA.Z.s._.>XuX>Xi.uXuX<Xt.Q  .[ [ j.C.D.,.6.[.t.t.Z.6.#.m h n 7.}.hXmXkXdXuX6X>X<X2X<Xv % p ",
"% % % - 1 6 1 w w e q w p q w p 2 c sXJXHXAXKXhXdXc.-.yX0XXX0X#XC.x.8.^ V { 9.j.F.`.0.4.8...8.}.8.[.kXsX{.:X{.7XiXkXiX).:.! C m ( (.H.>X3X7Xu.A.hXhX:X4X}.A.<Xa.A.[.{.}.5.F.F.'.C.9.S.C.5.k.2.[ ..x.N.S.V.8.8.9.| F '.J.A.).)./.:XNXqX/.(.7.>.S ' ` S Z Q A n o i.rXH.H./.u.,.@.( /  .,.,.2.0.>.>.A.,X1X1X,XH.H.(.[.(.A.a.i.s.7.A.,X:X^.p.^.).A.i.p.<.,.<.>.( ( >.7.) ) A.<X'.E.8.Q.].A.r.@.r.e.p.p.p.r.2.:.( !  .{ / / / | | G / 2.N.B.F.l.v P M.CXBXLXwX,.$.| ,.e.! W ( %.k.L.L.| $.$.,.9.Z.[.eXD.D.{.J.L.L.K.K.K._.zXiX2XH.m b J.{. X(.6XuX/.! 7.7.7.@.V ..^./.y.A.1XrXi.>.( G Q >.r.y.y.H.7.( <.3X/.:.V.J.t.t.S.k.6.,.1.:.1.u. XsXsX7X Xa.a.p./.'.'. X{.<XfXkXrX#XvXvXFXDXvX#XDX/.( 7.>.7.:./.rXuXsXrX{.uX0.( ) n s n ^ >.p.a.A.u.:.A G :.,.q.'.'.p.7.0.a.0.,.q.0.V.u.) ) *.7.'.rX<XrXZX#X} d @ m J v , & , < w w w w w 3 , 3 p b v c g m f ( HXKXHXlXzXqXK.S.S.N.eXS.S.{.N.{ ( m S ) >.8.>. .>.K F ^ >./ 7.qX7X/.).p.:.,.).lX1X .A n ^ u./.[.qXqX2Xi.7.u.1XuX:Xp.p.p.{.:X>.eXJ.J.`.N.D.S.J.9.| O.c.0XD.S m / #.t.t.:.#.a Q #.[.aX>X>X7XZ.r.(./.:X{.S.h 9 F ",
"- % % # & 1 < 1 6 6 w w w e w 9 1 g t.SXPXKXHXnXZX{.~.#X.X$X+X`.S.:.F b K v.W.'.uXaXN.N.S.S.A.:X>X[.8X`.t.A.A.i.[.qX_.:.n s ( 7. .r.p.r.<.r.i.a.:X<X/.<X<X/.1X4.Z.2.0.{ ] 9.3.k.#.9.8./.|.k.k.3.2...2.8.V.D./.B.4.>...A.6X7X<X(.iXhX/.Z.H.`.y.k W ' ~ V.@XN.| 2 /.4XK.2XK.u.,.>.4.:.:.7.p.,.( 0.:.,.u.i.K.).K.d.(.qX2X:XH.p.s.u.i.(.)././.2X;XH.A.u. . .,.@.:.@.>.,.@.@.p.4X9X].E.R.V.7.A.6.r.r.y.K.^.<.../ / #./ Q S / ..]  .=.D.S.G.N.N.j.M j.G.fXHXPXsX9._ ` L.,.! #.9.` $.9.J.H.9.D.k.y.D.[.aX}.e.1.#.Q #.J.:X3XhXzXiXqXK.e.7.D./.<X:X{.{.A.7.,.( Q Q G ( J.2X>Xi.p.u.>.p.:.( ( ) ,.Z.7.,.( $./.Z.,.6.1.7.t.B.yX}.@.) :.( >.^.pX3X^.^.a.^.'. XsX X^.).rX1X XdX0X'.aX[.7.kXCXDXpXA i.A.S.S.N.V.`.4X X'. XaX<X<.A _ G Z @.i.p.,.:.1.e.<.A x.E.v.E.*.*.E./.V.'.p.*.K ,.,.>.:Xa.>.A.^.(.rXZXfX2.q X 9 9 $ < $ $ < 1 w w x w 9 3 2 3 w p b b m M Z lXAXNXHXzXjX:XC.B.].4X`.4.8./.7./ ..2.8.V.R.'.V.0.8.9.V.uX{.7.^.^.3X).u.p.(.3XpXs.g V Q ) :.p.K.p.i.A.K.>.A.uX<Xp.p._._.(./.V.D.J.t.t.#.9.4.2.2.7.2.3.B.2.2.4.>.#.#.e.S.N.@.] #.A.4X6X4XZ.i.[.}.7X<XH.i.p f ( ",
"p - : % $ & & 1 , , , < 3 1 6 d m Z m i.HXLXNXuXKXZX8XE.W.#X`.7...{ / K I T c.}.ZXA.2.<X/.[.ZXNXhXwX>.8.S.7.>.{ / ( _ C j q ! >./ @.r.>.7.A.p.A.p./.}.<X7XuX8X/.7.2.N.8.7...4.2...Z.`.4X4X8.k.N.C.3.8.8.7.] 7.S.2.^ ! G i./.{.{.qXwXp.}.1X{.Z.n _ $.{.@X'.>. .i V A.qX}.@.( :.7.>.<.,.r.s.) ) i.,.<.r.r.p.p.^.A.^.1X7X).a.a.p.i.u.i.H./.).).^.p.p.>.@. ./ 7.:.>.>.@.@.t.{.uXgX9X/.a.y.,.p.}.p.H.p.H.i.:._ ^  .6.2. .@.{ ..I ..5.OXB.L.t.>.] D l.0XeXjXMXwX9.$.L.r.,.9.e.y.#.` X.9.k.L.H.D.>X,X}.;XJ.K.Z.K.$.,.[.1X3XwXlXlXzXwX:XS.&.7.7.r.>...7.A.p. .~ C ^ &./ 7./.7.i.1XA.7.( @.7.>. .,.8.) / p.K. .@.>.) ,.7.,.N.S. . .<. .:.a.7Xu.:.u.a.).rXpX1XE./ a. X X1X8XnXt.n d y / sXZX( ( N.Q.9XJ.`./.R.5.Y B N >. .^ ` :.@. .@.K._.<.) :.,.:.R.R. X].E.&.7.'.1X/.^.*.N N <.u./.pX<X7.7././.<XkXfX&.q o , 1 1 , & $ $ , < 3 6 w w 2 3 1 6 6 2 p q M c #.lXHXzXNXsX}.S.`.4X8X}.7.Z.N. .] I N.R.i.{.`.U H N.7.>.N.8. .:.G ( (.>. .H.H.<.A d V / Q j _ e.i.u.s._.:X}.sX:X/.[.:XH./.N.2.! L.#.| ,.#.] / | >.8.N.9.2.k.L.D.9.e.`.i.2.>.! / >.8.S.<XaX{.8XaXuX[.H.| y ^  .",
"D f 5 - 2 - & & & , , 1 6 1 < e b f m A r.lXsX4XZXlXaXgX<XA.`.S./.B.c.C.b.k.9XS.7X:Xi.`.'.4./.mXSXMX`.i.N.7.i.A.i.i.G C a n ..2.t.1.u.u.7.r.r.V.6X].}.7XaX8X9XN.C ( J.{.A.4.t.#.N.N.S.8XN.X.8.C.3.D.`.N...>./ :.^ K 8.^  .8.p.Z.H.qX(.7XfXuXA.( ).{.8X}.0.^ V p C @.i.>.1.>.r.r.7.r.r.u.7.( >.0.4.^ ,.<.7.i.(.1X^.H.(.^.^./.H.H.s.u.i.i.K.:XH.p.r.7.u.r.,.6.:.>.@.#.>.H.<X{.7X1X:X_.a.r.H.sXS.s.i.y. ./ ^  .>.9.>.2.2...>.7.>.4.k.D.N.X.[ F x b.J.%.9.J.[.#.,.k.,.6.y.L.k.$.$.$.r.%.K.D.K.eX8XK.(.wXiXwX,X{.J.J.s.y.;XqXzXqX1XqX9.2.>.Q.N.7.i.t.`.p.6./ ) @./ ! i.7.i.Z.1X/.u.| 7.2.9.>./ | ,.<.7. .1.i.p.r.u.r.p.7._.A.@.<.1.( u.<.^ <./.'.7XpXsX<X,.) ) i. XrX8X`.Z Q <.,.<.<Xu.g S.}.Q.`.V.`.E.&.N V F h >.@.W :.:.s.A.p././.r.` ( ^ ( /.R.~.].0.N.R./.{.'.q.{ G &.i.A.^.'.6X^.7./.7XV.) @Xq.d % 2 b & & & & $ & , 1 3 < < 1 < < 2 3 w b a b b d ,.NXhXwXJ.|.9XuXuX[.1XZ.>.#.U } =.8.S.8.{.N.4.N.V.S.p.{./.,.^.:.2.^.r.a.(...,.^ A Z _ ~ _ Q ^ ) <.,.7.A.p.Z.:X<X<X[.qX[.2.#.Z.Z.L.t.i.7.Z.#.>.C.2.X...[ D.F.x.7.( t.8.7.N./ ! 9.4.>.7.8X/.4XsXpXwX:X) p ) 0.",
"C A h - 2 2 2 & $ % $ & 1 1 3 5 w a ( 1._ ^.SXjXgXnXaXuXH._.}.i.S.x.j.G.#X9XwX`.{.sX6X4X{.}.7X<X4X9X/.S.V.N.J.N.2.S.7.G c >.N.N.i.p.>. .^ ^  .7.S.E.Q.aXMX8XQ.*.F ( ,./.A.D.9.t.4XH.t.`.k.2.2.4.x.F.V.t.{ /  .>...8.7...>.:.7.:.u.8XuX7X4X`.7._ 1.t.}.V.7.A.,.f ..] @.,.<.7.<.7.e.^.a.7.:.( ,.E.3.( @.<.7.r.H.:X:X/.u.r.p.:X[.A.p.i.r.i.A.i.7.8.N.H.(.Z.a.u.7.,.,.,.#.y.2XpXwXqX:XH.;X>X{.1Xi.A.Z.7.6.@. .>.{ ....2./ ] ......7.3.S.J.8.H g b h.OXS.8XnXL.W Z W ~ %.#.r.k.$.$.k.J.G.eXJ.[.iXJ.e.~ K.qXK.1XJ.| ,.K.D.H.y.| ` #.J.N.aXD.V.V.5X9X/.`.}./.#./ 7.7.V.S.i.u./.{.<XA.,.i.N.i.i.r.@.,.,.|  .<.p.u.i.u.<.>.>.u.u.:.>. .^ *.>.) E. X<.i. XuXsX<X7.{ p.q.,.! n _ t.r.s.2X1Xj  . X4XJ.C.D.] K K ..>.>.R.8X| ` 1.,.[./.;X).Z.a.<.) ^ 1.4.q.j.v.v./. X/.V.V.V.7.7.A.<.i.V.p.>.a.{.<X9XC q 4Xx.b & 6 m 1 & - : & & & & , $ $ , 1 6 w < 6 b x q y n g %.wXNXlXuXsX2X,.W :X(.8.=.} v.Q. X>X7.qX X{./././.S.qXH.:X7Xu.H.).;X{._.H.7.S n A Q ,.Z.u.:.( ^ (  .) A.Z. X X7X5XaX`.C :.:XS.S.Z.6.N.Z.t.}.}.9.O.%.9.G.L.L.7.( ( >.6.D.@.G 9.2.Z.>.2...A.iX7XuXpX>.s G >.",
"D v G p ; - 2 : % : % % # & , 6 6 2 ~ 7.7...<X/.i.^.<.) @.K.(.i.N.0.x.$X5XaXjXsXaXaXuX8X4XaX7XkXSX`.>.4.t.2.t.8./ :.C g h N.].'.}.N.>...| G A F } C.N.6X].+X~.D.>.@.@.V.;X[.`.S.`.|.'.S.2.5.B.3.S.|.9.9.@. .>.2.7.4.>.i.S.V.7.4.V.S.aXfX8XdXJ.W u.{.7.@.A  .7.h Y >.,.p.i.p.<.r.p././.<.G ( ) q.Q. . .$.( @.u.p.H.K.p.i.r.s.K.p.7.u.<.p.p.i.r.4. .y.d.H.s.r.r.u.p.H.H.p.2XpX3X2Xp.H.;XqX:X@.( ,.p.K.K.i.8.4.6.i.2. ./ / ] 2.....2.J.G.8.! g b R l.k.r.` W W S ~ $.#.,.L.#.$.9.%.k.k.J.D.9.y.$.$.' S d.e.L.r.6.$.r.r._ Z W _ @.@.7.>.8.7.0.tXvX@X>X6XH.,.t.{ @.7.8.Z./.1X1X:Xi.p.7.>.6.:X(.<.6.,.,.r.r.1.,.,.r.@.Q ~ W ) u.<.:.) ^ ) q.).i./.E.).uXrX{.7.K &.c g ~ #.,.( @.r.i.n f _ :.p.Z./.A./ ) >.V.S.A.9X<XQ 1.i.A.H./.K.p.Z.H.r.$.,.,.*.| &.&.E.i.0.'.R.7./.4.q.p.i.<.>.2.G G 0.7X .8 8 &.~.=.- 7 J q - - : - : - - % & & @ , 2 6 9 1 3 w 2 g y.e.a | iXhXJ.:.n a A 7.p.N.C.].+XQ.6XA.2.<X6X}.<X1X(.{.qXpXuX7X/.>.u.e.,.r.r...G G $._ | r.p.p.,.(  ._ ! <.0.C.C. X'.N.>...Q r.[.J.J.y.A.t.D.>XG.9.k.>.x.J.L.9.t.6.`.s.| 8.2.@.7.4.i.S.@./ A.aXdX1X<X/.G ,.2.",
"G v F g t t 2 ; - ; : : % % & , 1 , p / H.p.7.H._ i 8 W ) ) p.`.D.S.].].`.8XsXsX>X}.Z.t.4X8X7XZX>XF G ,./.A.>.,._ h 9 q s { }.{.V.N.8.9.8.../ &.5.~.tX@Xx.F.~.B.8.A.Z.Z.1X8X<X8.9.N.F.8.t.S.C.x.2.c.8.&. .9.9.8.`.V.>.R.0.V.8.2.S.<X7XdXkX8X&.j Q Z.>X(.7.i.<.j J ] @.p.p.A.p.i.a.i.^.<.,.7.:.) 7.:.@.,.,.,.r.A.p.A.,XH.u.r.y.r.7.<.7.7.7.7.p.2.>.#.r.i.s.s.s.p.:XH.p.).2XpXqXp.K._.^.:XH.r.1.@.6.H.{./.A.>.t.S.2.K ^ >...{ :.>.9.J.[.x.F D c M +.c 1 ; u W ` Z W ~ %.Z.9.X.X.X.! j.D.L.D.1.$.y.` ' y.$._ t.A.y.e.F m m m ~ F | ! v x.+X8.x.`.}.S.t.#.e.,.a ) ~ r.6XwX6X/.:X/.).2XZ.7.p./.H.u.,.<.r.,.:.e.e.r.a.1.( @.:.1.,.:.) ^ ^ <.:.V.{. XuXrXuXi.G f C 1.<.6.r.H.r.H.2Xy.f j S ' ( ( Z.aX[.^.V.<X}.5X@X] n 1.E.p./.i.,.r.t.p.r.7./.0.:.| &.7.{.p.E.{.rX<XA.4.2.q.a.(.).A.0.p.0.&.y 9 g 7.yXF.2 7 D c 2 - ; ; : - 2 1 & & & & , 3 w w 8 w 8 p 6.;XQ a @.:X%.g S S Q >.p.S.~.~. X{.[.p.N.4.| 7.i.(.7XsXiX{.( <.^./.^.(./. .G h s n p.p.p.r.y.p.7.7.:. .( >.0.2.*.5.q.&.i.p.,.$.K.[.>X[.K.J.2.6.#.L.H.6.k.J.D.9.t.2.t.9.6.,.6.:.9.7.t.`.N./.tX8XaX{.uX(.^ a.'.",
"....] h t t t 2 ; t 2 7 7 ; : * 1 w q g ] K.Z./ :.>.A A @.S ! /.}.%XcXfX8XuX8X8X[.N.7.i.S.<X<X>.G _ @.,.p.r.~ a 2 q C ^ m G V.C.`.D.S.C.9.q.q.5.c.c.Q.@X`.>.>.N.H.[.H.A.p.(.[.,.i.J.Z.i.4X6X>XS.3.>.2.>.6.C.N.B.4XV.i.p.N.V. .:.N.uXkXdXMX}.n k k  .7X5X X7.:.g F 4.p.S.^.p.u.i.A.s.7.<.<.u.s.u.:.7.s./._.^.p.s.H.p./.(.A.a.r.t.p.i.7.<.7.y.7.#.i._.K.H.H.K.Z.Z.H.7.r.:X1X2XH.a.{.^.:X).) r.A.a.K.A.Z.t.7.@.8.8.8.7.2.9.7.=.4.9.9.k.L.D.| P b P I.! m u u a W S ! ( ! $.k.#.j.k.9.G.|.L.,.$.K.K.e.$.Q f.e.@.t.K.D.` Z Q W m m Z >.#.3.Q.0.9.i.N.7.6.@.t.A 8 Z Z >.7X<X2X<X{.{./.{.A.r.>.J.{.A.<.,.<.y.7.,.,.1.,.,.1.7.i.p.r.>.7.<.w.<.q.{.pXqXuXrXa.^ A h W ( ^ ~ @.y.H.:X;XZ | 1.>.p.i.p.6.i.r.q.rXfX5X0Xb.H A 7.A.A.d.r.$.s.A.V.[.A.A.{.<.|  .V. X[.R.{.7XuXR.q.0.7.a.<X:X/.)./...c c C V 2.0XG.i 2 } m c 2 ; ; ; ; 2 ; ; 2 2 2 & * 1 6 8 x w w c t.H.#.Q | ..,.,.i.A.A.0.{ F.!.rX X,.u.p.i.i.7.7./.sXiXp.m n A ( u.(.a.^ g g C ^ C 6.s.J.p.Z.A.7.4.<.*.7.i.0.0.C.k.V.7.Z.7.s.Z.K.e.y.J.J.p.L.6.r.6.Z.J.J.D.Z.,.#.7.D.S.Z.e.#.i.p.s.@.H.S.N.7X7X_.uXlX:.V R.].",
"=.>.H A h i i i t 7 i u u i 2 2 2 1 8 w d m L.! I Q.yXV.^ G G p.vXyX#X8X4X}.sX8X6X9X{.}.{.>X>./ | &. .) _ _ Z d s *.4.7.....] { ..4.x.C.x.v.v.E.x.=.*.9X XV.4X<XH.(.(.[.Z.s.H.K.).2XpX;XpXqX/.>.S.S.N.9.7.4...7.N.V./.[./.8.7.S.S.7XdX}.t./ u j W ,.>.0.r.j f u c ].J.Z.A.i.>.:.r.<.<.p.1.7.A.d.,.H.1X<X/.(.p.7.r.r.p.J.H.p.p.Z.A.Z.,.@.,.H.(.i.7.H.(.A.^.H.H._.p.i.H.H.).;Xy./.[.}.6X[.A./.S.J.r.t.>XJ.,.N.J.J.`.D.D.N.k.x.G.S.k.6.x.B.] M p M M.g.m u n W n W #.%.%.#.9.k.c.c.G.k.9.9.r.r.e.$.~ ' ~ ~ ~ _ e.9.@.@.>.| W F m n m [ v...! t.7.8.k.7.7.#.m G m n b ( [.1X<X<XA.,.6.r.p./.1X<Xp.7.r.7.r.i.y.p.,.@.@.<.,.<.r.<.,.>.>.) { u. XhXuXqX7Xi.:.<.S A A ' ~ _ $.pX1X_ W 8.8.3.S.D./.'.S.8.7.5XxXxX#Xj.H H O.N.Z.J.p.#.t.i.N.A.J./.N.i.2.8.S.R.A.E./.{.A.i.i.R./././.^.{.<Xi.) G G ..#.#.aX@Xp - ] / G s 4 2 t t ; t t t ; 5 5 % & 1 1 < w w x J t.S.N.2.c #.D././.>X{.S.yXG.S.{././.A.Z.H.p.A.H.A./ S <.,.<.u.7.:.p - q / ,.:./ G ^ ^ :.>.>.i.i.7.i.V.N.7.A.~.E.7.i./.0.H.a.u.<.:.p.(.K.[.>X1X7XsXwXhX(.D.t.%.>.r.D.J.J.Z.Z.(.H.,.y.e.#.e.J.}.sXZ.j n >.Q.",
"2...H | F a u i u i i u u i t t 2 - 1 2 6 w 2 3.E.I .X]. .:.i.8XaX9X+X6X>X>X8X8X4X7X4X<X{.Z./ >.( &.G C n n ! =.*.4.7.7.4.2.>...] ..{.A.`.@X].].v.A.S.x...] 9X<X/./.(.(.:X:X>X>X/.e.~ n i y y n 7.'.8.C.@Xt.8.J.i.D.J.>X<XV.A.D.].].S.S n Z k W f.^ G  .W f f 7 q V.8.:.i.i.i.u.,.:.,.i.r.r.p.H.y.Z.[.H.p._.H.r.1.,.t.H.(._.H.t.<.u.i.u.r.7.A.p.y.t.i.i.i.s.Z.Z.7.i.t.y.p.p.A.2X>X6X9XD.4X5X9XeXe.#.y.(.Z.;X`.S.D.D.N.N.k.8.L.S.D.L.D.k./ c w T M.h.m u S W S _ 9.6.%.X.2.O.k.c.+XJ.L.L.>XeX6.` ` ~ _ e.$.$.( f.@.#...! Q Q ! Q m 3.F.#.9.6.2.B.OXX.n n ! ] ..[ ] D ] /.A.H._.A.i.J.2X[.8X6X XA.N.7.i.K.:Xa.1.7.p.p.r.<.@.,.1.A K ^ ^ <.E.'.qX X). X(.u.:.:.@.) @.W @.p.@.n Q 7.#.>.t.8.8.S.S.S.>.C ..C.=.v { ..H #.N.>Xp.7.7.2.2.8.V.4.4.7.:.8.[.i.4.'.1XNX7X X1X:X).).^.p.{.1Xa.K &.8.6.N.`.8XS.g % | / A V V y u t 2 7 y t 7 ; 2 - : : % & 6 w x b [ ] 3.B.! c O.D.J.N.N.OX5X`./.[./.:XA.p.7.p.A.p.../ p.u. .$.,.>.^ F n N | / ] ) ..../ / 7.p.[.R.0.[.E./.7.0.0.0.<.2X XH.^.u.d._.s.d.2XJ.t.N.! F _ ( @.>.C.+X9.t.D.H.>XJ.:X}.2Xs.s.K.K.y.N.9X>X@.m W f A &.",
"....G G H A A f y y l l u i t i i 2 : 2 1 w 2 x Y.$Xc.F.x.S.9XFXfX6XsX8X6X>X>X8XeX`.[.(.A.7.| <.7.*...^ Q G H =.K 2.^.V.0.7.4.2.] t.2X2.`.9X].Q.].x.C.0. .=.E.`.>X}.{.<XuX:X( ] 7...d b p 5 5 8 f ..} F.0X@X|.|.`.r.r.p.J.S.'.].S.N.4X .Z c c j V (  .^ j i f ; q >.4.t.s.Z.r.s.<.( 6.s.,.r.A.A.p.).[.).).(.H./.H.1.r.,.i.J.:Xs.7.7.r.i.i.7.p./.(.A.J./.S.[.J.p.i.r.7.r.( ` $.K.>XD.t.N.`.0XaX6XqXp.p.1X1X;X[.H.N.S.D.N.t.3.6.2.| 3.C.l.H b w T I.o.H m S n k F L.#.2.9.k.L.j.l.+XJ.G.%.k.J.#.$.e.y.$.$.` ( W Q _ >.! ! O.2.3.3.{ x.c.2.t.2.k.k.j.%.( F  .t.#.] %...] %.S.:XK./.i.H.<XA.{.4X6X4Xt.7.p.r.K.u.s./.+XtXR.p.'.0./.<.` *.q. X{.<.>.^. XuXgX/.:.@.r.<.@.@.~ f W @.>.] >.&.R.dXJ.7.p.7.G h s C [ C F 3.5.5.C.J.`.F.9...i.8.8.9.8.Z.i.N.{.<X^./.7XrXi.<XdX7X^.A.V.u.uXu...] >.V.4X6XaX9.{ 8 > / c n ( G m u y i t t t y t 7 4 7 ; - % & 3 w x B F O.G.#XF.J J `.`.'.fX4XS.6X[.p.p.i.A.H./.A.6.:.7.i.p.>.@. .W Z ..{ ] *.2.8.=.&.#.>.7.V.N.'.{.N. X{.S.V./.v.w.).'./.E./.H./.(.(.(.:X7.K m g q - @ 8 G 8.J.L.>XJ.D.H.K.:X:XH.H.>XJ.Z.>X'.fX6XQ _ f a S V ",
"H ! Z F V C / | W n f l a u i i t ; ; : 1 2 6 w x XXxX.XOXQ.].].8XuX1X>X[.{.}.[.[.[.p.t.i.i.,. .7.A.u./ / *.} *.&.q.R.'.A.i.4.9...H ] N.}.<X@XS.'.].'.3.V.`.{ V.S.D.V.[.V.G p 9 8 5 s s 1 5 q 9 p -.5.].B.=.+X@XV.>.Z.S.J.B.$X!.z.B.N.W h g ! v f W Q W u 7 y X 8 K 4.0.Z.Z.i.,.@.( ,.r.r.t.p.e.(.>XK./.(.p.Z.A.#.( #.e.r.i.6XqXu.7.p.A.i.p.u././.A.t.Z.{.<X[.J.H.p.H./.<.Z S @.J.>XK.H.J.'.aX7XsX:XH.iXuXJ.J.>.L.4XG.N.8.| / | #.3.G.z.] c 3 x P P [ G.,.m m W W ~ %.k.P.B.D.G.G.9.>XeX>XL.D.Z.Z.$.,.y.` Z ` 9...x.7.] | 6.L.9.] v v N.G.N.9.k.F.k.9.#.>.[.}.D.#.! X.%.2.H.[.A.y.p.A.p.i.i.>.N.>.N.Q.Z.V.p.J.`.x.x.E.@XrX0./.E.p.*.<.7Xw.^ / *.q.u.'.V.a.7X1XE.8XH.A ( Q W ,.8.x.{ x.aXQ.E.6XR.( @.^ G [ G G J O.2.9.N.5.2.I ^ 2.>...7.&.2.i.S.9XrX7X{.{.1XrX1X1XZ.Z.S.7.2.u.G C ^ / 8.[.S.{ d d & X 8 j ( | G H S j u y y u t t t i t ; - % $ & 6 w x N D O.|.5XG.C.6XeXaXdX4Xt./.1X/.i.y.i./.2XS.r.7.)  .7.7.,.7.&...] / | 2.7.N.2.4.2.4.`.7.,.<XpX4XQ.N. XR.0.i.:.p.0.>.7.V.0.s.p.` ~ n C S b 2 & 1 2 2 C >.t.t.G.aXJ.Z.H.s.p.K.J.[.eX|.|.B.x.D.W W Z k V S ",
"F n h b a C /  .6.%.m g y i t t t ; ; : : - 1 w x M l.cXBX#X..3.9XmXnX1X<X<X[.H.(.A.Z.J.p.r.,. .( >./.V.9.x.5.4.q.V.). X X'.E.q...4.7X4X8XuX}.| *.$X*Xx.~.E. .i.{.V.7.,.| q 9 5 * & & & $ * 1 y C l.3.9.S.V.x.8.7.G 8.'.$XoX=XT.&XoX=.A Z H X...A V S j f p 9   8 C G ..i.i.r.@.( >.7.,.y.A./.p.p.A.6.H.;XZ.s.r.( ( y.r.7.p.{.`.p.Z.Z.A.p.A.7.0.7.2.>.N.}.}.}.J.:X[.J.H.e.` 1.e.[.>XJ.H.J.[.N.:XsXH.K.hXwXt.r.#.2.C.S.k.2.( | 2.9.3.XX.Xk.Z 2 w P P T G.D.$.` ~ ( $.k.k.D.P.J.G.9.6.:XwX,XD.] 2.Z.9.$.! ! ! Q X.4.J.D.>.9.k.S.x.[ F =.].k.| 3.G.G.c.k.6.#.6.D.J.8.#.6.6.2.,.6.r.i.s.p.r.t.r.,.p.`.8X8X0X6X@.r.`.9XR.@XtX XR.`.v.E.E.=.E.*.4.v.V. .K &./.gXlXrXa.t.y j )  .2.i.q. .G h *.'.5X5Xu. .@.7.i...N I I [ j.8.] [ =.[ I { #.>.i.>.2.S.uXgXuX<X<X{.(.{.i.>.:.4.7.&.) C ^ ( 7.7.>.7.! c Q S.9 O f A :.G ^ Z m ! Z j y y y u f u t t 7 ; 1 $ * < w M x M N 2.9XnXaX| B.dXdX>XZ.(.7.p.a.u.A.>XZ.,.@.@.@._ ,.6.2.>...#.>.7.t.N.V.>.9.0.N.R.8.7XkX8X'.7.^ v.E.E.i.*.*.7.V.4.4.i.u.A h f s 9 , 1 - & 1 q h H 3.#.L.D.D.Z.N.J.r.$.r.J.+X5Xc.l.G.^ ,.S V 3.J / G ",
"q A A W c Z  ... .#.6.Q g a t t t ; 2 : : : % 1 2 p b P w.9.Z { |.aXZXjX2X>X[.`.(.H.(.H.i.7.@.q.i.0.E.p.i.N.4.x.^.V.0.^.{.7X X].E.R.aX{.}.uX`.-.W..X#X5XR.4.G s C / >.>.G p 1 & & & % $ & & 1 8 ] z.>.k.C.3. .4.Q.>.>.OX&X=X=XoX=X$XN.t.#.k.5.] S f.f.j j u 8 . - f s c.C.6.@.@.,.r.H.A.p.i.s.r.s._.K.J.H.Z.,.( @. .@.#.7.r.p.y.,.,.7./.p.p.p.7.,.9.N.[.4X4X>XK.J.>X(.A.~ j W ( J.|.G.J.J.>X(.iXaXD.Z.J.J.r.2.#.N.N.x.L.8.9.|  .| -.G.g.[ %./ < M [ T [ |.D.9.k.9.9.k.k.G.J.(.L.K.D.Z.6XeX#.m F %.#.! Q Z ~ X.$.#.9.9.8.4.N.B.5.] ] H 3.G.9.j.XXl.c.G.k.8.6.6.2.6.N.G.>XV.,.| r.Z.7.t.t.y.,.p.Z.J.>X>X{.`.[.4X@X'.V.9XdX]. X].w.w.L w.w.v.$X~.'.0.p.S.R.E.E.E.h : f A ( >.E.E.C Z V j ) <.7.*.,.u.0.R.8.G H ] *.=.8.4...-.} ;.-.j.!.N.4.B.j.8.S.{. X{.1X7X3X).0.:.>.*.9.) / ) ..&.7.`.<X6.h 9 J x.,   o 7 p Z G n F / | ^ Z k j k k u i y t 2 2 * & $ 1 w x b x q D / ..Q C V.sX7X).u.>.r.i.<.Z.i.7.7.<.,.@./ #.A.7.,.i.,.>.#.t././.{.`. X{.V.p.uXuX'.S.E.4.~.c.V.u.^ V N >.7.4.0.p.( h 9 5 # # * & - , & y  .4.O.k.9.$.,.F.OX#._ >..XxXoX%XxXG.G Z | ;.;.;.( ^ ",
"X g G m m ! | #.2.#...| ! m p 8 z 7 2 2 t 7 : : : 1 6 d q p c { C.4XkXAX7X/./.(.s.t.r.0.,.@.2./.A.S.p.{ 7.V.0.V.V.H./.'.'.{. X X9X9XaX4X7XaX]..X&XU.tX~. .{ V h s h C c q 1 $ , % $ # % & - - h ] ;...8.x.N...N.~.c.q.&X=X=X=XT.XX3.8.}.2.i._ h h S S f.g u 9 X % 7 p `.+XZ.<.7.y.7.6.1.7.6.r.r.p.(.(.K.H.t.,.@.r.J.Z.7.,.t.H.,.:.6.Z./.A.C.Q.C.x.|.D./.}.[.J.J.).(.:Xp.>.r.,.7.[.eX[.D.'.8XuXjXJ.J.S.r.9.>.#.2.4.9...S.9X}.2.! ..3.F.g.G ( p . < M l.h.+X8XeXG.L.G.X.k.J.[.,X;Xy.s.e.9.9.! Z $.W c S F ~ X.X.6.2.X. . .| #.2.[ D d 2 7 W #.3.F.G.M.B.k.t.r.9.6.D.7X>XD.#.1.r.t.K.r.s.r.8.i.D.D.6.| e.,.7.<XnX XD.R.C.+X X'.OXE.w.*.*XE.K 0.].E.4./.A.R./.p.*.7 f >.p.>. . .K V G A V ) >.:.7.7.N.`.q.( D ] } 5.k.4.2.k.3.>.3.O.j.Q...3.W.B.`.J.V.^.^.^.pXpX:Xu.( ( >.0./ &./ &.2.0.R.}.2.K x 9 q &   o : - u V n F ^ { ] { / A k k f k u y t 2 - & & $ , 1 x q 6 e d m  .|  .aXfX7X[.H.r.p.J.[.y.6.<.@./ ) A.:X7XV.A./.7.N.u.>./.{.{.uX7X7X/./.dX7X<X{./.v.@X~./.0.K :.) ^ K h A K e 0 * # % # & & & & 6 b 3.9.#.9.6.@.>.B..X>.Q OX%XG.bXVXVX.XG &.5.Y ;.*.W ` ",
"+ & c S C #...#.#.2.6.#.Q m ! Z a 2 t t t t t 2 - : 2 5 q d C K 5.{ /.kXnXuX<Xi.7.>.(  .,.p.i.7.{.V.V.7.i.V.p.i.q.^./.a.V. XcX XrXrXnXdXkXfXtXyX*XtX~.7.).7.*.^ G | / q * , % $ & $ & & 7 7 2 m c.c.3.2.8.>.X.XX.X&Xv.&X=XVXxX=X.X| 2.*X+X,._ S f.S f.W Z s 5 o o - i 2.5X9Xi.7.,.7.i.H.A.A.H.(.p.p.J.).Z.1.1.@.1.r.A.r.y.<XD.6.t.N.B.`.'.Q.+X.X~.>X#.@.t.p.[.{.:X{.H.:.D.|.@XS.N.}.S.J.[.aXaX8XS.J.[.D.t.t.| | ~ Q  .N.J.+XJ.| 2.v.XXk.~ p X X a I.M.G.L.CXDXJ.+XL.~ k.J.y.J.[.,.r.y.6.` $.n a c S | %.F ! $.%.@.! G G m Z Q G n q 8 n / l.XXF.n.h.B.G.k.k.t.D.].aX6X#.6.@.@.s.Z.p.A.:X_.N.5.N.A.A.Z.r.1./.<X4X}.@XuXvX*XtX#XE.w.v.$XE.) *.V.<.N.i.p.}.<XE.j i ( ,.i.i.8.*.x.I J C N K *.7.0./.{.R.^ D ] 4.k.N.4.=./.S.2.2.4.9.#.8.7.N.~.F.`.8XfX{.7.^.).uXpX:X,.V H ..K  .>.7.8.7.Z.C.O.J d 0 0 &   o 1 & - p C G G / { / | ^ S S f f l l i t 7 7 - % & & < < < 6 q b F 6.#.>.uXMXhXsX:X:X<Xi.p.7.r.,.:.u.A.`.4.p.V.8.V.p.R.q.7.A.i.2XZXaX'.`.<XaXrX4X'.V.aXkXH.L u.:.:.*.G A K N * & $ & & 1 2 & 1 9 g ..k.c.9.l.C.#.2.k.&Xx.2.&X%X%X%XG.-X.X^ V.| G F f.` ` ",
"+ + 6 Z ] 2.#.#./ #.#. ./ / | H Q m n u a j j i - : & 2 5 0 N C { &.>.uXfXaXpXi.| ( ^.R.'.V.i.,. X<X9XA.^.R.{./.7X^.{.{.].bXBXCXuX7X8X8XdXDXgXvXvXrXR. X^.7.Z h g Z N 0 5 5 & & = * * 7 y 7 7 F c.XX5.t.k.9.O.-XoXXXXX.X@XV.p.].*XW.yXVXyX:.$.` f.W ' Z p 5 , # o i y V i.9X+XV.i.p.4.7.Z.>X8XeX(.H.r.p.:X6.@.1.,.@.,.6.Z.`.] 2.2...2.G.C.G.W.5X9.( Q S Z y.>X1X>XJ.@.N.'.F.Q.#X#X'.D.J.+X}.N.N.L.t.D.S.N.>.6.#.Q | @.@.S.yX#Xx...n.G.1.Z y X X b m.n.n.h.G.0Xk.! $.9.K.>XK.Z.J.,.Q ( _ $.,.W i f m %.G.B.%.K.[.7.Q W m m n j a d v v ] 2.c.G.oX-XG.G.B.L.S.r.F.+XQ.7X6.>.r.p.J.H.K.(.2X3X[.wXsXwXs.( G / ,.:X}.7.[.DXgX#XgXrXE.0.4./ ) ) u. X2X}.7XkXrX].K y S ) e.H.Z.@XC. .Z C C V N N C A 0.}.'.G G  .0.R.4.{ ) { >.8.A.i.4...>.8.V.R.R.i.R.7XuX2XpXi.a.).a.( A /  .>.4.q.x.G.N.].`.! b e 0 w +   % - 2 - 8 G &.>.| / &... .&.@./ j u u i t 4 ; ; t ; : - , 1 w e w b b ] | ^ R.lXAXhX X7.:.Z.H.^.A.{.^.E.<Xa.0.:.i.a.0.2.7.7.7XsXuXZXfX}.A.S.[. XrX/./.dX7Xa.0.0.:.*.^ N C b r 1 * & * & 1 9 6 1 e { Y B.E.j.z.F.2.8.x.b.Y.B.-XXXyXyX!.k.>.&.vXC._ W W ' ' ",
"+ # & >.S.2.#.#.#.@... .#. ./ ] X.%.Q Q A / ( W t ; : & : 1 6 b ] &.K p.hXaXsXJ.>.i.{.9X1X X'.7XuX6XR.4.rX).0.G ^ 0.0.>.w..X*XCXdXvXaXrX9XrXrXi.{ 4. X{.u.7.<.C d h d 8 8 5 5 - 1 - ; 9 i 7 y ] OXW.c.F.B.F.F.oXT.Y.!.B.A.p.r.C.W.*X&Xw.A._.1.' ' ' W s 5 1 - # X p j W A ].tXC.N.S.i.2.N.8X8XJ.`.[.Z.e.A.p.,.i.r.7.@.,.#.] ..O..Xc.] 4.-.-.j.#.Q ~ Q _ ( #.r.V.A.Z.S.$XxX%XW.xXxX+X|.}.8X`.L.9.8.G.k.k.D.7.2.| Q ( ( >.x.b.$X+XB.C.#.Q V y   < M h.oX-.M b ! k.#.L.L.y.:XJ.y.K._.e.` W S W ~ W m n m m J L.G.N...G c a f a y a T O.o.z.b..X!.OXcXbXeX| %.#.#.#.B.C.}.t.( ! #.t.H.;X:X:X1XlXs.S i 2 - 5 c ! <.(.).A.[.A. X^.) W f.:.,.s./.). XdXfX8XrXx.d 9 j W 1.A./.A.>.F C *.w.*.K G C N b A aX4XG &.{ 4.Q.0.,.1.G &.E.Q.'.C./  .D.`.i.V.7.<.V.{.rX/.&.) <.*./ :.u.<.7.8.b.@XOXN.2.4.M d q w , . . + * 2 - p | i.0.&. .:.{ >.#...../ A h u i 2 t t t 4 2 : : , 9 x b b J } ..! 1.jXZXiXA.i.7./.wXE.tX5X^.7.^.E.a.>.V.sX>./ ^.A.V./.{.8XkXnXdXaXfXuX7X8XrXi.:.).rXrX7.K V V c 0 5 5 5 5 1 * 5 q e b { *.[ B.b.n.n.XXG.8.j.XX&X%XxXXX5X+XS.N.`.%XGX].W ' _ _ | ",
"+ + # q 9.7.] 4.2.#.8.2.6.9.4.{ ] ! ( Q Q / @.( f ; ; % % - 5 w B I K :.wXaXfX7X/.rX^.V.{.^.{.1X/.7.7.u.r.C s g h c g N N b D w.{ 3.<XrXaXMXnX:.d ) {.^.(.{.^.C Z V d p 8 8 7 5 - - 5 9 g f f { #X+X.Xn.W..X&X;.l.%XJ.t.p.y.p.@X#X~._ $.a.e.( ,.( G n 0 5 5 * + X p k ` ,.4XMXcX].x.C.B.B.'.|.>XJ.[.>X[.[.J.S.N.t.7./ ! ! ! O.b.b.c.! U U P [ Q n n Q W Q ( | m n n h n ] =.W.xXxXG.@XfX0XB.k.2.L.G.D.k.8.k.N.2.| | 9.k.] H O.C.].( k S V 5   0 T R n.o.M w w b b a ~ Z.s.$.K.Z.D._.$.S k u n S Q Q ! v x b b d p a 7 i 5 7 7 6 m.n.XXXX.Xc.D.8.J.eXr.,._ @.! t.S.7.>.7.1.>.6.@.6.t.[.t.Z.1.9 5 2 p s e b g 9 s G >.p.<X:X1.~ $.) s.r.r.^. XkXfX1X<X..q c n n W <.(._.E.@.C V G 4.K C ^ *.*.{ E 2.| 7.'.<.&./.V.2.&.7.C.rXtXcXMXV.{ N.R.R.7.:.,.7.7.u.>./ G ) G ^ ( <...>.C./.>.S v Z J b p 6 < &   O + & * 2 a / V.4.(  . .>.....:.{ { ..^ V y u f u u t t ; : : 1 e e M M D b F  .{.hXjX).^.^./.A.2.].E.7.p.V.'.<X7.,.0.V G A F C G K / R.lX X/.6XrXkXgX2XC *.9XsX9X^.>.) j d 8 y 9 8 5 5 - s b K ;.=.I ..=.l.n.n.W.W.OXXXl.l.XXG.@.` 8.J.}.%XxX&X*.` $.` ` ` ",
". . & $ ! N.D.7.{ | 9.t.8.3.2.{ ] X.! ] ! ! / ~ m u ; ; ; ; & ; 8 p h i.{.<XwXuXtXrX/.<Xi.u.E.q.G ^ ) c 9 0 9 0 q s e q d b e , = , w F 2.} ] N K ,.^.*.0.[.&.:.*.c h g g h 8 y s 8 8 A ..] F D ] B.cXOXM.=X-X[ D.|.@. .0.N.7.8.0.| ^ S h s j ^ V d 0 5 1 , $ .   p y _ R.^ i.aX@XC.~.b.S.G.`.|.|.S.`.`.N.S.4XD.2.8.3.] [ O.c.} J v p v v P I ! m n m Z Q G m q 2 2 2 6 q s D g.XX$X%X0XC.9.2.4.3.G.F.#.#.x.G.N.N.G.N.F A G ..'.p.n k m j 5   $ M M U h.P x w w 8 2 b ! #.F m 8 y n m Z W n W %.| #.( ! W c g g d 7 2 2 5 2 2 7 I.m.X...#. . .@.@.| Q t.Q m ( m / ( ~ ( @.{.hX`.( !  .Z s 2 8 8 q v C h d b N s 5 5 7.9X).u.s.,.p.A.q.,.) :.x.v.7.uXJ q d v _ ` 1.p.^.'.7.G V q h { w.v.E.v.*.G N A  .'.R...7./ ^  .V.7.:.i.C.5XR.N.}.0. .<.) *.7.i.0.7.*.C V V Z ( u.@.Z.{.4.d 6 8 q q w 6 6 < .     X X q g.4...i..._ ( | &.&.&.i.2. ...] G V f l u u i t t 7 - 2 2 5 q w b P C &.^.>X7X<Xi.>.N./.7. .7.7.R.6X'.) K C 0 s e q e g d d q d C b b / q.0.V.<.&.:X^.uX9X'.4.K c h h f f f p 5 0 N b { w.} I x..Xz.z.b.W.].yXXX/ N.#.$._ _ @.9.yXw.J G ~ ` ` ~ m i ",
". . o + 5 ] N.>.S G ..0.4.O.=...o.O.J ! P  .{ ! W m y 7 i - : % - m K  .0.>.A.vXCX*X#XlXV.&.) Z 9 9 q 9 s 8 5 0 0 0 9 0 w e e 0 5 r , < , < 6 q e C F D / 5.X.H C s g g V V q g Z V A &.{ ] ] ^ b H }.BX0XcXvX`.3...s g c c h 9 9 9 0 r 0 0 h b 9 0 r 1 = # . . . , q n ( n G N.#X$X.Xx.x.x.k.O.5.G.o.P ! c.G.X.P / M d p d d < 6 p q q b D D v g n c n c g 2 2 , 1 2 7 q p q 8 b F U 3.5.k.9.5.%.k.F.B.+X0X.X3.#.8.] c A A ^ >.S n n g p % .   < M M R R x x 8 3 2 1 2 1 & 1 2 8 8 8 a b m ! 6.6.| >.| m n g g f g d d p 7 5 < T o.C ..>. .) >.Z Q ! ~ n c W f d S ) )  .{.7X{ G / Z ( n 9 8 g ^ ..*.G V V Z  .F J C./.)._.s.r.^.V.0.*.x x r 3 r r r 0 6 w v G ` p.'.^.V.V.) *.q.E.~.$X].~.E.w.2.&.^  .<. .G G G >.*.^ (.`.0.G h V.S.^ c | 2.^ ^ { 7.7.&.G c C Q ^ (  .:.G q 6 6 6 1 6 6 < < +       X . b z.z.E.i.#. .( ^ ..>.x.N.&.9.N.2.{ 5.V y f f j k p t t 8 4 5 - 1 0 J 3.N.p.Z.E.V.A. X X X0.&.2.<.i.) 0 h G d 8 q d 0 0 6 q q s d q 9 6 9 9 , 0 d A &.&.i.E.a.a.V V j j S W W k 0 s L P I *.{ K { ;.z.XX].C.N.+XOXN.`.r.>.r.9.>.F D c m H / D 6 p 1 , ",
".   X X + s ! b h h s c C I T J P [ D v c | #.! ~ W S i t 7 : : : % 8 H I q D w.*.C K 0.G h q q s c g 0 8 0 9 e 9 0 e e 0 = = , , * , , * , * * , , 0 e x b d 9 s 8 9 8 5 7 f j j G ] { I K I I ] ..R.aX}.D.,.) G h 8 q s q , , 1 r 1 1 , , 6 r r < , = # . .   . + 1 7 q 6 q m *.&.H F ] x.>.F D O.P B v w < 1 q b p 2 2 2 9 7 2 9 9 d p 7 a b g f q p 2 , & - - & , - , 1 q 5 3 2 e b D J J ;.k.G.F.B.G.XXG.| n n C h 9 c G C n d 9 * % # o   < M M M B w 3 p w w 3 1 1 - 2 2 2 2 2 2 1 2 2 n m b c a n ! c p q p p b e 1 2 2 q d g n V v V C p q 9 6 8 p b p f s V Z A A A h s 9 1 p v C N / q.7.K F A c K { b ;.l.Y q.E.q.x.E.w.w.5.x x w e r 3 w w 9 w w p h V K  .:.V.q.E.v.V. X*XrX].E.E.q.*.7. .V h V V ( >.:. .C. Xi.V j { S./ f V  .C n Z | &.&./ J G Q ! C h p q 6 6 6 w r < < & +           X $ b -.].`.7.i.>.@.| >.4.8.9.0.q.4...[ F j j S ! 9.G t y i t ; - & r 0 N { *.5.Y L ~.rX].{ q.K K K d 0 9 e 0 0 5 , q e e e 6 q d q 0 6 1 , , 5 5 r q e c N C q q h V g g j y 4 7 0 d =.v.k.*.I / D C Y $XnX'.N.V.S.C.k.v v b d e d s e q 9 2 $ & < , $ ",
"  . X X X + 7 s v g 0 q P J P M M M M J v J ] m m C 4./ t 7 ; : % % : 9 w w 0 r r 0 6 6 0 0 6 s e d 0 5 0 0 0 w 0 0 6 0 , * * * , = = & = # # # % % & & 0 0 0 q s 9 0 7 7 8 h h C { I F F F B N Y -.N.K C c v e c N n c q 0 , & = < = * & & $ * * * = X . . . . . X $ , 2 5 6 6 5 1 6 c b c G v b w w < < < , & 1 6 d , < 1 1 < , < 8 p w 9 m p 2 2 < 1 1 2 2 < & & & + 1 q 0 0 2 2 2 2 1 , r v C.!.k.] m ] O.{ b 9 a C Z p q 6 1 , & & # # X . X 3 x b x b 3 3 3 2 2 1 2 8 2 2 - 2 1 , 1 1 * 1 2 2 8 d c F d 2 2 p p r 2 1 1 1 q h q 9 6 6 < < , < < < 1 < , 1 , 5 9 g s h h c d q p q d d N D C C d g b e N e w e e 0 q e x x w 0 3 x w 3 3 r r 3 w 3 3 w , 2 e 9 V *.L :.*X@X Xw.~.aX*X'.v.&.(  . .C Q Q h j C  .4.7.:.4.{ n c H q.| p 8 s V C C C K { J } G c g q p q q 0 w r , = $ + X             X + , B F.V.! ( ` ( Q ^ @.{ | / ] / G / G ^ F m ] 2./ h i i t 4 - - * 1 5 6 x B x x x x x N x b e 0 r 1 r , , 1 5 1 r 0 w w 0 r w e 6 6 r , < = = = < , , = 1 s h s 8 f j s 8 y 0 y 0 J Y K I 2./ ] N c }.].! D ! H P b q w 2 < 1 , * = $ + $ $ $ $ # $ ",
"        . & # 6 9 6 1 0 J B M B M M c v P v 9 w q d v v 2 X   o % > o O # % & * 1 , r r r 6 r r 0 6 0 , 5 , 0 5 0 0 = % , 5 , , * & % = & % % # # & % & % o . X . X X # # # % 5 &.2.*.*...K b e b L b 9 p s 9 8 8 9 8 5 - # # X X X . . o # + o + X . .   . . . . . . + # < < 1 1 6 6 w q e b w w x x 6 6 3 < & + + $ < & & < # $ < 7 p a s h p 6 q 2 < < 1 < & # @ 1 b P } B 1 & % % $ * 6 r M O.F a & X o $ : & % $ 2 q * # o + @ + o X O + b w 3 + 1 3 < 1 % @ @ @ % & & & & & & @ : & : & & * 1 8 w < : , 2 6 p v p w w w 6 , * , , & $ + + # + $ $ + # # # $ # & , 5 6 q q 9 6 9 6 6 9 0 w 0 0 0 6 , 6 r < , , , 5 6 6 , < < r r < < r < < < r r 3 0 , + , 5 s f 0 j V *.$XgX~.q.E.0.4.*.G / { *./ V N Z A V G V C h q y q g g g f q C p d N v c v d Z } b 8 5 0 6 9 , $ X X .                         X $ N G h j g h 8 p C { 7.4.0.2.H ] ..*.} ^ ..../ / ^ y - & % # # & & & , r 3 e 3 w r r r r , , , , , 1 , < * < = = < < < < 0 0 < < = = = = = = $ $ $ # = * = * 5 7 8 - & 5 5 5 s N A A N F J L F C F b d e 9 6 w 6 1 , , & & & # # # X + + + X + X ",
"% q J G q.'.`.~.]. X5XtXaXrXrXaX#X7X).'.'.).a.E.) *.w.*.L L *.e > > > O O > > > > = > > > > > > # O > O > O > > # # > > # # X O X % # X X X X O   X X # - 8 h G ( ..2.>.i.{. X7XuXuXuXfXkXmXdX5X~.E.%X~.V n h s ; - - - : - : > > > > > > : % > % ; : O .                 . X o # # * & & & & & & , , , , < , + X . . X + . + . X $ 6 p q p 6 & & & + @ @ X X X   X 0 q e h b * O > > = 0 e e v.~.0.e 1 0 d N D J L J L b d y 5 - - - * % 5 N ;.w.E M e q q q 9 s y e 0 0 - * > O O O O O O O O X # = # % % # # > # # & # % + # o X + + X X . X . X . . X . X X X X X + # # 1 r , * * * * = * = # # + X # + # # > = > = = = = = = = = % $ # X X X # X X + X O X + : , 5 y y 9 h *.L f.G h s h h d h s 0 p 0 y s q g d h V V G A C K K ) q.q.q.q.R.N.{ G K d b s d p 5 5 8 8 g V f 2 : o .               O % & - * q N d h q 9 9 d K A h h s h A A N h 0 k 4 0 - 7 5 % X O O O         X + + # # $ * & % % % # & # > # X X X X X > # O # o X X X X O O O O O . X O O o o > > : : t ^ ) r.^.gXLXPXIXIXGX X@.G L s 7 0 - * : = * : % > > > > > O O O O > # > > O X ",
"rXgXdXfX<X`.].gX9X'.<XaXZXLXUXIXUXIXPXJXJXFXkXgX{.rXmXsXAXMXfX&Xw.h 0 4 4 l k f.k f.k 0 0 > 0 t 4 * > > > > > > X X X > V e.7.A.p.>.^ C g g n V !  .7.'.rXfXnXnXFXDXDXFXJXSXDXAXZXmXmXDXIXPXJXLXLXCXvX].A k f.f.l f j s u y 0 t 4 - t t 7 t u u u k l z : @                       . X   .   O   . X o o + o + X X X X o X o X o o + + + @ + + + X X X X . o o - 9 s s d C K Y w.E.E.E.$XyXvXBXBXfX#XU.~.~.W.U.~.E.b.E.E.E.q.w.w.;.{ E ;.*.;.U.W.XXU.%XgXgXZXFXDXSXSXJXSXHXkX).u.p. .) ) ) _ K C N N x x e 0 0 1 & ; % O                                       . . X     * d A C p 1 * * * > > > O > X X > X X o > > % * - : * % > > > O                 O o o > : 4 4 t 7 7 4 : : : - 4 7 9 s ^ *.K &.E.R.'.E.^.<X7XdXmXZXFXSXDXFXSXCXZXFXCXZXGXLXJXLXGXtX#X@XgXnXvX9XtXZXFXDXZXfXaXaXsXrX) %       X 9 G } =.[ *.w.v.E.E.~.w.E.~.*XrX X'.w.'.E.V.R.E.u.:.*.' *.j 7 4 4 ; ; ; : : ; 4 7 z z t ; 7 u t z i t ; z 4 t z 4 4 4 y 7 > : : : : ; - 4 : - > > > : : % ; : 4 i l u t k a. X XqXZXnXLXLXGXIXPXmXlXkXrX7.h - 4 4 t t z t t 4 i 0 t z z 4 4 t 4 t 4 7 7 7 ",
"FXFXaX8.E.6XdXdX9X<X[.{.fXZXkXrX XsXgX XE.@XkX3X XlXkXsXpX'.~..X&XU.w.l y l f.f.f.f.f.l l : t s 7 - > 4 5 5 4 5 5 : : 0 gXSXGXMXcXBXcXtX#X].aXvXMXDXDXLXGXJXDXZXmXfXMXHXGXsXaXmXMXmXlXdXrXgXmXPXIXsX2X1X^.$.S l u V ^ V 4 7 9 7 4 4 i l k j k k j W k u t 4 :                   X > & % % & : : - 7 ; - - ; ; : : - 4 i 7 i t t 7 7 : - - & % % @ @ % @ @ o p 2.E.`.].~.~.*X*XyXbXxXbXBXGXLXCX*X.X$X&XXXoX.X$X$X*XtXfXvXFXCXtX#X].#XfXfXMXFXSXFXCXSXPXIXFXJXIXKXLXIXJXPXJXmX).<.1X XV.V.{.{. XrX XE.v.v.E L L V k k u i : o                         . . . X . + X   % G @X6XZXAXpX/.,.( A N V N N N K A K K ) K L S h h l i z u l t ; > O .     . o % 4 4 4 i k f.S f.u t 7 z t t t z y i V x.~.~.].#XfXZXgXZXZXDXLXSXMXdXlXZXAXJXJXJXPXUXIXIXPXLXGXJXJXDXfXvXDXvXSXCXtXCXCXMX'.rXCXMXtXtXR.rX@.  % h G &.} =.I E.U.K A { K C J w.bXVXbXvXyXyXfXvXgXyX$XE.V.*.K j u i t i z i z t u l l u i u t t i u u k f.f.k k u i l t i k f.u z z l i i i u l l l 4 u l l t u k f.f.' ' ' '. XE. X X9XrXCXMXlXSXLXSXZXkXgXkXrX0.k z i y u i t t u t u t t i l t i i i y t t ",
"SXkXA.E.kXJXKX X7XuXrX<X{.V.>.) ^ w.tXrX X X*X<.w.). XsX XE.~.U.oX*X].E.E.w.<.w.w.) f.' W - * t : : - ; z k k z t y - K $X~.gX#X$XbX*X$X.XE.x.Q.7X5XZXAXSXSXNXmXjXpXkX1X1X,X(.H.H.u./.rX6X6XMXLXSXfXsXuX X).u.W ) q.q.q.N 7 4 7 t 4 4 u l l l k k W W j u 4 z >           O # : 7 i i i i i z z t u u t t 7 t u i l j f t u l u u u u t 2 7 7 7 i y y i t p 4.+X].!.~.OXOX*XBXCXCXJXLXCXvXtXE.~.oX*X&XU.tXgXvXvXCXSXJXJXGXSXDXSXJXSXSXLXLXLXUXPXPXPXJXSXFXPXPXPXLXJXJXLXAXmXmXE.V.{.p. .0.^.).uX7Xq.q.w.*.*.*.E.E.].,.u i - O                 O + # @ % # % # + + 3 E.xXtXtXPXKXKXKXSXSXlX2Xq.i.i.i.A.E.rXFXDXSXSXFXkXrX{.u.S l l k l y : O     X & 4 s y t f S ' W S l t t i t t t t u ^ v..XW. X$X#X@X*XDXSXFX'.@XS.J.aXdXrXpXqXiX,Xu.3XSXLXIXIXUXIXLXPXSXZXDXnXgXfX8X8XMXCXMXvXFXFXtXMXkXZXSXg 2 j m V 7.$X~.E.~./ S / A V / w.E.~.~.@X*X*XrXyX*X XE.*.*.v.A A ^ l u u t z u t z z u l u l y l k ' y._.r.r.,.s.s.^.7.V l u f.' k l k W ( S k l l 4 z z i i l k f.` ` ` a.pX1X).rXrXfXCXSXIXLXZXZXLXGXFXFXkXgXrX XE.*.f z z z t k k l u u l k l l f.f.f.l l s ",
" X2.i.ZXSXJXZX<XV.R.^.0.^.>.>.:.a.E.'.'.).E.R.) ' *.<.a. XE.w.~.U.*X*XrX*X*X'.v.E.) f.f.f.4 * - : : - : u f.f.u 7 l t *.w.^.{./.E.x.;.U.$X].].rXiX/.uXmXiXkXhX7X^.u.<.` r.u.y.<.<.p.{.<XZXHXLXMXZXuX9X<X/.R./.R.0.7. .&.} d 8 4 4 4 4 4 i l l u u l k k k l i %         O : 7 u u f k k l t i u t l k k u l l l m ! X.] m m g f u l l l u k W W W k u f G x.b.XXXX~.&XcXBXvXGXSXLXJXFXyX*X*X$X$XoXU.U.&XtXFXFXLXPXSXDXGXSXSXPXLXUXPXJXJXHXJXIXPXPXPXPXLXZXJXIXIXLXHXPXJXAXpX XsXH.A.A.{ ) p./. X{.:.A { *.0.v.].*XbXyX) k 4 >               X % > : - - - % & e N T .XtX XrXLXKXLXAXsXAXJXlX7X X'.^.(.pXlXJXPXJXIXLXJXJXJXSXfX0.S h l k 7 >     X - 7 z t 7 l k S W A A Z V V j j s ^ 4.;.U.$X].$X*XOXrXrX].U.q.-.q.N.uXmX<XS./. X1X X<.j 1.;XlXMXHXIXIXGXJXSXFXFXnXdXmXDXdXfXZXCXSXLXCXFXGXgXtXV.- y p f 4.~.'.'.{ A / ^ G A K W _ @.*.'.bX~.E.$X X.XE.:.E q.w.5.v.4.f.l u u t u z z l f.f.f.@.uXuX'.uXuX/.) K / H Z / G Q #.>.G ) ,.,.x.V.8.2./ q.q.2. .A N C G (.<._.gXgX@X'.rXrXgXFXFXPXIXSXZXnXSXlXZXZXZXgXgX@XE.tX XE.) l l u l k l u k k t u f.f.f.f.l k ",
"K *.rXZXAXrXrXsX(.(.u.E. X7.*.a.'.4.>.i.q.:.) ^ ' ) ^ *.q.^ ) E. X*XrX5XtX@XE. XE.^ j h y : - - - - : ; 4 l j 0 0 y h w.L 4.{.a.:.G n *.~.Q.}.<XjXpX7X(.) /.1X^.7.) @.p.2X;Xr.:.>.r.(./.7XkXgXtXGXdX5X X XV.V.N.q.q. .K { *.Y s t k l t t i u i z u k l l k l 4         - 4 k j f.j k k l l l k l k k f.W n h F O.O.O.-.k.N.#.C j n m Z Q _ ~ ~ n Z ! 3.W.Y.F.h.g.W.yXBXBXtXFXIXJXGXGXCXtX*X*XU.U.&X~.*XBXMXZXLXIXSXFXFXSXIXIXIXIXIXPXPXPXJXHXKXIXPXJXPXPXPXIXIXLXKXIXJXSX Xu. X/.p.E.>.^ ) i.E.E.<.A A G *.].$XE.fXyXq.A 7 ; O       . X > > > : - - - % 5 J *.;.;.@X5XrXAXPXJXNXHXlXuXqXqX1X7X)./.2XSXSXKXAXhX2X^.2XsXsXsXpXfX7XS s l 7 4 O   > 5 t y t u j f.f.f.W &.4.q.x.b.w.w.c.!.C.q.].+X$X~.@XgX'.=.q.v.E.Q.Q.S.Z.7.>.0.V.A.^.(.) f A _ e.{.fXsXnXDXFXMXtX@XvXMXnX4Xt.4XJXGXCXCXSXgX%X*X$X5 u y  .rX9X X Xq.) ) ^ ^ :.) ) ) K <.CXyXrX'.*X*X X XE.E.~. XE.~.E.E.` ' k u l l u f.' f.( }.9XB.7.7.*. .7.7.7.>.G F G | 4.K n *.;.4.K e N J } w.n.b..XU.E E.}.fXvXvXCXvXfXtXrX@XfXmXLXLXSXsX'.{.^.^.@.).pXMXFXMXFXtX$XfXyXE.) k l l l u l ' V f.f l l f.k k ",
"*.A.aXmXJXiXrXiXa./.7.i.@X/.0.N.<.*.) { :.:.L ' W W ) w.w.^ w.~.gXgXrXgXCXrXE.$XV.w.k h 4 : - * * : : ; 4 f h y u s *.v.K 0. Xu. ./ G *.V.V.A.(.>XpXpXy.W a.:Xa.1.1.s.H.^.<. .( ^ u.i.0./.}.<X9XrX#XfXCXBXrXR.S.V.5.{ 3.v.v.w.{ A j u z u f l f l l k l i u u z O     o ; i f.f.f.g f.W j W W W j S ' ~ @.8.{ [ I ] ! { {.4XN./ | ..#.X.7.4.7...O.F.W.XXn.n.n.l.XXyXxX5X~.$XZXZXZXPXKXPXLXCXtX.X.X*XyXCXDXLXPXPXLXNXSXSXPXIXPXLXLXPXPXAXSXSXHXJXIXJXJXPXPXJXSXKXJXHXKXPXSXpX XE.^.V.^.V.^ A ^ :.*.:.A S f.K q..X#X.X.Xv.q.A ; o       . > : - : - - - % s v.U.j.v.w.]. XlXPXPXhX XSXHXhXrXhX7X)././.H.).pXqXH.^ S ' <.u.E.pXlX7XyX>.k l u 4 > O % 7 t u 7 f S A ^ &.x.z.w.q.3.-.q.w.5.w.v.5.k.!.].].@XC.x.E.E.~.].`.`.0.2.4.:...4.0.'. X0.S f.n ( S.fXuXsXmXfX8X8X}.|.fXfX X..#.{.tXaXCXBXtX$XoXm.8 7 Z  XV.4.7.<.) A ^ :.:.,.7.*.*.) E..X~.fX X XkXrX@X~.OXU.E.~.].].9XA./.p.' l l l f.f.` ,...C C @.| >.8.V.7.&.:.! ..,.#.*.^ G N N d s s h I -.=.=.v.~.z..X@XaXcX'.Q.5XtXfX0XOX@X9XSXSXSXFXfXi.,.) a.a. XdXgXmXZXgXtXgXCX*X~.q.q.k z k k V *.q.0.:.' k l k k ",
"R.E.<XrXjXlXAXuX/.'.7.7.i.E.0.&.) ) :.) ) ) :.^ ^ ) ) w.:.*.E. XfX2X X X).a.~.'.a.w.h j t > * , 4 0 4 4 4 l l y V *.q.w.E.).H.7.&.>.7.0.C.Z.A.<.u.A.uX^.r.).>Xp.>.r.<.) :.) ,.7.( @.<.u.(.:XuXiX XrXgXSXFXtX/.Q.0.0.N.q.k.V.5.5.q.*.A f j S S f.j l l k t z ; 4 o   O - 4 g f.l S p.<XA.:. .( ^ _ ` @.r.p.i.r.#.|  .! ! A.1X{.H.S.J.[.t.4.0.8...=.F.n.m.h.m.W.cXBX5XyXyXuXPXSX^.).2XuXuXpXJXPXFXvXMXFXLXIXPXmXSXMXAXPXJXuXhXuX7XsXzXAXHXHXPXPXJXlXkXlXhXkXNXlXSXLXHXNXSXAXlX).{.A.>.).).@.A V C ^ ) ^ K K ^ 0.E.$X$X*X].q.v.t :     X % % : 4 4 4 t 7 J Y &.x.b.E.E. XlXKXSXsXH.).zXuXhX{.7X2X^.p.p.<.<.<.<.@._ A :.<.1.H.ZXmXE.V.:.^ l y 4 % > - y t t t C w.&.q.~.!.E.E.C.=.*.0.E.q.5.5.q.w.*.q.v.V.v.c.c.Q.~.`.Q.'.R.i.0.N.0.<.a.7.i.E.*.*.K 2.{.nXdXdXnXdXtXuXfX9XfXFXtX{ { sXrX@XfXv.oX*Xh.U.h i :.q.(  .( A A K ,.0.E.0.4.q.4.E.*XE.'.@X{. XlXFXsXu.~.'.~.Q.S.@X'.C.C.x.,.' f.' ` $.d.7.~ @.,.i.Z.r.p.A.>.] ^ S >.9.8.8.7.4.{ A A c C { j.z.=.w.v.m.Q.rX5XfX`.q.Q.V.x.k.'. Xq. XSXDXFXkX1X0.<.a.^.E.>.{.1X/.uXrXkXZXZX@XE.'.w.*.S l f./ K ) q.0.&.' f.k l ",
"rXE.E.^.q.2X1Xa.1XdX'.iX'.~.V.,.>.:.@.<.:. .:.K ) <.w.<.*.E.~.E. X'.u.1.' ' u.w.<.) 0 s 0 > > 5 y y u t 4 t 0 j ) *.E.E.'. X7.>.0.V.3.8.V.S.p.7.i.u.:Xp.s.1X1XH.@.r.( ( y.>.:.,.>.,.p.<.s.A.A.:XhXrXdXMXFX X`.~.].#XrX'.7.&.q.q.w.5.5.q.<.@.) ^ W A f f i 7 ; ; >   O t l k k j R.7X9X X7.>.( ~ @.$.Z._.J.p.6.s.u.7.,. .i.2XiXhXqX,X:X[.i.&.H { j.n.g.z.l.W.cXFXcX$X0XBXSXPXiX8.<.<.^.pXpX XlXIXUXUXIXJXmX X<. X9XuXSX2X4.'.A./.lX7X1XmXmXrX2X XE.^.V.i.V.9XlXNXPXJXSXmXHXJXhXpX1X<.R.E.*._ S j f.G ) *.<.:.4.E.].$X].E.E.%X].p O X X % - - 4 7 7 d ] ;.J K =.z.E.q. XlX3X7.^.A.^.^.p.u.:.u.H.r.K _ <.<.` Q f.A ' u.a.<.a.gX7XH.*.,.H.` u 4 - % 0 k V V K U.m.E.v.v.E.C.C.C.0.q.~.~.!.~.W.].x.x.].,.0.~.].C.Q.B.N.'.Q.i.7.q.0.i.i.0.i.8X`.x.z.x.x.rX<XaXMXnXfXS.[.6XrXtXfXtXv 2.aXOX%X0X+X.Xn.h.xX*.G 0.*.r.@.) _ :.a.q.*.0.E.v.w.%XyX'.).E./.^.u.7XPXKXlXhXqX^.6XaX)./ } [ I N c ( ,.) ,.6.>./  .<.i.7.,./.A.8.( G G G G | 0.^.2.G | &.C *.v.;.;.w.g.v.*.gXFXfX'.#X#XaX9XQ.B.i.*.^.kXmXuX X/.A.:.,.>.0.E.<.{ 0.^.). X X{.i.R.E.~.E.v.7.C G =.w.>.0.0.<.7.7.) ,.",
"CXfXa.) :.K *.) 1XjX'.'./.0.q.7.<.>.*.:. .:.) ) *.a.^.u.q.u.i.^.7X).u.w.:.*.' ' ) j : 4 4 > > * 0 u l l 0 t s ^ K V.~.].E.'.V.7.q.N.N.V.p.i.p.H.p.r.A.a.p.[.pX(.@.:. ._ @.>.>.1.@.7.^.a.s.a.a.H.).).^.^.fX#X X X@XfX*XE.,.4.v.v.q.q.q.E.~.'.0.&.../ S u t i i - o   o u f.k j (.rXA.<X7XA.<...@.@.@.e.y.,.r.t.r.A.i.{ / 7.A.,X>X2X:X^.>./ F K =.z.b.XXOXF.W.+XxXyXyXfXMXdXAX7X7.*.:.) i. X<.<.).mXJXJXZX'./. X0.i.a.0.<./.'.uXAXZXmXuX).0.) G K ,.) G >.7.E.i...sXPXAXkXNXAXJXSXlX:X^.a.^ _ ~ j A A A :.*.7.>.<.Q.$XQ.w.w.$XoXN O X % : 4 4 8 h J *.;.I F I v.v.v.R.hX:Xa.,.7.u.7.7.p.p.,.@.,.^.).1.) ) ^ A A W ) e.H.a.a.sX X^.@.@.,.<._ 7 % - n K w.=.E m.U.w.x.E.C.q.v.N.V.v.b.OX.XOXE.8.| / &.*.4.R.Q.Q.S.`.'.Q.x.2.3.V.R.0.0.&.7.N.x.E.E.*.i.6XrXnXZXdXS. ...x.@XE.~.V.G x.].0X0X5X9X8X!.j.yX} 9 :.A.,.^ ` :.4.<.) <.<.7.E.vXvX/.<.7.:.K &.*.).KXPXSXmXAXsX3XpX^./ &.5.-.7.t.y.>.#.,.( ) ~ S ^ :.>. .>.<.u.>.>.{ :.| /  .&.V V G G 4.;.;.;.w.b.g.w..XgX8XQ.B.Q.S.8XtX@X|.4.K 7./.E.a.i.0.A.7.>.a.{.'./.p.'.gX X X2XuX X{.4.=.C.w.q.*.q.U.U.4.,.0. XQ.E.;.E.",
"FXrX7.>.,.*.:.) V.{.,.A.'.V.i.i.>.*.u.:.) ` ` <.u.a.<.) u.<.) ^.rX).^.a.a.a.<.:.:.S 0 5 5 - 0 h L u l l l t V w.*.0.#XuX).4.*.{ ..8.8.i./.(.[.Z.r.p.Z.K.).(.1X<.@.,.,.r.,.1.6.>.<.p.(.(.H.K.).s.:.1.) _ <.) R.dXyX*XE.a.rX,.q.v.2.2.4.v.].@X].V.2.4.2.{ Q V u : o   > l k  .{.uXuXuXsX7XR.p.i.<.p.p._ | >.@.6.H.2.G ^ *. .7.A./.Z...^ D G / 3.v.n.$XMXvXfXdX0XyXvXDXLXLXmXkX`.i.q.u.) q.a.<.) <.u.pXSXkX'.).7.&.*.&.A. X'.lXSXSXZXlXrX}.2.1.K ) Y *.^ A G |  ./ u.mXHXmXpXzXKXPXPXlX/.R.7.^ ^ A L K K L *.*.*.*.E.~.q.*.w.oXK h X # 4 4 u J T J Y *.*.*.*.} v.v.rXZXiXhX2XA.u.u.A.A./.^./.r.^.a.a._ A Q S S ' ) :.a./.{.^.uXuXA.` Q A Z W j % y V N L E ~.U.w.E.Q.E.~.x.i.0.x.x.V.Q.x.x.&.^  .^ A _ ^ / S.`...V.V.2.4.4.V. X X8.&...7.4.8.&.|  .4.}.{.<XsX}.N.x.5.OXyXE.].0.3.'.OX$X5XS.p.9XtX'.!.B s V ) @.S _ 4.E.>.:.<.q.E.CXvXA.,.( ( ( *.,.*._.KXAXsX2X).).^.,.@.>.7.i.Q.C.t.A.s.(.H.) @.@.@.1.:.^ Q ^ ^ ^ ^ / / / ) G G C h C F &.R.3.=.*.Y g.g.U.@X].A.7.:.| ..S.8XC.R.N.,.'.^.a.A.A.<.>.u.E.]. X X1XrXsX7X^.a.(.7XtX'._ ^ 4.J *.*.{ U.U.E.q.:.@XOXq.E.K ",
"7X(.r.:.>./ / ^ :.7.^ u.A.x.i.&.i.V.q.<.:.*.,.<.1.:.:.<.<.s.^. X XE.).).^.a.u.:.A h h 0 4 5 0 L { K j j k j *.*.*.0.}.sX).i.a.>.8.H.).i.i.:X:Xp.<.7.H.2X:XH.2X7.$.r.y.t._.r.r.7.7.H.H.^.^.r.(.H.u.1.1.1.:.n 9  .@X Xi.'.kX^.*.,.&.*.( 4.E.].].x.4.4.8.S.V...p >     > k S A.tXuXlXlXsX9XR.7.u.u.A.H.s.Z.p.@.( r.| F ^ 7.| =.0.i.7.#./ / ] 5.W.$Xb.5XGXBXDXcX%XvXLXLXNXsXfXuXA.,.a.u.a.i.u.*.*.<. XgX'.u./. X,.0.^.q.1XlX2XkXlXsX:XiXpX XE.q.*.) ) *.:.K G 4. .4.i.{.AXJXIXIXIXIXIXJXhXV.^.4.4.*.{ L K ^ ) ) 0. X$X].0.q.w.w.z.J X : 4 D q.U.v.=.*.v.E.E.E.v.q.@XSX3X XlXlX^./.7./.{.).A.u.) _ ( A ' A W ^ _ ^ :.a.a.{.gX).7XrXV.( ) ,.) K ( g q N V K K U.fXE.~. X5X4X0.E.N.7.2.4.'.Q./ K | 2.7. .*. ./ F ..4.9.Q.Q.N.8.Q.rXuX`.R.N.N.q.7.>.>.7XS.R...:.A.tXtXyXfXyXvX#X#X+X!.@X].].9XN.V.>X/.}.0XF v G f l j *.q.~.q.4.E.U.vXZX1X:X_.H.0.:.<.) :.d.HXAXlXFX/.) ^ G S A ^ 7.<X/.r.i.A.p.s.>.H.7.i.<.) ^ ^ F S V A ..:...( G C V c H ^ 4.R.V.5.5.=.5.@XV.A.A.7.^.u. .r.`.<XS.Z.2.H. X X/.i.0.a.E.). X2X{. XuXsX X0.<.@.) u.>.A L ) 4.7.E.>.^ E.OX]. X X].*.w.U.{ ",
"2Xd.i.R.i.&.:.( G A A Q w.E.q.4.A.V.A.<.:.4.u.u.1.1.a.^.<.u.^.).u.a.).2X3X^.<.' V N h h 5 d B A *.E / *.*.*.>.*./ 7.aXhX)./.<.&.i.:X2Xp.r.[.).a.>.,.).2X:X2X(.,.) >.7.r.s.r.7.r.7.H.(.(.H.p.iXpX(.s.s.e.a.,.A A G *.,.<XZXgX/.<.) ^ A ^ 3.E.j.2.#.>.4.9...#.g > O   > ) i.7.i.<XuX3X1X6X'.,.:.u.<.a./.^.{.^.7.7. .G G q.2.>.&.*.2.&.^ K =.~.&X%X%XgXtXfX].4.].SXJXpXi.,.i.i.7.7.E.^.a.u.<.V.^.^./.E.i.a././.u.1XpX).7XaX X2XrX2X XuX7XuXuX<XE.w.*.K ) *.4.&.&.w.q.). XhXAXAXSXmXKXIXZXV.^.E.0.i.:.*.*.K K *.q.]..Xw.*.q.~.v.=X;.o 7 N l.U.v.n.v.q.c.~.E.C.5. XaXi.,.H.(.<X/.{.p.^.>X:X/.:.$.W _ ` A S A _ ` 1.u.(.<.^.nX X2X/./ V ( ) 0.'.| s - d D N V V V.'.#X XrXQ.@X5X].'.N.V. XE.8.2.&.) G V C A A h | 0.8.Q.{.S.N.~.iXdXuXaX'.x.V.4.7.}.gX5X<XA.<X7XfXMXvXMXgXvXcX+XcX#XQ.rXrX X5XR.V.9.N.].B N G c y G U.$X&XE. XCXvXgX^.u.H._._.(.a.<.<.<.qXpXNXPXZX2X/ :.^ C A  .V.`.i.y.,.@.y.p./.[.i.r.s.<.u.i.<.<.( S C G | /  .{ G G *.:.>.7.4.0.x.E. X XV.A.<X_.d.:.<.7.G >.A.7.7.2XrX{.1X).rXZXZXfXdXuXuX X{.1X'.a.:.^ A ^ u.V.u.2.S. XtX{.u./.'./. X#Xa.f w.U.A ",
",Xd.<.,.7.&.{  .>.&.4. .q.U.~.^.4.a.V.*.<.:.*.0.1.` <.u.u.a.a.u.a.^.a.).:Xu.e.w.) A h N - N K A { K { K *.*.*.V N <.sXsX^.A.>.@.<.).iXH./.H.>.7.(.K.(.).H.H.p.@.$.$. .@.7.H.i.6.u.A.^.^.y.,.e.).(.a.7.,.,.A ( 7.u.7.{.lXkXZXuX].0.( j G x.E.~.q.....=.C.9XD.g : O   O A p.i.@.(.2X<X2X<X(.7. .) / 7.V.A./. X{.V.4./ Z A G >.&.) K / G { v.b.b..XCXSXfXgX'.E.DXZX^.*.( C G >.i.7.<.a.i.i.E./.{. X7.,.) *.2X/.7.E.uXiXkX).0.qXmXqXi.).{.R.{.1X@XE.E.V.{ K J V ) E.V.E.'.).zXsXhX).iXZXZXsXR.V.0.7.w.K *.N A ^ w.~.E.*.q.~..X~.U.*.: L h.;.j.n.U.w.3.V.~.C.v.8XaXA.) 1.u.H.^.) {.'.E.<X{.i.) ( ( A V f.W ' ` :.<.H.).a./.A.r.u.r.` W Z _  X X| p - 5 e c c 9 q q.rX@X'. XQ.E.].'.@X].].C.Q.V.8.{ I F c b N G b d 9 ^ ].{.'.Q.rXsX'.Q.N.5.x.V.`.4X7XwX<X XaXkX8XkXkXsXgXnXgXv.W.$Xx.'.8X7XuX7X~.5X}.x.N c { } w.b.b..X*XE.@XFXfX{._ V ^ S G ^ <.H.,.a.AXAXNXzXE.^ ^ G A ^ >. .A.H.Z A  .7.p.i.Z.S.N.>.( :.H.p.^.[.Z.>. .G / &... .&.4.i.7.>.7.0.0.N.~.].0.&.<.^.H.^.{.}./.r.a.}.tXrXrXpXuXiXkXgXaXuX7XsXsXgXuXrX X^.<.:.>.:.<.V.).E.0.{.}.R.E.^.u.^.hXlX^.1.f N v.K ",
";X(.i.:. .| 7.&.7.V.E.:.&.q.) ) <.^.(.<.u.u.1.:.*.) u.u.^.^.<.<.E.^.^.^.s.<.1.<.a.*.V h 4 N { L K *.{ A *.>.) N q *./.7Xu.( W S ^ @.).:XH.r. .) A.H.d.H.a.r.) _ _ / ( ,.p.H.p.7.u.p.^./.7.` ^ ( :.A g j V A :.<.A./.{.uXkXZXkXkXgXpX^. .} g.v.v.8.q.N.k.].0.a %     O 9 :.&.u.(.^.^.(.^.^.0.>.K ( 7./.'.A.R./.V.>. ./ G K / *.^ c g J g.z.W.%XvXFXgXfX{.9XZXgX^.) D V G p.7.<.<.u./.^./.a.<.^. Xi.,.&.:.^.<X^.i.gXJXAX{.^.).zXhX).w. X{.rXrX'.~.].U.'.'.q.4.*.E.E.w.u.a. XqX).pXkXfXdXZXrXE.E.q.<.A V N A { *.4.q.v.~.OX.XU.v.L x T ;.*.g.b.w.3.q.x.v.'.aXjXp.) ,.<.@.,.<.^ A.'. X1X{.) ` ~ W ~ ' ^ <.<.e.u.u.)./.i.a.:.^ ^ ` ) ~ A ^ <XrXA.p 5 1 g C C h h >.<X{.'. XV.8.Z.V.'. X]. XV.9.} *.2.3.4.=.=.3.{ N 0 C <X@X4X6X7XfX5X'.V.V.E.0.S.`./.V.}.`.`.dXdXaXdXgXgXvXaXb.XXY.b.-.Q.fXnXfX].rX5XC.b p [ v.v.g.c.E.@XrXa. X^.) V ` ,.:.^ f h A ^ u.2XAXSXmX{.q.:.7.4. .] / 4.>.7.7.r.p.Z.y.@.Z.t.@.( ) :.>.r.A.7.>.1.( ( >.&.7.7.{.{.i.7.V.R.(.].~.E.V.(.1X2X{.7X XA.7.:.i.A.rX1XpXhXsXuXrXiX{.p.*.,.<.i.).'.'.a.s.r.a.A.i.a.E./.V./.].N.s.^.).{.qX1XA A n f v.K ",
":X_./.A.7.>.0.V.E.V.7.*.,.,.A ) s.p.E.<.:.u.a.a.u.u.qX).).^.<.u.<.e.a.).^.1.` <.^.>.V h 0 C K K K { :./ :.q.<.:.V q. .S ` ,.) ( ~ ) :.n A >.y.,.@./ ,.a./._.p.@.) ) 1.1.) ) $.@.r._ ^ @.) ) ^ W ~ S j ~ ( ( ^.V.'.uX2X X/.9X7XiXaXZXAXkXR.E.~.E.~.C.S.x.0.| g >     O 5 C :.i.(.i.^.u.r.q.,.<.7.,.7.1XuX/.A.8.&.*.*.*.{ *.K L *.=.*.z.g.!.5XvXmXR./.9X7XZXHXZX1X^.>./ ( /.u.q.,.u.).q.u.u.u.).'.'.1Xu.0.&.a.).'.^.(.).E.a.<.<. Xi.@.V.1X1X Xq.i.#X XgXrXQ.'.E.0.K ) w.). Xw.).@X/.4./.rXZXE.E.0.q./ G A *.,.0.w.w.E..X$XU.E.~.Y D m.E w.j.=.q.v.v.C.@XmXfXV.:.^ <.y.u.1.,.,.<. .A.R.<.) ) ) ` ` ) ` 1.<.1.,.u.^.a.u.1.,.<.u.a.:.A A ^ _ <X).i 9 0 d J N G N A  XfX4XN.'.7X}.9X'.'.].{.Q.B.8.0.5.q.q.x.B.E.v.=.I q )  XR.'.R.`.'.B.x.Q.E.7. .0.N.q.rX@Xx.4.C.9X@X9X#X8XvX].W.v.;.v.+XgXZX X=.@X9X+XF % ] E.C.C.q.*.) 0.u.*.1._ V _ u.:.@.:.) A _ K A A E.kXZXpXV.2.&.0.7.&.J v K >.2.,.r. . .i.G @.<.:.) 7.p.7.$.>.)  .@.1.<.u.7.p.a.p.A.^.A.V.0.{.1XuXsXuXrX X{./.7.^ >./.(. X:XkXjXpXhXuX).7.( ) e.0.u.^./.0.e.a.<.) ' <.u.<.<.:.8./.{.uX X^.2X{.aX:.f.h s N B ",
"7X<X).{.R.0.V.9XaX'.V.V.V.V.,.u.^.u.p.) <.*.<.<.<.:.7XhXhX).a.).a.w.a.^.s.e.` ) a.<.N h y e L ^ ^ K &.>.0.a.>.) 4.0.h = d c V G ^ ( ^ 9 2 i Z @.@.@.@.1.,.2X<XH.y.1.( ( m k n S ~ W ! n n j a y f A _ :.:.>.7X}.i.(.1XaX<X>.(.uX1XnXNXHXmXwXG.G.eX#X+Xk.N.m a :       - K :.p.:.p.(.<.) ) *.s.^.w.` u.{.).^.u.w.q.:.w.*.;.*.*.{ ;.Y.m.v..XyXSXdX7./ 7./.lXSXAXiX).^.^.A.V.r.^.i.>.0./.).<.u. X).uX Xu.u.7.4.a.rX1Xu.u.a.<.:.K K J *.a.9X'.i.&.'.gXrX#XaXrX XE.L / E.~.$X XK ( >.4.i.9.'.vXfX#XB.9.2.*./ ] 3.&.w.w.w.w.n.E.U.U.K L g.;.g.;.~.E.E.9XZXZXkXrX(.<.^ :.p.<.,.7.1.:.( i.@.@.,.$.1.1.) $.$.r.s.a.:X(.u.<.:.1.,.a.a.u.1.` ^ ^ _ 7Xs.7 N N d H I G G F i.fXrX{. XfX<X XV.V. X8X@XR.E.V.v.v.3.x.R.C.k.5.*.I d h *.q.i.V.C.B.C.~.`.x.V.E.Q.#XgXdX Xv.w.OX$Xv.E.].9XaXdX#Xw.!.bXfXkX@XE.~.@X@XH & t.}.8.2.K ] ..J F ! ! A j h S ( ^ ,.7.Q Q ( u.i.| J q.rX/.2.7.i.N.A.K N b 9 p m C c S b C ,.i.,.@.e./.,.@.7.p.i.,.>.>.) ( 7.(.^.a.).A.&.A V.rXaX1X<X7X1X/.p.<.s.).^.:XuXsXlXlXiX'.,.) A ) u.a.:. XpX^.u.u.<.<.:.1.@.@.) ^ >.i.4.p.1XrX7X).pXjX,.Z k g D *.",
"<X<X(.V.a.A.A. XdX].^.R.E.A.i.p.a.s.E.a.) ` ` *.{ ) r. XpX X7X'.^.).s.<.e.` ` ' a.1.h l l V ) { ( *.:.A.V.7.*.E.'.V.<.L w , r , 6 , & 5 V ( / >.K.p.6.r.@._ A C j f f f n ~ ~ Q _ ( Z A W n S _ ^ _ ) ) <.H.^.)./.i.,.p.rXhXSXZXNXAXAXmXnXNXNXeXJ.eX{.L. .h 2 %       - ) E.E.{ { / ^ ) ^ :.u.>.<.<.<.u.).E.q.*.w.w.w.w.*.=.E v.U.n.m..XvXtXLXmX7X^.*.a.{.iX7X/.{.^.0.^.s.0./.^.).^./.).).a.).).^.7.i.,.<.,.4.). X/.0.p.4.*.&.*.*.L 4.^.u.q.>.E.~.$X X@XrXrX'.U.OX].E.q.>.^ A C G :.7.q.<XLXMX@X3.5.S.8./ 2.5.j.b.U.=.I ;.w.E.Y D z.-.j.E.~.Q.rXJXrX,.(.2X(.a.i.{.{./.i.7.,.1.,.7.) $.u.,.$.s.<.<.1.u.).:X).p.r.1.e.a.s.a.u.( 1.<.@._ A ,.) 7 d N q b ] =.&.F V 0.nXjX5X9X7XR.V.<X4XQ.V.N.x.B.v.{ } N.E.3.E.x.2.=./ p ) S.'. XB.~.]. XQ.E.~.~.x.].rXrX9XQ.x.j.rXvX5X].5XaXvXaX].@X*X*XjXMXtXtX9XfXH 8 '.'.8.7.>.N.8...C c h V W S h W u.s.@.r./.1X7XR.G q d g b 8.`.Z.6.7.7.>.H v b p v b b Z F @.p.p.A.(.}././.y.1.:.,.$.:.:.^.s.p.).'.1X{.(.i.7.R.uXuX<X<X/.[.p.a.s.,.H.:X7XiXuXpX1X:.C b e S V.0.{.pX7.^ s. Xp.u.u.:.,.@.( <.0. .G ,. XkXkXkXHX6X(.p.( ^ *.v.",
"@.&.p.i.p.i.^. XtXE.>.4.4.7.7.p.<.a.).^.r.:.<.a.u.:.:.1.:.q.a.E.w.1.' :.<.` ' ) a.) S h l A L ) ) *.:.7.4.) q.~.`.<.r.i.>.3.G N N c p s ( 7.t.! 6.1.6.p.,.r.@.( ( $.( ( S n m ( ,.! g f f Q (  .7.) _ s.p.u.7.^ 7.( ^ i.).1XjXjXAXAXPXHXHXPXDXhXwX>XaX0X! u ; @       % { i.V.) *.A S A ) <.:.>.:.1.1.u.a.a.w.*.K *.K { =.;.w.n.M.m.#XvX#XfXZXkXdX1XR.^.p.(.{.7.,.0.a.a.^.H.'.2X2X)./.^.{. Xa.^.7.<.^.q.u.*.7.uX)./.u.u.i.,. .K *.*.0./.).u.4.~.U.$XaX@XgX#X'.$X].0.4.:.^ A G G C F 3.E.aXJXDXCXQ.} G..Xv.q.~.~.yXW.w.z.~.~.j.J L ;.[ q.v.C.rXnXhX^.( ,.i.p.{. XdX}.A.(./.R.<.<.) 1.^ :.u.$.7.H._.a.u.).).).(.u.7._.).a.,.<.Q Q <.,._ p.,.:.p s L D C C &.0.C c | p.uXlXrX9X/.R. XR.V.R.E./. XV.{ &.V.R.N.E.v.x.=.[ 9./.S.].}.'.R.9XdXrX].E.E.x.].fX4XQ.~.x.[ I ) 4.}.8XdX<X5XfXgX@X XZXKXnXnXmX+Xg 8 s N.4...i.B.7.2.{ m S ~ ( $.( u.:XZ.7.Z.p.K F e q b D H >.8.i.7.t.r./.S.>.] H H D / K | :.>.Z.i.V.`.S././.A.u.u.A.K.p./.:Xu.^.(.<X1X). X2X<X7X7X<X<X4X{.).p.r.p.a.<X^.p.^.:.K 7.&.V C *.*.c *.0.0.*.:.) V.a.u./.^.u._ *.u.q.2.R.rXkXZXSXSXJXMXuXE.s.q.*.v.",
"<.,.:.:.,.&.i. X`.7.>.^.,.V.A.A.u.u.E.^.a.) A 0.<.) ) ^ ^ ) <.^.d.w.' *.*.^ ' 1.^.) :.S u V S K ^ *.&.2.K A 0. XE.) ,.E./.rXrX'.S.N.:.^ ,./.N.6.,./ #.y.i.y.A.s.p.r.:.@.( A u Z G ~ Q m f V 7.y.s.<.s.i.a.u.,.A G V :.,X<XiX,XiXHXKXPXPXKXPX6XeXjXD.8XrXW f : @ O     > K ) *.L E E *.*.q.>.:.w.w.<.*.w.w.^.^.q.w.{ *.w.Y Y n.Y.n..XDXnX$XtX].rXrX^.A.p.,.) ,.7.<.a.{.a.^.4.u. X).a. X).^.a.a.^.7.>.u.p.0./ ,.V.H.<.>.H.u.*.7.7.>.0.p. X/.0.E.~.E.~.@XsXaX{.0.i.>.*.^.w.C { *.K K =.v.8XMXSXDXnXDX8XW.n.b.;.g.OX#XU.v.~.$XOX~.w.K *.} -.N.aXsXkXuX).7.{.9XuXrX X@X{.7.{.tX/.,.:.:.( ( ( ,.:.<.H.{.:Xr.,.).qXd.p.7.s.H.^.e.,.1.) ,.@.,.pX3XuXQ y c C N c G { / N d ( V.rXkXuX{.^.N.i.V.[.'./.V.&.3.0.V.'./.].~.j.3.=...8.'. XfXrXrXdXlXrX@X9X].C.].7X/.&.0.*.q.] e b I {.aXgXnXlXmXZXlXSXSXAXgXtXD 9 i 9 F G.0.V.N.A.p.7.,.)._.1.,.^.A.u.,.s.,.G ! C C G / 4./.<X/.>.^ / ..@.7.7...2.>.#.7.7.7.i.H.r./.[.J.Z.Z.(.H.H.d.>.i./.A.p.^.E.A.(.(.{.:X'.9X'.7./ 7.H.:X).<.1.1.u.p.:.4.K K N C h C *.x.@XV.q.*.{ N A V h N A V C ^ <.a.0.^.rXfXkXDXSXAXFXSXkX(.i.,.1.q.v.",
":.,.:.:.<.) 0././.V.:.R.7.p.'./.a.<.7.A.u.:.^ <.a.a.<.<.) ^ u.u.u.<.1.w.w._ *.1.<.) H.^ 4 h A L G ) ) >.*.{ q.A.,.:.0.a.a./.6X/.s.r.y.7./.a.7.C.8.( ^ Q @.p.<X(.p.Z.r.(  .( ) :.! Q A Q _ Q ^ ,.<./.uX(.7.p.>.q.7.7.<.<.^.<X).).iXAXPXPXSXHXsX8XG.:X`.S.G g 2 : X     o K Z L w.E E E *.>.,.4.w.w.*.L ) E.~.E.E.w.*.E K L U.n.g.m.cX*X*XyXv.E p.{.).).A.q.:.:.) <./.(.0.7.7.<.<.u.<.H.).a./. X_.:.u.<.( i.:.A G *.:.7.{.2X(.^.i.^.0.a.a.7.w.V.v.w.E.@XgX/.:.:.) :.4.V.E.q.q.z.=.=.C.@X9XtXnXFXSXLXLX5XG.0XF.5.j.&.0.C.rXgX5X@X5.U w.q.rXSXAXFXmXmX7.^ i./.:X<XMXkX<X8./.<XA.>.( ( ( ) ^ ` <.a.a.a.^.) Q <./.a.pX).a.a.s.a.e.` <.u.p.a. XhXuXW 0 v e d D ] [ &./ N d G '.hXrX).i.7.7.,.q.u.>.G 2.5.q.i.[.`.Q.v.5.3.5.&.b 4.rXfXkXdXuXR.A.7X6X XE.4.*.4.'.3.} 3.K K U I 5.6XnXFXAXZXkXlXSXNXnXfX..s 7 q / I 0X5XtXV.7.A.y.e.p.s.1.` ^.a.1.p.p.@.#.i.,.7.7.Z.8.J.p.s.i.Z.Z.A.:X{.i.2.8.9.r.p.p.i.p.p._.8.i.^.^./.:X:X/.>. .1.,.i./.{./.H.(.{.)./.A.0.4.0.>.^ ,.{.7.( G h C N ^ N 0 0 s C D ] 7.Z.}. X X'.E.V.V.w.0.*.V S A ) `.1X`. XjXkXkXZXMXpX1X8X(.i.p.7.0.<X~.",
"7.:.,.:.:.E.aX^.'.@X'.'.p.'.9X}.).H.a.V.E.:.' :.u.u.u.a.1.*.:.' L S ' w.w.*.) :.d.a.V.S 0 y V K K *.*.( 0.a.0.0.:.) 1.a.p.^.<X^.p.i.s.H.^.,.8.3.4.:.^ ! 1.i.H.H.u.r.,.$.:.@.<.7.>.^ Q G S A A ! ,.p.A.{.).<.7.i.0.R.<.( H.,Xd.pXmXKXHXiX[.HXZX{.J.N.N.#.n u y ; >     o G J L *.w.E w.*.*.>.4.*.E E A L *.E.E.w.w.w.*.Y U.v.W.XXbXxX*X-XbXE.x.dXuXrX X2Xa.,.<.<.:.p.a.0.A.,./ *.u./.A.^.u.^.3X^.A.^.i.7.u.0.^ K ( ) u.:X).p.i.s.V.a.H.V.4.{ *.w.w.E.E.E. XE.q.>.*.:.q.a.2.3.E.w.v.x.<XaXmXLXMXmXNXLXLXnXMXFXfX|.E.I q.tXvXtXrXB.*. XZXLXmX7X1X).A.Q ( i.A.i.A.8XdXdX<X/.'.^.u.r.:.( 1.1.i.s.u.H.<X^.1.~ :.).).).^.<.p.7.u.` ( i.^.u.u.).sXa.A 0 d s b / &.>.>.{ { d N ).)./.<.1.s.e.,.:.,.0.5.V.q./.i.'. X'.'.N.&.} &.&.^ N.9XtXtX7X}. XaX@X'.E.0.E. XE.v.j.*.T T +.k.'.tX7XlXZXAXdXdXlXlXnX7.g h 7 g J d ] %XtXD.A.a.1.` _ ,.H.;X/.(.:X/.s.>.7.4...9.N.7.>.A.a.t.i.p.H.p.H.}.H.6.2.r.A.H.p.H.(.Z.A.r.p.[.K.A.a.A.J.,.p.p.p.H.r.Z.^.7X2X:X{.0.4.i.'.R.R.>. .A d h d Z C C s - - 5 5 s C &.0.V.S.p.V.^.a./.).{. Xu.A V A ^ A *.u.i.i.r.s.r.uXZX).) ) p.>.p.(.aXB.",
"a.*.) <.0.2XsXu.'.9X].i.{ p. X{.^.).^.E.<.:.W ) <.e.s.u.<.<.<.*.' L ' w.E.*.) <.,X:.A V t s V V K &.*.( ^.^.u.a.7.@.p.(.(.a.a./.).)._.p.) @.N.3.B.t.@.@.2.#.#.(.:Xr.$.) ) ,.e.<.1.) Q A ! _ ) :.7.a.V./.^.u.<.7...,.,.r.A._./.lXHXmXmXmXqXkXdX,.@.N.t._ W f p 2 :     > D V A L w.E K *.:.:.w.*.w.w.L N L w.w.K *.*.*..XW..Xb.vXBX-X-X-XxX@XZXlXsX7X/.uX{.i.,.7.<.<.p.a.u.*.:.,.0./.{.).^.^. X7X1X^.^.s.^.^.7.) @.,.^.^.:.:.,.*.:.) <.A.0.*.E w.@XE.~.'./.a.E.'.,.:.>.*.) 5..X.XrX6X`.8XMXnXnXMXHXSXMXNXAXSXSXMXfXQ.E.Q.V.8.@XC.4.FXSXlXsXsXi.C C 0.p.p.s.,.,.r.p.V.{. X/.i.A./.u.>.u.` <.a.p.).:X^.a.u.p.:Xa.@.<.7.u.s.u.@.(.).u.<./.uX7Xa.) - s C F H >.8...K &.) N ^.^.4.Z G <.@.` &.0.E.[.A.V.}. X'.R.4X}.`.i.4.0.7.^ v '.@X@XdXrXrXtX#X+XF.Q.#XtX#X~.E.x.j.;.g.w.x.&.i.1XkXlXlXZXNXMXp.a y t 2 f J N 7 H c.S.[.y.` W ( i.[.:XH.(.7.7.p.r.N.N.7.,.>.7./.H.p.H.K.r.7.y.6.J.{.r.#.>.H.(.a.H.Z.A.t.^.).).).(.(.(.r.r.H.^.p.r.u././.6X}./.A.7.V.R.7.>.| ^ F A ( G ^ G V g p g N x d h C / 4.V.C.:.G &.<XrX X{.p.<.) V s s V ^ ^ ^ ( G G ( ).uXH.$._ S S i.}.].`.",
"E.:.^ ) u.rX'.0.[.{.7.:.,.i.9XrXa.<.u.H._ ' ) A ^ L :.a.:.<.:.) ' ^ <.a.q.) ^ u.).' V G p u L E E 4.&.*./.q.0./.u.:.a.a.r.r.s.d./.1X:X/.,.1.,.8.N...8.8.N.>.C |  . .$.` W ' 1.<.@.@.( W ( @.( :.,.,.7.^./.'.{.).<.:. .,.$.i.:XuXuXnXJXPXNX`./.$.@.>X| m ( ~ g y - O   > K L L G *.L / <.w.w.{ N L *.L *.w.*.N G V L ~..X~.U.W.CXCX-XT.T.xXnXlXdX7X).1XrX2X1X(.V.u.a.*.) ) :.) ,.a.).2X3Xi.<.<.).{.(.V.a.,.0.i.^.^.a.H.7.<.7.>.( K ^  .a.E.)./.'. XV.^.1X'.E.{.A.,.A.w.:.q.E.$XE.dX#XS.S.G.@XMXDXLXBXkXDXSXZXHXfX5XfX@XS.}.0.x.*. ./.p.dXlXrX<X7.>.7X(.u.,.,.@.@.~ ) H.qX}.u.7.H./.Z.<.r.1.H.^.<X<X/.s.^.[.i.1.e.1.<.^.a.p./.7X{.2Xp.^.uX^.&.,.- c / | { ] >.{ ..4.>.K h 0.:.:.,.7.&.) 7.7.7.E.A.i.R.}.<XC.0. X}.R.N.7. .H A F 9X5XiXkXfXrX#XOXE.yXgXfX5X].C.x.;.z.U.v.v.E.3.7.{.7XqXsXNX^.8 ; ; : 1 n c F h , [ 9XV.y.^ ( :.r.s.^./.H.u.) / 6.4.2.i./.i.i.H.K.H.p.H.A.K.p.r.@._ ! ,.6.,.p._._.p.p.(.(.).(.[.).).A.<.<.7.i.7.:.u.p.<.:.r./.H.p.S. .G C Z C ^ / | :.>.( ) G ^ { ) K J C G G &.i.V.V.0./.).^.)./.(.).a.<.*.,.>.:.G h S j V Q ( Z y h G 4.B.>.}.7X`.",
"'.V.) { :.'. X(.i.7.,.a.'.'. XrX{.u.^.:.^ A <.) ^ ^ ) :.) ^ K ^ ) <.u.e.<.G V 1.a.' k y 0 e L L *.q.E.'.{.a.0.i.7.,.<.,.,.u.y.p.^.^./.).(.d.r.,.7.N.8.=.{ { C 9 s h S W ' S W :.@.:.W n Q ( #.6.r.H.p.t.[.7X:XJ.H.,.>.7.r...:.7.V.rXkX7X{.2.6.i. .`.r.W ~ $.j u % o O # E *.K K ) *.<.w.<.4.A N N L *.w.w.*.V e N c.l.h.tXyX.X%XCXbXT.oXxXFX<X X{.A.^.E.).:X{.).H.^.q.K A ' :.<.a.'.).3Xu.>.i.u.4.u.(.{.a.). X).)./.0.1.) 7. .{ { ) <.p.p.a.a./.V.:.A :.^.{.). X).'.R.V.q.q.4.*.;.*.=.q.E.+X#XfXvXCXnXSXFXZXFXNXrX5XeX].k.#.9.m e :./.6X7XkXkX<XkX1X>.<.,.) _ ~ ^ :.<./.{.}./.p.{.7X<.i.7.7.>XdX1X/.(./.a.<.e.:.$.,./.(.(.rXiXsXgX1X<X{.u.V.,.- n K / { 2.7.>.[ K K 4.^ e A :.:.:.<.7.2.>.i.E.{.S.V.S.S.`.`.4XfX6XS.N... .9.m F nXrXaXgXaXMXtX].fXfX#X@X~.C.q.;.z.XXXX~.$Xv...| 2.^ f j y i i ; y 7 h C ! D C D 3.R.i.<.p.i.a.<.7.<.7.p.,.7.9.t.8.{.[.).Z.p.y.H.:X:X:XZ.~ _ Q ( >.( >.s.r.r.p.:Xp.s.[.3XuX7XH.K.[.2X2X2X>Xd.,.p.^.p.7.a.).H.t.>.m G :.>.2. .{ *.V./.H.i.6.i.9.G F J c v >...&.V.7.p.).i.i.e.0.:X1X^.0.e.7.0.K K ] S A :.7.S s i 8 G b..Xx.8.>X].",
"'.a.:.:.:.a.gXfXrX^.,.<.,.7.H.:X X^.u.A A ^ u.q.i.E.<.) <.) ) K ) u.7.) _ _ ' S e.1.k s 0 5 L { ;.q.0. XR.0.^.s.<.y.e.r.7.,.p.s.u.,.1.,.A.^.d.p.@.@.,.8.{ / Z p h G @.@.` _ ' W _ $./ C W ! @.../.J.V.V./.6XH.7.7.u.,. .^ V V c h C c 9 h | 9.[.t.`.A.W ~ ` j y - >   - E E ;.w.w.w.*.<.:.*.{ *.{ *.w.w.*.*.K J l.l.R h.xXyXXXU.=XVX*XxXCXZXuX^.E.^./.A.u.0.i.a.V.u.^.a.r.:.) <.<.:.u.q.u.u.q.<.@.*.r.^.).).).).).7._ e.i.).^.<.:.<.) ) <.<.<.4.<.<.<.:.&.E.(. X X'.].^.0.w.=.5.*.I q.~.C.8.5.v.U.xXCXfX8XcXDXMXMX>X#.r.O.#.] b d C V.A.{.SXkX(.V.7.:.<.i.7.,.#.>.,.:.u./.r.<.7.u.{.s.A.[.'.(. X{./.(./.p._ ) a.r.,.(.uX7XdXfXdXrXjXrX( ^ ,.n - p C / ..9.i.4.{ ) &.q.7.&.V q V ) ( 7.7.4.4.0.E./.R./.}.<X9X9X8X].'.`.9.4.C.F.d  .tXrXdXnXZXtX@XtX*X$XrX'.C.4.-.b.U.b.-.-.O.m 8 s 8 i u l l f y X.d q ] ..4.8.:.D C.V.u./.s.7.r.<.a.u.@.>.8.p.A.)./.H.H.H.p.p.A.K.H.s.t.s.t.A.Z.H.s.).K.(.H.a.(.H.A.>X1X{.J.:X}.7X3X3XsXzX^.u.Z.)./.).{.(.i.7.S./.].].Q.V.3.|  .S.<XA.Z.A./.D.&.{ K K A C { 4.0.4.A.^.a.p.7.7.a.u.7.<.<.<.<.C C K V g A V 9 y h n *..XW.$X@X6XaX",
"/.V.:.:.u.7.^. X1X7.u.u.a.u.:.r.a.1.<.<.a.u.{./.q.).u.*.K A A V q K :.) ) S S ' $.1.f.V e 5 N *.x.0.R.'.E.i.p.,.,.@.@.r.,.:.u.u.,.:.:.1.d.(.a.p.:.f S ( &.4.^ ^ G A  .>.1.1.W h W ( ( ~ ( | :.4.2.i.r.6.@.i.#.Z ( 7.7.:. .Q V s p 5 5 y 7 6 4.C.N.@XJ.W ' W f.k t > O 5 w.E w.v.w.q.w.*.w.) K E E w.w.w.*.*.*.U.U.h.m.n.XXoX=X&X*XGXGXFXZXgX<Xi.>.*.<.E.(.^.^.i.u.a.a.).V.u.) @.:.w.^.).'.a.a.w.) &.:.&.^.H.e.e.u.<.^ *.*.4.0.7.@.A V ^ u.<.a.7.^.V.0.0.,.*.0.0.^.9X X^.i.7.:.*.w.E.E.x.3.....-.c.cXCXvXvXBXGXFXeX( m ^ W c p 2 p a C i.{.ZXlX:X^.a.7.i.:.0.7.8.7.7.u.:.@.,.<.r.,.7.{.4XR.R.0.i.^.^.V.^.r.` W a.A.i.[.}./.7XnXdX7X7X{.^ m Z s - 5 e Z { 4.R.A.0.7.0.0.:.) 7.G D D A 7.0.3.2.q.(.<X7X5XuX7XtXOXF.x.c.C...] j.W.v.F V.fXrXfXnXrX#X@X].]. X].v.{ z.W..Xv.{ ] p c v f p 8 k k l a f x.8 y ^ Z F >.V...|.0Xt.a.H.p.H.:X^.:.:.p.{.H././.K.H.r.J.H.Z.:X;X[.K.K.J./.K.@.,.r.[.p.7.@.u.p.6./.1X[.u.{.7XiXlXmXiXuXpX2X/.s.y.p.:X<.r.D.V.`.`.+X@X}.x.N.7.] ..r.t.Z.<XJ.N.5.4.=.| D D { *.8.). Xa.7.>.<.s.H./.^./.s.u.A.q.K K ..>.4. .G V G  . .( N.D.8X5X5X",
"/.,.*.<.4.A.'././.<.).{.u.u.,.^ ^ ) ) *.<.:.).2X^.s.^.<.) K L V N ) @.` _ A W $.s.s.1.A s = B ;.{. X'.0.E./.0.,.@.) ( ( @.y.i.i.:.:.<.u.d.^._.;Xp.Z f h V  ...9. .G G G @.u.` f.( ^ ( @.@. .] | ^ ! / S ! >.1.| ^ A.^.p.a.H.i.7. .! Z n h 9 F Q.c.OX8.W ' W ' k t : O 0 *.*.w.*.*.w.>.{ ) E w.*.*.*.*.;.*.*.~.U.h.m.Y.Y.n.Y.xXCXGXCXsXlXlX/.(.'.a.) ) ).^.^.E.^.^.{.^.^.^.^.:.*.0.).).^.). X2X).q.p.) *.a.*.K *.p.^.>.K ^ { :.0.*.^ A _ a.'./.u./.r.0.4.*.:.,.,.0.'.<XE.>.7.q.4.2.q.v.x.C.E.b.C.yXVXCXCXSXCXcXvX>X~ k a n p & 2 e s b / { sXZX{.E.a.1.u.@.8.N.>.p.A.i.i.p.p.A.:.` :.`.4XnX X}.R.:.) 7.>.` ( ,./.).}.[.{.<X<X8X7X8X9X/.>.Z s u 8 s q p H >.i.`.A.V.i.,.*./ G &.w.K L q.*.*.V.N.].rXuXaXfXaX7X].D.j.!.W.x.3.j.b.c.c.N /.nXkXZXgX#XrX@X#XrX].2.q.$X#X+X~.2./ -.g.j.+.{ c k m S f [ k.2 f ! ^ C g Z s h N.[.1X7X:XH.H.r.r.p.Z.{.1XqX(./.7Xi.p.[.:X:XJ.H.Z.p.H.,./ ( @.C G @.s.:X7X{.| { i.`.iXpX/.mXmX8X7X<XpXrXp.r.6.,.7.i.`.'.Z.N.N.8.4.D.`.C.x.k.D.V.J.>X}./.S.8.0.0.4.&./ ] O.4.E.{.0.:.7.7.<.@.).<Xu.,.<./. X^.2.:.i./.0.2.7.V.[.J.:./ >.+XyXj.",
"q.u.u.>.<.>.:.i.).a.uX7X).E.7.( A ) ) A ) u.u.<.:.:.u.<.) ^ K :.<.:.A A A f.C 7.a.^.<.A s * N E.<Xa.q.0./.{.>.$._ ^ _ :.1.,.<.,.e.:.(  .u.>X3Xp.^ / F C V  . ./  .4.>./ Z V ) ` _ ( ~  .#.] H H v V  .s.6.1.Z.s.>.r.p.p.i.p.p.p.p.7.,.Q Q A ..B.+.c. .@.` ' ' k i : O 0 B w.*.*.{ *.w.w.w.w.L L Y *.E *.C..XY.n.g.n.m.n.m.$XGXIXgX).^.1XkXrX1X1X'.7.7.1XrX^.,.,.<.^.{.).pX X{.'.A.)./.^.).).2X).u.<.*.) ) { K A *.,.) 4. .0.V.:.*.) A ^ a. X^.).2X/.q.>.*.u.'.^.u.4.0.<.&.,.0.2... .v.#X%X#XyXcXyXyXyXDXCXBXGXBX9X` W k g 1 % % 2 p C >.S.aXjX6X^.i.>.i. .>.i.2./.S.7.A./.N.p.<.) i.rXdXSXZXvXfX<X<.2.p.:.:.p.R.<X4XS.p.A./.}.<XA.A.{.Z.n i s h s 9 9 c ] 9./.Z.A.a.V.<.) G 0.v.w.B K w.q.q.E.E.~. XuXgXfX9X}.Q.E.F.z.c.c.c.c.z.~.=.Z 8XMXFXgX9X@XtX#X#XfXE.rXgXtX9X{ C *.j.5.j.=.=.c.3...! j.F.3.& f &.] g 9 9 2 a F Z.A./.7X>Xr.s.r.Z.(.J.).pX_.t.wXH.[.1X1X[.H.t.y.#.@.1.@.G m C F u./._.(.^.p.&.K 8././.{.uXmXsX4X7X'.p.0.>.6.#.:.0.Q.'.S.N.r.9.V.>.9.N.C.`.J.'.`.`.`.B.q...0.C.|.Q.2.>.4...&.7.) / :.4.a.4.7.u.@.) 1.s.R.R.N.7.^.i.7.^.[.9X<X X/.r.>XDXxXJ ",
":.*.>.:.4.0.4.^.V.1.0. Xa.7.{ _ *.K V A :.u.:.^ W :.:.:.` L K *.*.) A V Z ^ K >.} :.(.| 9 = L E.i.:.i.'.{./.@.) >.r.<.) ( ) ( <.>.1.,.u.d.:X^.( ^ ^ / ^ Z Z (  .^ *.N.8.&.^ h h j S ( / / 7.>.../ b ^ r.,.H._.A.^.s.r.s.p.p.p.u.A.,.( A Z S V.B.o..Xk.7._ S ` W l - > V E *.w.w.w.w.E L L E E L h v.v.v.%XoXM.h.T Y.m.n..XGXIXSX/.).{.E./.a.^.^.H.&.^.<Xi.a.^.{ ^ :.E.^.a.^.qX7X{. Xu.).7X).).^.4.@. .K K K K ^ ,.V.r.q.^./.q.7.u.:.{ { a./. XrXrX7X'.u.0.a.u.*.,.) K :.,.^.0.:.:.i.V.].%X*X*XyXCXMXvXCXvXbXbXVXMX#.W n y # X @ & q g ] 4XdX:X1X^.u.>.7.>.i.D.<X8XR.N.S.6.r.i.H.^.A.A.rXdXtX7X6X{./.V.R.s.^.{./.8XuX}.H.r.r.p.s.1.y.r._ k u f m d b e q C ..N.S.7X3X X^.0././.v.w.L R E.E.E.E.W.;.b.5X5X8XfX0X~.;.x.c.x.5.c.!.].!.Q.Z G '.gXMXtX$XgXQ.R.E.].ZXvXfX| C 3.k.j.k.B.c.k.G.M.W.F.%Xb.A % S 7.] h d p q g n d 7.t.s.K.i.1.,.t.y.p.H.Z.p.1X:X`.fX{.H.H.,.,.r.#.,.s.@.! A ^ G ^ ( ! @.p.N.0.2.| 4.7.,.a.iXsXwX7X{.].C.>.>.x.v.8.>.0.V.7.( =.*.2.x.Q.8.^ #.9.N.V.q.B.x.9.N.4.8.`.`.S.i.8.&.G N D >.4.r.u.>.:.:.) ( ) E.R.0.7.,.7.A.<X X[.Z.{.<X<X4XGX0X| ",
") *.q.u.^.rXV.a.7. .7.^./.4.^ A V ^ ) <.d.a.) ^ ^ ^ V ^ ) A K ) ^ K A V S ( q.R.E.7.uX:.6 , K &.&.0././.i.,.,.,.7.u.i.Q ( ( ) ( :.0.A.^./.A.e.( ) ( ^ K K S G @.) G ..*.&. .G h h V @.r.| t.C.x.i.&...>.,.K.H.d.p.H.,.,.e.p.H.a.H.d.y.( Z ! J.F.-.W.8.( S k W S l - % *.E w.w.w.w.*.L s e L L E J =.} .X.XXXoXXXT.-X-XT.vXPXJXmXuXuX2X1X).) 7.(.).0.u.'.a.2X1X^.) K :.w.i.a.^.{.^.^.V.a.).2X2X^.u.<.,.{ K A A K G i.(.7.^.E.r.V.a.w.*.<.E.3XqX X'.V.0.<.i.i.i.:.) S A A ( 7.7.>.q.p.0.x..X$X$XxXFXDXnXaXMXfXcXCXCXt.' W 1 & @ o @ w n F 7.MXlX1X{./.<.,.i.V.`.@X4X4X[.i.>.7.7.i.A.6XR.'. X9X).i.7.A.<Xp.u.u.^.9X4XuXuX/.p.i.r.) ` 1.` j j S A m q b b B b G 4.7.p. X).^.). XR.v.w.;.*.U. X@X#X$XU.].].'. XaX9XC..X+X~.v.v.c.].c.].x.] g ! '.dX8Xq.7.'.~.q.tXCXtX{ G v.5.B.F.C.x.8.~.&XF.XX&XoXg.8 X A 2.] C b d g b C c 6.7X/.s.(.r.@.,.@.@.@.` ,.:X(.dXaX[.[.s.,.#.,.@.i.r.@.7.r.8.&.@.@.@.7.|  .4.2.0.i./ :.<.i.2X1X/./.'.].v.x.+X].{.S.C.].`.B.=.| 5.~.].Q.S.7.{ 2.7.Q.C.x.B.5.2.7.S.Q.{.`.S.q.) ,.a.E.0.0.<.:.:.) Q ^ :.A./.i.7.7.(. X{.2XV.<X7X>X}.`.0Xv.! ",
") :.:.E.7X9X(.4.p.)./.i.i.<.>.<.) <.a.).).u.*.) ) A N V K w.:.*.:.^ ' ^ ( q.u.7.7.u.H.c 5 e V *.A.0.a.i.,.>.@.:.>.) <.p.>.:.:.( ,.u.i.s.r.y.s.:.:.....>.#.&./ ) :.( W ^ ( G ^ A V n g Z 6.2.4.8.`.{.Z.A.A.s.r.H.A.d.) 6.s.u.a.d.p./.,.Q Q 8.G.G.5.%._ A _ W u k k 4 8 *.w.w.E E w.E L L N L L L L *.j.l.j.3.-X-XVX=XVXGXLXmXZXgXzXpXqXuXrX,.>.a.2X:XA.(.E.'.^.q.a.a.<.u. X/.).E.V.V.).a.E.3XkXzX{.p.4. .K C K ) *.A.{.qX/.^.V.^.E.V.u.w.<.V.).{. X/.i.4.:.q.a.q.<.^ ( @.&.i.7.i.i.>.8.x.E.!.5XCXGXDXFX@XvXBXvXxXGX6Xf.g - , , @ % n C G 8.gXPXkXsX1X..>./.E.S.7X9X9XV.6.2.<.7.7.7.^./.<XuX{.Z.u.( 7.Z.u.u.<.H.{.}.'.7XV.p.{.Z.( ` 1.' W _ >.A a s b J K K ^ 4.V.).{.{.2XrX^.w.w.w.v.*.v.rXaX@X].].rX@X@X].#X@XOXOXQ.Q.~.Q.#X Xq.x...7.] p c F h d 0 c { E.+X0.D K x.c.v.c.N.Q.N.8.F.$XXXXX%X=Xc.2 > q C H B.] c F c C ..D }.8X/.{./.(.1X,.Z Q $.H.K.:X/.6.p.t.#.e.( @.r.A.Z.Z.,.1.>.r.>.@./ A D ^ ^ ^ ..^ <.r.i.p.A.A.(.4X9X].E.].9X6X5XrXuXaX8X'.4...2.4.q.0.C.N.C.Z.2.C.F.B.8.V.8.8.'.N.8.N.8.&.7.R.E.i./.p.4.>.<.i.0.i.(.{.i.( :.(.5X<X7X{./.rX1X/.4X/.{ 8 h ",
">.4.0.H.uX7X2XE.[.fX<X/.(.i.^.H.i.i.H.H.i.u.,.) ^ ^ ) K ) 7.r.4.A _ _ ) { _ { A ) @.^.^ * e K i./.V.i.:.( >.) :.) ,.s.r.:.:.r.u.>.:.>.7.A.).s.,.@.u.7.<.4.:.<.<.4.r.<.K A A C A @.>.:.&.7.:.8.i.1XaX1XJ.J.p.p.#.e.s.e.p.r.r.y.u.,.) A ^ }.fX.XG./ Q F 2.%.h t t t ; e w.Y L E E Y R L h e N Y K *.b.;.h j.%X%XVXVX=XVXvXBXMXmXsXlXiXsX1XV. Xa.7.1XsX2X'.).1X1X X/.p.a.0.^.).^.0.).)././.E.).{.pXiX2Xp.7.*.K ^ { 4.).1XuX).V.q.a./.r.4.0.0.u.a.{././.^.<.4.0.p.4.i.i.q.i.i.i.<.>.7.V.C.~.OX%XMXDXFXnXvXrXuXfXfXcXGXMXC 8 , 6 w & 1 / Z G  .'.PXSXlXjXA.N./.9XR.}.tXrXi.4.V.i.p.V.p.7.N./.[.i.,.) ,.u.7.a.r.p.^.R.{.uX9X{.7.E.i.i.E.a.( W Q W 9 ; 0 e N *.k.d *./.A.<XsXlXiX}.V.k.w.w.j.w.#X5XV.uXjX7XuXfX5XrXtX+X].+X].OX@X5Xx.7.`.7.N.t.^ d p s f b d 9 D F F 5.@XB.D.3.3.9.B.D.`.#XXXv.oX$XbXE.- X g 7.5.v.K v  .K / ..H g 7XdX1X>X6X[.Z.r.@.,.y.p.J.H.,.,.e.$.D.:X$.N.(.,.e.Z.| ( #.4.2.@.t.6.@.| (  .,.7.i.>.:XuX:X6XtX+X$Xv.c.9XuX8XaXsXfXaX+XS.2.9.N.G.G.C.|.!.C.4.&...K [ 9.Q.B.Q.4.>.0.0.q.,.9X'././.S././.R.{.1X:X/.A. .( 0.V.[.2X X X<X{. X2X].a.>.9 u ",
"*.>.E.i. X7X X2X<XuX7X/./.A.A.[.p.<.<.>.<.K / / { ) G )  .&.u.u.A A *.) ) *.) ) *.` <.A # q { V.i.q.i.,.1.7.,.<.,.7.7.&.,.<.0.5.q.7.<.i.p.p.,.^.u.a.p.u.7.>.s.s.u.<.s.:.^ ) A K _ K / / *.&.8./.1XuXqXK.(.;Xs.6.:X:Xe.e.e.:. .) Q Q A / tX+X].yXO.9.c.G.] i ; ; - : G $XE.*.*.E Y J N d d N P { v.OX~.v.xXxXVXxX-X-X&Xb..XrXJXSX5X:X:X(.u.^.0.4.>.>.V.7./.uX X XV.4.K <.0.p.^.(.).^.i.<.u.<.u.2X3X).a.>.) G A K ) u.a.^.u.0./.A.q.*.*.<.a.).u.7.0.a.a.,.0.0.q.<.7.i.7.<.i.i.u.) ,.N.E.C.G.~.@X@X9X@XMXnX@X4X+XMXvXtXC 5 , q w 7 n | G G | >.9X2XuX<X{.p./.'. XQ.]. XrXA.S.N.7.0.4.>.u.F r.A.@.6.<X<Xu.u.y.^.(./.p.R.{.p.u.@.` E./.7.` ' W f.7 - 0 b B *.;.J ..E./.}.pXqXhX7X XF.x.~.#Xz.v.aX'.7XlX7XsXuXrX8XtXrX@X].OX@X].R.>.| V.V.'.Q.E.x.=.;.g.j.tX8.>.x.~.].].+X|.eX{.}.{.[.'.0XoXXX%XoX3.V - o s 7.C...c s h m N C .. .0.lXsXjXhX:X:X2X1XK.H.K.r.r.6.$.6.Z.;X<XK.H.>Xr.@.7.6.t.#.H  .>.J.7X(.A.,.7.(.(./.7.r.{. X X$XY.U.b.Q.|.}.4X'.'.i.R.`.S.6.t.D.OXnXfXXXB.4...2.! Z F H ..4.8.S.Q. X`. XV.&.V.`.S.R./.R.V.R.}.<X1X^.A.R.(.9XiXzXrX7XqX2X:X3XE.4.*.Z j ",
"{ 4.>.0.uXrX2X X<XaX7X<X).{.(. .)  .:.<.i.,.:.) *.*.) A N :.0.:.A K ) *.<. .>.q.u._.0.h   0 K :.s.p.^.(.^.Z.p.u.A.a.u.7.0.7.^.a.u.A.<.7.^.<.<.u.,.@.@.@.0._.{.).p.u.p.u.:.7.:.G K A A ) K K { D | /.wXaX(.(.p.K.:X7X1XK.u.@.S C Q ) ( ! X.S.OXG.F.oX&X.XX.a ; : - o ) *X$XE.w.L B v c v N &. XvXvXBXbX%XOX~..Xv.Y.n.F.].tXaXJX5XA.rX{.{.^.,./ G K ) 0.7.4.A. X/.4.)  .E.4.u.^././.*.A L L ^ <. X{.u.<.) ) f.V *.4.*.^.i.A.{.a.0.u.:.) @.<.0. .,.u.^.^.4.0.a.4.*.4.7.p.V.N.V.0.E.7.2.4.k.q.Q.x.E.tXMXdXV.3.5.E.=.U I a 2 5 q p 6 q C A A /  .&.7.^.s.p.p.V.`.i.R.Q.R.sX}.`.V.4.7.t.6.#.~ Q 1.r.{.kX^.^.^.7.^./.^.A.6X1Xr.1.' A <.^.u.` f.W i * 1 0 J -.4.*.I / 2.V./.{.<XlX7X<XE.9XaXtXU.E w.q.7.jXkXkXgXtXrXtXgXgX#X].`.V.4.,.>.i.`.aXyXyXtXyXoXm.n.OX].OX+X+X].D.G.+X8XaXrXaX8X4X0XxX=XW.j.C s % % C 3.4.C C C h h b F &.x.&.i.lXAXAXlXjXhX1XK.:X1XK.6.@.m Q t.J.e...( e.J.,XZ.9.4.8.#. .] 7.N.A.}./.A.A.s.p.u.i.^.Z.p.3.v.c.x.8.C.8.7.>...8.R.N.Z.6.7.Z.>XcXfXS.C.8.i.8.2.] ..*.{ 2.8.F.}.$X@X].~.c.`.6X4X}.{.[./.(.`./.^.:X:X1XfXjXlXZXZXsX7X7XpXkXsX>.2.q.u ",
":.^.u.4.A.rX<X^.p.^. X8X:X{./.) ( ) :.p.u.,.) *.:.>.,.*.) *.:.4.1.*._ ) <.:.:.u.3XpX^.h & G D >.(.(.A.).p.^.A.^.i.u.a.'.{.^.,.>.4.(.{.^.u._ r.,.<.p.r.r.).qX1X{.a.H.H.u.:.) 4.i.) C *.q.} I ..K ! ! ( /.[.Z.(.y.e.J.;XJ.i.:.( _ ( ) ( r.7.`.%Xk.+.T.XX%X} a 2 % > o N $XoXW.w.N p p b M '.SXGXgX%X%X$XE.G.xXxXc..Xl.x.+XtXfXJX7.K >.^. X2XE.4.p.^.0.^.A.).2XqX2X{.).2X).a. X2X{.2X^.a.^.u.a. X<.*.@.*.) *.K *.<./ A 4.u.).pX^.).^.0.@.^ ) *.,.u.u.^.2X .0.0.,.7.E.p.{.rXR.E.~..Xx.8.5.=.].BXB.;.fXCXi. .7...+XE.].|.7 p 8 q b 9 s / G { |  .:.7.;X/./.s.7.p.^.^.7.:XjX<X<X/.:.^ :.#.6.#.Q S Q A.'.A.u.7.r.A.^.^.^.1XR.e.s.r.1.'.i.,.W k i - % * 0 F 5.2.q./ ^.q.&.V.uX7XpX7X{.p.^.rX X].Q.q.'.iXlXiXlX@X4XrXfXZXZX5X8.V.7.4.7.V.S.i.7XvX#XyX$X#XoXXXb.l.N.C.2.x.8.X.9.L.|.|.5X8X8XfXcXxX9X:.s 8 : % C V.=.h K *.H J | ] ..&.9.7.1XAXHXSXNXqX[.H.H.>X(.e.` ` Q | 6.@.m ~ m p.>XJ.H.S.#.8.i.Z.H.r.8.>.:.A.{.{.^.>.p.R.7. X7.7.7.0.7.7.>.{ 6.{ N.D.N.t.N.+XfXfXsX}.J.t.N.`.N...2.x.5.j.=.x.'.B.x.].Q.~.F.i.<X<X8X2X{.:X/.A.{.:X<XR.{.{.{.2XpXhXhXpXpXsXsXJX1Xh >.V ",
"q./.i.7.:.*.1.) G p.1X9X8X/.[./.7.) ^ <.a.<.( ^ { :.<.<.<.A.^.).^.s.:.{ r.i.<._.pX:Xu.s 9 :.Q :.:X1X(.H.<.p.i.a.s.7.7.p.A.^.).,.i.).uX(.G :.^.A.:X{.:X/.>XpXpX).).^.^.r. .{ >.>.A c G F B g d / p.H F ..V.p.V.H.$.6.d.p.>.( i.>./ ,.r.7.S.].0Xc.O.M.XX-X3.p ; > + X h ;.w.E Y D M #.rXDXLXvX%XXXXXXXG.oX0XxXW.=.3.w.j.5XGXSXSXq./ *.) / '.qX/.:X/.E.^.E.^.). X,X7X)./.^.H.7XqX X'.).).{.{. X7X>.w.:.^ *.p.:.w.<.{ K ) a.{._.i.a.^.a.0.:._ :.4.:.,.s.p.a.7.) 7.E.7.V.<XaX X X@XQ.8.2.5.x.tXnX].fXJX8X7.7.*...].gX8X#.q q 8 d g p q ] / ^ ( 7...$.qXpX:X2X^.(.{.'.[.sXsX1XpX{.7.:.( 7.p.7.,.^ Q H./.<X,.p.). X(./.<XfX{.i.E.s.R.9XV.i.W u ; % + 1 6 N q.R.'.`.`.tX XV.0.7X Xp.i.[.uXpXsX<X X{.hXlXiXjXuXrX4X7XMXjX1X7X5.7.A.V.E.'.J.S.4XdXfX@XQ.tX#Xb.~.5XrXq.{ &.3.] X.x.J.G.>X9X@X0XvXBXFX@.p 8 o % V &...F J I I { [ H 4.4.../.(.:X6XjXsXy.).wX;XK.s.y.@.@.$.$._ _ $.$.( #.#.| p.(.Z.Z.R.<X[.2X[.i.7.r./.,X2XuXiXV./.(.7.0.V.Z.i.2.N.i.x.0.8.0.J.S.D.9XMXfX}.S.D.S.S.S.4.#.2.k.].x.] 7.@XQ.A.S.`.8XN.&.&.2.<XjX<XZ.^.pXiXiX/.i.{.2X<X<XuX7XuXpXpXsXdXpXSXa.^ ' ",
"`.V.7.{.'./.^.R./.<X[. X/.`.<X/.).a.:.Z <.s.) ` A ) :.*.<.H. X3X).u.<.,.*.:.<.{.3X@.*.h s K ^ ^ 7.<XH.r.7.7.u.p.'.^.) <.,.7.^.0./. X2Xi.:.u.(.^.2X^.s.H.:X2X1X2XqXH.<.@.) ) K C Z F C C C n g g C { :.{ ] F / | | | @.#. .#.H.A.#.6.s.@.S.`.cXl.h.P l.oX} p : o o o N m.;.E v. XMXJXHXLXBXxX%XXXXX&Xb.%XxXXX&Xj.=.5.b.#XFXLXAX/.2.2.,.7.u.rX2XV.A.,.<.7.0.0.7XuX).).^.a.H.(. X).'.3X^.E.^. X2Xu.u.u./ <.u.:.r.<.<.0.<.0.H.0.>.:.,.,.>. .^  .<.<.,.&.&.2.&.&.*.) :.0.i.R.7X8X@X XS.>.&.2.rXaX9XMXkX X(.}.2XS.aXC.b g p 7 7 6 p 6 2 ! H ..{ { K.}.i.uX9X7X2X9X'.a.uXzXiXqXlXiX}.^.N.i.^.7.7.7.7.H.A.<Xa.}.<X{.{./. X1X/./.<X^.'.#XE.i.j t : o + < 6 b *.]. X8X}.2.V.V. .4.,.>.i.).jX{.H. XrXaXgXkXdXuXuXZXlXdXsXuX1XrX(.q.0.]. X XQ.9X+X9XZXvXyX*XY.U.+X8X X&.-.3.+.j.j.C.C.|.G.S.}.8XBXHX2Xh s 8 X O d >.H *...D J } / / Z.N.3.7XJXZXhXqX/.p.2X).K.[.Z.$.( W | Q k c _ @.e.,.@.! t.<X7XH.i./.A.Z.Z.(././.:XwX[.Z.a.(.uX1X^.^.[.^.6.6.i...>.4.7.R.4XN.Q #.{.0.`.}.2.] >.`.S./.S.C.].x.:.&.2.8.Q.`.].<XR.N.V.t.}.4X}./.p./.uX<X2.,.(./.).{.7X1X2X3X2X<XpXpX/. .S ' ",
"A.[.mXrXA.,.0.^.V.}.}.8X X{.<X:X/././.,.1.u.@.@.<.u.<.u.u.<.u.s.s.u.u.u.p.u.H.<.^./.A.'.:.A C G Q r.7.7.@.:.p.).).a.7.(.u.7.<.i.{.<X2X).a.i.2X^.H.(.;X2X:X{.2X>X^.s.u.1.) ) _ ^ ^ / K ^ G K ] F m H | 7.>.C D ] G v m G ( H.:XK.r.d.,.7.D.D.xX$XF.P n.XXP 9 : o O O L U.*XCXLXGXJXBXSXJXDXBXoXW.XX&X$XF.n.XX%Xb.=.=.x.yXvXDXuXZ./.N.0.a.0.^.<X'.0.,.0.a.^.7./.^.7.7.q.<.0.a.^.^.'.2X).).V.).7X^.^.^.>.^ A { 4.0.4.<.>.:.0.0.0.` { @.) :.r.<.1.<.4.) &.7.7.4.<.*.>. .| D. X`./.<XV.8.7.N.].}.dXkXp.>.p.uX<XsXdX{ G v q 2 9 w 8 1 & J J R Y ..v.k.S.S.@XtX1Xi.p.).zXAX;Xd.3X/.).[.7.^.V.p.D.i.[.:X}.8Xi.K./.u.p.}.i.s.{.aX<X X9XR.A.p.j ; : o X 0 w e N 5.9X`.8.V.v.*.J { { &.7.A.(.^.*.) 0.fXMXgXgXaX XZXPXSX3X}.iX'.i.4.i.@XyX#X#XxX5XS.5X%XY.I.T h.+.[ j *.w.w.z.z.b.!.G.Q.+X0XfXaX>XJ.Z f d 1 O O G *.F 5.9.&./ K G _ {.8.9.].lX).#.,.p.;XH.p.$.A.e.@.! ^ ^ ` $.` m %.#.$.6.r.H./.[.1Xs.>.i.s.(.H.K.2X2XqXwXH.i.:XiXsX1X{.V.p.( ..p.i.t.7.7.D./.4./ ( / ..D.4...^ ] N.B.C.`.D.Q.C...&.D F ..7.p.i.p.V.Z.}.}.Q.E.<X<X(.{.q.Z D &.i.^.).2X2X'. X'.).p.lX` k ' W ",
"C.{.ZXsXu.*.1.E.4X7X4XsXkX(.H.[./.i.p.s.:._ :.:.<.u.u.a.7.u.u.a.{.(.a.u.u.s.^.<.(.).u.>.V V V j n V A <.u.{./.r.i.s.,.u.7.7.,.'.qX{.1X1X<X7X3X/.7X1X<XqX>X1X:X<.u.u.:.1.<.:.:.:.^  .>...>.../ ^ F F  .t.[./.t.F n G | #.r.V.A.H.p.e.7.S.S.H 2.3.X.l.*XoX+.7 o o   ` JXGXPXGXfX0XBXLXHXGXDXcX$XW.F.XXF.g.W.%X*XyXv.=.~..X.XSXrXR.{.,.q.0.0.7.2.^.p.0.{._.^.(.p.7.>.*.{ / i.V.p.'.qX2X XE.a.E.pX).u.*.E.2Xp.4.,.:.>.4.{  .i.u.0.>. .0.u.<.&.0.<.i. X^.p.7.q.>.:.,.i.&.>.i.`.{.`.N.i.8.R./.[.'.mX7Xi.V.`.uX4XSXhXv m b 2 p v q 1 - & } o.e M U ;.J J H {.gXrX7.s.(.pX_.j j A F :.0.^ 7.7.0.8.[.uX4X8X8X[.S././.}.9Xa.:.) ,.p.(.'.,.7.7.S : %   . e B N e / V.:.&...G 0 0 0 d G | ^ K Z C V h h N K I 4.K { 4.&.^.lX1X{.uXi.0. XfXcXvXfX9Xt.7.2.J I.M.T f t u u k A 2.N.+X5XMXMXfX9X`.,.b 8 e g s % . > G q.4...=.3...&.9.>.{.i.*.7.9.6.1.1.1XwXi.1.#.| W m W ( _ ~ ( @.W W $.#.$.H.J.S.[.1X>X:XH.H.{._././.A./.:X>X7XrX1XpX1Xp.7.1.>.Z.A./.H.Z.i.p.8.4.`.S.7.i.0.:.7.9.R.{.[.`.S.S.t.=.7.7.i.p.8.V./.'.A.R.S./.4X/.R.(.'.E.,.,.G ^ u.^.a.'.:X1X2X:X2X X@.2X2Xf W _ ",
"'.rXdXmX{.7.<.A.rXkX9X9X<XZ.a. .@.<.p.u.u.$.:.@.a.).a.a.^.).<.u.2Xa.0.e.a.p.^.).r.2X_.Q s h h h f h n ( t.J.H.@.,.p.H.7.( ^ ,.{.).(.qX).1XpXpXuXrXqXpXpX3X(.H.A.t.e.@.( @.1.@.( ^  .i.i.7.7.7.a.6.| @.e.t.S.D.| *.i./.A.>.! >.8.>.t.S.`.N.C 7 @ 2 k.xX%Xl.q @ O s IXLXGXCXyXBXGXJXLXLXDXFXCX%Xc.l.F.b.z.&X%XcXLXcXOX$X$XfXgX'.E.i./ I &.7.i.&.0.A.).rX1X).u.^ :.i.0.4.:.u.i.q.4.<.^.{.A.).pXiX2X/./.E.{.).A.7.0.<.*./ ,.a.E.).p.i.p.u.0.p.2X2X(.).^.q.>.:.>.{ ) ^ )  .&.,.A./.R./.[.A.A.V.A.sX{.<XaX8X}.uX|.@.w 2 w p M b 2 & & % 9 v x x x 3 w r w G i.*.,.0.V j h ^ / C N h s d d C ] ] D.G.B.] ] ].} H { 5.F.'.`.N.7.i.E./.'.7.A l o       e B B N =   O .     X O X # # & # O X X X + + o o $ 0 N N N L  .<XrXSX^.>.'.].]. X'.a.) K f.k 0 J U.L 4 4 t l h k j ( p.'.rXaX{.`.N.>.G b d 9 %   X % ^ x.3...C F ..&.7.>.N.E.V.[.4XH.A.r.J.qX(.,.$.| @.@.#.$.( ` ( | #.s.p.y.6.,.6.p.H.K.{.A.y.i.s.Z.Z.).;X>XJ.(.:X[.).:X/.r.>.@.4.^.H.p.i.t.Z.J.^.V.S.V.N.`.4.H  X8X8X}.S.J.N.....( ! ] t.S.`.}.7X}.{.{.}.8XuX7X>X{.{.<X2X^.K a./.p.{.<XiXpXsXjXsXsX^.jXuXg W ' ",
"{.7XuXrXi.*.^ Z ) s.{.uXr.<.^.A.p.7.7.<.y.<.@.d. X).r.u.)._.<.<.u.<.<.u.^.{.pXqX` p.` g y Z ^ F A m h ~ ,.6.>.@.,. .7.r.(  .p.sX).'.).i.a.^.).).qXhXuX^.p./.(.<XH.$.1.p.y.<.@.) ,.7.H.a.r.i.H.:XK.H.;X3X2XH.Z.2...7.i.p.p./ 6.R.[.{.C.`.C.{ 5 ; 7 ..$Xc.-.b @   ^.GXbXBXcXFXDXCXvXCXbXDXMXvXyXn.G.b.B.W..X&XcXtXc.].tXSXGX^.,.:X^ h D D  .2.7.i. XhX:X^.^.^.q.i.i.7.i.*.i.0.4.&.*.0.'.^.^.).3XkX2X X*.>.E.A.0.0.4.,.:.V.7X7XqX7XrXa.&.i. X2XuX{./.{.a.^.7.7.,.,.( G / &.2.4.S.<XaX'.7.7.7.[.<X{.<X8X2X4XuXm 1 8 q 6 b b 6 2 - & % . $ 1 < < r r r r r r q h A C A ^ G d 1 = , = , , , 1 9 q w w 0 w r 6 1 5 q q c [ 0.=.w.w.q.4.*.G 4   o & 0 b M I *.E *.*.2.&.V 9 8 >         . . O     .   O O O X % 5 0 s D E.^.*.0. XV.4.4.G N n s 0 4 ; - 4 > t l y s s f h 7 8 7 5 0 d ] / b - % .       O % F &. ...K { 3. .G | 4.2.4.4XjX7.@.,.H.).[.s.e.$.r.#.$.$.#.#.e.s.K.r.@.,.p.7.~ i.J.(.r.,.y.p.p.(.p.(./._.2X6X(.[.(.p.Z.y.,.>.8.S.{./.H.p.Z.J./.N.2.0.0.#.:.D.S.S.8.{.[.S.D.p./.r.y.i.4.N.S.7.R. X4XrX8X@X8X4X<X}.{.[.A.p.:X^.u.^.<X7XfXuXuXuX{.rXiX:X<.f.W _ ",
"}.A.V.,.^ ) ,.:.&.<.^.2X,.) /.uX X<.@.<.<.@.<.). Xe.u.a.<.7.<.i.u.:.u.{.3X3XiX2Xp.K.( g 5 f &./ F a 5 a _  .G ! u.>.^ G ^ :.p.uX2X^.p.^.^.7.<.u.a.^.r.p.(.:Xp.(.y._ y.H.i.,.:.>.r.;X^.A.H.K.;XK.p.H.;X2Xp.Z.1X:X7.p.A.i.7.| ^ :.S.<X/.Q.`.] y t S 5XXXh.v p o + CXCXBXbXCXLXxXbXCXbX=XCXBXBXcXz.G.F.v.U.$XCXSXMX#XMXLXZX2Xa.H.H.S c K K N K i.{.3X7XrX(./.pX(.r.p.:.:.>.4.q.,.*.4.E.V.A. X X{.).).rXu.,.E.u.H.0.0.0./.1XlXkXpXpX2X^.^.(.:X^.Z./.).^.R.^.V.7.a.a...A 8.E.V.7.4.2.i.N.,.7.p.A.7.R.`.<X{.N.! w d 8 9 2 8 p 2 2 1 < $   o + # $ = , , r r r < , 0 x e r = $ * $ # $ $ + + # X + X + + + # % $ & # & & . . 6 E U.m.m.n.v.U.U.v.v.U.w.l.U.E.OX$X$X$X#Xb.v.q.} K v ;           O O . . O .     O   O = 8 0 9 9 0 5 0 s 9 0 s 0 9 0 9 4 4 = : : > : : > % - - - 5 - #       O           O % F 2...| *.>.} F C .. .{ :.`.PXNX{.6.p._.A. .,.t.p.;XH.#.6.p.H.6.,.6.Z.r.e.y.@.s.J.t.r.) @.t.p.,.1.6.p.p.(.J.[.:X(.J.r.( G #. .0./.<X[.}.>XA.Z.Z.2.N.S.N.<XR.x.S.S.qXwX7X6XaXsXjXiXwXA.S.'./.`.9XfXrX5X{.{.<X9XuX6X/.0.i.{.<.:.7./.{.7X7XrX{.(.1X1XH.(.W ' ` ",
" XA.A.p.:.A ^ ( ` ,.( ( a.^.s.i.A.,.$.<.@.) <.u.e.<.<.s.) ^ u.u.)  .,.).7X3XiX{.y.y.m h m 9 c D C m a y s n 9 h  .7.:.@.@.<.7.7X1X).).:X/.^.p.:._ _ ,.a./._.J.A. .Q ( @.@./ ( $.,./.s.s.K.d.(.t.s.H.;X3X3XK.t.J.}.:.7.R.A.7.{ ^ ( 7.J.:X[._ n j / !.!.+.D b o 7 vXGXbXfXCXcX*XbXJXDX.XxXBX*Xb.-.n.Y.Y.U.%XMXSXSXLXFXrXrX Xa.<.) G C { x.{ | 2.i.^. X2X(.).7X,.G K ^ 7.'.^.0.4.q.&.0.E./. X X X X]. X0.<.>./.rX{.a.0.{.{./.'.2XsX{. XpXhXuX:X}./.E.,.&.7.4.i.{.rX7.G i.].E.S.7.>.,.R.A.R./ @.i.p./.4X8X4.b w p w 2 3 b p 8 p w 2 ,           . # = = = = , < r r r = $ $ + + . . . .         .                     C `..XY.Y.T.U.n.U.~.oX.XXX~..XOX.X~. X].@XdX'.5.5.2.D.S.V.7.{ h 1 # O                 X 5 y 9 0 0 d D / q.w.Q.].kXPXPXFXZXZXvXfX{.q.w.K ^ *.>.q.0.E.E.V.i.K s ; o   O         O - { N.5.=.5.3.>.| C K | { { `.PXLXkXA.r.7.6.,.#.( #.2XH.#.7.s.(.H.,.Z._.p.A.Z.7.p.s.s.(.K.,.@.~ A ( @.,.p.:X(./.H.r.,._ G _ t.7.| >.R.J.A.D.t.N.A.{.7XuX/.fX{.C.[.jXnX/.A.>X7X}.}.[.C./.'.4XD.`.+X5XtXaX@XaXtX{.rX6XrXuX(.Z.,.` &.u.E./.7X1X'.(.rXi._.mX:.` ) ",
"/.1X1XA.r.( A G V Z ` 1.7.).;Xr.) ` _ @.u.u.<.<.:.^ :.u.u.) H.). .^ A  .0.^.pX:X<./ c p N s 7 Z { H C G C h 8 7 F / ( /  .,.^.<X/.'.H.a.).p.,._ A ) :.:.r.s.r.,.Q m W Q ( ^ @.@.#.r.A.r.H.K.J.Z.r.p.J.).2Xp.Z.(.).>.>.4.p.A.2.| ^  .^.qXH.) S Q @.9.3.] c...@ v *XBXgXvXDXU.U.CXPXDXxXCXbX*XxXxXbXxXvXaX8X'.{. X{.).<XuXpX).u.<.,.) { v.E.4.<.0.&.a./.a.<X).,.:.*.) 4.^.{.^.:.*.0.A.E.^.E.E.~.*X~.'.0.*.) a.7X1Xa.V. X/.4.0.7XsXuXuXiXhXsXiX2X/.A.i.&.>.7.0.E. X4.7.q.].E.V.E.(.R.u.7.&.>.A.<X9XaX9X7X5.v p w 2 8 w c a c b p w &             X X X X X X X X . .                                             5 C iXSXCXfX#X.X.X&XfX*X$X&X#X$X#XdXrXtX X].].CXkXS.Q.D.i.i.7.9.i.8.x.&...H D v V c N K q.tXCXGXbXtX~.$X*X].w.K &.V.rXZXNXmXUXIXJXZXBXBXyXyX@X X#X@X XrX$XE.~.#XE.7.A 5 .         O 9 N.-.=.x.8.&...=./ ] / { S.6XJXJXvX[.r.@.>.r.$.r.6.#.6.@.( #.t.J.6.r.(.:X;X:XK.H.e.A.(.:X(.H.,.@.@.@.@.s.:Xp.( <.r.A.(.t.t.N.V.A.p./.A.i.Z.`.S.`.uXaXaX8XkX7X>XJ.J.'.}.A.J.`.J./.}.{.[.}.>X].@X0X#X@X@X9X@X8XuXuXuX8XrX).{./.^./.{.7XrX<X Xa.^.{.7.,.MXa.@.` ",
"'.<XrX1X'.:.^ @.^ ^ *.:.>.A.jX).) ` ` _ ` e.,.1.:.^ ) <.<.a.).u.)  .) G G ) 1X:Xr. .A y c Z H U K { G c g a h d N / :.) @.<.{.iX^.a.A.A.7.<.:.K ^ :.<.7.:.) A W ~ Q S Z ( s.i.p.K.H.K.;XH.(.s.r.@.>.t.d.H.H.H.<XA.>.7.| 2.7.:.| / ( a.pX;X$.G ( ( ! Q =.yXH : J bXvXFXGXDXvXyX*XLXJX*XCXcX@XtX`.5X[.r.6.)  .^ / ( !  .0.R.a.A.p.i.<.4.V.E.E.^.).0.s. X3X2Xu.7.0.*.) 4.u.V.'.0.*.w.A.Q.E.U..X.X~.'.'.q.).a.^. X^.p.{.7X1X2XpXhXzXpX2X7X3XpX7X:X[.R.i.0.0.i.x.4.q.N.(.i.Q.`.`./.V.i.&.>. .&./ { {.8X8XaXC.v c p 2 2 c c 2 n v 8 w &           X # # X > X # o o O   .     . .     O O O O O X o O . . O o O X y H 2.9XkXSXSXZXZXZXyX*X*X$XXX.XU.tXkXMXMXMXfX5X9XaXOX`.`.S.V.J.V.8.7.N.N.C.x.N.C.~.].rXyXvXCXGXDXgXMXrX].C.K C &.^. XqX).2XAXHXSXaX'. X@X^.'.7X*X@X X$X.X'.].].#X X'.q.) e .         s q.H | q.x.3.5.*./ | ..4.fXMXkXAXsX[.1X2Xt.Q | e.#.,.6.y.#.r.t.A.,.( e.).;X{.t.H.(.s.,.@.,.p.r.,.( ~ s.:X{.(.p.p.H.kXkXS.i.S.:X4X`. .>.t.t.A.p.S.}.}.4XsXjX4X8X>XD./.}.<X>X`.`.Z.A.[.[.eXaXfX8X5X}.'.}.9X}.`. X{././.7.../.<X'. X1XrXuX/.^.{.R.i.<X^.rXp.:.' ",
"7X/.p.^.H.7.@.)  .) ) G ^ ( <.0.,.` _ ` <.:.<.:.^.^.^.{./.a.a.:.^ _ G ) :.&./.<Xi.^ F m g c { v.] D h p p m ( ! A Q ( :.:.p.7X7X{.A.^.p.7.7.) ) *.,.:.) Q _ ^ Z S _ ( ,.>.p./.(.A.,.Z.p.d.wXA.p.7.| i.a.r.H.p.>.^ Q ^ ( / K ..@.@.@.<.<.@.(  .( W Z | Q...C 2 x $XOX*XCXFXZXcXoXvXCXxXCX].7.0.| #.[.>.>. ...^ } ^ | <. .q./.'.7.1.7.i.q.E.'.rX^./.iX2X).a.,.a.7.<.) :.a./.'.V.&.:.0.{..XXXU.U.*.*.q.<.{.0.a.<.A ^ a.).^.{.pXhXqX1X).'.(.:X:X2XS.S.V.V./.^./.V.&./.S.8.`.S./.R.i.,.,. . .p.^.u.q./.4X7X=.x p w 2 w c y i c b 2 2 &         X & - ; 4 ; : - % : % > > o > % > X X X X X # % - : o o o : % % m ..} N.(.aXZXZXZXPXLXFXCXgXtX$Xb.E.~.].tXfXvXrX#XrX#XeXeX}.[.[.J.J.i.t.}.'.'.G.eXaXfXvXgXvXMXFXCX7X).fXdX].i.0.^.'.pXsXhX).a.NXSX X:.<.<.u.^.).).'.*X#X*X~..X.X&X$XQ.v.v.5.} v %       d 8... .3.k.j.5.*.] &.9./ #./.J.uX1XH.:X[.s.,.6.t.,.,.| ,.t.t.i.A.t.@.| ,.6.>.s.t.@.,.u.a.r.,.,.@.( ~ #.6.Z.[./.S.`.'.N.i.D.>.| >.6.Z.i.@.Q #.t./.:X6X4X6X6X>X{.aXaX1XwXaX6X2.Z.D.Z.:X6X4X4X>X@XQ.<X7X9X4X>Xp.i.^.).(.<.i.A. X`.{. X8XjXrXrX<XE.u.1XrXkX<.@.` ",
"rX)._ V A ,.s.<.i.@.( ) :.) ^ 7.q.u.` ) u.u.u.a.:.).7X).).).{.:.^ @.i.<.a.H./ ) ) G A 0.q.0 0 K H c h c c G p./ ( ) ,.)  .u.1X:XsX7X<.7.7.@.) <.:.A Z ( ( ( @.( A ( / _ 7.,.r.J.p.A.).(.H.[._.Z.K.K.H.H.H.7.u./ S V s d s ..i.7.7.>.@.p.p.( _ ( ( #.5X9X,.G 7 J yXyX4.tXDXDXFX&X=X%XbXZX'.[.S.S.N.eX|.k.=...2.:.F &.i.0.u.rX9Xi.*.<.0.*.E.'.zXqX^.{.2Xa.,.*.{ K >.w.>.0.^.E.q.<.*.E.i.$XU.XXU.*.>.V.'.E.*.^ ) :.u.0.).uXuXpXsXsXuX{.^.2XqX1X7XA.7.Z.Z.<XiXhXjXlX7X{.N.V.R.N.K Z ) &. .^.rX3X/.^.:X6X8X4.e 8 y b c g a g n b p 2 :       . % 4 t t z ; : - ; - : % % ; i z 4 : % % > > : - 4 - : ; ; : - ( #.C N.R.E.rXkXSXJXPXPXJXPXPXFXfXE.E.U.E.~.].]. XdXkXkXnXmXnXfX6X4X>XA./.sXMXNXnXnXNXBXFXCXBXCXkX/.a.H.^.rXfX X/.'.rXZXhX X X3XAXPX XA *.a.u.V.{.^.^.{.{.).E.~..XT..XE.v..Xk.&.U B #   O q 5...{ k.U.b.=.O.} 8.K c Q sXH.3XqX#.r.1.| p.[.t.t.Z.Z.D.t.t.#.D.4X[.J.p.s.s.>.1.,.p.:X^.e.,.@.~ ! @.@.S ( >.i.N.S.`.,.9.A.i.| / @.#.#.t.`.Z.S.8XuXaXaXhXkXNXNXlXuX{./.>XJ. .6.A.8.>XaX8X7X4X`.|.D.S.J.`.}._.(./.2XN.u.^.7.A.{.'.6XkXfX2X X'.^.7.'.dXtXs._ ,.",
"7.) S V A @._.).<.a.).(.u.>.<.4.>.:.,.:.1.i.t.r./ K.{.7.>.7.i.^.u.:.i.H.^.{.) A A K ) rX'.s * V c n g N ^ *.i.r.A ^ :.>.,.i.p.H.lX{.<.7.u.:./ 7.7.G ^  .,.,.#.,.,.>.( S Q ( 7.p./.i.u./.^.p.H.a.A.H.p.r.t.7. .A g d s h C 4.{.r.@...:.1.(.t.! #.#.#.`.t.@.| , 3.BXxX~.].DXJXZX%XvXtX%X8XJ.}.S.R.}.:XG.N.8.../ { | / / / ] &.{ ]  .8.4.i.Q./.rX1X;X/.(.s.*.:.) K ) q.q.p.7.[.N.*.:.q.q.~.~.W.v.4./.E.,.( K / ^ K &.0.0.{.qXuX7X:X{.{.u.p.A.{.<XA././.7.rXlXzXuXrXa. X/./.0.^.E.a.'. XE.).{.^.'.hXhXwX>X9.X.H 8 Z m n a c m a 2 ; % .     o - t u y 4 ; : ; ; ; 4 : - l k i z 4 4 - : : : ; ; 4 t t 4 g :.q. .K v.E.*.E.LXPXHXSXJXmXmXZXAXPXlXrXrXZXkXMXFXSXJXSXSXZXuX`.}.}.J.`.6XnXFXJXJXFXnXnXdXdXdX}.4Xr.A.).).{.^.nXuXR. XnXuX/.{.sXmXNXPXsX^ A *.a.V.^.^.E.d.u.<.@X].$X-X&XE.U.U.w.q.&.;.B . O h =.=.G } z.b.z.U.l.].~.>.Z.{.<XAXJ.s.A.y.7.[.'.V.:X7X6X7X+X[.4X].eXrXsX[.Z.y.r.s.J.J.p.| _ r.1.e.1.r.r._ m m Q 6.N.<XA./ t.i.r.@.@.#.i.{.fX}.8.6XmXnXAXSXJXHXJXkX<X7XuX8X/.p.Z.A.[.<X4X>X'.{./.i.N.i.A.A.A.).<X{.6X7X<X<XE.p.R.4XfXmXkXaX7X9X4XJ.aXDXaX(.d.K.",
"G K | ) / :.A.^.p.,XH.,.@. .,. .) ) ( ,./.i.i.r.<.p.A.i.p.p.(.(.H.u.<.a.^.1X(.r. .) ,.7X'.y # N D b b J G 7.(.'.,.1.@.r.:.,.| J.{.>.>.:.<.u.7.7.&.( ( ) >.1.( @.@.@.1./ G ) <.p.7.1. .7.u.u.,.1.r.,.@.( Z ! V h n V S / / S.(.r.,.:.#.,.;X/.9.#.y.t.,.t.#.C @ I n.+X].~.CXMXJXHXFXkX+XC.8.2.>.:.#...6.[.v.9.| &.>.2.] / v p s g v F 4.V.#...( ).,Xa.,.>.) ) ) K K =.7.A.1X].E.E.7.K Y =.v.0.i.0.4.i.*.q.V.E.R.*.A :.q./.R.<.{.:XA.^.,.V././.i.V.A./.<X7X1X Xi.i.V.V. X). X'.^.pXkXgXrX2X<X2XuX:X_.Z.6.L.G.v a m a f m g a a i 2 %     . > 4 l l u l t ; ; ; 4 - = 4 t t i l z 4 4 - - 4 y t t t i G 4.5...*. .4.i.) ^.AXJXmXJXFXmXlXuXgX X{.sXsXZXmXZXJXSXSXSXZX7XS.V.S.S.4XfXNXNXMXMXnXsXaXrXcX#X}.Z.H.@.r.p.y.u.u.{.7.<.{.uXJXmXrXsXmXzXKXSXV.A ' q.E.u.u._.u.<.aX@X X'..X~.E.w.w.OX5.I z.w.c & } =.x.2.K 5.z.v.Y.U.E.].q.].:XAXPX1XA.[.).[./.:...>XdXaX'.S.}.@XeXD.J.N.N.D.#.,.y.r.s.r.@.#.@.@.( ~ ' ~ W S ~ | N.p.6.N.6.>.2. .! 7./.}.}.`.t.V.{.uXaXnXAX7XjXkX7X{.8XsX7XN.S.R.i.<X>X[.}.>X[.S.7.i.2XuX7X7X{.{.(.{.uXuX{./.u.N.[.uXgXkXdXdXuX'.[.sXMX6XK.;Xd.",
">.2.2.i.p.7.,.A.).s.K.s.( >./.<.:.,.:.( @.{.J.r.7.[.<X:X<X).:X).a.u.:.V 7.<.s.a.<.:.*.H./.e X g N v F H 4./.i.0.^.^.$.<.u.:.a.:Xi.,.( ( ..r.p.p.:.) ,.) ~ ( @.$.>.:.@./ ( ..:./ ^ ( ( <.r.<.:.! G S V S W :. .:.r.r.Z.7.#.>.6.,.>.<.7.y.2XJ...p.7.N.e.N.#.d o M T 0.5X-.yXMXLXHXLXKXuXD.A.8...r.r.e.#.t.Q.S.4.7.&.#...>. .C / / G :.Z.V.:.7.i.<X1X).u.7.@.) ( *.q.q.4.V.E.0.v.@XE.E.E.,.i.^.p.0.i.q.i.E./.{.).E.'.E.V.7.>.>.A.{.a.:.q.p.8.p.,.).{.{.sX2X7X/./.{.).H.2XuX2X{.uX7XrXuXuX7XsX).aX).,.,.L.[.aXb c a i i n n u u t : %     o > 4 u i i t 4 : - z t 4 % 4 t t z l u ; 4 t z u k l A )  .*.5.2...( ) 2.<.>.{ qXJXmXPXJXJXSXZXuX/.uXlX<.E.E.,.0.A.(. XuXHXsXMXnXmXnXnXkXdXuXrXuXaXcXnX0X#X0.1. .@.@.,.@.( ) i.7.u.7.>.rXJXZXpXNXAXAXLXgXv.<.E.'.'.).<.e.*X*X].a.4.<.'.w.v.w..XE.-.j.*.K c K { 9.v.&.v.j.n.XXj.tXkXC.@XmXJXKX:Xy.t.y.1.| ^ | |  .,.A.].4X>X@X].G..XB.C.N.r. .! Z ~ 1.#.~ Q m m n n S Q ( >.,. .H.qX,.! S G  .D.S.>.9.`.S.A.8.8.p.p.wXS.N.`.[./.J.qX2Xi./.[.A.>X}.6XqX>X(.A.H.H.{.pXuXiXrX7X7X1X7X X{.0.&.i.S.R.`.uXfX}.'.[.>X4XsX1Xr.K.(.",
":. .,./.(.7.i.H.a.J.p.<.r.1./.7.@.) s.) / r.r.s.,.H.1X^.(.a.^.3X).i.` <.H.u.G _ A :.7X X0.C X 0 D N N I &.V.1X^.u.<.@.^ ( ) p./.A.a.<.,.7.,.7.<.>.>.7.u.7.r.H.#.@.:.@.( ( ,.@.Q ^ :.^ ^ V V V C h s g A ^ A  .r.H.p.7.<.s.u.6.7.>.1.1.p.K.t.] J.J.p.Z.>.] Z $ Y v./ ].[ tXSXJXJXJXSX6XD.7.>...p.2...( | 9.7...i.>.{ #.| ( &.9.8.8.q...G / 7.A.pXuX2X^.7.q.:./ ) 0.^.q.A.i.7.V.4X/.{.'.u.E.a.i.7.7.<.7.q.).).:X X{.'.A.&.&.,.A.7.7.&.V.2.! *.1X).V.A.uXiX X X7X1X). X XpXsXlXlX).u.uXsXuX'.7.).>.%.2.O.J.mX| a l n a u n a i 8 - %     % o > z t 4 ; 4 4 4 i y t - * - 4 t l z l W ' l t A 2.N.E.N.6.7...{ >.V.:.*.>.)  XFXJXIXJXFXSXrXZXPXmXA.@.u.^.,.:.:.,.7.i.).iXsXsXJXjXaXiX8X8X8X8X4XeXaXnX9X,.( @.( ( #.` @.<.u./.aX^.A.1.*.d. XsXNXlXpXkX Xv.E. XE.@Xa.).CX*XE.q.,.>.rXV.N E .X.X5.5...K e S G K K 5.XXU.U.z.5.tXDX5X].kXPXAX:X1.@.@. .#. ...,.t.6.i.[.6X8XeX0X+XG.b.k.8.9.( Q ( | ( ! ( _ ( ~ ! _ !  .| #.#.1.t.A.7. .A ( 7.6.2.#.7.H.t.t.t.6.r.A./.[.D.J.p.i.R.D.A.p.<X4X/.>X7X7X2X[././.p.H.^.}.}.{.{.uXsXfX8X<X`.7.2.V.i.i./.7X7X`.7XfX7X6XfX>X,.` @.",
":.>.:.p.s.^.{.<X2X>X).s.qXa.( 1.^ ( ,.:.) 1.7.,.a.).).^.a.s.^.7.:.^ _ <.a. X<.^ A :.7X Xa.G O 5 v J K I { A.).7.&.( _ ) A ^ <.r.<.i.(.1X_.u.<.:.<.p.p.^.(.H.s.@.Q @.r.t.7.>.:.4.Q S V c f c j C n n Q ) ,.7.r.r.r.,.@.,.u.,.1.i.r.>.>.r.,.r.8.C.`.S.+XN.F d X +.%X} +X.XvXDXSXJXnXJ.9.N.S.3.C D %.! Z F C G 7.N...{ ^  .>.`.].].E.x.:...7.&.) ^.(./.(.u.*.) *.,.4.0.2.^./.i./. X<X/.{.>.^ ,.^.i.,.G  .2.A.<XiX,X{.Z.i.7.{ ( ..Z. X'.S.7.| &.{.q.:.4.'.).).sX{.). XA.A.2XiXkXpXa.r.<X7X X0.r.) C ] O.P 3.DXG.m a u i u f g a i : o   o % h C 7 t z z t i l u i z - = : 7 l 7 t W 1.' f.^ w.V.V.E.8.2.7.7.q.^.9X<.:.:.*.{.PXUXIXJXSXSX<XuXpXa.<.0.R.{.&.:.*.7.u.u.:.p.s.s.:X:X1XJXNXhXwXwX7XuXrXnX X,. .( ( ,.( ( 1.s.i.u.7.u.p.i.:.' ) <.2XAXpX3X XE. XrXE.U.&XU.oX$XE.7.,.0.`.aX).q.~.$Xv.x.*.K c F H =.{ } z.z.b.c.x.5XnXV.S.uXAXhX:XH.J.H.S.9.2...Z.>X>X:XJ.>XdXvX$X%X&XXX>.%.t.| | #...>.#.2.2.>.6.@.| @.,.7.p.,.>. .#.i.Z.,.,.9.2.6.i.D.N.Z.Z.D.i.`.}.J./.1XA.V.p.7.G ^ >./.<X[._.4XuXuX/.H.H.^.p.i.V.A.1X)./.}.[./.'.<Xp.i.A.^.^.^.4XaX7X<X7X5X'.[.}.>.,.r.",
") ) :.^.^.,.i.p.).^.d.r.u.p.) ( A @.,.<.>.:.@.>.A.).a.a.,.,.:.:.A A  .<.s.).u.^ { u. X@X)./ = > q D ..V.E.7.,.( ` <.) A A W ) :.^ >.2XqX>X>X).(.a.(.2X X:Xp.1.@.` _ | / ( >.4.:.| A p y n V A Q Q ( @.@.:.1.r.H.Z.J.i.i.r.r.7.@.@.4.>.,.>.7.7.O.j.G.5./ n 7 . P -X*XoXn.=XyXFXPXSX|.[ 3.].k.B d p 2 g V ! 2.[.`.N.i.7...{ { 5.x.V.A.R./.^.{.0.E.^.{.^.^.:.&.4.<.4.0.&.2.q.7.{.6XuXiX}.:.@.7.q.>./ A ^ *.:.(.qXp.R.R.7.&.>.q.N.R.4X<X1XJ./.}.<X0.4.<.0.^.2X7XrX/.).i.0. XkXhX1Xs.a.(.(. X7X1X:.e m X.O.B.eXO.O.F n i u m m g a : . . O - J 4.A 7 t t u l l z i 7 1 - : 7 t 4 u l k k 1.q.0.a.E.0.4.8.S.S.^.}.rX0.<.u.u.pXJXJXPXSXPXLXuX>.a.0.0.7.i./.<.<.r.u.,.u.i.1.>.<.7._.2XlXHXHXNXwXwXuXuXwXrX(.i.1.r.p.i._ ( ( ~ s.A./ ( 7.u.^ :.<.<._.hX2X,XrXkXCXvXU.w.w..X@Xq.7.i./.8XnXFXrX~.%XR.v.3.I v H 3.*.Y } Y z.W.#X@X].mXBXaXfX>Xy.pX2X<X[.9.4.8.7.(.2X_.H.Z.N.S.0X0X+X+X3.! Q | /  . .#.t.3.#.! Q Q Q | #.1.6.(.A.i.i.7.p.p.i.7.8.7.i.7.N.i.r./.6X4X[./.J.t.`.E.7.9.G V C ( 0././.[././.<X}.p.i.7.7.0.a.A. X/././.^.)./.<XR.V.^.V.u.V.uXfXfXrXgX7XR.[.4XZ G 7.",
"( ( ( :.<.@._ ,.).H.7.u.<.<.p.) ( ( >.:.,.@.<.1.<.<.<.<.@.@.) *.^ S ) a.a.u.<.<.0.^.u.<. Xq.4 > c I =.S.{.,.( ,.e.( _ ~ S V ( &.( A.:X2X:X2X).).^.s.(.H.p.J.e.@.6.@.( ! | |  .>.! S s V Q ( ,.( 1.#.1.r.@.1.7.^.K.r.r.A.r.i.p.7.| G G F i.Z.x.xXxXW.D a f ;   M =XbXY.m.&X+XGXPXZXOXJ J } +.M d b b d C H 2.9.7.D.A.2.] >.[ { 4.E. X'.{.sXsXa.a./.2X).7.a.A.) K D G ,.&.&.7.V./.uX9X<.( / H.i.#.*.) ( &.0.).). .7.R. .5.V.k.{.aX'.5XZXkXpX<X{.A.^./.0. X(. X/.^.a.7.7.2XiX1XrX2X^.A.A.). X{.E.&./ M o.l.h.! L.X.m m g F M g a : X O X % A *.&.7.S u l l z t l u 7 * 0 f t t l u k ^ <.u.V.V.).'.7.8.R.4.4.A.0.V.E.).mXUXLXSXJXSXhX7Xa.<.2X^.0.7...7.q.7.u.q.7.>.u.,.) ) ,.s.;X,XwXwXqXzXwXH.#.y.sX1X<X:X,.@.@.^ c k Z :./.p.1.^ :.A ) <.a.u.<.s.u.kXLXfX*XE.U.U.!.]. X4XgXMXMXDXFXJXdXgX<Xx.3./ C { 5.*.*.T j.~.$X|.].].9XMX/.uXhX[.1X<Xi.=.B.9.i.[.6XqX>XZ.t...9.C.yXxXB.N.`.S.N.t.@.#.6.#.t.N.>.( ~ / ,.| Q ( #.A.i.,.7.t.A.p.i.7.t.`.J.S.N.6.>.D././.S.8.@./  .{ ) K ( A C ^ 7.A.A.^./.}.:XA.7.>.7.a.p.p.p.i.,.{.rX7X<X(.(.<X X/.E.7.<.V./.9XkXnXfXnXrX7.h ] ",
"` @.<.7.u.r.:.r.p.r.A.s.s.p.7.u.e.:.:.) ,.s.y.,.u.r.u.<.7.<.:.@.) K p.(.p.:.<.e.<.u.{.qXA.7.y % B J N / 7.i.i.i.:.S j Z ^ Z :.>.&.0.^.(./.p.H.a.u.p.^.<.@.#.$.#.s.@.~  . .&.*.:.^ C ^ ^ _  .,.,.t.p.6.7.t.r.i.(.A.p.p.>.7.H.p.8.4.| G ! S.aXfXVXcXF._ n m -   M -XbXY.XXDXLXHXSXnX@XH ! D / H B +.U T [ ] ] 8.8.2.8.^ &.=.8.=.N./.i.R.{. X^.i.,.R.sXpXA.i.i.4.&.K ) ,.*.2.i.A.^.i.:.( :.:.J./.t.:.*.) :.7.a.,.,.4.V./  .v.6XuXuX<XfXhX<X7X7X}.7.^.V.).0.0./.a.4.i.,.0.rX2X<.).1XV.H.'.^. X1X7XE.c.P.+.F.G.9.l.! ! P F F m y t : O . o - J 4.*.#X XN u 7 7 u l 7 5 e @.:.f.j j Q *.u.w.<.0./. X'.N.S.9.>.E.A.u.'.).kXUXPXJXJXPXuX*.^ ) ) ) ,.(./.:./ ^ :.,.7.,.^ >.r.) @.,.7.H.>X,XZ.;XqXK.$._ #.^.:Xu.<. ._ / / S C A #.^ ,.7.1.) A <.7.:.p.{.^.).qXmXSXmXrX XE.q.p.i.J.<X7X8XaXvXZXZXZXSX<X4.*.F { z.L K ;.$XvX5X8X8XfX7X7X<XMXJX1X/.}.V.C.9XA.(.6XhX7X8X8X'.=.&.B.Q.XX%XG.aXeX6X}.A.r.t.7.t.x.B.N.t.6.,.#.( ( @.Z.#.@.r.p./.A.r.t.A.S.{.>X[.J.r.t.A.r.p.p.( #. .( G G  .(  .| (  .2.i.<X}.<X}.p.u./.R.Z.Z.>.7.S.7XaXtXaXvXkXaX1X(.,.1.7.i./.{.7XsXmXmX XG g G ",
"u.A.).A.<.:. .:.r.^.p.r.1.r.1.<.r.r.<.:.@.i.@.1.<.d.,X;X_.H.u.7.) 4.a.u. .@.:.*.:.A.2X}.,.W - 0 N J }  X1X0.A V ^ ^ _ ( ^ ^  .>.( ( ,.>.7.<.,. .| $.6.s.$.>.@.$.( :.r.| ^ / G >.6. .( ^ ! @.i.:.s.i.p.^.p.r.>.^ ,.Z.i./  .4.) / {  ./ K | /.8XyXeX#.W k u %   1 oXVX$XgXUXJXFXSXnX9XN. X'...F H H =.-.} 3.x.'.A...>.v K 2.2...N.7X'.<XdXiX/.:X/.(.sXpX3X/.7.7.&.:.q.*.:.V.(.'././.^.7.u.>XqXqX(.0.7.2.&.u.E.<.^.i.&./  .0.A.A.p.R.aXrX).iX7X0.0.i.V./.^. X7X2X^.{.^.V.1X^.q.>.V.7.V./.{.7XuX8XOXF..X0XcX|.k.j.c F P ! F m c a : o O X d ) ( 4.].~.E.q.j 4 t 4 * q &.<.,.7.7.7.N.N.7.p.Z./.}.}.Q.V.9XQ.^.N.4.N.uXmXLXPXSXmXNXAXmX^.,.1.,.,.p.}.{.p.>.:.,.7.>./ Q ^ :.7.7.u.<.<.u.s.p.).2XiX2X_.p.^.^.^ S  .( ,.7.<.) A _ ( H.^.*. .:.<.a.p.s.a.p.^.^.).kXJXgXCXgX9Xp.@.@.r.Z.Z./.`.7XFXJXnXA.(.8.] } v.Y Y ;.W.bXrX9XZXFXZXkX].8.4XS.G 8.8.{.dX2X(.6X/.7.! J ! H 8.b.v.v.xXOXQ.A.J.S.8X4X[./.t.t.8.4.9.t.7.7.>. .,.).i.:.7.H.).3X>XZ.p.t.i.H.A.J.r.i.i.i.Z.7.:.,.#.@.1. .@. .) ^ ( K ^ ^ A  ./.uX/.7X<X{.{.<X(.^. X9XrXnXnXnXgXjX9X^.a.<.i.{.7XaXgXmXJXSXuXd s G ",
"<X<X:XA.,.<.1.,.7.i.:.,.u.@.:.1.y.r.,.,.,.y.a.r.s.H.;X,X_._.(.,.:.)  .:.) @.^ )  .u.^.>.>.n o 5 N } c.rXrX^.h j 1.) ,.<.K ^ ) | >.7.u.G N ^ W ) ~ F Q ^ $.#.r.Z.@.@.>.| G / / 2.2.( :.,.( ( <. .,.7.r.(.<. .( r.A.7.7.@.7.p.4.:./ H F ^ ^ ..8XCX@X#.m k i :   1 oX=X%XE '.JXCXZXmXrXS.k.Q.N.F 8.4...N.V.A.R.>.J m ! >.{ K 2.=.} V.[. X}.fX6X'.E.1X1XpXhX(.<.4.7.u./.0.i.1X7X{.(.^.i.<.H._.(.>X<XR.4.&.7.(.{.'.R.V.8.,.{ 8.Z.^.7.7. X2X:XuX1X X1X{.V.0.{.rX7X1XuX3XuX^.7.R.1Xp.<.i.Z./.(.D.G.9X9XeX0XBXMXG.2.m a P m n m ! F m - O X o C E.q.U..X].~.~.v.G 9 b *.q.7.i.u.u.R.'.'.V.:.0.`.}.{.@X`.4.8.`.8.4./.dXdXJXPXAXAXkXkXSXSX{.p.:. .>.>.:.,.@.@.| @.,.e.@.,.7.,. .>.@.:.p.p.s.p.H.p.a._.).:.( ^ n V _ ) ! @.>.:.G ^ ,.:X1Xu.<.>.<.a.0.u.,.<.) ) s.<. X).7X@X X}.4XuX8X@X<X}.e.#.|.AXlXp._.J. .] =.j.$XU.E.$XfXtXFXMXvXMX<XC 6 6 , 5 q v S.AXlXsX{.N.! F m H 9.x.>.A K O.S.<X/.7XMXsX1XJ.J.8.( 7.2.7.p.8.7.,.u.>.:.r.7.,.,.,.1.r.:X:X(.A.p.i.Z.p.r.2.#.7.i.,.@.:.6.6.6.| ( ..,.7.7.,.,.( G ( ,.A.R.^.}. XrX'.,.p.V.R.5XuXiXrX'.,.:.&.7.R.<X6XaXkXSXDX}.@.,.| ",
"6XrXA.i.^.p.<.:.1.:.) ^ ) :.,.,.<.<.@.:.@.@.u.y.H.).,X,X;X^.H. .7.H.a.a.u.) @.) ( ( ,.u.i.V O - N B =.'./.A.^ ( H.^.s.( ^ ( ) { ,.A.).^ g Z C A Z W ` ,.$.$.Z.s.>.:.|  .7.4.>.G :.<.@.) ,.7.^ ,.p.A.H.K.7.@. .r.7X[.i.i.>.u.Z.&.G A K | #...4.BX0X$.n u i :   D Y.=XoXU.K sXNXaXpXkX<Xq.Q.S.S.S.Q.8.8.}. X}.p.{ J / Z.>./ ] ] ] 0.N.N.] /.<X/.{.7X1X2X1X}.u.7.p.'. X1X<X{./.{.V.<.>.^.2X).H.).2X{.0.>.R.(.A.).^.R.Z.A.i.| i.V.i.7.`.{. X1XrXrX1X X/.E.^.^.qX). X:XuX<XV.^./.{.<X^.Z.V.t.J.].eX+X0XeXfXaX3.O.u c X.! m m m m m - O X > N *.E.].].q.w.0.E.w.J w.m.<.<.p.`.'.@X+X].i.<.p.D.V.`.'.Q.4.p.8.6.N.rXmXNXLXJXZXgXlXuXgXZX7XpX).>.u.<.>.@. .@.(  .<.<.( 7.,.>.7.:.@.<.p.u.7.@.H.K._ :.r.,. ._ ( _ ^ @.@.Q >.:.A ~ :.u.a.<.0.e.e.a.u.1.u.a.u.:.<.<.<.<./.^.[.>X6X8X<X[.i.i.Z.r.A.nXhXp.d.).7.C I b.*X%X$X#X].tXGXnXnX7X7X1X4.0 & 1 1 < q {.SX1XZ.4.9.N.S.}.{.>...:._ Q #.t.i.[.'.i.8.7.t.,.i.'.J.7.7.p.7.,.i.8.8.p.7.t.<./ ( 6.7.A.J.S.7./ G S c S Z ( 1.7.,.<.@.r.>.!  ./ A K ) *.*.h d g g / i.i.^././.uXuX<XA.7.<X7X1X{./.0.0.7./.<X1XrX9XgXDXAX/.1Xi.{ ",
"/./.&.p.{.A.:.:.>.:.1.:.( @.H.H.,.( ,.) :.$.p.;X_.;X,X).:X^.^.7.u.,X Xa.p.:.@.) ( ( /.A.7.k o 0 B *.;.}.A.A.&.^ i.7.>.C G N.7.) :./.A.p.@.S n j m | ,.` | #.r.r.<.,.>.~  .@.| | | ,.>.7.>.H.r.:X7X1X2Xp.p.1.@.>.8.A.`.i.:.:.:.| | / ^ :.2.7.9.CXcXN.W f z :   M Y.T.&X&XK /.LXlXsXkX4.U 4.=.2.8.#.2.| ..7.A.'.'.V.8.Z.H.V./ N N K x.R.7./.uX3XpXpX).,.p./.:XA.Z.'.^.`.7X<Xa.E.)./.p.2XuX).H.K.>X{.A.i.{.A.'.1X^.{.{.V.8.R.:.( 0.p.R.3XqXpX X2X<X2X/.w.^.}.:X X<X/.'.^.*.{ E.:X'.i.0.J.>XeXt.+XtX5XtXaXG.%.] a i +.[ m F n a k 2 O O $ ) &.4.0.*.q.>.*.{ { ;.w.q.E.].].+X].].v.R.7.:.t.D.A.A./.R.D.C.V.0.>.:XJXIXJXSXlXgXuXuXlXAX9XZXmX8X1X<X(.A.p.,.S ^ <.u.>.r.u.7.p.7.u.R.7.i.y.@.>.( S ^ <.>.u.,.,.,.@. .y.r.,.,.:.K A A :.7.H.).^.<.:.<.u.^.H.<.A :.u.a.a./.qX{.A.p.r.s.y.s.(.y.:XnXhXe.p.)./.C ) .XbX%X.X#X=.3.'.7.C p 5 c N r & , 1 5 , q { }./.V.L.B.J.uXaX9X/.>.8.,.Q / S.'.5.=.F @.6.>.N.'./.t.0.p.6.Z.}.N.S.R.J.0.i.,.@.t.[.[.[.V.S.t.:./ S A W S j n / @.( @.@.t.).`.a.0.7.2.{ ) G c e h C 2.4.) 0.<XdXkXsXdXuXrX{. XE.^.7XkXdXfXgXkXSXJXJXfXuX/.G s.",
"0.u.,.p.7.>.7.:Xp.) :.1.<.s.a.a.^.a.s.u.u.y.p._.).K.a.e.1.u.a.7.A.^.H.s.,.:.) _ ^ ) ,.) i.V X b R ~..X`.'.&.V.Z.p.>.0.7.2.x.`.V.6.y.#.,.r.6._ Q Z ` _ Q G ` t.e.>.<.@.A ` @.@.,.r.u.<. .#./.(.i./.).7.H.H.a.,.<.>.p.}.>./  .@...i.>.^ ( :.7.`.DXyXB.G h y :   U =X&X%XoXE >.sX2XAXrX3.;.[ U ..../ ^ ] F / { i./.}.>.:.A.i.7.[ F b K  XA.pXuX2X7X1X^.C  .V.i.A.S.`./.N.}.<X{.'.{.[.p./.<XH.^._.{.<X{.{./.V.{.2XuX>X/.H.A./.:./ 0.2.,.^.).<X:X).^. Xv.w. X1XpXpX X,.0.{.a.7.A.uXsXhX}.i.0.J.J.eXtXeXdX0Xm m P b p M [ X.F f m m 2 O O 5 L 2.&.5.i.p.*.I =.~.v.Q.N.S.].!.'.~.C.R.7.4.>.7.R.V./.|.+X].Q.V.0./.ZXPXAXuXs.u.p.fXJXKXiXi.rXZXuXdX7X{./.i.7.`.7...( :.7.7.<.<.<.<.p.Z.<.>.,.A n V g A >.>.s.r.p.a.) 7.s.7.<.<.:.:.G :.>.<.i.i.0.u.u.e.7.<.` A ^ @.<.u.u.i.,./.aX6XJ.;X).K.H.Z.qXhXi.K.p.A.h C 5.!.!.~.~.} V 0 5 - 5 5 1 , & & * 0 8 0 5 3 N.sX+X}.9X8XuX2X}.kXaXsXaX].].@XN.J ] | @.2.#. .^ / 6.7.>.@.Z.{.}.`.S.S.J.>X>X6X<X4XD.{.Q.9.0.`.{.Z.8.r.,.@.>.,.$.7.:.@.p.{.'.'././.7.,.i.`./.R.q.{ >.A G 7.R.{.<XuXlXmXkX6X{. X[./.aXnXMXZXFXZXMX{.qXhX,.G ).",
":.2. .>.>.7.i.:Xa.u.1.:.>.u.p.p.d./.;X/._.).s.y.s.s.u.:.<.)  .0.:X:Xp.a.0.:.^ A ( ( ) ^.pX) % N B E E.*.E.E./.0.q.0.7.N { =.0.A.#. .@.( |  .( @.! W Q Q ( ( @.e.,.>._ Z ( ,.e.1.y.A.H.<.,.(.A.1.@.( <.p.,.<.i. .a.}.R.>.2.8.>.] 8.4.>...8.9.C.CX%XP H G y %   ;.oXoX=Xg.K >.lXgXJXaXE.E.3.H 7.i.{.{.[.7.i.J I 0.{.0.p.Z.A.i.>.4.| ,.`.4.).i.| | G C G / V...#.7.C.}.uX{.}.pX{.&.2.7.s.u.A.:XH.r.^.).^.7.^./.).>X/.{.2X/.0.Q.F.x.q.&.) ,.u.(.<X3X1X'.^.{.sXkXpX).:.*.0.^.<X{.rXlXlXsX`.).8XeXeXtXdXDXD.g b P M y m [ U m k m m 2 O O 7 K { | q.>.K K v.~.w.V.tXR.i.0.N.C.V.N.0.&.>.:.>./.5X5X9X}.}.}./.{.7XdXqX{./.a.).{.lXSXlXE.:.<.a.) ,.7.>.7.7.8.S.N.^ V ) p.A.u.7.p.7.i.(.u.) ,.^ ^ ) ( :.p./ >.s.d.(._.7.<.r.u.,.:.1.@.^ _ _ ) <.(.H.u.u.:.u.u.` _ @.<.u.<.e.6.| ,.H.Z.K.J.A.H.Z.1XdXaX{.<.:.s K ^ *.~.b.{ d 8 7 7 - & & * % $ & 5 2 5 5 q e b G.vXaXsXcXsXsXkXFXMXHXMXaX2.c C _ |  .i.V.i.8.7.6.i.Z.7.>.>.>.7.#.,.:.A.7X4X4X{./.N.2.S.N.N.i.}.<X>XS.@. .,.7.r.7.u.A./.`.S.A.q.2.,.i.p.V.{.<XS.E.S.q.:.<.0.V.^.>.V.}. XrXrX<X6X8X X}.6XdXrX4.b h s.,X<.^.,X",
"7.7.0.p.7.u.A.<Xi.<.u.7.>.r.u.p.a.A.^.<X,X1X3X).u.e.1.:._.i.:.V.{.^.p.<.s.7.@.^ ^ @.*./.rX:.7 x L -.E.OX~.#X`.&.J C h C 3.*.2.6.i./.J.s. .@.r.r.r.>.@.@.` ^ | $.( 6.y.>.6.,.i.y.p.p./.u.A.1X(.@.r.y.1.,.) ,.>.( p.:X8./.8.B.4.2.S.C.C.8.7.0.F.CXbXj.[ H y @   I -XY.n.L C *. XrXnXiX6X'.x.7.7.}.uX6X7.8.5.e b K A.A./.p.(.H.:.| *.4.G { / G  .{ F b b K N.V.C.3.9.N.4X<XuXlX'./.{.R.p.p.r.<.r.>.u./.}.p.)  .u.A.{.)._.:X/.C.Q.R.N.r.*.p.).uXiXsX2X'.1XaXzXhXuX7X{.0.0.'. XpX6X7XsX}.A.sXsXwXwXnXnXDXL.v c b b 8 M X.! m c m P 2 O O 0 G C :.4.{ K { w.5.~.@X XE.p.0.x.].@XE.N.8.4.N.`.'.'.Q. XfXZXDXkXjX1Xp.H._.(.{.sXZXAXZXjX<Xp.:.:.( W Q @.( ^ ,.C.x.7.:.<.r.a.H.H.i.i.,.a.^.,.) ) @._ ,.>.:.1.,.i.<.s.).d.p.s.<.,.<.@.) >.:. .:.).2X^.i.r.:.^.(.u.<.u.u.0.<.6.e.@.@.1.,.,.e.6XnXJ.6X6X}.>.( A 8 0.*.e D D 0 5 ; - - - - & * & & 5 1 2 7 0 8 d b J MXFXnXvXfXuX>X/.}.uX .f n Q #. .#.p.J.i.A.{./.7XhXiXqX7X[.p.,.@.@.( ,./.4XS.t.i.`.7.4.S.N.>.7.(.A.#.1.1.Q n >.(.( p.{./.7.4.,.u.p.^.p.p.A.a.p.{.8X'.N.E.<.7.*.,.7.^  .pXlXsXkXuXuX9X X3.e , 6 6 w j ( d._.",
"{ i.p.V.i.Z.1X7X^.p.u.<.1.:.>.s.p.e.p._.;X)./.).a.<.1.s.3X)./.).{.a.a.^.a.u.<.) ^ ) ^ 7.{.A * x W..X.XyXrXOXQ.7./ G / ( &.] 4.7.s.K.p.Z.s.H.;XZ.H.H.$.@.( ` @.( @.H.r.,.y.A.[.i.p.7.u.a.(./.<XN.>.<.e.:.,.@.Q ^ 7.<X}.`.D.8.B.`.].x.9.4.2.N.}.yXCXCX!.! 2 @   U -X-XXXU.F L N ) '.kXnX X/.N.>.i.[.`.p.A.Y e r B V.7.{.3Xa.p.i.7.,.E.N.7.&.,.V./.A.0.>.E.S.R.R.R.].{.A./.iXmXfXkXsX<X/.^./.p.{.3X[.^.A.p.p.H.r.>.i.H.{.A./.).i.H.,.u.:X>.E.).7XrX2X<X3XqXqX X(. X2X X7XuX1XrX<X{.7XrX6X4XwXaXaXMXAXMXX.d c b t t X.h.O.m n F %.a # # s *.*.7.&./ J 5.b.].5X@X{.q.4.0.].tX].S.S.A.8.Q.S.S.{.lXPXUXIXPXZX{.u.) @.r.u.^.(.1X{.1X<X(.a.:.) ( | ~ _ (  .A.7XV.4.u.a.7.,.,.p.p.<.^ @.Z.~ ) :.@./ _ n ( r.>.,.( i.s.H.d.a.) ) >.:.>.,.<.).a.,XiX).^.<.<.H.^.a.a.a.H.s.u.$.@.@.@.r.,.~ m  .dXS.7.<X*.h Z y & 0 K V 9 7 7 8 4 * - - 4 4 - 5 1 - - 7 8 8 8 q d b J.kXkXjXsXuXsX<X<X| p s F / #.6.1.[.4Xt.Z.V.[.7X2XqXqXwX/.t./.s.Z.(./.<X7X<XA.Z.S.7.R.7XA.Z.4X7Xp.t.y.,.@.@.8.>./.`.`.0.7.Z.A.^.i.r.i.H./.Z.8.p.R.R.6X1X X{.i.0.8.u.&.R.aXpXJXSXJXlXK 6 < 1 < 6 0 1 s e.2X",
"9 h ( R.{.J.iXJ.H.:X{.).Z.p.s.{ >.^.).(.p.a.y.p.:X^.p.:X).a.:X:X).a.(./.s.i.,.)  .@.,.:.*.<.9 Y OXE.q.I b } 0.:.2. .|  .Q Z ] 7.i.^.).).[.).p.,.s.s.7.( ( ,.@.,.Z.s.@.~ H.Z.1.t./.:XZ.p.A.s.H.V.t.6.p.p.<.1.( ) :.,. .G j s C 0.Q.4.8.'.].@X0XOX+Xk.[ m : +   z.=XoXU.v.b.v.N Z 5XgXkXrXR.8...J.<X7.7.Z.{ b e 5.7Xp.).1X/.^.<.A ,.0.7.>...A.2XrX2X`.Z./.N.[.}.S.8X7X7.,.7.<XuXkXAXkX{.:X<Xi.6.i.7.i.>.i.)./.7.<.7.7.A.^./.(.i.A n m Q ^ V.Z./.[.uX1X3XiXuX^.E.A.0. XpXkX6Xi.9X{.1XrXlXuX`.'.5XkXcXeXP M c a 2 M h.P.h.M P [ M M d 4 D K &.0.7.| / v.$X9X9X|.V.p.V.B.Q.Q.|.}.Q.R.S.`.uXHXPXHXJXUXHXpX<XA.@.( :.7.^ >.A.p.@.7.V.E.).(.7.) :.( W ^ ( >.4.7.:.^.A.u.a.(.K.A.p.p.a.r._ 7.H.r.| ~ @.<.<.<.,.( 1.<.r.H.,.@.( ) >.<.u.[.1X7XwX6X;Xr.:.u.,.y.u.u.).a.u.s.,.:.( ^ 7.) C ( / } x...@XN s V 7 X 9 / F V f 8 7 2 - - 7 7 7 - 7 2 : ; 2 8 i 9 6 p c b Z / u.7XjXkXkX6.b f f b m e.N.J.7XwX2XZ.$.t.J.;X1X7XwX:X;XJ.[.[.J.>X:XwXuX4X<X<X7X9X<XN./.6X/.A.H.i.,.$.p.4.&.i.8.7.6.A.`.p.H./.^.p.7.i.i.>.i.{.9XrXuX7XrXrX{.R./.R.A.V...iXuX9XC w e , , < < 0 0 b / :.",
"q s 9 G t.t.t.$.J.>X/.K.Z.A.A.7.>.>.,.p.s.p.p.(.).(.H.H.<.a.A.(./.<.^.).^.p.7.>.>.:.r.) &.'.y *.w.D A J B *.R. XN.>. .{ ^ G v :.p.(.[.,XH.r.@.@.t.#.A Q @.$.e.1.$.#.( ( r.t.,.r.A.<X7X:XA.p.Z.N.R.i.,.,.>.) s.u.^ h p p f s f C =...3.8.x.0XyXo.v w 6 < + o   B oXE.U.v.-.~.H v 2.kXkXrX'.7.>.4.A.i.7.8.x.v.C.Q.E.(.p.7.i.7.Q V ^ ( ^ G | p.).{.7X/.N.V.N.V.! V.}.Z.| | :.&.u.p.iXlX7X<X<X>.K ^ 7.).a.:.,.i.0.7.7.7./.1X>X[.p.( K.( h ^ >.7.:XiX3X2XiXsX X^.). X4.<X^./.p.i.uXgXrX XZXsXS.`. X9X0XG.M m c a a ! h.M.P.h.m.h.m m B C &.i.V.V.,./ G 4.~.5X}.N.D.`.tX X/./.`.'.}.@X8XZXSXdXV./ 7.uXAXiX:X^.<. .:.>.) G ,.a.<.0.`.#XR.^.^.>.) $.Q A ) ^ :.>.p.u.) :.p.:X:X:X[.).a.,.:.@.d.p.,.>.,.p.:.:.>.,.<.p.d.K.A.,._ G V ^ r.p.1X[.,X:X).,.,.u.<.<.,.r./.i.e.7.) / ( C ) A ) R.k.2.Q.]./ 8 s h 7 % d K ..>.&./ f t t 7 t t 7 t 7 7 t t t 7 y q q b B I v b v C @.[.H.f f v v m Q A.J.{.J.qXsXA.#.@.N.J.>X>XJ.p.t.p.K.A.J.J.J.>X4X6X>X[.<X X>X}.N.6.A.A.p.i.<.<.r.,.#.{ &.7.9.S.S./.H.A.R.u.<.u.,.i./. X XR.E.'.^.'.'.^. X9X{.R.G c V 0 r 0 r 0 0 r 0 1 3 w e q ",
"9 a i & 2 m @.%.Z.p.t.t.A.H.H.Z.i.^ @.,.y.^.p.u./.i.d.7.p./.<.1.e.<.7.u.p.<.<.<.7.u.R.7.( ( : 0 I ..G Y } =.8.N.5.7.&.&. .C j F ( 7.y.>.S m n _ 6.( Z ( ~ #.#.e.s.r.#.K.Z.s.y.@.( 1.p.p.,.s.t.7.~.Q.8.>.:.G V V s h Z ) V h G / ] / J B.Q.].I e e b w 1 X .   b U.c.~.*XU.*.z.Y J  XgXuXQ.9.8.i.:X{.R.4.E.B.B.V. X{.(.V. .( ( #.| ( / :.>.p.<X3XuXH.7.0.>.>.&.{./.&.&.2.:.F p.7.t.qXwX1X<Xi.>.>.| 7.<.:.7.J.A.>.:.p.:X(.{.<XA.7.<X2./ ( :.{.pX2XuXiXhXiX7X^.}.1X X X Xi.V.aXMXkXuX XsXrXR.D.N.Q.0XB.v O.M a c c T P.I.l.l.l.m v { i.'.V.V.7.7.7.7.N.S.`.5X9X'.8XdX X'.}.@XtXMXgX5XrXS.D.r.*. .,.}.pXuX/.<. .| &.^ V V :. .^ V.].4.<.<.:.@.@.Z S 1.&.,.>. .^ S ^ ` <.A.(.(.H._.r.,.r.A.p.>.@.>.r.) ( @.^ Q e.p.(.1X_.$.^ Q r.A.p.qX1XqX:X[.,.$.:.1.,.:.e.<.s.p.,.:.@.) )  .7.E.`.`.[.tX].9 9 y d 9 , w I ] ..B.A.>.n 7 4 4 t t y i p u i u y q s 9 1 w e e w d b w 6 < d v c v ! ! t.:X6X[.H.A.t.H.H.N.H.:XS.Z.t.t.@.Z.H.A.Z.J.J.J./.>X<X}.7X6X8X8XwXkXZX7Xp.,.` $.u.Z.S.R.Q.'.].A.}.8XJ.7.7.A.{.u.7.p.N.p.R.{.).{.}./.}.^.7.A.A.^.) C e 6 = 5 0 0 r r r 1 = = * ",
"7 p p 8 2 : p m @.y.s.Z./.(./.A.i.r.,.r.p.A.p.<.^.a.p.r.^.(.7.p.s.<.1.u.a.*.) :.u.i./.7X9X^ : d *.*./ Y ;.} 4.2.8.V.V.7.&.j h s g G / S g c g |  .A Q _ ( ( #.t.6.r.e.y.1.@.>.1.$.@. .,.@.( p.Z. X@XV.>.( Z h d f F K C 8 F =.H c C 2.3.N q 1 9 w w < + . .   v b.*X*X$XW.v.w.g.*.3.dXsX} 2.[.aXuX{.7.[ w.Q.D.A.sXuX[.A.>.( G / { &.0.7.) <.0.p.q.[.N.4.0.8.7...&.7...G C F r.u.i.[.H.V.Z.i.i.8. .&.7.u.^.`./.R.8.0.S.C.R./.A.{.R.2.[ &.2.i.2X7X{.{.1X<X1XuX<XuX1XrX).0.S.`.'.7XuXmXHXuXV.D.`.x.G.v p +.m u a b J h.h.O.o.I.[ ] E.~.Q.i.7.4.7.q.8.`.}.7XaXrXaXdXdX7X@XfXSXCXrX0...N.i.>.s.,./ ) :.^.>X).7.:.>.7.:.G A ^ ^ ( :.i.7.p.<.<.( ( _ W >.( <.>. .( ( ^ ^ ) :.y._._.A.y.s.p.a.r.r.1.1.r.( :. .W ` e.p.[.2XpX).@.>.:XlX:X^.,X2X2Xd.H.u.` ` ( @.<.,.:.r.<.>.&.:.,.7.p.V.A.}.5X+X..y p q g y & X N ] } x. X/.i.( f u y l y /  .g i i y f s 5 , & & 1 , * 5 6 3 2 p v H !  .Z.H.>X{.:XJ.[.sX>X|.>XZ.D.J.8.D.[.J.;X[.A.Z.p.#.! _ 7./.uXuXaXdXaXAXAXZXuXs.y.y.$.,.H.`.Q.S.Q.`.A./.aX9XV.u.<.7.p.i.A.A.A./.}.7X7X9X X/.E.<X Xi.7.A e 0 1 5 * e 0 < 1 * = = 5 5 ",
"q q p q 9 2 1 a :.r.p.Z.H.^.A.7.1.i.r.,.H.[.p.1._.p.:.) :.u.s.^.u.<.:.^ :.:.{ G | 0.7. .i.u ; * b J b O.j.;.8.4.N.N.S.7.^ h 8 * % 5 h q e b J ] G m G Z Q _ _ ,.s.t.p.A.@.` ( ~ _ ( 7.i.p.i.<.i.]..X&./ / C G | J D H C c D N d a p p 1 6 q 9 6 6 < $ . . .   q v.$XoXU.U.w.v.*.} x.8XfX8.I uXkX7X/.>.K *.].uX<XiXrX{.>.( c h F *.q.0.p.<.u.<. .^ :.4.| ^ 7.7.V.A.V.7.^ G / /  .A.^.a. .| /.u.7.q.( p.E.i.S.[.'.}.V.N.7.9.9.V./.N.8.0.N.i.>./.2XA.2X7X{.7XuX2X<Xa.).7.x.q.:.S.kXkXMXPXHX[.|.`.z.%Xc.j.P a p a c M h.I.j.X.] j.c 5.@XV.N.q.V.x.Q.@X}.aXkXmXaXiXHXLXDXSXcX9XBXfX*.( :.u.a.p.7.( :.7.r.>.,.).A.0.7.7.7.<.:.) 7.u.<.) <.i.:.Q ( @._ ^ ^ ..7.@.@.$.,._ ( 1.@.r.H.H.,.p.r.! Q :.,.7.s.<.:.1.H.y.r.s._.3XiXpX:Xp.:X2X3X[.>X;X>X).<XpXu.$.( ,.y.y.r.,.,.>.7.7.i.i.7.<.V.`.9X{ s y y s a 2 % & D U 5.C.S.`.J.8.2...G K *.>...| G g i f h p 1 & $ & & & * 1 1 w 8 q C ( >.t.p.H.J.J.Z.,.r.Z.>XG.J.Z.k.N.}.5X{.J.:X1XJ.#.@.( ` @.y.A./.[.9X'.uXuXuXsX<Xy.e.e.e.p.}.}.R.A./.i./.V.S.`.A.7.p.7.R.}. X<X{.4XaXrXE.a.{.rXaX0.) C V 0 1 , 5 5 * # $ = % * 5 5 5 ",
"w v 8 p p 2 w 2 c @.,.r.u.7.r.:.7.e.@.1.Z.[.i.,.<.<.^.^ )  .<.<.<.<.:.:.:.0.R./.S./.0.G g ; 4 O , b d b k.x.5.i.>.{ C d 0 1 & * , , , , , b x 3 b ..N.6.#.( F 7.4.Q Q #.>.#._ Q ~ | @.y.).^.p.( { K ) &.&.^ F K ] D v K ;.I e d q 1 6 w q r w w < < + .       b v.Y.-XoXU.U.].*.] 0.'.ZXfX9.&.C.].V.x.v.3.'.dX}. X^.<.^ ) ( ( ( :.0.4.7.<.u.:.V V ( ^ ,.2.V.i.N.S.V.V.| K | ^ ( :.).:Xu.>.p.i.,.i.G F { ..7.E.A.`./.N.S.p.Z.V.7.H./.8.V.N.8.i.A.i.^.:XuX<X X{.S.E.E.7.0.q.{.rX<XmXgXdXMXQ.G.F.z.-XF.c.m a b a P M.M.+.] c m m 2 =.%XQ.B.v.C..XyX#XaXNXAXmXkXSXPXrXtX4XN.7.8.x. .^ ) :.,.u.1. .<.:...(  .u... .:. .,.^.a.s.p.u.:.W _ *.W _  .( _ W Q :.S.7.r.,.@.@.@.p.,.r.p.).p.<.@.~ ( ^ @.r.r.r.<.,.,.:.p.H.H.:X2X>X_.[.:X{.<XqX2X).a._.a.e.1.` r.y.e.$.K.H.H.<.i.p.y.7.7.p.p.`.5XG u p y f 9 6 : : O.~.OX4X<X`.S.N.5.I { *.z.j.9.q.5.2.O.[ c a p 5 1 & & - & * , 2 w a s ! {.t.t.H.p.t.i.Z.>XqX>X:X>XN.9.t.[.{.D.J.[.J.J.s.$.$.( ( ` Z ( ,.i.S.<XnX7X{.r.y.s.y.d.(.A.J.A.p.,.r.uXaX{././.}.p.,.u./.}. X X<X`. X X}. X9Xu.^ ,.G d 0 4 5 4 5 , = & # & ; 5 7 8 ",
"$ e v 2 8 p w 2 8 Q ) @.@.:.@.@.7.7.p.uX).t.r.r.^ /.3XH.<.<.,.@.,.,.( >.Z.E.'.i.{ | G / ; - 7   X 0 b s K C.{ ..G 0 < , r 6 , 6 6 5 1 , 6 e M x x B =.2.] ....[ D g 8 8 d c G _ G _ ( G ^  .r.1.V h *.a.&.C ) K K { H 5.;.J h s w q w d b w w < $ + . .       w U.=XoXoX&X$XfXE.0.V.N.tXtXq.x.N.].x.C.~.E.`.7.>.:.>.A ( _ A ( #.>.7.0.7.( Z ( ( 2.*.|  .4.N.p.R.A.S.2./ >.2. .&.:.) /.(. .7.7.0.V.>.,.N./.<X{.'.}.A.,.{.6X{.1X(.{.{.Z.7./.}.[.A.u.Z.<XiX{.[.wX0.a.^.<XV.>.N.x.q. XtXQ.b.c.g.j.G.xXk.%.c g c F T T.M.P b m m c p ;.OXQ.C.E.rXyX.X9XdXSXmXsXkXJXFXi.| ^ { ../ 2.( G ^ ( >.:.>.,.:.^ ( @.:.>... . .{ ,.(.^.^./.a.e._ @.>.^ ) >.@.:._ ( 0.V.7.,. .( ` @.s.H.s.H._.K.<.) ( G ) @.:.@.1.a.d.,.$.<.p.H.K.A.p.^.).i.A.1XpX{.[.<.@.s.r.@.@.H.r.` ,.y.p.H.p.p.H._ ) :.7.7.'.8.h l u g f 7 8 % 9 j.fXcXaXaX}.V.Q.S.3.g.O.3.] ..2.x.E.c.b.{ n a i 7 ; = * = - 2 , 2 a | [.S.J.6.Z.A.i.i./.4XkXwXeXH.7.6.8.J.J.[.:X[.:XeX>Xp.:.,.<.Q W | @.y.A.sXkX9X}.p.e.1.p.H.p.7.p.A.>.:.A.7XdX9X X/. X/.)./.{.<X8XuX7XR.rXfXE. .7. .7.u.G 5 5 9 0 4 5 , * & & : - 7 9 9 ",
"+ @ e c 2 w 8 w 0 9 @.,./.A.,.,.r.7.i.i.i.{.A.r.i.<X<X).a.A.u.a.r.y. .,.8.N. X .b c :.f : 4 % O   5 x q J *.N h 0 < , 5 , , * * , * , 1 < 6 x x x x v I 4.#.F c b d p p 6 5 a s p s h G S j p s ^ _  .( y s D K =.] { &.N c h q p b x e 6 < $ # + + . .       w T.=X-XoX&X~.E.7.S.{.9XfXuXv.Q.}.@X'.`.E.x.C.4...>.>.A A @.7.r.$.>.<.:.>.) ^ 7.R.1XR.7.A.8.7.N.S.S.J.2.| >.7.u.7.7.7.:.,.u.<.i./.1X^.'.iXrX<X(.<X4X}.}.:X{.'.[.R.{.'.{.A./.<XH.6.i.{.<XpXiXmXiXS.i. XsXrX2.&.0.i.S.nXvXcX5XOXOX%XcX9.9.m ! ] +.T.m.M M p M X.a b U .X].E.~.vX#X].8XuXHXIXHXdXkX}.i.{ / ^ | &.2... .( @.u.r.:.( ,.<.:.:.(  .^ >.,.7.i.A.^.p.p.r.,.( $.,.` ( :.7.u.) u.7.^ ( @.,.7.1.@.| y.;X(.H.Z.).( C Q ) :.@.r.^.p.>.,.H./._.).p.@.>.H.i.)././.3XwX:Xy._ ^ u.^.H.e.` _ e.e.1.r.p.A.<.( ) :.i.R.N.a f f j j u 7 5 % + e U OXfXfX8X}.9.9.x.x.2.#.^ F  .k.~.E.l.z./ v h y 4 1 : - 1 , 1 p C x.9XC.S.S.#.#.7.>...6.J.J.K.H.r.s.t.t.7.J.6XeX}.t.J.[.^././.r.,.1.1.p.qXaX}.#XgX4XuX2X[.>X}.2X7X{.:._ >.H.[.`.rX}.R.A.A.i.7. XuXaXfX`.'.BX'._ a.a.:.u.C 5 9 9 f s 0 = % - : - ; 4 y u ",
"  . $ 5 5 6 s e 5 2 p m 7._ ( >.@.,.@./ /.`.4.V.<XrX>X7X>X(.A.H.(.[.{. X4X].`.] D G 9 : - o O     % w e J K e * < = * = * & * & & & * * , 5 e w 3 w b B v w 6 < < 6 w 6 w q 9 1 1 2 9 h C n y 5 7 p t 2 2 7 b } -.q.x.=.g Z b * 5 < , & $ $ + + + .           N -X=X=X=XxX@X{ 8.C.aX9XQ.gXuXfXfX X8X<X XS.E.`.4.=.=.'.7.,.^.).0.^ ( ,.>.7.Z./.i.6X6X0.7.i.V.R.7.>.i.S.S.7.p.}./.,.:.1.,.t.>.A @.<X7X}.<XuX7X7X<X{.7XsXuX`.Z.4X>X5XvX].{.A.t.i.6.:./.uXwXqXwX7XkX<X/.4XuX X'./.N.`.}.5X X X8X4XfX$XX.c.O.XX+.O.m.U g a 3 8 M 2 a J c.c.Q.Q.{.}.0X9XmXJX8XV.wXuX7./ 7.,...@. .>...&.^ >.a.1XR.:...7.p.7.^ v n C G :.7.,.7.<.r.u.s.y.1.,.$.^ :.<.s.@.( ^ ) y.7.7.1.,.r.@.<._.7X:Xd.K.( Z ( @.( @.u.,.^ @.) p._.).(.H.u.i.1.7./.(.<XwXwX(.p.r.p.p.R.(.u._ S ( e.$.$.e.y.Q ` W n V '.v.p u 8 f S 8 5 2 o + 2 q x 9XdX8XeXD.S.G.J.G.k.x.x.V.tXyXc.O.H C H I C y p 7 : , 2 p D ] { v m v / >.V.p.A./.uX>Xt.Z.i.J.2Xr.~  .t.J.>XJ.[.eX[.8X6XJ.s.p.J.y.A.uXaXNXcXdX>XuXMXfXqXwXqX6X/.1.W S A :.7.V.^.u.R.[.^.,.0.}.9XrX X`.R.fX7Xa.,.) ^ 7 9 0 0 9 y 0 * - ; - ; ; i l s ",
". X = # , 7 q 5 , 5 2 2 p p c _ @.,.,.7.x...! I J @X#XtXaX6XJ.A.}.@XfXnXMXnXN.D D 9 : % X           . 6 e , $ $ < , , 1 , 1 5 , 1 , 5 9 6 q 6 r 3 w w 6 < , , < , & < & $ , & , , 1 1 2 8 5 q b b w 2 - 2 8 H g.*.$Xq.G c d 0 # # + # # + + X . .             x I.Y.&X$XyXcX`.2.V.].x.`.nXBXbXW.;.<XdXrX}.}.rXtXW.B. Xp.u.<.:.p.&.G ,.V.R.p.i.i.0.A.^.V.{. XR.G m ..V.x.N.:X}./.r.:.1././. .c m >.`.<XiXqXuXaX6XuX<X2X7X7X<X/.J.5XBX'.p.Z.p./.[.V./.{.2XuX[.2XAXAXuXsXuXiX1X/.<X7./ (.<X<X{.<XGXeX! G.M.h.k.n.n.P g p i 2 2 w b B z.v.`.A.`.}.@XnXPXqXV.{.[.Z.:./ @...( | 2.....&. .| 8.R.C.| G ( /.A.u.:.F | H / u.r.y.e.7.s.d.p.H.r.@._  .q.^.<.( A ( :.7.r.,.,.:.@.@.1.H.H.r.i.,.>.,. .>.r.p.) _ $.) @.u.H.2X/.`.A.&.7.<.<.^.1X).K.,X<.e.A.@./.(.7.p.A.r.$.y.y.' ` 1.u.,.1.@X`.y f f j j 8 u 9 % + w b w 9.+XeXJ.<XaXeXG.J.S.~.$X].BXfX&.F I U Y P C V Z V p - 6 d q d c d p f n G 9.{.{.8XNX>Xr.1.#.` ( ^ / e.$.r.t.N.:X7X:X[.[.(.>X(.A.s.y.Z.wX9XsXBXNXwXBXsX<X}.[.p.6.A.A.) :.A.(./.A./.6XrXrX5XA.<X<X X7X/. .{.0.` C G C 0 0 5 4 1 = - 4 4 ; 4 4 7 4 7 l ",
"X X # + # , & 1 9 1 @ ; 2 8 p m @.7.7.Q A G G n =.-.+XcXBXOX5.`.@XtXaXfXgX}.[ c 0 % %                   X + X o # & & # * 1 5 , 2 1 5 p 5 6 , $ r 3 < & $ $ & < $ $ + + + $ # $ & , 1 1 2 - 1 r w e 1 % % # J +.T b.D N 0 & + + + + + X X X .                 I T.x V x.].@XtX0.C.].].gXdXOXOXc.x.=.9.8...0.8XtX.X].A.s.7.@.:. .:.*.&.,.4.7.i.,. .q./.7X7X[.V.&...>...N.S.V.A.Z.a.p.r.A.).<./ { 2.7.| S.aXlX`.R.tX7X/./.}.[././.`.5XE.7.A.>X<X`.{.8X<X`.[.J.wXNXSXZXAXAXmXaX X7XA.R.uXSXZXrXS.aXB.%.G.P.+.+.oXm.M a 2 8 8 2 w d N m.&XE.2.@X].9.mXMX'.7X:X<.y.7.7. .^ { 4.>.>...| *./ 4.=.} ] K { 8.(.i.V.| 7.&.K G ,.p.u.p.A.^.H.).;X,.V ) q.p.,.( *.,.r.:.>.7.@.@.,.,.,.r.1.s.r.,.:.,.r.y.K.p.1.#.:.p.r.H.).>X/.7.i.,.7.<.u.p.iXpX).2Xe.` K.,.>./.4X}.t.$.<.:.Q | A.A.i.i.p.@X Xu u g S f p 8 y % . b x w p C s.iXaXfXwX>X>XD.~.*XC./.V./ K O.g.I K C ^ ( Z A G C q , + % q b v m n A 7.[.wXmX[.7.#.r.@.Q @.@.,.r.,.t.K.eXqX:X>XqX>X:XJ.s.` #./.wX}.'.fX9X6XkX<X7XkX>XA.>X7X5XrX1X9XiXuX<X<X<X XuX{.7./.rXaX'.9XE.V A A C G 0 0 0 1 * * : - 4 7 i 7 i u * - 4 ",
"X X X X X + & 5 - & % % : 1 2 a _ @.6.S.S.,.A ] $X{ v ] x.*./ { 4...=.{ c d q - % X                 & .     . X . X X X . + % % % @ : 5 q q 9 6 * , $ + + X + + + + + + + + + + # % # # # % $ , $ $ @ o X . $ p d b g d * * % # @ + X .                       -.T.C g H +X8X9XS.4.F.MXZX9X9XfXv.x.=.&.R.S.8.}.].C.E.{.<X[.a.>./ / K ,.0.7.A.p.u.i.1X X{.(.{.'./.x./.N.{.<Xi.i.7.i.,.@.>.<...( ....7.G >.7XuX~.v.k.<X:X}.7.t.2X{.V.i.i.i.A.6X'.>X}.uXjX<X}.>XdXdXdXmXSXJXsXjXlXuXS.aXaX'.7.| / ^ b ! %Xh.m j.M.M a 2 8 8 t 2 x b b I.&XW.=.cXvX*.8.( i.:XH.,. .>.p.:./ 8.V.>...]  .>.:. ...*.} ^ | 7.J.2.,.V.0.>.) ( ( ) :.,.s.s.d.a.K.s.^ ( ( :.:.:.:.<.d.:.( :.r.,.y.H.A.1.7.s.s.p.( ( >.,.A.7.1.<.p.).p.@.r.(.1XR.V.i.0.p.^.rXwX2XH.).7.@.r.r.~ >.Z.N.@.1.r.g ( A./.H. .p.^.7.Q.f a j j u u 7 9 %   . r w b d y.nXnXsXjXtX5XG.#XvX8X9XV.^ C } l.J N g n ( *.:.#.] c $ & & < 5 q m ( (.( H H.D.7.r.K.qX6X_.aX1XJ.s.p.y.p.H.[.J.6XqX1XJ.H.p.J.}.[.7XfX'.J.L.aXNX}.| @.G C Q /.9XdXgX7.7.sXdXfXpXuXaX7X(.{.aXsXR.{.&.V C h C g 1 0 4 * : : : - 4 4 4 7 u 4 4 4 : ",
"= X O     # r * % > : % % : - 2 h Q  .4...A F ..*.{ / S n { >.8 p 9 - % X X O                     & M b %       . X # , & # # % X X + & * 5 0 6 $ # # o X X X . . . . X . X + + .   $ - & & - 1 q q d g m m m b w 1 & # + X X             .   .               B *.{  . .N.`.`.S.&.5.mXdX9XfXgXtX}.B.3./ J =.~.N.`.7XgXuXfX1X/.^ K { 0.7.p.A./.{.uX:X(. X).rX1X/.`.}./.4X9XZ.p.7.r.@._ i.>.K G ^ { / A / K >.].`.x. X).R./.{.`.S./.7.7.7.7XsX8X/.Z.}.<X{.`.[.J.../.ZXSXHXmXmXZXE.<XfXS.] ..2.i.&.F Q G.j.$.G.P.M 8 2 2 2 2 8 P P b h.R o.G.cX$XC.G ( i._.A.p.>.@.V.7.| 8.N.V.&.^ { A.R.8.q.x.=./ ..i.r./ 8.V.9.p.7.:.@.` ( Q ` 1.1.#.,.e.7.7.&.^ ) i.r.r.H.<.,.e.r.p.<.p.(.s.).r.:.,.! ( @.,.@.@.H.i.^.^.r.` u.A.{.6XR.V.^.[.rX<XH.^.>.$.1.` ` _ ( ,.7.@.@.7.@.y :.:.u./ Q 7.}.}.V.y k h u y 9 8 y %     & M x w a D.jXNXnXnXeXaXLXwXH.Z.>.( Z =.;.C C J B ^ G { &.H c h , & & & 5 q v H e 2 q p v F >./.6XqXnXhX3X1XH.#.( $.J.[.H.(.p.W _ p.V.A.>XdXaX}.D.jXIX9Xc h f n ( ,.}.aXaX/.7.H./.Z.dXnXkXFXDXDXMXMXZXkX9Xi.G V V C * - * - - 4 - ; 4 7 t t t t 5 t 7 : ",
"M x e e x B 0 # o o o X . o @ : p b c y 8 s c d s c p d s 8 -                               o + o < M B R B b < = , , , $ # X         X . . + + # + o . O O .                   X >.9XfX5X@X+XD.9X9X0X+XtXMXBXvX0X0XOXx.{ F { } I v b 9 - # .             O   D E.| 8.x.9.8.7.#.4.N.ZXrXgX4XdXfX].x.=.{ | 4.Q.].`.rXuX<X7X7X2XA.<.&.R.A.V.N.^.}.<XA.{.uX1X{. X XF.8X X`.8X/.i.p.>.r.i.7.p.>.K ] H H / ] ..0.N.Q.<X6X/.(.H.Z.V.i.N.i.7.7.{.rX8XuX<X9X`.`.V.8.....<XuXlXJXJXaX) F 7.F H S.@X].].2.X.%.H J.}.D.#.g 8 8 8 2 3 U P b b P J P &XBXW.Q.^ :.J./.r.e.r.7.V.i.( >.7.R.V./ | 8./.V.5.j.U.5...i.7.:.7.0.i.p.7.,.) @.` ^ ^ :.1.y.,.r.p.8.A.7.( u.s.p.p.,.,.:.:.H.^.a.^.3X[.r.@.@.1.` ,.y.u.(._.r.{.p.>._ /.<X{.{./.[.<X<X:X_.J.K.:.,.1.$._ W $._ ) e.<.7.n S >.i.y.>.:.p.[.}.^ 8 f p y 9 y 8 p @     . 3 3 M [ a e.iXNXNXNXNX8X@./ / Q h h g V C N B I *...&.[ H v ! 5 $ & , < 5 2 6 6 6 6 w 9 9 q d m r.2XJ.H.A.e.6.$._ @.$.,.Q g n ( t.Z.:X>XjXfXwX`.cX{.3 b v b v D ] 0.N.4.G ^ Z.p.Z.[.A.0.&.3.MXDXFXCX#X5./ *.h K q > > * : * 4 7 4 4 u y u t 7 7 7 - : ",
"[ =.Y *.=.;.I D v g p q 6 & & @ % 5 0 J J s p y 9 p s b S K ( #.8.Z.E.C.9.F.C.x.c.x.*.L Y ;.z.b.b.n.z.z.z.;.z.g.;.o.Y j.T B x q r w 9 e 0 9 7 5 2 % X o @ . @ .             O   q.FXvX8XnXSXFXSXFXSXZXfXnXcXcXMXaX9XG.G.~.G.$XcXyX0X%X%X%XXXz.o.v e %         =.+XS.N.N.N.2.7.2.../.GXmXDXZX5X].x.x.2.=.3.B.N...8. XwX/.7.0.0.A.{./././.p.7.0.A./././.9X1X0.V.@X~.tXdX8X8X4Xi.i.s.7.0.7.7.N.4.| / ] ....7.V.V.7.4X7XiXsX}.r.i.A.t.7.S.A./.6X8X4X8X<X'.`.V././.N.@XuXaX7X}.,.! H C g b N G | K G ! F ! >X>X|.k.a 8 8 a 2 M I.P w N P N L W.bXvXOX4Xp.p.K.Z.y.r.@.>.:.,.0.i.i.2.G ^ ..0.q.4.q.q.5.>.N.p.N.6.i.i.u.A._ A ^ ( ^ Q ( ( r.p.(.V./.[.^.<.:.^ $.y.p.,.r.a.^.A.A._.qX/.p.e.$.:.,.y.).7XqXa.a.).i.$.( i.(.). X/.:XiXuX/.s.H.:Xp.i.r.$.` @.) Z ~ W _ ( n 0.7.p.A.>./  .&.^ Z c h u y 8 8 9 p %     . + < x I.M.F.wXNXJXSXJ.( ( ^ S V a p f f G I L 5.0.q.5. .D v G p < < & & < 2 < < 6 6 w r 6 3 2 p c Q @.>.6.p.@.Q Q Q Q _ ( @.t.[.8XfXnXMXJXLXGX@XJ w 6 e 6 0 r r = , < w e q v D / { / / K H ] } { N d V G K K q > : : : > > : - ; - ; 4 4 t 7 - ; > > ",
"C.F.E.~.x.5.j.3.j.5.j.j.k.j.v.c.-.K K &.4.2.t.V. XvXMXBXBXvXBXxX%X%X0XcXyXcXxXyXvXbXyX~.$X#XOXW.W.$X&X+X.XW..XW.U.~.E.*X$X;.+.z.h.-.-.U I +.3.3.3.| D f i 2 : X o X . . . .   s vXZXZXSXHXLXLXPXPXPXUXIXLXHXnXaX@XC.F.%X%X%X%X$X0X#XW.xXVXbXxXVX=XxX.XH I b   k.yXC.S.R./ F / ..] 4XSXLXPXIXfXB.q.9Xq.0.~.B.S.S.i.N./.A.>.A.)././.V.q./.q.7.{.uXpXsXuXsX6X{.<XV.E.@X7XwX{.V.&.>.Z.S.^./.i.7.8.&.>.0.S.`.>XD.@.4.4.sXuX7XqXA.S.7X(.>.6XuX>XjX4XaX}./.<X9X>X`.}.8X}.5Xi. .) g d b b e d q 0 e s d m m ! jXeXD.X.2 a w d d [ b b a d ;.b d J $XOXV.N.A.i.u.$.Q _ _ (  .7.i.q.4.| )  .S.A.2.5.q.v.&.8.A.Z.i.i.H.A.,.<.) ) @./ ) @.@.( ( >.,.i.A.A.i.:.A ~ 1.d.s.p.<.u.e.p.r.A.2Xp.y.p.A.,.i.Z./.:X).uX2X:X/.<.:.H.A.A.^.u.u./.).u.u.7.r._.[.K.y.$._ ,.,.i.s.7.u ^ A.R.,.R. Xi.>.:...2.S h 9 p s s y p o       X 3 3 < M l.G.k.L.H b p q q c f p V ~ ^ Z N K ].].[ K b e w q 3 < 1 < < 1 < 3 w 6 6 6 w w 6 3 2 w 2 w d F W m ( ! m m v ..6X8X8XaXNXMXtXcX!.8.b w r < 6 < < , < , < , < < 1 r r r q b N N B v J b q q e b D d # > : > > > > > - t 7 7 0 s 9 p f d 0 4 ",
"yX!.G.+XG.L.G.].+X0XxXyXvXbXGXLXGXLXLXGXHXJXMXMXfXdX8X|.>XG.j.=.O.;.;.~.vXMXBXvXBXDXFXMXDXGXLXDXFXCXZXCXBXAXnXcXvXcX0XG.%XF.U +.h.j.X.D P M H [ O.L.D.D.t.>.^ u - % o . % , , P DXmXJXIXZXuX8X6X8X4XiXAXMXMX1XiXkX|.!.W..X%XxXXXeX0X0X0X|..X!.G.F.G.G.c.c.c.J =.~.N.4.S.8.>.{ #.,. XFXLXJXLX].5.&.C.C.Q.V.S. X/./.V.Z.Z./.uXsXA.i.t.V. XR.0.^.uXjX1XhXpXR.1XlX7X[.7X6X4XV./.^.*.s.7.7.'.^.^.i.R.'.`.}.{.7X7XA.<X7XsX7XsXuX/.).1X>XZ.>XJ.p.}.8XjXnXfXuX8X7X0XeXnXA.C h f A c 0 e b b a p 8 2 8 b v v F 0XnX>X9.p q M b m P P m 2 p U D 9 v fX|.2.:.( @.7.e.r.r.,.:.( ^ ( 7.8.{ 4.x.Q.S.N.E.C.OX'.| ..p.7.7.^.^.>.,.( ( >.:.,.,.,.,.( ( :.,.i.0.i.<.:.( ) <.d.7.s.u.7.a.7.,.a.a.u.u.).H.<.u.u.(.iXiX}.:X7X).i.a.).p.p.,.p.s.<.s.i.p.p.;X^.(.^.<.S :.4X9X4XA.: ) }.}.7.A.'.`.S.S.N.N.| f 9 u f f a u o         < 3 < $ $ $ < < $ < < < < < 6 q q q p 9 8 C 4.b r < , < < 1 < < < , , , < 2 w 6 3 < < < # < , < 3 2 2 6 q b v p w w p v x.C.x.8.{ b b x 3 3 3 6 < < < $ < < $ < < < < , , $ < $ $ + & < < 2 3 1 , : & : : > > ; : ; z 4 u A g F } l.h.F.+.F.0X-XoXG.",
"OX|.S.G.8XBXGXGXBX0XQ.#X5X8XfXnXeX8X8X8XcXMXnXcXeX+X5Xr.X.D.k.U g.o.U +.z.*XvXyXcXBXDXGXCXDXLXPXIXIXPXPXLXLXLXPXGXBXxX&X%X%XXXXXl.&XXX0X0XG.] ] ! k.>XJ.S.t.| @.^ y , V -.T I w.JXSXmXJXJXNXsX6XeX>X4XaXt.y.| [.[.#.4.3.9.k.c.c.k.eXmXnXeX{.G.t.B.k.2.v.F.XXI J 3.4.8.>.7.{ 2.N.'.rXtXSXJXgX-.*.q.5.N.5X9X7X<X/.A.0...2.&.R.aX'.8.V./.<X/.R.1XiXsXjXhX<X^. XuX{.<X<X/.a.p.rXfXE.i.7.(././.Q.{.9X6X/.i.S.uXaX X'.mXuX>X>X{.<X2X<XH.Z.wX1X>X{.aXaX8XnXnXnXHX5X] m g 5 8 s V h q 6 w w 3 3 w w 6 8 3 w d v k.G.c.M b D q M P P q & B c.v.O.{ 0X#XN.2. . .( >.;X:X>.) (  .( 8.R...8.R.V.`.{.C./.`.R.i.| &.i.7.p.A.p.7.:.Q @.>.) ..u.V.7.)  .7.,.7.,.>.,.,.^ _ :.1.H.^.).(.a.<.<.u.p.u.a.).H.<.u.H.7X7X1X[.:X7X1X^.(.Z.u.i.3X^.u.7XqX2X(.H.s.u.A.i.>.N.S.S.7X) u A.`.6Xr.6.N.].|.j.S.8.W q y y f l y u o         X X $ $ $ & $ $ + + # @ + # # # $ $ $ $ = $ + $ # + + $ $ $ $ % $ # + X + + $ , , < < < + $ $ $ < < r r 6 6 2 6 w w x b w w r 3 < < 3 < 3 2 < & # & # $ + $ + + + . O O . . .   .         O o X . o @ o : : z z u z u A ) q.+XBXeXn.XXb.n..XXXM.G.XX",
"0XeX+X0X%XeXrX{...! G [ G.}.|.G.3.N.#.>.9.F.vXyX#X0X0X3.%.$Xl.g.!.-.P +.m.b.*XXX%XCXCXBXCXSXPXUXLXvXxXBXMXBXvXvXMXcXxXxXBXBXcXbXyX0X#X-XcXxXk.c.L.9.9.#.F p d I [ ..j.m.g.T Y w.xXFXMXJXNXsXkXdXnXaXJ.J.@.Q ~ _.[.( !  .t.k.3.3.+.x.nXnXtX>X>X+X9XJ.4.G.XXh.M G *.] 8.8.9.| ! | ^. XuXZXIXrX*.Q.}.C.x.<X6X<X2X/.0.7.4.7...7.7.:.:X{.{.qX1X7XiXuXpXrX{.).<X{.{.).{.Z.A.H.{.rX'. X/.^.rX{.<X/.N.N.E.7.A.7XrX4X9X{.`./.7X{.<XiXgX{.H.7XaXhXmXjX8XaXG.jXFXnXJ.F a a p 5 5 s V p 6 6 8 6 3 9 x w x 3 2 3 x p M v b x b M y M [ M m ! P h.F.%X4.Q.c.5.8.x.4.>. .W ^ ( ^ 7.7.i.8.i.S.E.V./.`.S.A.N././.(.7.@.[.).^.p.Z.:.^ Q ) >. .7.7.V.:X^.>.7.) K / :.>.:.,.u.<.) u.^.^./.3X:Xa.a.7.,.u.d.(.(.a.A.(.(.(.(.[./.^.i.Z././.r.>._ ,.).<X1X>XA./.:Xi...2.D.N.'.uXQ _ /.{.}.) 8.A. X2.d O.F p p i a u y y t o O O X % . X X O     . . . . O . O O . . X X X + + + + X X + X X X X X + $ # + + + + + . . . . X X + + X + + @ @ + # $ & , 2 r w r 6 6 6 r 6 < $ o o . . .                                   o : : > > : : ; ; t u u u k f.@.E.].q.0.OX0X.XG.0X#X%X&XOX+XF.G.",
"XXoXxX-X3.c d F ] ] 3...8.G.].D.#XB.[ #.X.j.OXG.5.3.| U F.%XW.F.G..XF.5XvXyX!.h.&XVXVXCXBXBXyXcX%Xg.O.W.BXcXl.J G.0X%X0XfXcXBXxXVXcXxXxXxXoXl.[ O.O.h.O.H g.b.c.=.-.g.;.;.Y w..X5XnXNXNX[.9.S g ~ W Z W ~ y.(.>X{.@.@./ 6.C.F.G.C.|.|.6XeXG.}.aX5X7.{ &.j.O.N F 3.V.x.v.5.2.! ] ).E.q.sXDXyXtXvX@X@XR.4XuX{./.S.7.i.p.i.r.^.i.@.7.R.^.uXiX<X)./.uX)./.uX:X)./.^.^.<.^ 7.a.i.^.).9XuX<X3X<X4X6X7.V.'.6XaX7X{.<X/.i.`.`.{.6X9X7X/.<XsXhXjXiXjXiXnXnXJ.! b p d d c s 9 s g g q 6 6 3 2 2 3 b M M x x b w b H M 2 w x y 3 y 2 2 M c I b..XG.J 4.X.N.V.9.4.2.4.>.7.6.^ / | 7.6.8.].@XS.`.[.J.A.:.i./.J.H.r.J.7.i.7.7...A W ) :.u./.i.q.p.<.) A K ) ^ ( *.>.u.,.,.( :.a.^. X2X^.^.^.i.p.e.0.a.^.).3X/.7.u.A.J.[./.^.p.7./.p.:.:.,.:.p./.).).{.{.u./ 2.D.`.<X,.f H. X9XA.,.>.>.Z / A ] c 8 p y u u i i ; o : - [ -.A : ; ; o O . X . o o @ o > @ o % % % # # X X X X . . . X X X $ , , & # @ # + + + + . . . . . . . # # # X & 1 : * : & + & $ $ & $ $ @ o o o X . . . . .                         X ; y i 7 4 4 4 z u l k f.~ r.$.+XbXCXxX].0.>.! %.t.k..X$X+X0XVXyXz.",
"VXVXVX%X%.P %.+.[ 3.j.[ ..O.O.| 2.P ! ! ! X.9.c.5.{ / ] z.U.$XW.o.c.5XfXnX+X!.yXcX0X%XcXbXcXc.b.F.F.c.F.W.j.} H O.3.X.O.%.G.BXBXcXxXyXM.oXyXXX.X0XF.l.n.F.M.XXj.b +.;.;.U b v.vX#X5XZX4X2.>.( G A Z W _ S W r.p.{.,.| >.8.eX`.`.S.i.t.>.@.p.8XcX#Xu. .>...} D D *.w.w.E 5.;.E / /.q.A w.#X9XrXfX8X[.`.`.6X4XZ.9.V.p.r.A.p.:X^.a.7.,./ 7.<X2X^.G ) /.7.^.1X/.7.).{.A.,.2.u.a.). X7X7XrXdX<X7XaX`./. X4X[.{.`.S.N.i.8XR.V.9X@X<X7XuXsXjXNXNXsXlXeXD.c a m d m n c b f n p 6 q 9 6 2 w w 8 x b x w w w 8 q 8 2 w 8 3 2 - 2 : 8 ! n B =X%X}.>.A.S.4X>X/.S.i.i.S.8.>.&.( G ^ >.v.v.x.8.i./.V.>.:./.(.p.Z.r.e.| i.Z.t.>./ ( >.7.<.p.^.,. .( ^ C ) <.0.,.) 7.^.q.7.,.( ^.3X X^.>.@.,.a.(.^.p.u.a.^. X(./.).7.:./. X Xa.( V.i.) :.r.s.7.).^.K.(.<.u.'.^.S ~ j 7 S 1X}. X7XA.#.@.( ! Z N.c d p i u i 7 : > - 7 G z.b.~.7.l t z ; : ; ; ; z z z z 2 i u k :.2.G A V d h V m s s p s d v C k ; ; z 2 ; ; ; ; ; 2 2 - - 2 8 2 q 2 2 i t z t t ; ; : % % : - z z i z z z : ; - % % % o X               o z i ; t u t k u l k k k ` [.D.Z %.G.%XxX0X9XJ.B.k.9...! / L.G.F.D.3.",
"=XY.%X&Xl.+.g.M.g.z.F.[ O.c.j.c b H / F M Q X.j.O.] ] I l.W.=XXX-.j.j.g.+.;.;.v.|.OXF.W.#XF.-.m.g.;.;.J b c [ ] M P m X.O.B.0XyX.X+X%X0Xn.OX0XvXBXc.O.I.%.h.z.D p [ T ;.U e ].CX#X}.x.2.#./ @./ Q Z m @.#.A m _ s.,.r.p.i.].`.A.,.@.,.@.m m Q Z.9XB.&.{ >.D b C K w.E L L L L x L K { d 4.vXtX XeX+X8X}.6XwX>Xi.i.i.p.Z.s.).a.^.a.r.:.<.E.^.[.).a.(.,.0.{.s.p.i.<.:.a.^.^.u.H.<XuXfX8X<X X:X X/.R.'.[.u.R.'.p.7.A.4X].9. X8X7X7XiXsXpXiXlX:XJ.m d c c c b c m c f q p 6 9 q q 6 w w w x M 6 3 w d w w w 8 3 2 3 2 & : : - M X.b 5.GXvX}.t.A.p.fX XV.r.@.:.:.2.../ / A V ^ x.x.0.9.>.7.<.! Q r.<.t.7.#.| @. .>.>.<.( >.<.u.<.>.| ) (  .:. .<.V.E.R.i./.'.^.u.:._ >.i. X/.<.u.).a.p.<.,.@.u.s.p.H.1X{.a.:.0.{.A.<.( :.:.7.<.1.<.i.a.i.p.,._ u.9X:.s y t 7 Q iX7X/.qXA.>.| @.>.>XC.w p 6 q 7 2 2 % % ; i U 3.Q.].+XJ.f.z i i i z z z z u u k f.f.( $XcX XQ.V.q.E.#X0X9. .G G ..F / 6.l u l u u u u u u u l f f f u y y u i i u k k u t t z 2 ; 4 ; z u k k y i i u i i l ; - : %           . 2 y ; y u k A.sX1XqXhX;Xd.( W g k W @.{ q.G.G.D.G.9.Q W F ! _ ! #.Q ( ",
"n.oXbX%X} o.O.-.g.OXn.;.z.XXo.b n m M m M m ] O.I [ *.] j.XX%Xz.=.l.~.;.g.-.T [ Y T +.W.tX;.;.W.-.+.I K F v P ! c F P X.k.G.5XG.OXOXF..Xz.n.G.XXxXP.[ P O.l.h.s 9 Y T ;.P e v.yXtXdXN.#.7.#.| 6.6./ Q W Q @.e.#.1.>.s.6X{.`.D.r.>.7.p.t. ._ | Z.fXcXQ.p.>.] c N { q.E L L L x N L x N e s  XZXrX+X9XmXuX7X:X{./.7.....7.p.H.A.p.p.A.A.r.u.u.^. XpX{.,.A.:.&.u.2.u.a.^.^./.^.R.uXaX@XQ.Q./. X}.Z.^.{.:X4XA./.Z.^./.S.Q.N.8XsXaXsXwX1XsXuXhXhX>X! c g d n c a g d d q p p 8 6 q 5 8 w w b m b w w w q 8 8 2 ; 3 8 2 2 2 : 2 H ] c =.CXtX}.S.i.^ Z.V.>.#.1.( Z 2.:.| G A Z C } F.b.8.| >.2./ Q 7.2.y.7.7.7.6.,.r.:.,. .:.| @.>. .A ,.a.^.(.0.a.).i.A.a.).V.:.,. .( :.u.).{.a.0./.a.u.e.^ C ^ 0.<.^.7X(.'.{./.^.7.1. .a.^.).a.i.a.p.<.7. .@.<.,.^.Z f i t t S 7X1X` K.[.A.#.7.8.OX>.q 9 2 q 2 2 - % : ; j !.x.~. XF.@X4Xm z : : z z u l k l k f.` | .XyXvX#XE.E.$XyXxXq.( { | G.X.2.( l l k u l u i i u u l j k f l u u u i u u k f.f.l l l u u i t u l k f.a l u t u u k t ; : : o       O - u t i j Q t.MXBXBXrXcX4X@X| n m k Q L.| #.t.B.7.%.#.|  .#.#.G.D.@.#.%.",
"D m / ] / F F ! k.xXyX-.c.O.o.F P ] X.%.m X.j.3.5.].=.] U b.=.P +.z.#X.Xg.;.j.g.l.T P P T g.;.b.l.3.U [ I H -.O.j.B.j.] 9.G.NXcXG.OXc..X+Xc.n.B.G.0Xk.[ h.F.U 8 8 B *.;.Y e 4.!.#XvX/.../ 2.t.D.Z.@.! W Q $.,.r. .r.p.r.s.p.7.e.i.p.e.,.| ,.N.eXyXOXx.Z.0...D D A K L L x x e x x N x e 6 h v.Q.@X4XnXwX/.i.7.2.7.>.r.H.p.r.7.>.^ ^ ,.7.i.<.,.i.(.).(.).:X{.{.1X:X{.^.2.^.1X^.<X1X4X2./.}.6XA.7.0.0.A.{.<X<XaXuX8.J.}.`.rX<X7XjXiXuXuXt.| #.9.m q b c d a b a b p p a q 8 6 9 d b w w 6 a M b p w 8 2 8 a b h.m - 2 2 - m ! %.b I GXMXnX6Xi.( t.^.V.t.#.( Q ! #.&.G G K / Q.OXE.x.| 6.r./ 6.V.t.i.@..././.1.>.6.:.,.u.,.7.,.:.^ ,.{.{.^.i.V.^./.A.V.7.a./.p.) ) >.H.(.H.A.<.@.4.^.u.<.,.:.,.7./.[.A.'.rX1X X(.q.,.<XpXsXA.<.u.<.,.,.) @.7.S A V u 8 i f ( ^.{.^.s.i.r.#./ ] [ v q 2 3 1 9 7 : % : > C 5X].OX`.}.OXeX9Xp.1._ ` ` 1.e.K.e.` $.e.>X5X$XfXBXgX5X#XfX5X~.V.i.N.c./ S.y.k k S ( H W g n f k l k j k t i u u z i i i k W k W f.f.k k u l f.f.f.~ ` W k k u u l ; ; ; > O   X - i u i l h G.BXBXMXHXBX`.v m F | m Z #.| | #.#. .m ! #.| ] #...|.L.c ~ 6.",
"m b ! ] ] ! Z F H c.B.b b P P o.o.O.%.O.D ! O.O.c.vX+Xj.v.+.[ O.[ v.bXfXW.l.b.z.o.+.[ D R 3.;.l.%Xc.h.[ D P =.O.3.c.P N.D.2.|.D.O.eX0XG..Xl.g.+.l.xXOXW.b.O.q y g d P ;.h.B I g.+XcXH.N.N.8.6.D.J.t.( G | ,.@.r.s.d.H.u.Z.(.s.e.r.p.>.1.@.@.}.#X%X#XN.| / ! H c A J E L x r 0 L L x L L b 9 L { C.Q.8X/.i.4.&.7.p.A.^.^.p.7. ./ ] / 7./.:X1X).A.).1X1XiXlXuX).(.^././.*.) *./ V.:X1X'.^.`.V.i.9X/.&.8.2.i./.{./.7.<X4X<XMXNXAXmXsXaX/.N.cX$XN g q 9 q d d p p w w q q 2 6 6 1 9 e w 6 q 2 w b p 8 2 a m k.F.O.a 2 ; 2 f F H O.v } LXCXMX X<.) (  .( ^ | 2.#.! A G / *./ K x.Q.N.0.7.>.>.| 4.x.p.t.J.t.7.t.6.@.,.<.! >.<.<.7.>.:.^.'.^.0.u.p.{./.i.{./.A.A.,.( :.u.7. .,.<.*.,.<.^.i.a.H.u.@.>.u.0.^.sXSX9XuXdX'.i.{.p.^.<X<Xs.>.&.^ A  .^ s y y y i Z  .] &.{.rXN.p.7.N.i.] h b b < 2 1 y i : % : > c x.`.[.}.eXD.S.}.|.|./.`.'.eX0XfXfX}.(.K.>XaXrXQ.].gX@X`.Q.V.cXCXcX8./ ^ ! #.W W ( x.c.[ C F G A n m  .2.j z l l u l u u u u l l k k f f.k W ~ ~ ' ` ~ ~ ` ~ W f t z z - 2 O O : z n l n g.l.0XBXxX0X+XfXk.m ! X.] ! W | | %.9.2.m ( 2.9.9.k.9.9.9.| Q Q ! ",
"h n ] X.[ 2.] H ! F F v v b v J ] l.3.[ 2.3.j.j.F.5XQ.8.3.} ..3.g.;.E.BXxXz.M B h.c.z.h.=.U T !.vX$Xb.-.I U [ j.F.O.H F v I I o.P %.G.%X#X.XXXM.%X0Xz.l...q - 9 8 e B ;.z.*.=.v.fX8XL.D.eX>X8...N.8.6.@.i.7.>.7.7.H.H.p.r.H.J.p.1.r.,.i.,.^ S.$XyXOX0./ | 8.{ 7 h L L e e x E w.E L e 0 0 q 9 N b `.`.C.0.>.( >.A.).{.^.7.,.:.:.7.i.7.u.i.[.1X(.<.^.<X7XuX{.^.'./.i.4.) G J ) A.{.'.{.^.7.q.A.(.[.V.0.&.&. .2.Z.7.>.7.t.<X8X8Xt.C V.~.5.~.=.c b b q w q q 6 w 8 2 6 w 2 1 6 6 6 q 2 2 y y i i w c ! ` %.+XF.c i i ; 9 ] [ ! ] c { GXfXtX X,.' Z f.W ~ ( 0.9.3...] ..] =.8.] / ] { 8.N.#...N.0.| 6.[.t.Q  . .@. .@.Q 7.0.>.^ ^ 1.a.^.7.u.i.u.^.^.A.a.u.( ^ _ (  .1.7.a.<.>.<.a. XuX<X0.H.a.<.:.:.,.A.rXuX9XrX1Xp.(.{.{.<XuXiX6X7.:.A ) W 9 y u s 9 c F H ] >.0.4.>.t.J.N.x.! < 9 6 2 2 2 2 i ; % & % F 8.9.aXAX8XJ.t.p.t.,.( y.t.e.p.t.p.K.A.Z.r.i.}.`.>.{ / H ..}.8XfXrX7.( :.@.( ^ ~ ! 5.j...^ ! ] ..4.| H | ! l l k u u i u i i i u u l i i u l k k f.k a m ( A m G j i z ; z : o : 2 8 X.&X-Xm.bXfX3.#.X.#.] ! X.X.! 2.#.! | 9.D.( | #.2.t.k.k.2.k.k.3.k.2.[ ",
"D G [ 5.-.O.! ! ] ] O.g.o.P B b M k.j.P j.c.-.j.c.2.[ ..-.O.[ [ g.;.F.j.g.-.=.[ J J -.g.h.-.-.-.-.} H J J } U U +.3.P I [ -.G.OX-.c.+XnXJXMXyX%X%X*Xc.C 8 8 y c 5 p B } m.T ~.tXMX}.A.x.}.{.9.! ] ! ..| @.7.7.y.@.s._.A.r.$.| | @.p.i.@.,.@.'.fXOXN.0.>.7.x.| & 0 L L L B *.w.x.*.*.L : 5 0 & 6 v sXtXD.8.>./ ..u.H.).A.<.<.,.H.)./.u.<.<.7.u.,.7.7.7.^.{./.7.i.V.8.K / 2.7.>.| A.uX'.(.{.V.V./.}.N.i.&.:.2.i.H.S.>.G 6.8.K v v D v e w 6 q b e 1 6 w 6 2 w 6 6 6 2 2 6 5 1 1 9 9 d n h a a m Q ( $.$.9.OXM c a t b X.X.J %.j.m K GXyXV.t.@.( ~ S Q @.,./ 4.5.O.C.F.b.z.~...{ #...7.4.4.4.C.x.>.7.t.D.r.>.>.>.,.7.,.7.p.u.:...p.>.a.i.<.7.s.*.r.i.7.r.>.) ^ 1.u.u.a. X:.G p.:XpXuX2XA.^.^.,.u.u.7.a.A.{.1X2X{.p. X/.A.a.A.S.'.0.>.:.Z 9 i 8 f C ^ / | ..>.[ `.].F.x.2.7.2.p 5 5 2 2 t t t t 1 > % > ^ 8.8.mXsXy.#.1.! p.@.~ #.e.e.,.,.` ~ _ ` @.7.7.0.8.7.7.( ^ ,.4./.@.:.<.,.#.#.9.#. .9.8...^ ..2.k.!.k.! / G k u u u u u u u i u l l f u u u u l u i u i u m n m H / m 2 z : o : ; 2 x M.-XM.h.BXVX! / ] ] ! X.#.] | 6.9.#.L.D.~ Q W Z W Q F | #.O.9.j.3.O.9.",
"] ] J X.] [ k.X.B.G.h.l.g.;.P [ [ U j.] H } O.3.O.H %.-.c.F.+.U g.W.W.g.-.+.~.] v v J U I I H J N C D D P I I Y U b.l.j.-.+.l.G.P.#X+XBXBX0X%XXXg.oXQ.9 y g d C 8 b M T g.B rXFXrX>XN.D.k.x.2.} | 2.6.7.s.Z.N.i.r.i.A._.r.` @.( @. .>.,.) >.F.Q.9X@X}.7.C.4.:.X 0 w.w.U.#X].0.*.*.*.w.L b * % w I fXtXS.V.7.7.Z.^.A.H.).H.7.>.i.).p. .^ :.G V 4. XrX2X).:X/./ K *.| K *.0.N.Z.q.| '.uX7X<X[. X^.p.7.0.>.8./.{.S.Z.r.7.{ v d e q w q q d w w w 6 3 2 2 r 6 2 2 6 3 2 1 < , & 1 9 a g k a k ^ ..` ~ | ` k.9.m f z t ] O.O.! 3.G.! D bXj.K >.s.e.) ~ Z _ >. .{ 4...=.g.j.=.j.x.&.{ ,.2.j.=.5.-.3.S.t.,.i.Z.t.t.6.@.7.i.:.u.7.i.u.0.>.0.^.^.^.(.<.Q ,.u.r.u.p.>.:.7.a.a.7.a.^.uXsXrX X X^.^.<.0.7.7.A./.(.:X<X'.{.<X(.&.7.u.7.Z.V.p.a.<.s p y f V ) 0.=.8.2.9.4.Q.yX0X$XF.7.m 2 y a i y u u i i 2 > > % | D.2.,.@.,.1.( y.i.! @.$.#.r.1.$._ W ~ ` | :.N.7.7.2.@.@. .S S >.( _ r.,.0.r.k.B.k.4.4.| { >.#.| D.W.F.c./ f.k u i u l l u u l k k f.k u a l n a u u u i i u m P H ! n t 2 o : ; 8 x T -XT.M.LXbXk.9.] ! X.>.%.%.r.9.t.9.L.9.` ~ W F W Z Q #.G.k.! 9.3.3.2.",
"[ %.[ C n H ~.!.8.9XF.l.h.+.+.C.G.3.D v ! J B D D [ 3.+.-.-.U P ;.l.o.I } =.J D K [ ;.-.Y } o.;.o.;.*.+.*.R T P g.z.+.+.U +.=.O.-.l.j.G..XyXvXbXW.n.x.c C v G D 0 Y b N E x C.CX'.J.`.S.`.4Xc.F.x.N.7.A.H.A.>.#.9.@.| ,.@._ @.` ( 8.,.7.>.p.].@X9XyX'.8.fX+X! % N v. X#X].0./ / *.*.E *.E.K g N [ rXkX4XS.V./.Z.u./.iXiX3X/.u.p.p.a.a.^.a.,.*.5.~.'.).<X<X,.p.{.K J K { ] 2.0.4.N K E.6X X6X7X4.p./.}.A.8./.S.2.C v C q w p 6 w b b d w r 6 r < 2 2 1 2 6 2 8 2 9 p - 2 - 1 8 9 y i a ! O.#.%.@.,.%.$.X.m | m y m ! %.%.%.O.G.v c %X].`.p.J./.y.<.^ ,.,.@.......x.x.k.c.Q.E.x.4...4.j.O.] H H 8.>. .#.t.Z.N.2.>.7.p.>.t.<.u.<.:.7.7.u.i.a.^.:.7.@.:.r.u.a.7.<.7.7.G i.<X1XrX2X'./.^.'. X^.^.A.p.).).). X<XE.u.A./.,.V.A.)./.E.H.p.n i i u ..7.8.N.0.t.C.x.C.#X].x.+XB.v 5 7 y a k f u u l i 7 > > f =.8./ G G G | @.H.p.,.p.,.1.r.1.( W W ' _ <.7.8.i.7.7.,.:.@.( ( @.7.p.N.x.C.8.~.Q.C.x.>.| @...^ %.8.G.G.D.9.~ W k a i z f l u l k f.k k f u l f u u y y a a d a D P D H d y > : & v M M h.=X-XCXxXG.j.#.k.2.O.| #.9.L.t.9.#.t.r.#.F Z Z Q / 8.j.O.O.9.O.2.=.",
"j.O.-./ F H } 2.c Z X.-.g.-.x.OX`.B.O.[ U P H ] D 3.v.o.I I D v H O.I [ J H ..P F I -.;.[ O.l.g.n.b.m.n.Y.h.;.h.z.l.g.F.j.;.l.g.h.j.c.G.3.o.G.B.-.-.c.] } T ] g 4 5 w % q N b Q.S.| #.N.Q.@XB.4.8.S.i./.H.H.i.p.7. .@.| ( @.$.#.) 8.6.,.S.9X5XdXfXBX'.q.rX#XC 0 E E q.E.>.*.&.&.*.,.{ G Y w.w.*.D A.HXgX[.J.S.A.A.a.2XjX7X3X[.:X:XA.^.^.,./ 5.w.=.V.E.).V.:.q.F *.*.} &.| :.4.N.^ / 8.'.rX7X/.7.Z.7X}.[./.,...! m F v e 6 2 6 q w e w 6 w 6 1 5 w a d p p f 2 2 2 2 8 p 8 i i t i a F 3.2.O.%.6.$.%.` L.G.O.m Q ] H 9.O...O.O.m D ;.].4XZ.7.7.7. .S / @.( C S ..S.+X~.E.#X~.x.N.>.] ] I J / 9...#.>.#.#.6.4.{  .>.:.>.p.p.7.p.Z.p.<.7.^ *.e.<.^.A.<.:.>.:.>.7.7.s.r.1.i.^. X).A.^.a.a.).{.).'.(.<XuXuX1X(.V.0.<.i.i./.<X/.A./.p.S 7 7 y ^ `.N.S.N.8.>...9.3.$XxX#X@XB.7 - 5 5 u k S k i l l i : % u ]  .2.{./.:.` @.6.p.i.p.r.,.$.@.` ` ~ ` ( ,./.>.7.Z.i.<. .~ Q @.>.>.8.}.C.S.].@X9.7.2. .(  .$.^ $.L.L.L.,.| ` $.%.~ k u u l l l f f.f.n f k f l i u u i u f n m m v P b d 2 o o 1 R U M R P.VXLX0Xj.O.k.G.9.! Q ! ! ,.9.Z.k.L.t.2.` ! W Q ( | Q Q >.B.9...H ",
"j.z.j.j.c.[ H H p 7 c ] k.j.x.k.x.G.|.G.O.[ P v.!.!.F.x.} F D D -.j.} [ I I -.-.*.T T g.o.+.m.U.XXm.;.g.XXh.-.n.OX.Xz.G.j.-.z.z.c.j.B.F.k.! %.+.j.-.j.-.z.W.Y s 1 & % >   b B U 0X{.N.C.D.9.5.B.S.i...H.J.Z.K.Z.H.6.,.r.r.s.J.e.( 8.`.Z.`.8.4.S.S.Q.>.7.5.&.d p L *.<.*.*.) &.N.4.q.0. .E L N Y 5.6XmX<XC.8.N.R.7.>.s.3XiX7X3XpX1X_.d._.s.0.7.4./ i.1Xp.A.<X..K Y *.{ :.&.0.4.7.&.4.( 7.2.V.@X<XR.}. X<X/.8...G | 2.G g 6 6 9 6 1 r w w 6 5 6 5 w a n f c a 7 t 7 7 y p f s Z G F #.6.] ] | #.#.$.,.,.D.0Xj.| ! m ! O.] [ ..%.c I z.7.`.i.#.|  .| Q G ( | A ! 9.~.].F.4.x.x.k.9.=.] ! F I 4.8.6.Z.r.,.....I ] ..{ @.,.7.p.E./.A.i.<.p.<.>.i.:.i.^.7.:.:.7.p.i.<.4.s._ :.7./.).:Xa.<.u.^.).).{.1XuXqXqX{./.V./.7.u.7.u.A./.^.A.) 7 7 i j 7.0.8.S.8.2.V.C.=.8.=.~.%X0X] 5 t 2 i i u S k l u k f u 7 8 &.E.S.5X4X7._ @.,.t.A.i.7.r.,.$.$.@.$.` @.7.7.,.7.p.Z.A.r.,.7.8.>.2. .>.{ _ #. XS.S.Q.7.2.7.>.9.Z.t.e.,.` ~ ` ` y.L.#._ W n k u u l k k n k n u i u u u f a c n m m m m a i o o 2 [ I.P M U Y.CX%X3.S.L.3.%.X.| @.X.#.t.eXD.#.$.,.L.e.#.%.` ..~ ! _ m %.>...",
"[ =.[ .X.XO.H I v c o.b.G.v.G.].eX5X!.C.3.[ [ c.#XOX!.G.j.I D I [ I I | J H ..[ -.j.} I Y ;.l.W.W.-.J g.n.;.l.c.W.F.l.F.j.G.!.G.j.n.G.l.O.k.j.B.G.j.F.$X-.j.=.s - > + o   0 B Y %X4X{.N.C.].`.B.[.Z.#.H./.p.A.H.y.,.@.$.,.r.A.A.y.s.2...9.9.=...3.=.F  ./  .7 e w.E.E.'.,.q.q.x.V.0.*.*.*.L N =.v.aXZX'.}.|.S.9.*.r.^./.1X3XiX).(.:XuX(./.u.,.>.q.R.dXN.0.4.2.&./ K 4.7.2.N.i.8.:.].*.c  .~.rXrX<X8XfX4X7.`./.n H F 6 p d e q 6 , , < 1 2 6 7 q 8 p d m n p i 7 7 7 8 f C ] -.k.k.j.k.>.] #.t.#.$.,.r.9.9.9.c m X.%.O.3.>.m ! m D W.5XfX<X}.N.8.|  .^  . .S ^ 7.E.Q.x.C.C.E.v.8.x.9.X.! 2.9.x.i.#.! #...H H J ] 9.8.8././. X(.'.p.p./.7.u.p.A.^.<.>.:.<.A.u.i.>.:.0.0.,.7.^.).(.H.) ) ^.). X7X7X2X X1X(.).'.R.N.R.^.,.@.>.:.) j 7 u n ^ / | 7.7.i.7.S.uX4.5.&.4.$XOXn t i 7 i u l S f.l u k u a f 8 7. XR.`.A.>.n A @.A.Z.r.r.7.<.,.r.r.1.1.<.7.:.r.i.V.Z.i.r.i.H.8.7.i.@. .,.@.A ( | ].}.S.F.x.+X>XZ.Z.e.e.` ~ ` ` %.L.3.@.` Z W n n k k S f.f.k k u a f l u a m F F n c g c a @ o M +.[ U M P %XVX.XL.>.! m Q ( X.Q ( %.t.>XD.,.9.@.#.L.#.@.| ^ ^ k.N.>.%.2.G.",
"m m P +.%.X.m v c P -.j.c.S.G.].9X+XB.5.-.[ ;.9.5XaX|.~.G.-.O.] H ] ] ! P -.[ F ] j.j.[ 3.+.+.o.g.g.l.v.;.XX%Xb.c.b.v.z.j.c.G.} H B.G.OXB.F.G.OXG.l..XBXX.F.].0 & > o X   1 e r ;.$XE.q.C.S.'.>XJ.p.t.#.e.| | Z.s.#.#.e.Z.K.p.p.A.[.D.C.C..X.Xc..XQ.Q N.E./ 5 s *.w.$X#X].@X].`.'.2...&.{ L =.q.j.8XNX`.C.C.N.4.(./.7.^./.qXuX1X>X_.2X3X).i.i.u.>.p.q.>.D i.4.&.>.^ 7.[.A.i.}. X X.X-.} *.].tXtXtXCXuX7XR. .m p q 5 2 q d 9 1 < , * - 8 8 9 p s a i m ] m a 7 7 i t a H [ %.%.k.k.L.9.9.9.#.L.L.,.,.y.Z.J.m a Q %.X.%.O.! W m a H W.@XFXMXuX/.N.#.( _ | ! A Q ! :.N.V.R.E.0.V.'.C.v.C.=.5.x.2.../ ( 4.2.=.| J I C.E.9.i.S./.J.i.i.H./.H.Z.y.(.p. .@.<.7.7.7.>.:.@.^ A.0.7.a.a.a.i.u.s.). X).).).^. XpXuX1X X`.R.rXrX'.0.) @.A 7 p h A Q ~ 2.V.8.r.,.#.|  .k.F.x.#XyXK u i t k l k m f.k f u t m c 7 >.8.N.`.7.Q ( @.>.i.p.7.#.@.,.p.H.H.Z.$.@.1.,.t.i.,.#.@.@.,.,.8.H.,.@.#.,.#.#.,.t.9.| / 7.+XMX>X/.p.r.` ` ` ` $.6.4.9.2.| ( | #.O.../ Q S S k k a u u u u c G ! [ m n g c c , $ I.T T h.P U xXGXV./ / Z Z G | ..X.#.3.D.7.k.e.N.Z.6.Q W #.#.! 9.j.F.z.| m h ",
"F M / [ [ M M m J U U k.4XfXeXC.G.W.$X+X].F.5.2.k.}.G.-.X.>.F.|.v.[ [ ! o.5.=.] ! >.D...2.X.[ v.l.;.;.o.Y [ =.g.z.F.c.l.l.l.F.k.9.!.%XG.G.0XxXxX.Xc.OXxX$X5.g , % o o X O > e B T yXvXE.9.9.F.8X'.`.s.@.#.( _ 6.#.$.t.D.J.<XK.6.s.[.6X'.C.#X0X%X+X{ ^  X .Z 4 g w.{ E..X$XOX*.E.].i.0.q.2.w.E.v.=.N.nX>X+X`.N.{.aX7X*.C :.p.{.).p.).a.a.p.>.^ / G R.2.| 7.<X(.,.*.&.7.R.{././.'.].k.5.b.b.].tXZXrXfXq.<.i.h 9 q 7 6 2 d c d q 2 1 8 u i i i u V c H O.X.X.f f a a M ] ] %.] | X.#.k.#.,.k.y.D.`.D.$.r.9.#.m ` %.O.9.%.h.O.F j.! C %X.X8X8X6X<XS.( | @.^ ( #.7.@.( &.2.,.0.p./.9XN.=.F.F.z.c.=.8.x.3. .x.C.5.3.| >.C.8.A.[.A.A.N.(.i.>.i.7.,.A.A.u.7.u.7.,.^ ( @.>.^ ) ,.<.a.0.).uX/.7.i.u.u.^.V.^.2XuXpXuX).a. X9XfXuX).p.( i l ^ &.( j Z | 7.i.6.@.@.@.#...x.!.E.%XV.u l k k l u u k k f f m ! C 7 / S.t.:.G ~ 7.t.s.r.7.,. ._ e.s.y.y.y.@.( @. .1.7.#.,.r.$.( _ @.( ~ Q ` #.( ,.6.N.N.,./ C @.A.r.p.s.e.` ` ` e.6.,.>.9.| _ #.6.>.! [ 3./ Z W m n g h V S n ^ ] [ k.F.H ! J v a w M T m.h.m.Y.%XyX:.^ S ^ ! / Q !  .#. .8.r.#.#.t.r.L.t.$.| | 3.G.F.XX] m m W ",
"J P [ P J H M P [ o.U ~.0XMXfXOXF.j.g.b.U.c.G.x.] ] ] ..2.X.3.+Xb.l.h.+.j.=.] #.| ! ] | ..| k.&X+.;.U o.O.[ [ -.-.U -.c.G.+X$XO.m o.3.j.G.0XcXbXOX&XbX0Xc.b & * % > X O X   r m.h.U.Q.N.N.S.].].S.t.Z.s.@.,.p.A.Z.,.e.y.y.r.p.e.#.s.J.4XA./.'.!.@X:.7.rX7.^ 7 e @X XOX~.w.w.2.q.v.3.8.q.*.9.v.=.T V.}.>.<X4XA.R.7X<X X2.N | ^.^.a.:./ &.<...&.N C K N ) 4.<XuXV.7.*.*.V. X X[.[.'.V.E.~.C. XtXrX( F m C ) b p 9 2 1 6 d g q 5 1 5 y t i i 7 i f X.k.c.l.| Q ! ] O.O.X.] X.m | ( ! X.L.D.9.9.k.L.L.Z.%.~ W i F X.j.k.j.#.m m [ c 8 W.~.5.fXkXuXrX>.( /  .7.i.t.@.)  .) :.u.^.{.'.9.3.O.-.3.5.B.x.*.G ^ >.5.5.9.{ 2.V.q.J.[.A./.A.7.7.t.r.@.1.i.y.u.<.u.7.:.^ )  .:.) ,.4.:.&.^.). Xa.7.u.V.^./.)./. X2X2XrX2X). X7XaXdX1Xu.p ; C *.7.^ h A i.[.Z.>.,.r.t.R.4.5.v.!.yXvXQ l j f.k k k f l u n ! P ..6 @.}.`.>.~ 6.i.p.i.i.i.i.<.1.$.$.@.@.e.1.) ( _ #.p.p.Z.).r.@.@.@.( ~ ~ _ ( | :.7.8.@.G @.@.m j Z $.y.$.` $.$.e.t.#.| #. . .8.5.O.! ! O...| | _ Z Z / ..2.[ } ] %.&X3.F ] ] b b 2 b m.Y.R n.oXBXFX>.( ~ Q Z F Z F ( ! ! ( Q #.9.r.t.t.D.D.t.#.j.F.L.7.| W _ #.",
"O.h.o.O.P P ] O.m.g.[ O.OX}.F.3.j.C.v.h.h.c.-.5.j.4.3.Q.+Xc.k.F.x.OX|.O.] F | ] D m ] 8.8.] -.g.-.O.U l.g.U z.b.j.-.[ O..X0X!.O.P [ 2.j.$XoX.X%X%XVXBXyX.XF , 1 % + o o % X e Y.m.{ i.u./.{.S.N.[.(.t.p.e.p.:X:X[.e.#.e.#.#.#.e.p.A.p.`.,.#.A.!.~.Z ..9Xp. .7 h tXgXrXE.0.E.].x.V.q.5.].x.5.E.z.g.x.N...] ..V.{.hXmXuX[. .c ) A./ G G  .<.<.&.^ 2./ K E.rX1X<Xi.6.G | 7XrX6X@X}. X].#X@X@X].tX{.p./ S g 5 5 5 - 2 w q d q 7 , - 8 y y i t u y F j.c.k.G.9.O.X.O.[ ! O.O.X.! ! ~ $.9.[.[.9.$.$.`.Z.Z.~ ~ k c Q m F O.h.n : a M a 7 { j.tXgXAXAXuX6.( ) @.:.Z.p...( :.p.a.7.>.2.3.3.8.] m / &.=.x.../ ^ =.9.4.=.8.0.0.t.S./.R.A.p.<.>.p.<.^ / ) ) ^ ` :.,.:.@. .:.&.u.p.a.:.7.A.u.u.1.<.0.i./.a.).2X).'.{.7X X). X X2X).0.A p A {  .>.G S | Z./.,.6./.`.S.N.q.5.3.2.4.V.6.l f.f.m ~ S u z u ! 2.O.I p @.`.`.t.@.t.i.7.6.:.#.8.u.@.@._ ( | @.` @.@.7.1.1.7.i.A.p.:.7.y.1.) ~ ( Q  .2.N.p.i.7.>.( Q j n ! Q ` e.e.$.e.6.t.7.( t.7.5.OXN.3.5.] | N.8.] G | ..] ] ..[ H ] l.F | 3.3.v b 8 x T.M.T n.%XCXaX^  .>.@.! G ..| | #.#.#.! 2.6.t.L.S.J.}.|.J.e.Q m ^ m m W @.",
"o.g.n.&XXXM.n.m.m.g.+.3.G.|.3.2.j.k.F..XW.l.g.;.O.P 5.+XG.G.].S.k.k.9.k.2. .H F v F Z H  .2.[ -.o.;.l.b.XXg.n.z.b.XXOX+XOXC.3.3.G.W.B.G.F.c.XX.XxXxX5Xb.j.M 6 , # X X < 5 X B $X Xi./.{ ,.N.V.^.t.H.A.r.@.t.:X2X(.s.#.| | W m m #.t.,.N. .@.N.$XQ.s G V.V.7.8 d gXZX XE.5.9X0.E.C.E.E.!.$X~.Q.E.v.rX'.V.0. .S.gXZXmXjXA.&.&.*.K K 7.:./ &.G D :.R.6XrXkXhXdX^.7.A.7.,.x./. X5X5XtXaXrXtXfX5XrXA.(.(.n y 7 2 2 - 2 6 9 a 1 2 7 i i i y u i p A ..O.k.2.O.l.k.k.X.] | ] 9.#.9.k.9.,.6.k.D.9._ ,.J.K.%.Z.W a ! X.F ! O.F : t F U a 9 +..X@XuXkXmXuX#. .$.>.,.A.S.7.:. .i.'.^.s. .} [ [ 4./ ! ( C G ^ | 7.x.Q.C.B.4.:.| ..i.^./.R.A.[.:XH.>.` | ( | ^ ( $.u.Z.p.r.@.) a.p.H.u.,.,.,.) ) <.0.^.).'./.).3X).).A.'. X1X2XH.<.) s p N :.i.y.:.~ ../.p.~ :.Z.i.4...B.b.&.Q _ ~ y.$.k ~ _ W S i f | 2.8.3.z.[ ^ A.'.6. .>.2.@. .@.....>.! Q | ~ ,.,.@.1.,.<.<.@.<.>.7.i.y.s.i.,.@.Q $.( ( 7.0.2.7.#.@.@.Z Q ( | W m 1.D.t.7.A.Z.t.#.t.8.>.@.#.>.X.( 8.S.....] / ] ! ..4.4.2.] F Z 2..X3.D M p M M.I.I.M.%XLX:X! Q ! 2.6.] >.%.H ..3.>.! ! O.! Q | D.qX>XL.` S n m S S ( 9.",
"+.F.oX&XoX&X-X=Xz.h.M.F.%.X.] F F [ 3.j.F.OXn.h.J F ..x.8.k.#.O.c.G.k.k.j.5.>...] G D F ] [ O.-.[ o.b.XXXXb.z.-.h.l.0X#Xc.O.O.j..XOX.XF.F.j.j.z.xX0X%X.XG.D r * & * 5 w = > L rXmX XsX(.2.| >.<.#.#.t.s.6.#.A.K.J.p.1.$.` #.Q @.~ Q G G C F G V.C.G V.>.) 2.9 h rXkXkXq.8.N.4.].!.v.v.~.OX].@XE.C.fXsX/.7.V.6XkXlXkXlX9X/./.,.V K p.4.2./ D *.0.E.a.{.jXrX1X7.q.'.i.N.7.i.E.].4XMXnXmXmXnXnXaX( Q s.f 2 2 2 7 y 8 6 p 8 2 t f h C h u y h ^ &.) 2.k.G.c.D.k.j.2.j.8.2.#.! 9.D.L.%.$.9.Z.y.9.(.wX[.$.,.j W %.( X.! F : : t m P i q U j.5XSXNXSX7X@.( _ @.:. .7.r.:.:.7.p.u.7.3.T F C K / F G Z A ^ ..7.C.V.~.5.| ..@./ :.7.Z.A.^.[.(.p.#.@.$.@.W A ( :.p./.^.u.@.@.` ) :.p.u.,.@.A ^  .u.a.{. X).{. X X X^.^.rX{.,.,.a.0.h V G / i.H.y. .r._.i.( ( 7.:.>.7.8X5X:.( e.y.i.p.W $.#.S k W #.t.2.3.%.O.B { 7.8X9X( @.1... ./ Q ^ | @.,.@.,.t.y.,.@.( ,.<.,.:.>.s.t.r.i.<.>.1.#.,.#.| ,.>.@. ./ @.( A _ @.( Q Q | N.t.B.&.,.Z.S.V.7.@.Q ~ @.| ..D.7. . .( Q G ! 2.3.3.9.4.{ / 2.j.H D m p h.T.I.m.&XCXSX7.| #.] H F | ..H | %.O.2.| Z | ( _ @.r.e.$.$._ ~ ~ ( ` ,.r.L.",
"XX%X.XG.XXG.b.XXn.b.XX3.[ J J b v P I O.8.~.=.l.v.c.k.-.O.x.c.c.+XF.D.B.F.F.B.3...O.[ J F -.b.W.-.g.c.XXXXz.h.n.n.c.+X.Xk.k.k.c.OXb.5.U [ ....[ k.j.c.G.G.B w & , e e e $ # *.uX2XhXlXuX/.0.>.>.6.6.r.,.e.e.A.Z.e.A.e.Z.t.$.r.p.{ H Z d j c c V / S.'.&.^ | 8 V gXhXZXrX7.x.~.E.U.E.E.+X9X5X@Xv.x.4XdXuXjXlXjXrXpX1X1XpXuX(.F N D { V.i.7.4.q.7.E.4.a.2X1X).^.a././.0.V.A.N.R.8XkXFXZXgXjXjX<X,.a p 5 9 q 9 p y t y y 2 7 i p m I F D G ..| 2.>.,.k.&XG.k.L.L.k.P.j.r.t.$.6.L.L.k.y.K.$.~ $.e.,XwXZ.~ n $.#.X.! ! k u u a y 2 % p T D `.dXnXZXsX@. .( ( @.@.@.:.:.>.( ( ^  .5.;.I D [ ..] ^ (  ./ >.i.3.] ] 2.2.:.7.@.| &. .u.Z.t.,.6.@.,.@.@.,.u.e.) ,./.a.y.r.<.,.@.` :.:.,.@.<.>.K ) 0.^.V.2X:XA.^. XuXrX{.>.A K ) n e K ) :.1.^ ! ( J.1XJ.7.( | :.,.0.8.S.&.| $.~ ~ 1.y.6.e.@.$.N.k.D.L.G.G.O.b #.>.#.}.J. .>.@.( ( ( Q ! >.r.#.t.p.6.1.@.r.r.<.>.>.e.i.p.r.,.:.r.6.r.6.r.#.,.7.7.>. ./ Z _ >. ._ ( ~  .9.9.x.2.( S.tX/.( Q $.| @.y.t.7.2.@.] @.G Q Q ! ! A G ] ] O.O.3.3.I p 3 I.T.&XM.BXSXMX4.2.2.3.| ] =./ ] #.9.%.@.Q ! #.9.$.r.r.J.J.L.,.,.| @.$.#.L.L.",
"M.%XXXG.c.z.j.o.+.l.O.} j.+.U T I.h.5.9.4.j.+X%Xn.c.j.b.z.v.j.G.F.2.k.8.N.D.B.D.c.j.o.I J -.n.XX.X$X$XOX.Xv.g.m.n.F.0XG.k.+.%.M C.=.v N p : % h c F O.j.O.b 3 $ , e q e $ : 5.'.<. XlXsX X/./.i.i.s.r.r.,.e.y.K.p.t.@.@.$.y.p.#.| H F m v m C v v }.S.( / F - G 9XrXsX^.&.N.C.Q.~.v.v.].#X+XE.4.F C F ^ 0. XV.i.'.V.'.'.[.i.N Y ;.Y 0.D.q.R.R.i.i.'. XuXrX/.hX2X/.'.7.0.R.{.}.kXZXZXZXMXgXrX<XE.g 7 i f p 7 2 7 y 7 7 t 2 p h c F F F H ..9.4.2.k.G.G.G.D.9.9.L.F.k.#.t.k.L.L.y.L.L.( S $.e.$.L.>X%.a ~ %.X.%.X.X.( m f a 2 : : w U +.[ 9XMXhXqX,.>.>.7.1.>.,.2.>.,.:.( Z G U ;.*.} -.-.2...| ( .. . .) ../ | >.9.>.9.:.>.p.7.t.t.>.@.@.@.@.6.s.7.,.( :.p.<.7.i.0.e.,.:.:.( @.r.<.0.>.r.) K V  . X X4.>.:.A g 9 0 7 4 5 G w.0.u.r.r.,.@.7.p.>.( ! / ..&.:.^ /  .#.#.e.s.,.e.p.e.r.D.G.G.F.G..X0XW.v 2.r. .6.2.6.p. .^ Z G W ^ A  .>.>.r.,.| 1.Z.p.,.@.r.H.i.i.7.7.$.@.r.s.t.i.r./.A.i.#.( @.Q ( >._ ! ( ( @.5.4.+.=.0.7.`.S.{.@.,.,.@.| 7.i.@._ ~ | Z Q Q G A n F X.O.>.x.b.G.g.g w P.oX-Xm.yXJXZXN.2...#. .x.4.#.9.2.] m ! ..3.c.G.9.r.J.L.9.t.9.@.$.,.6.Z.D.L.",
"OX&XOXF.n.l.k.] ! [ ] %.k.2.I.m.m.=.[ ] 3.C.$X%XF.XXY.n.c.l.g.j.X.9.G.B.N.B.G.S.F.F.j.-.-.U P +.oX5XcX!.@XG.U J U XXl.D J -.z.F v [ k.=.] H [ k.k.k.k.] P w $ $ , 1 w e & * 5.'.u.<.i.a.4.7.>.N.t.r.r.p.6.#.$.#.,.( ~ ( @.#.#.@.] G ..O.] ] H J J qX6XF ] F . ..dXrXuX<X8.>.V.@X@XOXS.q.=.B.C...H G c N e 9 w 3 < q b x b K *.m.g.E.~.].V.5.0.E.}.9X<XpXZXsXrX X{.}.9X6X{.}.8XkXnX9XrXnXgXiX XG i i p f p 1 2 t 8 t 7 p m D H F I F C ] 9.k.6.2.L.G.G.G.G.9.$.9.8.x.t.6.L.9.J.D.D.$.~ $.y.Z.L.K.%.y.$.9.9.X.X.! %.%.%.Q m n g a b g.-.k.Q.nXMXmXmX7X:.:.( <.7.>.>.A.i.:.) :.=.-.;.;.z.k.O.....| ( 2.,.7.>.@.!  .7.9.8.6.8.0.7.| 8.7.:.@.,.r.e.,.| @.( @.6.( ! ( @.7.1.( 1.r.p.i.<.q.7.R.V.N 0 1 u h q 8 7 9 y g V K V J I i.i.Z./.(.A.a.r.( F c C ) &.,.4.:.,.&.@.A.i.H.p.A.e.e.N.3.G.$XF.9.B.G.b.b H N.R.Q.`.`.t.( G G A ( r.>.|  .8.,.@.@.` ( ,.p.s.r.t.s.t.r.r.,.,.u.Z.A.A.J./.H.t.,. ._ ( ` ( (  .( ( @.( >.c.Q.S.R.H.,.i.#._ A.>.( <.>.@.~ W Q H H G ! G / ..] 2.c.#Xj.b.c.b M P.oX%XyXMXLXHXN.2.:.| ! ..O.N.S.5.%...4.D.c.G.G.G.iXwXeX~ ! | ` %.%.e.K.{.>X",
"F.O.n.$X-Xl.2.3.%.2.#.O.3.L.c.h.I ../ X.k.g.z.yXyX.X&X=X%X&XU.c.5.2.G.+XOX].N.9.G.+XOX.Xj.h.c.+XyXeX+X8.3.-.XX.XG.l.M c P P [ +.I J D [ 2.k.-.3.O.[ H n B e * $ * # $ , # # 4.9XE.i./ / :.>.:.i.t.7.7.r.,.,.@.@.( ^ r.p.$.#.6.7.>.....X...=.I U n.c.>.>.! J % !  X<XvXZX}.7.0.~.8X].@X`...^ C / ^ v h a 5 , , , < $ $ $ , x 5.W.&X~.U.E.E.Q.q.i.^.rXsXlXlXZXlX{. X6XrXdXfX}.9XfXmXfXaXfXaXrX>.8 t 8 y g y p f n S c F I P I P U U V G  .,.%.~ k.G.k.L.r.,.%.L.k.9.L.L.9.t.r.9.y.L.k.L.Z.` y.,XD.n %.9.9.k.6.%.%.X.( ` ! ! F F a g =.-.4.M j.tXMXLXuX0.| | 0.8.i.Z.Z.:.^ ,.V.Q.c.b.h.m.-.O.2.@.( ( @.>.7.6.>.@.#.N.i.0.9.N.D.S.7.:.( >.>.,.e.#.@.e.@.( ` @.Q W S / p.y.@.r.H.(.K.7.^ V S G A V s 5 5 y h f g c Z &.=.G I } &.V.;X(./.K.p.y. .C h F  .7.:.>.q.:.&.t.$.k n ' y.Z.G.B.D.M.XXF.G.G.F.k.v 2.].+X5X'.V.1.@.( @.( ) ,.7.( | 8.#.@.@.@.| ,.r.6.e.r.A.:X[.,.@.:.7.r.i.i.Z.A.7.@.#.@.( @.| A _ ( ( ^ ` i.0.#X'.u.p.r.7.Z.{.t./.Z.u.7.$.( G W ! 2.3.=...] =.-.=...k.x.3.=.U d [ G.0X+XyXcXBXFXN.&.&.( #.t.>.%.2.| Q ..c.+.j.G.9.k.G.J.G.J.y.Z.Z.$.! Z.,XqXhX",
"+.#.3.l.n.} X.3.O.#.#.>.#.>.L.k...9.] H =.z.W.5XFXtX.XXXXXb.z.W.W.O.X.G.!.k.3.>.k.C.0X+Xc.G.b.-.k.x.D +.OXOX$X.Xz.T +.h.U g 7 e P P g c D H [ ..k.k.[ b M 6 , < = % # X . 6 ]./.7.0.0.a./.8.,.7.r.,.1.#.p.,.Q W Z ^ @...@.r.N.6.>.7.>.#.....X.+.n.M.l.3.] m X @.E.7XiXZXZX(.8.`.9X@X@X+XE.! Z c 7 t f k n f e q e w q 3 < , e x.rXiX X].E.E.v.&.{.kXrXpX7XiXkX{./. X'.].7XN.0.9XjXkXaX7XrX>.9 4 8 i 9 y , f m C / g.*.Y T H F [ ! H F S Z W _ 9.B.G.B.@.$.k.k.k.L.k.k.t.9.J.@.b m a ` 9.e.L.K.m u $.k.L.L.#.#.%.%.k.( n ~ ! F a b >.X.H b.n.xXcXlXqXA.r.>.N.0.7.D.0.,./  .8.V.`.E.m.g.x.Q.N.8.1.#.@.| / ( #.6.s.>.( ( N.S.:.i.R.r./ @.>.p.H.p.r.@.$.( Q Q _ W Q ` ,.@.@.y.r.i.,.Q n s s s N C C V g 8 s h g A :.2.*.^ ^ >.4.q.a.r.e.u.p.r.7.~ ~ ( &.,.<.,.:.:._ W f i t u m 7.].B.|.cXG.M.%X&XOXj.v 3.!.k.9.,.,.@.( ( @.>.( @._ Q ..C.#._ @.1.( ) @.@.,.p.H.[.:Xi.@.@.1.<.r.,.,.r.J.r.6.6.,.6.1.^ _ ( :.) @.u.}.}. X/.r.y.y.p.{.J.N.A.N.r.$.( _ ! | 2.3.=.3...] =.-.4.x.C.3.5.I 9 b l.G.P.G.k.B.+XB.:.{ ! 2.D.9.O.....m ! c.j.G.&XG.J.J.#.K.8X}.J.e.@.$.e.L.,.J.",
"n.+.+.j.-.3.H ! #.2.9.9.%.%.6.D.2.2.2.H G U ~.$XC.@X@XC.P F { X.j.k.O.c.O.] 9.] ! 2.x.F.W.l.c.-.c.G.j..XvX8X4.v U n.$X5X3.P H +.z.j.I [ H M 4.].X.=.X.b q , & , = # % #   L fX{./. X{. XA.7.7.i.6.!  .#.r.r.6.| ^ ,. .G | #.t.6.7.8.N.2...O.l.n.G.$XM.h.h.M . ! dX<X7X7XmXmX4X}.9Xx.x.}.V.N.S.6.s 7 u a f f n g f g f 2 9 d s g  XJXrX@X#X`.Q.I q. X'.1X{.0.7.'.@X&.8.`.`. X7X`.rXfXgXlX4Xq - ; i 7 8 2 ; p D F I K D J Y [ o.F F K / ~ S Q ` ,.k.G.D.9.L.D.k.,.>.t.L.r.J.L.m Q m m k ! $.` m u Q %.#.L.,.! k.k.h.k.! k ~ #.W a b [ 3.O.v.+XLXPX7Xu.A.V.i.V.D.N.i.7.) r.V.p.S.N.x.v.5.! / ,.#.#.@.6.@.@.#.r.t.2. .1.7.S.`.N.8.i.6.7.7.1.@.,.,.6.` #.| _  .W m G ( @.$.7.r.7. .C f h d s s s / 7.8.>.^ Z ..N.2.=.{ 2.0./ G *. .^ u.u.e.1.` S ~ _ ) :.p.u.f.u u 7 t 2 i i 2 t >..XJ.vXBXnXxXyXG.l.[ p O.!.S.8.,.,.:.$.@.1.7.,.i.>.^ ~ ..#.( (  .~ Q _ ( @.,.i.K.H.A.y.#.#.,.@.@.,.( 7.,.r.i.i.t.,./ Q  .,. .| u.H.H.i.7.u.7.,.,.A.{.>.,.,.#.@.( @.@. .] ..| ] { ../ X.O.x.F...[ D 3 2 P l.yXxX#X|.@X7.%...2.2.B.3.! X.! ! k.} 3.XXF.L.r.| S L.wXL.,.( ! J.L.! W X.",
"g.h.m.n.l.n.j.| 8.L.8.L.9.D.B.N.#.2.H h C D m I =.O.B.+X+X.Xj.X.3.$XF.j.H v / H [ 3.[ j.G.c.-.j.c.g.XXF.9.5.J B +.m.z.o.U +.-.z.b.j.O.j.5.j.5.[ v d d v e % & < = % $ %   K 9X{././.i.6...) <.7.,.#.6.s.,.6.r.,./ ....I ] ..6.2.2.#.#.9.x.n.z..X0Xc.l.h.U B o a N.7XkXkXrXE.x. XaXG.G.>XJ.G.`.N.6.g y i t i n f f m m k n m S S <.HXZX5XtX7X@X*.{ 3.N.kXMX<Xq.R.Q.8.A.@XrXuX}.4.=.{ q.N.d - 7 ; - 4 7 p 4 7 C { K N F Y P o.h.l.O.} ! #.` @.$.#.#.2.9.L.G.%XL.$.] $.6.D.Z.c 9.] k a 8 t a y 2 n ( %.,.L.k.%.9.l.l.P.m a f | ! a a 3.O.2.J x.0XmXkXH.7.V.N.N.B.8.7.| @.7.A.i.8.2.0.*.G G ( e.7.e.6.r.>.,.#.6.#._ | t.D.|.'.`.N.r.,.i.7.t.r.| ( _ _ @.e.$.@.Q Q _ ,.i.r.1. .~ h s c a p p j ( ,.2.N.0.8.4.&.2.&.K *.;.2.) #.2.&.>.1.e.e.$.' W _ 1.$.@.~ u - : : - ; z 2 2 p i n k.G.kXDXBXBXyXO.O.J 7 M G.5XN.,.,.1.@.| | r././.@.( ( H @.9.@.@.` @.( | @.#.t.s.t.r.r.,.r._ @.,.,._ 6.6.@.#.#.$.` _ (  .:.@.r.H./.(.u.<.y.p././.Z.i.$.e.#.( @.1.#.| ....| ! ! ! ] | ..3.B.Q.[ H J w b [ h.G.G.F a h c H ..} O...] / %.[ ] B.O.O.F.%._ ~ W S W #.,.~ ( Q L.#.X.Q F ",
"T o.g.Y.m.&XF.%.7.N.k.>.8.J.N.4.] F C D *.=.H d O.B.F.`.#XXXG.G.x.l.-.[ [ 4.O.=.3.} [ [ j.c.[ P v P ~.x.=.F..Xb.U o.U T o.U o.o.g.;.-.l.o.O.I F C F J O.c % , 1 & & & & O e #X[.S.p.Z.N.<. .) ,.i.A.p.Z.7.#.6./ N N P *.;.k.5.k.2.#.9.k.Q.+X$X.X.XO.b w U U o : J @XdXuXmX{.9.7XfXJ.eXkXaX}.J.}.S.>.n d p i y u i g W W ~ ~ W Q A r.SXrXfXMX#XE.b.E.v.b.9XrX].E.x.E.`.'.uXSXuXd * % # # & 8 8 4 ; - 5 q y i p G Y J Y Y [ +.P.M.-.j...| @.@.$.~ _ 9.L.k.k.L.9.| | $.r.k.a H F ] ! g g 8 : : y j Z W %.D.L.%.] j.l.m.m m ! ! ! p 2 ] ] 6.X.j.Q.uXuXH.1.7.t.S.C.O.5.4.9.@.,.,.>.2.x.) Q ^ 6.H.t.N.Z.J.A.,._ @.e.,.6.J.t.}.eXC.t.t.<.i.t.s.i.,.( ^ ! |  .@.( _ / | / >.@./ G s 9 s d a h F ....c | 8.>.,.>.( / :. .4.E.'.K ] 2.0.7._ @.e.e.e.e.s.y.W k t k n V h u 7 2 a F ! F O.l.3.$.HXLXBX&XP.P.O.w I C.N.t.t.i.r._ _ @.i.i.>.@.@.>.7.:.,.1.,.r.e.1.@.@.#.y.r.,.,.,.#.6.@.,.,.$._ @.@.| #.,.r.#.>.,.,.@.:.<.p.H.s.s.A.K.(._.{.,.,.@.#.@.e.K.s.@.Q ] 4./ G F Z Q ] ..#.C.c.k.j.[ b w I.[ j.P i : 2 t g F ! [ ..=.+.-.%.! k.G.B.6.L.Z.W Z W e.,.%.| | #.H m ! W m ",
"F.~.-.h.M.c.G.+Xt.9.6.N.9.#.4.#.G ] C.~.c.v.=.J H ] G.!.+X+XB.c.j.I ..-.j.j.U X.P M F [ -.[ D p D -.G.!.-.[ O.G.+.n.l.l.g.h.l.h.g.J [ c.-...[ J H 3.G.X.5 * * * & 1 , = O r E.}.aX8X'.A.p.,.) :.6.p.(.A.r.8.%.v C J J ;.;.-.2...9.N.B.9.2.S.G.XXXX-.M T T.M O : q B ].fXsXlXdXAXHXiXaXsXjXuX}.B.x.D.7.F f p a u t y a f f k j Q >.*.a.gXZX$X*XtXrXrX@XE.OX.X#X~.].@XrXuXdX7X>.G 8 - - ; 7 y i i 7 ; 7 y p l u V { J K *.O.X.G.M.j.j.#.@.@.$.~ @.9.G.G.F.k.#.! ~ W ` L.Q m %.m ] X.c a y - 2 a b W #.k.J.D.9.X.X.[ [ i c l.%.! ~ a ! 3.k.N.].5XaXmXA.>.>.8.`.#X[ X.-.5.4...i.N.8.q. .,.^ 6.H.N.p.6.1.r.,.` @.@.#.9.>.8.D.|.L.t.#...7.r.7.6.>.$._ / | ( ~ W / ( m Q :.! Q n h v N C b ! 2.>./ ( >.>.>.| (  .,.R.i.&.E.a.( Q X.L.t.Z.` ' $.e.$.( ( ! | / r.t.1.) Q m _ #.>.| %.z.z.2.f e.qXeXG.j.j.X.2 J j.OX'.S.t.7.>.,.,.r.,.! @.,.1.7.<.,.p.H.#.e.6.e.e.,.1.6.,.#.$.#.r.6.@.#.| ( _ ( @.,.s.r.t.1.7.:.1.<.r.p.u.>.s.s.a.2X2XS.@.6.1.$.( ` r.6.( | ( ] >.#. .! ] 2.4.X.2...3.-.J b 2 P P h.O.n ; f u 7 m ] O.[ -.l.+.O.%.! 3.B.( J.L.Z W ,.%.W Q 6.%.~ ! %.3.! m ",
"4.Q.C.x.&XG.G.8.#.O.7.N.#.>.2.#.2.8.c.XXz.[ P [ ] M D O.F.k.O.] =.c.=.O.l.-.b v H F F P F v } O.c.!.2.j.-.[ j...} &X.XG.l.n.n.n.z.[ ] l.!.F.j.O.P |.`.q 5 1 1 , & * < 1 O 5 q.N.'.<X'.A.A.>.&.../ 7.Z.p.t.#...] H N N I 2.| H D | 8.J.C.2.k..X+XF.P I.T.M.v O . 5 9 I @X8XmXNXHXKXnXaXrXnXsXuXJ.Z.G.x.>...%.F d y u u u 7 i 8 H E.#X/.R.gXfXdXtXtXCXfX].fXtXgX@X XrXdXdX`.V././.h 7 4 4 4 i y s i 4 8 l u u i h V J Y P P %.M.M.3.3.k.6.$.$.` 9.k.D.M.G.9.,.k.,.` %.L.6.%.X.,.| a w a m m m n m Z X.6.D.D.#.#.( P a i a m ! %.k.m O.k.L.`.].yX`.iX^.a.<X7X4X].4.I -.z.v.9.W.8.4.:.>.,.:.t.p.t.Z.y.@.,.( ( @.1.,.,. .#.9.!.G.D.#.G ~ ,. .:.7.| @.( ~ | ( @._ G ( i.>. .! v A m s q C | ..{ 4.7.*.>.7.@.@.N.{. XR.>.,.,.) ( 5.8.$.{._ k m m g Q  .| #.i.K.r._ @.y.t.Z.L.e.%.j.G.M.2.~ k k k #.h.X.2.2 ! j.%X$X8.7.>.s.1.>.r.i.@.( p.r.>.i.y.Z.t.1.6.r.r.#.6.| ,.1.#.,.,.,.,.7.t.@.( ( | ,.r.t.t.8.@.@. .@.@.:.y.@.@.,.d./.S.4XS.:.7.t.r.r.e.p.r.r.t.p.7.N.x.8.2.#.2.k.8.9. .X.h.U b & T o.M P b f g k S j G ..O.O.j.l.l.-.o.n.b.3.9.L.9.#.Q F Q _ 9.%.| 9.3.O.! ! ",
"] 2.N.O.c.C.3...>.#.#.#.6.k.6.#.3.k.c.P.n.+.T T P [ U =.9.2 b F b m H I +.c.P M +.U T P U J ..3.O.5.k.O.j.|.@Xc.+.XX$Xl.+.h.F.M.M.l.+.+.c.F.OX!.#.O.H y ; 9 9 * r e e $ X # z.Q.>.C.'.V.E.<.*.7.i././.>XZ.{ ..=...I H ] ..9.7.i.t.#.7.D.+X0XB.O.F J T.=XY.p o O 8 6 , F tX9XuXMXZXlX8X<X8XfXsX9X<XS.S.'.S.x.N...J m g f p t s F U E.`.R.V.fXgXtXMXMXnXmXgXCX7XrX6X}.q.] G p.iX,Xf.7 4 4 i i u p t t i u i u t a n X.%.X.X.%.l.G.k.%.$.L.$.$.$.9.3.L.M.G.3.t.L.t.6.` ( k.$.#.L.m i F X.#.! #.%.F Z X.k.%.%.#.9.D.X.y i 9 m F 9.G.v O.4.k.].9.S.|.fXsX>X6X{.}.uX'.v.XXoXm.XX.Xq.5.! @.1.i.@. .$.6.A.,.~ ~ ~ ( #.7.7.:.4.C.F.c.4.Q A ! ( ! _ @.6.>.:.( _ ,.,.A ^ 7.2.:.) F G b 8 s Z ..>...^ F G ( ^ ( :.i.R./.Q.S.Z.e._ _ ( Q W m G W W Q ( | m G | $.p.H.$.$.r.A.Z.J.J.9.9.G.M.c.Q L.` l k n #.2.8., C W.!.W.N.N.p.Z.#.$.r.y.,.@.7.r.r.p.p.s.t.p.r.#.#.,.r.@.^ #.t.y.#.$.#.t.t.#.#.,.,.,.7.,.,.t./.e.( ( <.@.:.` @.1.^.A.t.[.k.t.4X'.p.p.y.#.$.s.J.Z.Z.L.D.k.t.k.t.D.C.8.%.B.l.[ b 1 P U b R I.M n Z ` m c m ] ] h.n.l.l.g.I.+.k.G.J.J.9.Z 9.#.>.#.%.! k.9.F ! H ",
"5.S.N.t.! m 9.L.+X0XF.#.%.6.2.2.L.L.k.-.B.M.m.l.+.h.O.] a ; & c d I +.j.b.M.l.T T T +.T P P N.x.k.=.x.]...I D J o.I c.C.j.h.l.l.n.n.l.h.-.j.c...9.2.g l y p 5 # 0 M e > o + *.].S.A.i.i.<.7.r.:.p./.[.}.4.| =.=.=.5.5.3.O.=.C.`.N.N.#.| ! Z Q c m U h.m.} : @   5 8 9 , b 9XuX2.}.ZXjXiXjXrX`.J.`.x.C.@XC.k.N.N.S.5.2.O.I g p } *.V.S.0.<. .E.dXrX:.( q.A.2.F N b e q q K ).uXe.k i t i i u l 4 t t 2 i u i g ! m X.X.O.9.$.j.D.G.X.$.L.9.$.9.L.#.G.G.P.k.9.#.$.$.#.9.r.k.L.Q 7 X.c.%.X.O.L.k.k.#.O.L.X.%.%.h.G.X.8 8 p j.X.c.+X! 3.O...N.2.#.N.S.8XfXkX4XjXjXrX$X&XY.n.T.&X=.5.3.N.r.7.1._ #.1.>.,.e.@.( @.,.6.@.....C.=.Z n G / 2.| A | ( ( _ @.( @.>.>._ ! | G F b C e d C K ..2...2.&.G ^ | <. .:.u.7.2.'.`.e.~ ` 6.H.@.S ~ ~ Q | 7.9.6.#.#.9.6.| r.A.t.y.s.H.H.t.Z.D.%XM.j.F #.L.D.D.k.3.#.>.- 9 [ j.j.>.A.t.1.$.| @.| #.,.>.p.i.r.r.6.H.>X_.p.6.@.` $.@.e.L.t.#.#.e.t.r.t.6.6.r.@.( ,.7.e.u...( 1.r.,.' _ _ $.r.>Xt.t.6.J.rXeX`.Z.s.$.r.J.>XJ.t.9.9.t.,.6.9.k.G.6.3.b.m.o.b @ < R P M P h.| @.n W %.X.! O.j.h.P.P.l.+.k.k.L.L.D.6.$.9.#.Q m m | 8.| Q ! X.",
"O.r.6.8.9.#.9.k.t.9.O./ F F ! %.k.9.m a p [ M.M.b.z.3.v 2 @ @ % P n.m.m.n.XX%Xl.P P U U T o.=.x.3.C.0X5X[ U T ;.-.} l.c.k.j.j.O.U [ U [ O.+.O...]./ n f u s 8 > 0 w B = X e ;.v.I >.>.,.7.i./.A.N.J./.S.*.I [ =.c.c.C.-.[ -.F.J.r.>.2.B.-.M ! P T M.M.M p 7 %   - q 0 8 + e  X}.V.kXAXZXSXD.N.J.i.0.>.2.8.S.S.N.9.5.5.} P I b } g.c.rX'.N.^ h V g s s d 9 q N ^ >.6.6...>./.^.W k u t u p u u i t i i t i k ! [ ! ! %.,.X.%.$.k.D.k.9.D.9.k.D.y.#.G.oXG.G.G.G.J.k.L.D.J.[.L.a b o.j.O.k.P.L.P.L.L.O.O.2.#.%.! X.+.p a a h.P.P.k.F c.3.2.k.F C c g y n D.MXDXFXvX#X*XXX&X-X-.3.v.|.i.r.#.@.( #.#.#.6.t.@.` @.#.| ! _ / S n j m _ ..>.! Q | ! @._ ..>.0.i.4.9.>...N g Z b C / { | >.4.>.:.( ) :.7.7.Z.i.<.7.8.}.t.W S W $.#.~ S m n Z ! t.9.9...#.7.t.e.A.e.r.H.Z.s.e.6.t.D.oXM.L.#.,.J.S.%.Q W ,.r.& Z ] [ ..>.8.#.@.#.` ( @.e.6.,.i.y.i.,.r.H.H.Z.r.1._ W @.6.#.>.r.Z.$.>.t.N.Z.9.N.N.6.#.r.Z.t.7.7.,.u.u.,._ j S W ,.{.t.#.e.L.'.L.J.9XK.t.;X2XH.,.#.t.t.,.@.! ! Q Q | F.M.l.[ M X w T P P M O.0XD.m W %.7.3.k.k.G.#XM.G.c.L.+XG.%.D.L.@.X.! Z ~ | ! O.m G O.%.",
"] %.3.9.L.J.t.! 2 , 2 2 < < 1 2 8 2 3 3 1 1 8 n ] ] G n x a p 3 2 M -.n.o.XX%Xl.h.&XF.m.XXg.U F.+X9X0X} -.-.+.;.j.c.G.F.h.l.3.O.] F M D U -.} H -.D Z j k g 8 & 5 c R e 0 L E E.4./ ^ &.q.i. XV.8.V.`./.4.2.3.3.V.].F.;.O.-.B.7.%.#.3.l.m.l.m.m.M.oX-XM 2 i %   @ 6 6 9 5 , w 4.>XaX[.@._ n ! ..K F C c ! i.B.B.D.3.2.! { ;.I 0 ~.E.=.].@X'.A.>.{ 1.( G ) >.7.<X/.s.1XlXlXlXu.^ W f t i u f u i i i a t a X.X.X.%.%.( ( #.` 9.%.$.k.L.J.9.e.D.D.k.xX-X&XG.0X0XcXK.D.>X}.%.S a F %.[ O.k.k.j.G.j.2.%.9.%.( O.j.G.I.q p d [ P.G.j.v =.O.4.N.>.H n b g 8 8 {.LXGXbXxXbX&XW.q.j.=.x.x.@.,.$._ ( 6.6.r.p.p.@._ @.@._ S G &.| Q  .9.! Z | ] Q | | @.| / >.R.c.k.&.{ H G ..] K { ]  .| |  ./ ! ( >.:.i.A.^.R.7.>.N.7.! n n 7 i 4 2 f n n Z @.%.t.7.>.N.L.r.$.e.s.y.s.r.,.#.D.#.F.oXG.#.` ,.t.Z.,.W W $.#.@ b X.d v J 7.6.@.| _ Z ` t.t.6.r.s.A.r.7.p.7.r.@.( W W ~ $.@.#.r.Z.9.#.6.N.t.7.t.t.#.| | r.6.r.<.<.p.u.<.^ f.~ r.Z.i.2.6.N.N.L.S.S.nXJ.Z.J.,.,.e.,.L.D.9.#.~ W ! Q | z.XXh.O.! x P I.B M v %.yX|.#.m m O.-.C.L.G.D.D.L.%.2.eXcXL.Q ( %.%.Q m F ! X.3.X.[ >.O.",
"p c ] 2.>.m p 8 b p 8 1 - & 6 < 3 M M P U M b p 6 p 2 y M P P M J b v U h.l.h.I.l.%XxXXXW.G.XXj.G.v.o.J h.g.h.l.+.j.G.3.-.j.k.j.O.[ } -.-.] c B F N { m f d d s 1 e N b x R E U.j.*.^ G K :./.V.7.2.2.`.D.N.c.R.Q.OXF.+.;.=.5.2.%.! P P T h.m.P.M.=X=XD a p &     8 6 6 6 5 , < b D b d d a & 5 9 p K C.q.4.N.C.k.l.n.U.l.n.&Xd N 3.0 I x.aXnXrX,.G ,.V.{.{.}.<X/.uXjXlXlX1X<.^. .S k n S j u u z a k F #.O.%.X.X.#.X.X.k.k.L.k.#.,.k.L.L.D.L.L.G.xXxX0XeXL.A.}.L.Z.aXeX~ j a X.X.X.%.X.O.k.P.l.] P 9.X.#.3.k.c.X.8 a M O.M.D.m q -.5.N.9.8.! f 6 2 p d c tXGXBX=X%X0Xb.{ XXx.x.G.#.@.( ( ( e.k.G.].#.~ _ | #.#.F [ c.[ ~ ! ....n S n C t.6.| | #.9.8.k.N.2.&.| x.2.F / { 8.N.7.) / / ( ! @.>.<.6.r.r.7.N. XS.Q g y t 7 ; z n m W | | | D.t.r.t.r.>.#.` $.@.$.@.#.B.OXL.F.&X3.@.#.` _ @.e.( ~ $.$.o & b m 7 q O.t.1.` ! Q ( r.r.,.r.,.t.r.#.s.6.$.@.%.Q Q ^ ! @.,.L.( ! @.X.L.D.N.,.( ! | ,.J.S.i.,.7.r.a.,.W j j W ( S.e.2.k.Z.D.S.].8XA.J.r.~ e.,.#.D.G.#.` Q Q @.( Q k.M.o.g.M 3 M b b b P h.G.0XD.X.O.c.c.j.D.G.D.y.e.#.%.k.0Xk.c f Z m m X.] O...] O.} I F ",
"J w 1 a m 3 , 1 8 6 3 , 1 M h.+.P h.m.I.h.h.T U J b c M M o.U [ +.I.P B M x M o.%X&XM.&X+.h.l.U P P J o.g.h.XXF.3.[ } O.O.k.B.c.} [ P I F c Z v c c K H b s N g 0 d N 0 L E E ~..X;. ./ ) <.a.'.N.V.S.'.S.S.Q.S.`.!.b.B.;.[ O.x.8...| P T m.M.I.m.-XU d p 8 : .   & 8 6 d 6 , , $ , 6 6 b 5.=.-.;.j.b.&X].c.].j.;.&XXX.Xv.;.$X'.8 1 e J J v.tX Xi.'.rX9X/.Z.7.Z.<XuX1XhXpX{.>./ S ( | 6.&.i i y n X.%.9.9.$.,.X.%.$.` k.P.G.G.P.L.L.$.9.[.L.D.D.D.F.O.M b 2 p ! 6.,XMXeX~ u c L.%.! M X.L.k.l.P.I.l.X.X.3.k.9.3.+.g M P P.M.j.F 9 I O.O.O.3.c 7 7 7 2 2 g B.yXCX$X%XxX+XF.&X3.k.G.>.| ` @.6.8.B.M.-.@.$.@. .>.8.q.j.*.F / ! ( G G Q Q #.@.| >.#.k.N.8.4.2.&.^ C | v G ] >.>.#.] F W ( 4.:.G | ^ ^ /  .a.Z.rXV.~ W m m n a i k m Z Q @.J.e.| ( Q $.,.$.@.` $.$.@.B.xXoXOXX.XXG.,.r.r.e.e.#.e.e.s._ X O . q h d N.p.#.1.#.1.,.6.y.p.t.s.t.t.$.@.$.~ W W _ 7.p.$.@.Z.L.6.,.$.$.L.D.7.#.9.J.N.7.`.'.N.i.A.^.`.K.>.Q @.>.7.D.L.L.N.|.].@XeXeXs.J.Z.( ,.#.#.t.>.! %.k.6.| | | l.m.P l.[ O x , w T h.h.B.#X0XcX+XG.j.F %.G.eXZ.J.J.$.,.#.f k m n n m O.O.} ] P P H I v ",
"g.M 2 % & & & 1 , , $ < M h.M.M.M.h.I.I.T h.m.I.o.P [ +.O.+.h.o.o.l.h.h.U M J J !.%X%XW.T +.h.h.P Y T j.F.M.0XoXg.} k.j.z.h.l.j.O.l.} c v Q F I o.c C C C p 0 9 h B e * R E w.V.j.8.=. .>.q.0.E.x.x.S.q.c.].}.+X|.W..XXXv.=.] 2.] D ] l.I.m.M.m.R M e p 6 2 - X   O - q s q q 6 5 , & $ & e T b.XX!.;.=.v.b.b.b.&XXXc...8.R.rXxX{ 8 7 5 d J [ V. XaXrX{./.R. .).kXsXuXpX<X<Xu.s s A W W S u y g ! O.k.e.9.Z.y.` $.$.%.k.9.k.M.G.L.k.y.X.9.L.k.[ g < 1 & 1 3 < 1 q D.nX;XS p P D.O.! F $.k.L.G.h.I.P.g.#.O.6.9.6.%.M h.h.xXVXh.2.9 [ ] -.X.F q p 9 9 9 q 9 C G.xXbXyXyX%XxX%Xz.k.c.B.k.j.3.k.x.$X%Xz.| @.| #.7.k.g.b.C.( ) ( G ^ { ~ #.| ^ ! 6.9.4.>.| / F F s 9 s c C ] / ! ! S ^ A G ..F G / ^ W / ( / ] '.J.>.~ F ( Z W Z k a g m ,.J.! W W W Q p.Z.e.$.` ` 6.c.-X#Xk.L.eXD.,.y.e.e.$.1.y.s.6X(   O o & c d ..>Xt.1.` ( ,.p.t.Z.[.2X[.Z.r.1.@.W m W ` @.6.$.#.J.L.,.D.L.D.G.J.N.2.t.8./ @.9./.R.A.A.i.e.9.7.k.D.G.Q.N.J.G.G.0X}.G.J.G.7.Z.t.W ( #.#.~ ! @.e.G.k.| / | L.oXJ [ a   6 w 8 [ P.I.+.F.DXCXk.m ! m ! L.eXJ.aX>Xs.` Z m k c @.] ] ] v B } [ o.I F D ",
"U x 3 , * & & , , : w P I.+.I.m.h.T T T P B T h.I.+.o.[ O.+.o.P J I.h.h.n.h.l.W.OXG.X.D *.b.b.XXh.+.g.j.3.-.c.XXM.OXM.m.F.G.%Xl.G.k.v f c ! ! [ ;.p g C v s 1 q c L 9 0 R w.v./.( q.i.q.4.<.V. X].0.V.}.R.'.].@X}.+X$XG.F.-.O.H m F %.l.M.h.P U B w 3 2 2 3 & o       * 9 e q 5 6 6 0 5 , & < e T OX$XXX&X$XXX*X%X}.`.S.R.`.].].3.S d q 0 0 C 8.R./.A.{.}.}.2XuXjX3Xp.| d e s s h g j W S n H / %.k.L.$.L.D.G.%.` 9.9.k.L.h.-XP.k.L.L.$.k.G.j.8 1 1 < 2 1 1 1 3 & w m | W X.P.G.k.X.X.k.L.k.k.h.h.l.c.k.#.2.k.#.g M h.M.GX%X! M q O.3.%XC.d p q q 7 q q p q m 2.0XGXLXLXxXOXXXN.l.G.XXF.F.c.W.bXxXc.#.$.@.2.N.j.l.XXj.G _ ^ @.=.{ G / @./ ! 2.#.K m j h s h c K ^ K Z Q ( u.@.G G | { S g V C ^ Q / ! X.4XJ.,.( m W | ( Q Q Q W k f / $.Q _ @.| ~ 6.Z.r.#.e.r.,.B.-XG.! | J.9.~ _ @.$.e.$.y.qX>Xh       O q X.v B.5XZ._ ( e.i.i.p.>XiX:XA.K.t.,._ Q Q @.$.$.| N.[.( | 6.X.k.k.k.B.k.@.Z Q ` @.S.i.>.>.@.| #.B.G.C.G.OXS.D.+X0XS.D.D.L.}.G.,.,.W Z ` | _ #.r.,.k.G.h.l.%.O.F.F b &   w M x P M.h.U o.[ 3.X.Q m Q 9.L.G.G.L.Z.#.n m $.! n n i 9 m #.j.!.+Xb.I m n ",
"x p w 3 & & < < & 3 M T R x I.T +.T T +.U J U o.z.l.U U ] P h.g.o.I.h.l.h.l.0XyXrX>X! m F ] j.%X%Xh.cX8Xk.G.2.;.0XxX-X&XG.m.-XxXbX[ C S C ! 2.5.I d s q s 0 5 5 0 e e L L E L E ^ :.<.V.E.*.E.fXfX6XkXdX9X X@X@Xc.9XyX%XF.;.k.9.H 5.>.c..XM < 6 < , < , 5 5 - X   . X o $ 9 p q s e 0 5 5 5 , 5 6 K .X.XOX~.b.~.E.MXfX5X@XZ. .>.i.7.^ s 0 p 0 b V.7X2X/.{.Z.Z.] F b q 1 < , & 6 p p f ~ W m n.m.l.c.L.k.L.c.l.#.~ ` k.l.l.F.M.n.G.P.l.k.%.P 3 : & & * 1 6 w w 8 6 , $ 5 d B } R.k.$.$.6.6.,.L.G.%XF.XX#X~.3./ c 7 Y.Y.&XxX..n 7 2 T O.%Xx.d d w p q q q p e q b J !.DXDX|.%X$Xj.2.B.xXXX%X&X0XxX*XC.7.9.i.q.x.c.z.v. .W ( >.@.C.-.F A G  .4.} &.] m g d F F =.2./ ^ :. ./ p.>.C Z { .. .G G C G 2. .*.fXCX) m W W  . .Q m W ( #.| #.t.r.e.>.| r.Z.| ` Q ) ,.@.$.L.+XD.2.( | $.` ( @.e.A.,.H.[.( ;         o H 8.C k.|.>.@.7.i.i.i.S.4XJ.H.D.D.t.| | @.#.#.@.@.| %.! j.k.O.k.%.9.L.k.! ( ~ W Q ,.7.t.t.t.r.S.k.c.k.c.G.G.J.G.G.S.S.L.Z.Z.G.S.$.X.| ! %.#.#.%.#.9.F.T.T.l.k.m y d X   3 M R h.m.M.l.T M M P G.O.>.D.|.[.Z.e.$.@._ ~ Z m m m m c m F F ] >.J c c h ",
"M M c x x x e x M M M M M x P.M.XXM.h.U x 6 2 < < 3 x U U P +.I.h.I.T I.M.l.j.G.8X[.%.~ Q G F O.W.G.cX5XF.k.2.3.oX%Xz.&XxXM.XXh.j.F D C ] d q v N h h s 0 e 9 - * 5 x E E L N N 0 s V ^ i.K q.rXMXDX4XE.4X9X8X5X5XfXvX%Xb.%XC...5.N.3.G.5Xb & # $ & & , 6 9 - X     . o % % 1 p h h 9 9 s q 5 b ^ q } N.Q.}.tXrX XtXaXfXrX X7.R.A.7.0.(._ p 8 9 b S.A.....N b d d 6 6 1 1 1 & , < p f j W #.T.T.M.l.k.l.P.h.9.#._ | j.P.M.M.l.g.P.O.F O.m : & & * & , p w , - , & , & # o X 1 q.! ~ %.6.9.k.k.O.H v D ..] c 8 g +.oXl.=.] h y -   9 N J P v d 1 w q p w w q w w 9 b O.BX8.+XxXOX0XxXVXXXC.%XcXfX5X@XA.`.Q.].W.XXW.G.9.( ` ) ^ q.Y.{ G ^ G / x.5.H G / ..] c ) ..>.^ Q G _ _ S h Z { 8.8.=.{ / 7.].C.tXCXi.S k f._ 1.,.#.( Q Q %.O.k.#.9.[.N.@.| #.^ W _ ,.| @.@.#.#.Z.9.t.t.p.@.` p.J.A.y.t.r.A X           9 F.] 3.5X+XG.x.9.D././.Z./.eX[.L.r.9.L.4.1.@.Q ~ @.9.L.c.M.j.%.%.+.%.%.! ~ ~ S n W ~ A Z m m ! m #.D.eX0XG.G.D.D.D.D.L.e.9.J.D.O.l.j.%.X.X.k.j.L.k.c.oXT.XXL.W n w .   & M T -XT n.h.U b M b D x.G.N.! m m _ @.$.#.$.F m m M M ] H H v p 5 7 t 7 y ",
"P P P J M b P T R T T T M P x M P P b , + + + # # # + b h.T +.T M P T R l.l.j.eX7.6. .{ | ! ! ! H 2.O.I G ! =.] j.XXn.U h.[ P a 9 9 p q a / #.! V d q s 9 K N 5 - 0 E E ;.L 0 e L N x N N w.E.0.fXdXE.`.V.`.S.S.E.`.'.v.!.+Xx.S.OX`.6.X.! < & & & & , 7 q 2 X       O o @ : @ O * d d s g d e Z x.0.9.'.5XgXCXDXfX8XaX(.{.rX4X@X/.R.uXdXrX( 8 8 5 w b b q < $ , 6 < < 3 , , < 2 1 6 g n n D..Xh.c.l.j.j.l.G.j.X.| G.B.j.c.M.3.g w 2 2 & @ & & & # & 2 , $ % & & 1 , * # # % + h ~ c a c c m M a 5 7 2 - - ; c 3.c.F.9.>.n 5 2 o   . 1 $ e U M 2 3 p b w q w w w 6 5 d ..v p v H %XGXCXGX8X5XfXaX8X0X8XfXfXyXcXb.b.N.>.Q j m G 3.~.K F ^ ^ G &.b.&.A G b y 7 7 A ) G ^ ~ W C C S { 7.4.H Z V V 4.'. XS.>.S k l y a S @._ ( @.#.! m ! X.Z.eX>Xt.^ @.#.| #.A.p.r.a.6.L.| m _ Z 7.Z.6.t.H.p.s.( n 7 O         O # D x.$X%X$XXXXXC.B.OX#XS.8XfX+X9.9.B.F.3.,.( | | 2.%.O.j.h.] b m X.P F ~ ~ W n S S g i p p 2 a c c ! L.G.yX0XG.B.D.D.t.9.r.G.D.%.l.h.h.j.] l.[ ! X.j.XXoX%Xc.m c 2     X x R P.I.I.R x 8 2 w 1 p p q 2 1 2 2 1 2 y a n ! P %.] M X.-.I v y i a g p ",
"x x J M M M l.XXI.R x M R M w x 6 & $ % + . + . X X X . + x I.M.U M M M P h.0XwX .9.`.`.S. .|  .{ ..F / ! v v v v U T v q p 2 8 9 p f 9 s 2.B.S.F s e 0 e 2.L b 0 x E L N e 5 e x N N L N *.*.L K 0.C.p.0.8.2.8.2.2.9.S.V.4.k.8X0XtXX.w , & & , , 1 , 1 1 % O         X # % O     o 9 e s q e b J [ I } I F 5.Q.Q.`.rX@X X<X/.V.'.aXtX<X^.p.A * , 2 q b e q 1 < 0 w q w q w 1 < 1 6 p k _ Z.D.#.#./ ( X.B.M.P.k.G.xXG.L.t.k.] d 2 2 & & $ @ : & $ 2 , # & , 1 % : & & % + o o # m D.L.D.L.#.! M v a 8 7 2 ; p G ^ ] Q G 9 5 @       . , 1 6 b w 1 x p w w 6 6 6 3 6 , , w 3 1 , , b j.yXcXfXfX<XD.@X8X8X4X8XyXyX@Xi.Q / 4.4.>.:.2.9.H } [ G ^ =.C 4 ; 4 t 5 f f g j k j k A K d u n H ] / /  ./ >X8X>.) 1.( Q Z m Z ( ] #.>.8.9.m Z #.L.D.eXeX#.#.J.{.J.A...(  .! $.! Q N.,.Z ( @.#.r.,.G q 9 %             . w F x..X.X.X.Xb.j.*.N.`.@X+Xx.F.F.z.XXc.[ X.| J C M g a w 8 8 q v M m Z n f j k c 8 7 2 6 2 2 q a b c M %.9.j.P.j.D.G.D.G.G.9.X.] ~ ! F X.c 7 a F >.3.j.O.m c a ,     . 3 R m.T M w w 1 < 2 1 2 , 2 2 2 p y i 2 2 2 2 a m m ] ] +.l.D p 9 p d b p ",
"< w M M R o.B v P z..XU R w 3 < & # X X X . .   . .   X X + 3 R T M R x M R h.g.O.4.O.4.i.K 8.0.] J J [ J B P Y Y T U ] p q 7 q s h v V p 5 q h s 9 q 5 s L d D x L L L B L e = 5 0 0 e x N N G V C N N s F q.V.9.x.N.N.}.V...@XeXo.b q 6 2 2 - & $ % % > .             O o O o X   O > 0 9 0 w < & 6 r q 9 w w w e 6 q N m C D K H F { / `.^.d 1 , & 6 q r w 2 0 e e e w 3 5 , < 2 1 b %.t.#.H.J.s.#.! k.D.9.G.G.G.D.L.9.>.d 1 , $ & # & @ o o $ 1 , 1 , 9 9 8 7 1 % o o X > > 7 5.5.=.[ F d i d s s c C C m f h g y 0 & @           . & 6 6 3 w 3 1 1 , , 1 < 6 w 6 6 w 3 6 q 1 , & 1 B 4.D.2X>XuXt.S n ( 8.8XcX0.n K 2.] ! S Z =.l.m.n.I V m - 7 M q p h { C 4 - : : 4 j F C C =.{ C H ] [ ..{.aX}.{.4XN.N.#.#.@.2.N.S.8.o.F.O.M Q #.9.eXeX|.mXfX@X9.f b / n y a a g c n a a h m S h 6 2 :                 % 6 C I -.OX$X%Xb.] Z K 8.k.%.O.o.M b b w v c w 1 2 2 2 8 i 8 w d d m c a a c i 8 2 2 , * & 2 p b b p x x b [ o.M F J F P O.G.G.k.3.%.m c a a F F m n f a p g q @       O w P P M M x w p e 1 , 1 * 2 2 2 p y 1 1 2 2 & 2 b b c m d 2 7 6 2 8 p p ",
". . + & 1 6 6 1 6 ] 5.v w < & & # # + X X .           X + X + + < 3 x 3 3 x w w x x x 1 e C B v p e b x e 0 6 6 q w b v b f p g b c G v 5 8 y q 0 9 q 5 0 e d h = L I.I.L B L 0 : = = 0 = < , & & : > X % & & , q b D P 5.[ =.@XO.d f d f 2 & % @ o o .                     o o > > o O + % & * % o + + + $ + % & # $ & $ % & $ $ & , , 6 0 0 1 , 2 # & , 1 < & 1 w w 6 1 1 9 1 p w p 2 2 2 c ! Z.t.( W Q F m ` k.J.L.L.i.b 1 & @ & + X + X + @ 1 6 6 6 9 0 0 9 6 & o X o > o X X     o . X & @ % % 1 G U F c s e q 1 % O               . & 3 p w 8 3 , 1 < < & w 6 q q 3 9 6 5 6 q 5 1 5 d v / G ( / Z | @.#.| F C c m 9 f F S Q ..l.m.M.O.C C P T m.L b D ;.H p ; 9 K N s C C K J m N I j.../ #.=.t.8.} [ ] ! ( 8.>.`.+XI I l.[ P M ! %.a p #.tXB.] / d c b 9 2 y 2 1 - 1 2 a h a 9 2 1 #                   o - 0 g p v x.v.F.c.5./ Z n b 8 2 2 2 8 p b p 2 * & & 2 2 2 2 w w 8 q 8 2 1 - & & & @ & & & 2 b b b 6 2 w x x 6 1 1 1 : 1 2 M h.h.F k.M a a a n a p p 6 8 2 - - o     O O O X w P M x M x w 1 1 % & : 1 2 6 - & , & 1 2 q 6 6 6 w c 6 q 9 w w w w ",
"          . % 5 9 6 , & X + X .                             . . . + + + X + $ 3 6 6 0 6 w w w w q 6 1 , # # + # # * 6 6 9 q q e p d q 6 9 9 s q - , 1 & > # > > N w.w.R L L E E h * * * 5 5 & o . X > % & - 2 5 - 1 , 1 1 1 e b b c f 2 2 t ; > > o o @ o o             > ; 4 z ; ; ; : ; % % o o o X O X . O         . . .   . . . . X X . X + + X o . . .   . # % & # @ % & & # & & : & % & , 1 2 1 t c k F F Z Q _ #.c & & & & & & 5 b v M P P L Y } U *.*.*.=.3.3.w.4.*.{ *.D Z m s b f g i 9 h F m K d 1 & @ X .                       + < < 1 1 & & < , # + & $ $ $ & & & & # # & , , 6 w q 8 8 9 a 9 5 , 5 5 5 0 * & s N C / C C c v n H ;.T T b - 7 h N h C F N C d s s e p B ;.+.L C v g b h b q v D c m | ] N.#.y f b d a a d m t 2 t 7 y 8 2 i 1 1 & , % % % & - - 2 7 2 % .           O       X - # O # 1 5 , 1 1 < 5 b b 5 1 & : % @ % * * & * % % : : & & & 2 2 8 2 w w & & & @ @ + . . @ b M b 3 2 1 : : % % > : % @ & % % % 9 q 1 , @ : & @ @ X   . X X .         . b x &   . & < < & & % X   O X o @ @ X X . . . . . X X @ + & $ + # @ @ & % % ",
"      @ | S.'.8XnXMXtXeX>XD.9.#.] F m h p 9 2 : & : & 2 1 , $ + + + . 2 6 1 1 1 , 2 * # + o + X @ @ # X X o O X . . . . X X X + + + @ .     . o % * u g h V { w.U.oXU.w.w.w.U.E.v.v.q.Q. XE.2.&.,.q.V.`.'.].@XC.|.N.8.H H m b s g m f l t t k u z t t z ; ; o         O u k l u i i ; ; z ; ; 4 ; ; : : - - - @ o : : : - 7 s j Q @.S s - 2 7 7 ; ; : - ; : : ; ; ; ; ; 4 t 4 i z 4 2 t i g ^ | | ` %...%.#.#.6.9.D.D.D.8.t.D.N.D.3.~.F.n.G.n.F.C.~.E.C.OXtX*XtXtX5X#X@X*X#X$X#XrX*X5XOXOXG.W.$XtXyX%XW.~.*.] ..G 5   .                   O O O @ @ # % & @ : - - % o % % : ; 2 7 7 8 5 2 - 2 m C c j c n n j f f g f u 8 t i f g n g g f n S S ^ ^ ^ ( ) ..>.i.>.q.@X'.=.~.'.q.4.C 1 - - : 4 7 2 5 - 2 i p 7 2 ; ; 2 ; : : % > > > @ > @ > > o o . . .         . o X @ @ % : - 2 u :         . O O   9 q.].OX].E.5.{ I / | ^ C C G / | ] m m c b b y 2 2 1 2 p w a a g a 3 2 2 2 2 2 & % & & @ & 2 2 b X.h.o.M 2 @ . O O . O O O O O . @ w x % 2 W 9.D.>X>XeXJ.t.F p 6 1 5 3 w b M R P g.3.b 2 8 c m M v b p y 8 1 2 8 8 8 8 8 y i 2 1 - : - y 2 2 ; .         ",
"O   & &.~.'.'.E.rXZXCXvXgXrX#XtXgXgXyXyXyXyX*X~..X.X#X$X$X~.U.E.E.E.].SXDXvXvXCXgXtX9X X'.N.&.D 5 # s n V h n h j y - > O O     O     > 8 j n ~ ^  .[.9X].`.].!.+X0X0X0XG.'.0X7X7X8XeXaX>X6.D.J.9XcXeX#X5X0XfXJ.+X].B.B.N.k...! ! N.`.J.[.J.Z u i l u u t z : O       S ' k l k l u u i t ; z t t t t t i f l y V S >.{.rXrXnXFXMXfXgX7Xi.^ ^ :.:./ C f u i i t t u u i i i u u f k A Z ( t.+X8XnXDXnXaXfXnXeXeXnXfXcX8X>XG.G.G.[.B.+XXXl.XX!.Q.].].`.#X0XdXBXvXdXfXcXcXcXkXMXvXMXvXBXCXtXg.~.vXyX$XE.$Xq.G { 2.5.h O o : %           . O . o > : : ; z ; ; z t t t i t z z i u W t.J.7.i.eXeXdXfXdXZXMXMXMXkXMXMXSXGXSXDXDXZXZXMXmXmXDXmXFXAXmXNXmXkXwXaX8X>XDX8X{.mXMX>XfXfXaXfXmXp.f u 7 4 7 4 7 y f c v m f l l i t z z 4 ; ; - 4 l s s 4 > > o o > X o o > > ; z z t 7 4 t 7 j :.p o o X X X   N #XyXgXvXBXBXDXGXLXIXUXUXPXGXHXIXGXLXGXbXBXBXBXDXGXMXnXbX0XM.oX0XxXM.l.G.P.j.h.! ! F h.h.j.D.G.M.G.h.X.h.l.l.j.X.P M m M d b c M H ] D.+XeXnXIXUXIXGXCXVXBXvXnX+XC.c.c.h.h.m.h.h.n.&Xn.XXOXU..X*XbXbXxX*XxX$XU.-.m.n.n.U.Y.n.U.T.;.F m b h s u u ;         ",
"  2 E.yX&.K { { ,. XaXSXSXfX@X X~.*XyX*X.X*XOX$X*X*X*XvX*X X$X$XyXvXGXSXLXGXSXGXZX].E.).A.'. X X7.n ^ *.<.0.u.' <.) f.0 O O       d Q.~.7.N.p.e.<. X9X8.B.].E.OX5XfXcXcXeXeXaX>X|.6XiXhXJ.eXG.t.k.L.}.5XaX>X9X+X@XD.L.S.9.#.] ! ! B.eX0XHXyXm m u i u i i z : O     A ].+X .G n l u u u u t t i u u u u l k k S gXMXaXJXLXLXIXDXrXdXuXuXrX/.:.&.i.Q.8X<Xi.( j k k k k W d.d.u.,X).^.7.p.A.S./.@XuXuXmXmXjX8XuXaXsXS.S.6XjXwXeXeX9XaX@Xk.2.2.B.S.4XtX%XcXbXcXMXZXDXvXvXnXBXJXSXDXFXFXBXFXFXvXFXGXFXfXyXrXi.{ 4.q.4.C : 7 y 9 %       . & > o : % % : : ; m ' j W k k l u l m ~ ( 8.D.S.}.8XcXfX8XkXfX4X[.Z.Z.p.A.'.<XuXrX}.}.].@X8XaX8X4XuXdX8X7XmXNXNXmXNXNXMXnX4XZ.Z.}.7XH.1XsX1XSXSXfX<XR.0.,.q.A.V.0.2.2.G V S S W Z f.l i y f K *.w.w.;.) j - : : : 4 4 z ; 4 4 t z i t ; 4 u p  XS.; @ o o   q ~.$X#XtXgXZXDXPXPXIXPXLXLXBXDXvXfXBXBXvXfXvXGXGXBXxXbXVXVX=X-XxXVXGXDXM.M.G.k.L.k.j.%.l.j.P.M.M.-XM.P.P.G.M.M.M.M.-X&XoX0XM.%XoX0XyXBXIXIXIXLXBXcXxXGX0Xl.G.l.aXuXS.G..X+X$X%XyXyX*X0X.X*X$XW.U.b.U.~.cXcXbXbXbXv.yXbXxX&X&XT.oX=XcX+X$XQ.-.A u u y ;   O   ",
"f q.OX.X*.) | *.*.<.uXSXJXJXSXFXfXfXBXyX#X~.gXnX#X.X*XSXMX#X*XFXGXGXCXCXrXvXCXZXdX'.i.:.>.2.&.q.'.].E.*.*.0.V.) d.<.A u >   O   0 z.OXbX9XN.>.S.`.yX+X].$X+XW.W.F.c.c.k.B.B.j.c.k.6XjXeX`.+XF.] 6.3.}.sXcXaX0Xk.8.9.D.J.D.O.3.3.%.c.OX%XcXl.[ P m 3.l.m z z ; o   s ].x.@X@XE.5.&.G W u t u t y l f._ m k f f m tXDXMXuXaXMXZXnX5XgX9X8X7X<X{.`.V.A.nXZXkXMX;X` ` s.:XuXlXJXFXJXAXSXZXlXaX:XA.J.A.A.qXaXaXfXNXnXeX4X6XwXNXeX+XB.j.#X`.8.D.S.L.>XkXaXxXGXVXxXBXbXxXcXBXFXMXZXZXSXPXHXZXFXSXSXSXAXJXFXMXrX>./ 8.8.9.| C ^ n y 7 O     o # % : > 8 j W A ) 2XfX5X5X{.}.N.'.8X9XtX@X].eXG.4X5XG.|.J.}.<X/.>X^.K./.(.{.Z.<Xi.:. .@._ Q ,.Q m #.(.r./.aXNXlXNXSXHX7Xt.t.,.p./.aXwXH.J.i.[.pX[.fXvXvXvXdXvX#X@X].].E.8.2./ G r.y.@.{ 3.w.U.U.U.~.#XE.,.' l t 4 i t i i t 4 t t z i t t t A |.#Xk.a o o @ Y W.OX*X#XvXLXLXIXHXLXFXcX+X5X%X0XBXbXcXvXBXMXcXvXDXbX=XxX=X-XxXVXVXCXBXoXM.%XP.h.%.h.P O.[ I.M.M.M.0XM.P.P.M.M.oX%XM.yX0XxX0X0XxX0XxXBXBXLXLXGXBX0XXX.XB.I.M.n.BXNX|.F.OXMXSXLXSXJXJXSXJXLXSX$X;.OXcX0XvXyXE.$XbX@X#XfXvXfX%X*XoX$XyXcXxXyX%Xc.c f f t o     ",
"4.'.@XE.*.G &.5.v.*.>.lXlX/.ZX1XV.kXGXgXDXgXSXSXmXZXHXSXCXtXtXFXyXxXcX*X XrX^.0.0.E.a.4.>.^ ( *.4.@XrX]. Xq.7.A.u.u.' f - O   5 v.*.3.fX5X@X0XCXCXyX*X.Xn.-.c.2.! ] %.! O.2.O.2.J.aX+XS.D.c.B.>.| #.3.+X}.S.k.L.W G.@XG.2.B..XF.F.F.l.F.B.j.o.O.l.&XP.B.m z z O s $X~.8.x.#X].q.8.=.>.:.2.n l y Q t./ ! Q k f G V.dXvXrX X/.'.i.7.p.7.p.}. X7X7X6X{./.{.wXqX>X2XuXsX7X[.2XAXNXsX<X/.:X3X[.[.qX}.}.H._.aXnXHXNXMXjXkXAXHXHXnXnXuXG.fXkX[.Z.N.[.dXLXMXvXGXCXCXGXCXcXMXFXvXCXBXDXPXIXIXJXJXJXSXHXSXGXAXFXfX2.@.q.5.*./ { v.4.g 7 X     X % : : h  .E.+X~.9X].'.S.`.4X>X8XtX@X9X@XS.}.}.D.[.J.r.r.:XsX7.i.7X/.Z.6X`.A.7X<XA./.p.i.6.| ( S S @.J.A.(.7XNXSXAXNXuX>X}.uX`.N.6.#.7.7...] ( ^ &.].fXvXyX#XyX].Q.@X@X+X5X!.D. .i.i.C.~.b.U.~.E.rXZXsXrX/.u.<.` ` W k i i t t t i t i t i A q.S.@X0X].N X % O.b.~.~.$XfXFXLXDXJXHXDX0Xn.m.h.&XxXyXn.G.MXBXvXxXBX0XP.M.-XxXxXeXBXnXcX%XG.-XP.j.h.j.h.l.h.I.j.G.M.M.M.M.P.I.P.0XGXLXDXDXxX0XxX0XyXoX&X%XJXLXLXGXxX0Xz.o.O.n.l.aXLXjX4X5XfXaXtXrXrXfXAXPXPXPXFXQ.J uXvX9.q.q.S.vXGXCXcXBXGXLXCX.Xv.].BX9Xc.XX;.D g l i ;     ",
"q.@X].v.v.x.v.Q.~.q.>.0.( C ) ^ *.^.uX X2XlXAXFXmXJXSXFXZXmXMXvXtX].v.&.q.i././.7.7.V.`.`.8.0. Xi.>.7XrXrXq.^ <.u.$.f.f.y X 0 T w.;.E.].#X*X$X.Xc.g.bX%Xj.[ O...! / ! [ 4.X.%.| %.9.#.O.O.| %.O.O.m H | X.! ! | | 8.B.G.L.G.oX&X&XXXF.F.c.c.B.z.M.M.G.oXj.a : O F !.5.q.@X#X9XQ.0.9.4.|.$X3.x.S.+Xq.! ( | ! G %.8.V.Q.}.R.i.Z./.p.7.i.<.u.^. X/.{.[.H.[.7X2XA.[.<Xi.i.s.a.dXmXnX<Xa.,.[.H.1.r./.7XJ.e.p.2XhXmXmXAXLXPXPXMXuXmXnXmXdXnXkX8XwX8XjXSXDXZXnXSXZXMXmXNXfX8XCXDXDXKXPXIXPXPXKXKXPXAXAXaX'.DXgX! { x...7.V.4.~.V.n 8 #     # % % u 7.q.q...x.~.q.9.4.2XfX9X4XS.>.,. .A t.a.G >.Q n ~ #.7.!  .i.i.V.`.k.C.}.N.p.A.i.r.r.` W 6.N.7.7.>.>.:XkXjXuX`.p.p.`.D.8.7.7.2.8.>.>./ ( 6.V. X#XbXfXOX*X X'.'.9X8X7X5X].t.H.R.Q.c.w.5.E.`.sXKXlXqXrX*.p.a.a.u.<.j l l l u i f n A >.D.`.`.4X#X!.~.s $ w.U.U.yXfX~.#XnXNXHXPXDXfX%XM.M.xX%XXXz.+.c.XXc.h.P.l.h.O.M.xXyXG.eXcXBXxXG.P.j.l.G.P.P.l.m.P.l.h.M.M.oXM.P.%XBXBXMXDXcXDXcXG.oX0X0XM.G.yXcXDXFXMXcX0X.Xh.l.h.XX5XSXLXNXfX+Xc.j.E.Q.@XkXPXPXKXNXyXD.7 >.N.vXMX8XvXnX0XF.B.G.0XW.c.9.Q.yXC.} g.I F H h u f %   ",
"@XrX XQ.'.C.~.$XE.R.>.Z K 2./ h ^  .u.).a.a.a.1X X{.7XZXMXrXmXnXrX'. Xs.( ^ i.A.a.rXR.C.#X].].].E.>.V.p.u.q.u.) Q f.k ) s 0 *.;.Y 3.Q.v.E.q.=.9.9.2.k.$Xn.-.O.! / | ! ] 7.#.9.2.| | ! ! Q Q 9.k.| F / P | ! Q ..2.k.F.G.F.G.&X&Xl.c.k.c.l.B.eX%Xn.P.%X&XF.[ f o *.c.D N.vXdX@Xx...:.4.].Q.k.!.%X!.2...{ / | >.D.:.( >.@.>.>.>.7.E.p.A.7.>.<.p.A.A.Z.J.:X<X/.p.[.J.s./.p.p./.iXZXmX1Xp.H.p.1.` ( | $.6.y.p.H.K.qXSXSXiXwXH.K.}.A.H.e.r.p.H.6XjXnXaX7X{.p./.J.(.e.<XsX[.6XkXSXKXKXKXPXPXIXKXPXKXKXdX[.5X`.Z 7.0.9.~.V.q.@X0.C p o     > % 8 &.3. .6.8.C.Q.&.G A ..r.,.( S G Z / ,.9.Z.| W S ~ Q Q _ #.7.i.i.x.z.3.] ] i./.r.9.7.@.! _ +X$X9.>.1.! 6.K.,.@.t.r.>. .G ^ @.7.i.6. .:.@...:...N.fXGXMXgXFXSXHXHXKXKXHXNX'.x.A.>.K &.&.-.N.).lXKXPXzXu.>.7.V.^.Z.u.7...*.,.0.q.x.C.E.F.}. XD.7.`.]..X=.1 v.~.$XyXfXR.E.nXMXHXDX>XG.0XxXxX-XM.P.j.+.O.P ] o.P.h.O.o.P.%XM.G.X.j.G.xX-XP.h.h.M.M.M.P.m.P.l.P.M.oXoXM.0XPXUXGXfX0X%XxXGXcXM.M.P.&X&XM.%XfXMXBX+Xl.O.h.m.M.xXcXBXKXNXcXeXB.v.].OX!.9XLXIXJXFXeX.XF.G C S.N.O.3.3.3.k.c.l.k.3.0.Q.c.].Q.3.[ [ [ [ } ] C f   ",
"uXrXrX'.@X$X#Xv.q.uX0.7.i.>.V s n ' :.H.p. .7.7.p.a.^.'.).a.@XkXuXkXfX).u.,.:.0.].rX'.E.].#X#X]. Xa.<.K 4.'.'.E.:.2.q.>.y N *.L D 2.} =.*.5.C.C.k.x.2.l.c.+.] X.| F ! ] ..9.4.k.L.D.2.|  .>.G.3.! %.>.! W F ! %.9.B.F.%.l.XX%XG.c.F.l.j.l.j.G.XX.X#XF.M.M.#.X.2 ] ~.8.}.9X'.8.:. .] 8.~.b.$X%XF.k./ / &.#.] 2.N.] 2.8. .:.:.../ A.V.i.>.<.p.i.,.t.A.A.[./.t.p.>Xr.,.p.,.<.^.2X(.<XsX1X(.u.:.( @.$._ $.H.K.s.6.r.(.J.e.) 1.[.(.r.#.e.e.e.e.J.kXaX4X(.Z.K.Z.(.i.@.>XsXH.2XjXKXLXHXHXPXKXPXIXKXKXKXAX&.I ].:.,.2.Q.rXR.7.E.2.*.s .   X > - &.E.4.^  .N.E.Q.| C j V S A Z ( ,.7...! G | ..Z @.N.L.2.#.'.`.t.i.Q.B.9.N.{ :.D.6.y.@.@.t.[.|.x.>.>.s.@.$.i.r.@.e.@.| ^ C Q @...( >.7.@.>.N.4.2.6.x.}.9X7XlXZXKXPXPXIXUXPX>X..G F 3.n.~..X@X X'.<XlX8.H 2...7.0.0.x.C.].~.c.~.~.x.c.c.k.C.>X<.1.i.D.G.x.N m.w.U.fXvXtXV.rXfXnX:X| ~ ! .XoXoX&XP.O.+.O.j.h.O.l.l.o.X.h.M.%XP.h.h.l.M.-XP.j.P.l.M.M.M.M.M.M.M.M.M.M.BXLXPXHXxXxXM.T.M.vXCX0XP.P.M.M.G.G.G.BXcXG.B.h.m.P.m.M.G.5XNXJXNXtXeX@X~.'.Q.}.JXPXJXvXG.l.XX.Xc i C ..+XG.3.9.3.k.S.v.B.C.N.].yXc.O.[ +.[ O.-.j.4.g ",
"fXiXaX XrXrXE.^.'.'.i.7.*.) G V V K *.H.<.:.u.<.u.a.@.*.>.w.'.7XfXuX{.a.s.:.:.>.V.<X'.5X#X@XrXrX'.A.V.{. X)./.E.$X.XU.x.s L *.} { ;.=.2.....3.|..X.Xc.[ z.F.[ %.O.O.>...! ! / ..#.9.>.]  .t.x.! | 9.%./ m m ! 9.k.j.B.k.G.F.-XOXF.G.G.F.k.L.>XeXeXXXl.j.%.M Q i =.~.8.9X8X].8.>. .4.Q.OX0X%X!.~.*.G ^  .......9.^ *.q.7.1. .@.:.Z.i.u.:.>.7.7.:.,.A.H.A.p.p.A./.H.,.r.p.u.r.H.[.a.iXuX(.r.` S ' ` ~ 1.Z.s.Z.,.e.y.1.1.` ) y.@._ ` ` @.e.H.:XSXjX/.}._./.Z.A.r.t.J.[.$.Z.:X>X2XhXAXKXKXKXUXIXKXKX1X:./ OX,.A 3.4XZXsX/.i.{ I g O   o > G R.x.&.C C *.8.fXQ.,.:.>.#.,.7.7.A.A.7.W m m Q G #.t.9.>. .6.N.i.N.`.7./ ( S A | 6.A.#.r.N.i.#.Q ^ @.r.i.7.y.t.1.)  . .( ^ ^ ) ( / ( @.6.Z.8.4.7...>.>.@.:.:.) ,.e.y.K.wXPXlX5.[ w.U.U.U.~.v.`.<X=.} F / | / >.q.R.#X@XOX].S.E.Q.F.C.N.}.}.}.r.#.,.8.B.=.B v.E.*XBXfX7Xq.>XmXaXt.6.#.| G.oXM.M.k.] [ h.h.M.P.M.M.! H ] G.M.k.P.M.M.P.P.M.P.G.M.P.P.oXT.M.M.oX-XvXLXIXLXLXBXxXBXVXxXM.nXvXxX0XM.G.G.oX&XG.0XeXl.n.n.m.m.m.n..X0XMXHXdXNXHXPXAXmXuX8XHXLXdXG.k.z.G.n.oXC # g G.k.#.%.] j.G.F.x.&.2.9XvXF.-.+.O.} =.-.F.-.+.",
"gXgXkXZX1XR.0.0.A.7.R.Z.7.7.N.p.^. X^.u.>.) / ,.,.i.4.^ *.:.<.V.'.{.^.a.s.i.:.,.p.S.N.@X].2.q.v.'.9X{.rXrXfX@X$XU.U.~.U.d e Y I 5.x.5.=...] 2.x.0X0X#X!.W.-.k.b.n.j.l.c.2.H ! ( | 2.( | >.N.X.| ! %.F Z F | ] F.c.k.k.c.c.c.n.M.G.k.j.j.O.%.k.L.|.+XG.c.%.m W n } @X9XcXvX5Xi.&.C.|.OX%X$X@Xc.B.>.^ G ..#.2.] D ! j.5.D.0.7.>.<.u.<.7.>.,.:.:.,.1.i./.H.r./.<Xi.(.>.$.7.u.r.r.7.s.mXqXr.<.) ~ ) $.@.r.s.y.,.#.e.#.e.$.@.:.<.,.' W ` ,.s.p.:X<X<XpX{.p.H./.Z.7.,.6.r.r.s.$.r.$.6.uXAXSXZXHXKXIXPXFXNX:XR.^ j Q.8XAXZXpX{. .G g o . o & 2.C.q. .G A ( K tX5X>.,.7.>.@.) ( ! @.t.A.y.! n n m m Q ! #. .2./.V.t.#.$.:./ Q W G ~ Q ! ( @.| | 1.t.t.H./.:X}.H.<.>.@.( 7.<.1.@.#.,. .1.7.! / 9.N.>.@.,.7.,.t.p.r.@.( / :XJXjXj.n.W.~.v.v./.1XZXE.{ >. ./ ^ >.A.V.V.{.4X7X/./.7XdX8X4X8X8X<Xi.#.@.@.8.N.*.v.OXyXdXfXS.@.~ {.mXB.c.L.%.2.%XG.h.o.M [ P.M.-XoXM.P.] n ! M.M.h.P.l.l.[ T oXxXG.M.G.fXVX0X0XVXDXBXSXaXiXdXG.0X0XxX-XxXcXBXDXvXxXoXeX0X0XcXMX0Xc.F.M.M.n.g.z.%X%XvXBXcXeXMXdXtXNXPXPXHXJXHXF.h.c.M.n.oXoXXXP , & b O.6.| j.G.B.%.! %.`.bXk.] X.-.O.O.O.3.o.[ ",
"1XrXrXrX5XrXrX7.q.`.7.7.[./.0.rXgXrX0.>.>.) / _ ) *.7.<.:.p.V.,.^.^.i.s.u.u.A.)./.4.4.2.*.| :.>.q.^.2XgXpX7X X*XE.G *.*.g N *.*.=.*.[ 4.{ H | 2.Q.0XyXxXj.F O.n.XXn.+.3.X.! >.>.| #.7.N.J.t.k.t.] [ / | [ X.O.&XM.9.k.L.O.%.h.l.G.k.%.9.G.k.k.$.t.eXJ.>.F m Z c K x.fXCXDXaXR.x.Q.W.Q.#X$X8.2.8.{ G G / #.4.| h J &. .V.V.i.r.7.i.i.7.:.,.@.7.0.7.7.p.A.A.p.{.A.A.1.( 1.,.<.t.y.<.lX}.7.1.` _  .e.@.r.r.e.@.1.@.p.s.$.` <.<.,.,._ 1.y.p.K.[.p.{.kX7Xu.2./.S.<.@.@._ ` #.$.#.$._ ).2X_.kXjXmXKXKXHXlXuX{._ f 7.`./.mX1X).d.r.G 4 o o - K 8.2.^ G G (  .Q.5X<.<.>./ / / _ A W _ 7.#.S k W @.%./ Q ! | 7.V.7.#.@.,.@.@.1./ ! m Q Q n Q _ @.,.,.,.r.y.H.r.,.<.7.{ @.>.6.7.p.r.6.r.#.| _ ! #.6._ ( >.>.<./.:X_.H.y.$.@.wXJXaX#XMXrX`. XuX X1X1XE.4.7.2.>...7.2.&.S. X4X/.r./.<X<X6X6X{.{.`.Z.i.t. .2.K Y q.rXFXfXD.r.1.] 8X.Xl.] @.! P.M.h.h.%.[ h.P.P.M.h.! h.+.j.c.l.9.j.h.I.P h.-X0XM.+XHXPXLXLXIXHXBXBX0Xk.| k.D.O.k.P.M.oXcXmXNXBX0XBXMXBXdXaXMXBXG.XX&XXX3.O.B.0XcX0XcXG.j.G.M.h.l.F.nXHXJXHXc.c.%X0Xj.n.M.-XxXF.d % 2 b c %.B.! ! ! >.'.yX-.[ [ -.g.B.F.l.~.X.",
"gXE./.rX9XkXZX7X&.8.0.V./.R./.N.1X'.7.0.>.0.<.K ) <.<.u.p.r.K ) 7.i.^.H.H.s.i.^.>.N.~.q.] | ) *.*.A.1XgXhX X2X#X0._ ^.) 5 e K *.] *.] ] / G Q ..5XBXtX+XO.#.2.[ j.g.3.O.X.r.8.>. .| 9.J.J.N.N.7.%.#.! ! %.#.O.k.k.#.2.>.k.h.oX%XG.c.9.k.L.P.L.$.r.r.` Z n m F m v N.9XyXBXtXtXcX#X@X$X+XB.@.|  .! G ^ H { 2.! F N. .,.N.8.D.Z.7.>.7.>.<.,.6.i.p.r.p.s.t.t.p.H.i.p.,.@.@.,.r.e.1.@.A.7.i.:.@.,.<.r.@.e.r.s.p.r.@.$.t.$.| i.7.7.<.@.e.A.H.J.p.p.iXfX9X`./.}.Z.7.@.| ` ~ ( #.@._ ~ ( e.r.wXlXSXHXZXa.` :X7Xr.S n 7.u.<XaXiXpXu.Z 7 o o s C *. ./ G | &.{ fXMXq.a.<.1.,.@.) ! S A A n n m ` @.@.| / S m ~ 7.,.@.( ,.7.@.@.Q j n A ~ G Q ` @.| $.@.,.7.@.>.p.S./.7.i.p.p.r.r.A.Z.,.,.e.#.| W / ,.,.y.A.a./.H.p.r.#.1.7.r.1XqX).qXsXi.H.^.u.s.i.uX{.4.i.7.7.3.9.4.4./.{.A.i.A./.(.:X[.:X{.H.`./.4Xi.Q K *.5.].MXMX[.( ( / x.%XG.2.6.( X.l.P.+.[ [ ] [ h.M.h.X.l.l.l.j.h.O.P.P.[ [ I.M.xX0XNXLXHXPXLXCXcXVXVXG.%.! Z X.X.h.M.xXM.M.eXnXDXAXJXAXjX8X#X0XMX%XoXoXB.X.#.#.k.l.P.&XM.O.P.F.M.&Xh.k.G.BXBXj.l.xXxXU I.M.T.-XVX=Xp & & & , d C ] 2.x.@XeX!.3.[ -.c.l.B.G.G./ ",
"mX0./.rX{.dXFXkX}.aXdX7XR.R.A.G >.7.7.K :.0.H.>.>.0.{ :.0.) ) ^ ) i.<.i.^.p.^.a.>.#.x.x.^ / ) ) <.4.A.mXrXrXMX@X) *.uX^ ; 5 I K [ } [ ..! C ! B.%X+X|.F.9.B.8.! | O.k.B.5.9.9.9.t.9.Z.D.A.D.J.t.#...] O.k.#.%.#.2.$...| %.M.xXG.j.O.%.%.j.L.k.k.6.| Q m f n m n V v.5XvX9XyXbX.X*XbX$Xi.7.p. .~ A | ..I ] { F I 9.&.7.}.`.4X}.7.7.7.1.>.>.7.>.r.>.r.7.,.@.1.A.p.p.y.r.,.r.6.1.@.1.,...i.i.) ) ,.6.$.e.A.H.r.#.r.$.e.,.,.7.A.[.7.,.y.K.H.s.$.p.MXaXrX7XS.N.i.7.u.p.1.` @.` ` _ ' ( 1.s.a.uXNXZXjX^.~ /./.S V f j A >.mXaX$.S f % % v I v G | K G &.} D Q.<X,.( &.>.>.{ / Q S n n a Z $.Q n #.t.#.>.! ! @.,.#.@.#.r.| S Q ! S Q | @.@.@.1.) ( Q ( ( <.p.[.[.K.[.).i.p.7.) @.1.@.#.#.( Z Q r./.y.>.$.( @.e.t.1.#.,.e.t.{.Z.~ _ H.).).^._.H.d.p.^.N.*.2.3.3.=.=...7.i.p.^.p.p.[.J.(.:X[.J.>X[.'.D.Z C I 3.7.`.>X7.! Q  .k.-Xc.@.r.t.%.h.+.[ P H ] X.%.[ h.-.l.j.O.g.j.h.M.P.[ I.P.M.BXPXPXGXfXvXBX%X%XxXyX&XX.c m M [ h.P.xXxX-XG.G.+XaXNXnX0XG.oX+XfXl.oXOX#.] ! X.O.+.l.h.j.O.P.l.l.M.l.3.G.XXeXo.[ c.b.z.M.T.XXM.Y.=X%Xx % 1 % & 1 D C.].F.G..Xk...=.3.B.C.eXG.G ",
"nX0.V.fXaXuX X0./.`./.}.<XA.8.| q.p.<.K C G { *.4.a.a.V.:.K A W ) :.u.>.,.7.H.p.>.@.@.&.<.<.>.0.0.a.0.<X X). X/.A A :.V ; 5 *.G F =.*.] 4.2.2.]..Xx.2.! 5.k.X.] >.8.L.c.x.3.#.6.9.9.N.Z.J.A.t.O.6.#.! 2.G.9./ ..! | #.$.#.c.-XG.L.G.G.k.k.j.k.k.P.k.F m a b F c d @XvXBXGXyXOXG.Q.S.8.t.t.r.#. .#.| ] U ] G I O.[ ..&.i.Q.aX<Xi.i.u.r.@.:.7.7.,.e.:.@.@.7.p.p././.p.<.s.p.$.$. .,.>.8.t.<.:.<.:.6.r.#.y.y.@.$.1.,.,.7.q.,.^.<X>.@.e.r.e.1.y.2XdX}.9XS.S.8.p.i.i.,.~ @.1.` ` ~ Q 1.y.i.p.}.2X<XkXs.( {.u.9 u f u i A iX1XV f j : 5 J D I C N ] { { J F x.'.Z.r.9.>. . .)  ._ S g k k f Q | t.t.@.G m j G ,.(.1X/.p.>.(  .@.A S / 1.A.r./.H.A V Z _ r.s.J.(./.1X2Xp.r.$.#. .1.t.<.( Q | r.t.e.r.` W W ~ ,.p.y.t.Z.t.6.H.s.m | s.p.t.s.A.H.A.^.3XfX..5.w.=.*.} ..7.A.i.i.A.,.1.p.S.p.Z.[.<X[.[.6.m } x.8.4.2.7.#.~ S !.%X%X3. .>.#.| H m m H [ h.h.h.P.M.h.+.h.l.P.h.O.l.m.I.M.&XHXUXPXDXcX0XxXxX0XG.M.M.G.h.O.I.h.I.h.m.oXM.M.P.[ l.G.G.aX0X0XM.%XeXh.G.G.O.+.-.-.[ +.+.h.[ [ h.[ X.M.O.O.P.G.O.l.-.} .X0Xm.&XxXG.M.yXVX-Xw & * * & - c D.S.@X#XB.[ 2.>.9.L.N.( | ",
"gXr.>.).uX X`.^.0.u.i.0.H.R./.{./.u.i.^ A C ) <.*.<.^.(.0.^ S A ( &.,.7.a.{.).7.7.>.@.) 0.a.7.,.` :.<.a.).(.7X0.h G 7.k : 5 J K J [ [ 2.k.S.x.C.$X].F.B.N.2.%...t.D.j.] 3.c.>.%.( | ! ! %.9.6.#.| >.| ( | ( ! ( Q | #.H.| Q O.D.D.G.G.B.L.L.k.L.L.L.%.m m m H p p fX].cXGXfX`.`.7.7.,.i.u.@.@. .&.] ] } =.K } 2.| Q / 2.S.`.V./.(.A.i.,.@.:.,.7.i.i.@.@.r.A.8./.p.7.,.p.A._ :.y.7.,.6.8.:.:./.i.s.p.6.e.@.,.y.#.@. .7.i.E.(.p.) _ $.` $.e.,.[.'.i.7.t.`.V.H.7.>.` ~ 1.r.<.` ~ $.e.u.y.p.{./.A.A.r.pXAXr.4 l f h f S H.}.j y f : c -.C ] =.K { { U *.*.tX8Xi.6.@.A ^  . .| | ! V n m W m _ >.~ Q W Z ~ ~ Q #.Z.p.[.K.1./ @.@.( @.>.>.@.y.@.W W ) >.,.p./.p.H.H.Z.p.>.$.#.@.( ) @._ @.r.r.@._ ( _ | $.#.( ` ` $.Z.r.^ #.H.W Q @.@.1.,.,.r.r.7.iXfX=.*.j.-.=.N.S.7.>.,.@.1.J.{.J.p.K.Z.{.S.p.t.t.Z v x.N.B.8.6.7.5.4.XX=XOX .| D.c.c.D.! [ h.h.j.j.g.M.M.l.O.O.O.j.j.h.P.I.P.xXeXzXLXDX0X-X-XxX0X-XxXyXP.P.M.M.P.P.h.h.m.P.M.-XxXP.P.P.G.MX0XyXG.G.F.G.eXc.l.F.z.l.h.h.%.+.P ! P P H X.3.O.k.h.O.xX%Xl.M.=X0XxXVX-XF.B.yXVX&XM & & * * & 2 F |.eXW.9.X...9.L.| n ..",
" X4. .{ '. X'.'././.7.:.>.R.i.4.^.0.*.&.<.<.r.p.^.a.0.^.^.e.^ ^ &.:.<.u.a.pX3X<.:.:.>.7.A.0.a.u.<.@.:.u.7XZX/.V s S 4.k : - A G D { ......9.N.Q.cXG.G.|.G.O.2.9.x.+Xj.[ -.j.] / | ( ,. .m t.H.9.%.#.#.| | | 6.#.%.#.9.@.( #.6.t.L.G.G.G.D.D.k.L.k.k.O.F P P P 2 p D.Q.cXcX#X[.K.K.p.r.t.i.>.>.] / { ....} ;.=.{ / / | 4.8.>.i.A.A.{.(.i.,.1.e.,.1.7.@.,.i.7.6.S.A.y.r.s.t.@.1.>.@.r.t.N.1.) >./.>XA.1.1.e.y.p.1.:.>.8.R.^.^.,._ ` ` _ ` ` $./.`.5Xp.i.A.N.t.,.t.1.` ,.p.K.r.1.r.u.r.i.7.7.r.p.p.jXJXSX1.4 u h h f j h u.S t k ; N v.C F *.5.5.*.[ O.=.tXfX#.H _ _ Q ~ G ! ^ / _ Q | 6._ Z ( ( W _  .( ! ( W ` t.Z.,.| S A ,.7.r.H.).p.6._ Q (  .>.s.r.6.,.r.p.6.| @.,.1.) ( ) 1.$.@.Z.s.e.#.| #.s.r.@.$.$.` @.r.,.@.| (._ S ( 6.D.V.0.>.:.,./.#XK } ;.O.N.9X`.p.i.i.r.i./.}.'.S.A.H.J.i.S.J.r.y 8 5.>.>.#.N.k.v.b.v.z.c...#.8.z.M.O.] h.P.m.h.P.h.l.P.m.M.M.l.h.h.m.P.P.P.c.X.h.P.%XM.%XM.%X-XxX-XM.M.M.P.l.P.h.j.P.l.P.-XxXP.P.yXM.M.nXcXyXB.+Xc.G.D.%.j.P.h.O.I.l.h.[ P ! ! F H ! ! j.G.G.M.VXVXbXoX%XxXxXxXn.l.9.8.G.xX-Xo.q < & 1 2 2 b +X@X....t.t.N.W Q G ",
"E.<.r.0.{.kXaXrX7XR.A.0.4.i.../ 2.i.2.<.0.:.*.0.a.a.p.>.:.G A )  .2.,.7.s.p.:XA.u.7.<.A.).^.^.V.^.0.u.<. XmX).h j K *.l : > N G C [ B.7./ 9.@X0X0XG.L.9.#...>.i.r.6.-.+.P } ! ( ..| #.#.$.N.D.#._ Q Q  .t.t.k.>.e.t.e.| #.k.t.s.D.eXnXeXD.J.D.L.k.$.M P o.X.M 2 f @.@XC.`.`.H.H.J.p.p.H.t.,.>.>.>...2...} -.=./ / ^ )  ...@.i.7.7.A./././.i.1.( @.:.<.r.7.@.1.i.Z.Z.i.H.,.,.y.,.@.,.t.t.,.,.<.A.A.,.#.$.,.6.H.H.r.,./.(././.,._ ` $.` ` ( ,.i.7.A.R.}.S.N.t.t.r.( 1.i.Z.(.A.<.r.<.r.r.,.,.,.7.p.7XnXFX:.7 u u u t i f Q u t i 4 b ] N F =.].OX;.w.-.=.9XdXt.Q Q  .@.Q ! ^ G ~ ! Q | Z m Z _ ( ! A S ( 1.D.A.J.A./.Z.r.r./ ( i.H./.2XH.6.| @.7.1.,.r.@._ #.i.A.y.@.e.@.@.$.( @.@.@.#.6.Z.H.e.@.@.,.t.s.t.#.| r.7.t.y.6.;XZ.Q / #.E.8.{ ) 1.7.^.9X].U k.x.`.}.`.{.H.p.A.i.Z.H.J.A.A./.S.H.Z.A.Z ; s 4.5.7.r.[.!.c.F.%X~.3.k. .#.h.M.O.X.+.m.P.P.P.M.M.M.P.&XM.M.M.P.M.P.M.G.h.P.l.j.G.M.0X%XM.M.0X0XP.0X-Xl.I.h.l.G.M.P.l.-XG.h.P.cXcXG.cXcX+Xc.F.l.P.j.O.c.M.g.X.P.G.h.h.P X.H P ] ! M ] M.oXxXVXbXGX=XXXM.m.P.[ X.X.%.N.xX&X$Xn.M 2 1 2 7 y ..Q...7.A.D.t.s.t.p ",
"V.V.`.}.{.}.@XZXMX'.9X X/.^.q.7.q.V.^.0.<XV.:.V.^.i.^.7.^ ) 7.*.G 7.p.7.i.H.u.e.).^.i.).{.2X(.a.^.u.7.a.u.7X<XS G '.( u > o N F D [ Q.].}.`.].C.N.N.4.2. .2.#.W j m ] O.| ] O.j.3.#...#.>.#.#.( %.3./ ,.J.J.7.!  .t.D.Z.t.D.>.#.J.J.eXG.k.D.L.k.9.#.%.h.X.P M :  .t.}.5XcX[.e.e.r.p.H.[.8.t.8.4.2.X...[ o.=.6Xt.#.Q A Z >.7.7.,.p.S.[.4XA.y.,.:.,.t.p.Z.,.@.| ,.t.S.R.i.<.,.<.u.,.@.u.,.@.>.p.a.r.y.r.i.p.a.p.(.{.4./.{.:X[.(.:.$.y.@.e.J.[.<.7.:.i.}.S.V.,.i.7.) ,.y.t.,.1.1.r.,.1.^ @.1.,.i.(.A.kXJX1.8 i i t t t 7 u y t u 7 7 C D J `.aXOXj.5.v.~.tXtX7.( | ( @.6.| W ! ~ Z Q t.t. .Q G ( @.| ~ S G #.i.N.6.A.>X>XK.t.@.e.p.t.r.r.e.6.y._.J.i.,.(  .,.7.H.(.[.(.#.$.` | $.@.` #.#.1.y.@.@.r.H.[.(.[.Z.@.@.>.7.r. .i.NX>X! 2.../ ] >.,.,.6.,.8XG.O.|.6X{.`.4X'.S.7.t.H.s.H././.uXaX8XN.S f % a k.k.6.hXhXC.3.|.G.O.k.l.2.O.z.P.3.%.P.P.T.M.M.oX-XoXT.M.T.M.M.G.BXnXcXcXeXh.l.M.oXG.vX0XG.P.cXxXG.M.M.P.P.P.l.P.+XoXP.P.oX#XP.xXMXcXMXNXdXP.M.M.G.M.P.P.l.h.j.P.P.I.h.j.h.F [ o.X.] O.%.G.xXxXVXBXc.M.l.h.h.P ! O.&XoXxXM.G.M.0XP.w 2 9 2 2 p b ~ s.J.wXeX#.3 ",
"..8.Z.p.i.p.E.uXuX X X/.E.E.A.0.p.N.q.7.2.&.&.<.a.7.a.^.,.7.^.a.r.a.u.,.u.^.0.:.u.<.a.<XrX).a.).'.<XiXsX).rX^.n ( ].^ t o   p J H 8.{ S.].9X5X].9.| ! 3.j.3.3.%.| >.%.8.O.| [ O.-.#.| $.$.%.| 9.-.k.>.e.D.J.N.r.N.6.t.N.9.r.L.L.L.#.#.6.,.9.j.L.L.k.j.k.h.X.M & ( S.S.aX'.7.e.s.t.Z.8.|.S.D.9.>...4.-.;.o.D.pXp.#./ / @.8.Z.D.9.r.V.A.i.7.A.,.>.p.i.r.6.@.>.#.>.9.F.V.i.a.:.` :.,.<. .` <.@.A.uXi.y.u.y.s.d.p.r.7.4.p.)./.{.(.A.p.p.r.@.1X<X^.{.A.Z.S.V.A.#.@.( #.s.,.,._ ^ i.i.>.@._ @.,.6./.>Xt.ZXlXW i i t t i y t y i f A s - J B H `.MXQ.v.E.E.C.aX<X/  .@./ @.,. .( Q G / #. .>.,._ Q _ @.( ( W c g ( #.| 7.t.p.r.t.Z.t.r.Z.Z.H.i.r.A.J.p.r.@.@.r.y.,.i.Z.p.r.( @.@.@.@.@.$.@.#.1.6.6.p.A.Z./.H.N.V.Z.r.7.,.r.r.,.p.sX2.| | 2.7.7.1.@.,.t.}.Q.I N.}.J.Z.N.t.6./ r.:XA.r.H.<XmX<Xi.r.h y 9 8 =.>.t.7XiX`.N.#.Q %.c.F.z.3.z.l.O.%.P.M.P.M.T.-XT.T.M.P.h.h.U yXHXMXnXyXM.%XP.M.%X0XeXcXoXG.G.M.-XT.T.M.P.P.M.M.%X%XM.M.-X0XM.xXNXdXG.G.0X%XG.M.M.P.M.M.P.h.l.l.l.M.P.l.P.h.h.o.X.] j.j.oXxX0XxXM.+.l.h.[ ! F H l.&XP.M.G.VXVXxXxXF.H 8 2 d 3 2 a @.k.m a 9 2 ",
"A.Z.i.i.i.7.7.7.`.7X6X{.{./.i.V.R.V.&.^ :.) p.(.^.'.p.) >.) ,.<.^.i.i.<.:.u.u.<.u.i.). X<X2X).^.u./.sXsXuXlXA.G 7.'.V % o   9 J I F  .<X8X9X].N.x.C.x.j.O.O.>.>.2.8.>.2.O.%.] D ] ] ( ^ %.r...j.g.3.$.Z.e.#.{.aX>X6./ 9.t.9.r.r.$.%.~ | #.2.k.G.P.L.k.O.X.P d - i.4Xt.>.( | e.p.p.Z.H.|.'.F.k.>./ O.-.-.] A.r.A.r.@.| >.7.>.e.7.r.7.7.1.i./.7.<.y.p.,.>.r.,.7.7.9.F.x.N.i.:.,.` $.<.` ) <.>.) i.i.y.p.s.e.p.r.:.:.7.a.H.A.H.7.A.N.p.s.s.uX<XsX1Xp.}.<X/.S.t.@.( @.1.1..._ Q >.y.,.$.,.@.) ` i./.>XSXjX( u t 8 t u y 7 t f j ^ c 8 B J C ].MX].'. XfXaXdXi.#.@. .@.| / @.r.>.( @.,.#.@.6.,.( #.,.@.@. .~ ( | | Q @.#.! Q ! #.e.#./ y.s.7.6.A.i.7.i.y.>.1.,.r.Z.( | #.@.~ ( | ` 1.,.@._ Q ~ e.H.H.Z.H.:XH.t.i.i.N.r.r.r.,.) Z.{.| 2.>.@.( ` | 1.H.[.rX8XL.S.S.t.N.9.4.] @.p.$.^ $.p.6XA h A 7 m ] s ../ 9.eXJ.2.G.9. ...n.M.c.g.n.l.O.O.g.h.h.m.M.P.M.P.h.+.h.h.P.nXaXeXyXG.M.xXoXP.fXBXcXcXxXM.M.M.oXT.T.M.M.P.P.P.h.P.M.M.-X-XG.8XBXwXM.G.#XM.xXM.T.M.0XxXxXM.k.M.oXoXP.l.l.h.! %.X.! v ! c.l.P.-XT.l.X.[ M F P [ h.h.+.l.M.BXeXM.G.P.#Xj.b w w 3 a 8 8 1 x 8 & ",
"7.A././.R.i.u.i. X<X5X X9XS.V.V.V.[.&.:.) *.V./. .^.uX7.) ( ^ A u.s.0.a.s.0.<.p.a.H.^.^.(.H.E.^.i.,.i.{.fXpXp.:.&.0.V > > O s Y U K ..C.eXS.2...2.x.5.....] O.%.>.N.G.t.2.%.! 2.3.7.%.Q #...m m 6.%.t.Z.H.D.J.D.3.j.O.9.D.t.N.#.$.$.$.$.~ O.j.h.k.j.l.l.P M a & ( `.}.[.6.1.@.1.` s.J.r.6.S.x.3.O.[ -.=.3.p.r.t.i.7.7.i.Z.,.,.t.7.y.>./././.p./.}.Z.i.r.t.Z.t.2.4.W.| ,.p.>.u.<.) ,.,.) <.:.@.:.u.r.e.u.y.p.&.u.&.{ /.).[.t.,.a.p.i.i.i.uXiXAX2Xr.<X8XR.`.'.p.( @.@.( _  .@.1.#.@.@.@.( A.i.A././.FXaX/ f y i u f i ; 7 f u ^ h 7 x P D &.aX5X5XaX@XfX@X..p.r.@.1.( | 7.t.6. .>.@.@.r. .) >.r.r.Z.r.#.7.6.#.@.@.@.! _ #.s.Z.p.r.Z.K.,.>._.[.r.,./.p.t.7.i.i.7.^ W Q _ #.,.6.e.| ,.,.@.( ( #.t.H.K.Z.[./.K.H.H.J.H.r. ._ @.,.8X8.#.#.@.@.| #.e.r.#.@X5X>XN.J.>X|.k.3... .6.| Q n j h f f 7 2 ..O.e 8.2.#.6XG.#.8.G.B.O.k.g.3.;.z.m.h.O.l.I.h.P.P.m.h.T h.l.l.P.nXdXG.yXvX0XG.M.xXM.0XxXvXBXVXG.M.%XM.M.-XM.M.h.m.m.P.P.M.M.oX0XMXNXMXG.M.M.M.l.P.M.M.M.%X#XG.j.l.0XM.P.l.h.h.X.m M k.l.! X.O.X.%XVXM.l.j.h.X.[ [ X.+.o.m.P.G.xXP.k.O.G.xXVXG.[ w 2 2 8 8 8 d @ @ ",
"7.i. XA.,.>.r.A.<X'.}.9X XV.^.'.>.{ N. .G  .4. .:.,.,.i./ ( C h V K ,.7.i.H._.^.{.^.:.<.7.u.).^.a.V.u.r.sXjX^.:.,.7.d : >   q Y K x.] 4.0X`.9.@.( / ] 2.8.k.2.9.k.r.>.>.N.9.7.S.S.k. .%.F F v | L.N.p.y.y.t.L.k.h.g.3.O.k.Z.D.>.#.~ ( $.#.k.O.j.l.L.L.O.P M a 2 ,.7.J.J.[.9X#._ _ t.i.t.1.8.B.4.O.;.b.-.[.J.6.e.,.6.s.Z.p.,.$.,.i.s.i.{././.:X9X5X`.S.p.7.i.8.&.2.3.| >.r.>.r.i.>.p.t.) @.@.<.<.p.i.y.u.a.<.&.7.@.@.r././.,.<.7.r.y.,.,.{.1XuXa.i.wXuX`.N./.'.>.p.i.:. .( >.,.,.,.@._ ( A.7X4X4XJ.7XMX( t y i u a y t 7 4 u A g 5 b D D } v.Q. X|.'.6XC.t.#.#.,.,.7.,.,.,.>. .<. .>.>.@.@.i.Z.Z.r.t.6.,.@.W @.Z.Z.@.6.e.Z.p.s.r.7._ Q ,.H./.p.r.t.H.p.p.V.t.>.>.( ! >.r.@.,.t.@.1.7.:.@.6.t.r.t.t.7.H.A.7XwX2X:X/.,.( _ @.@.Z.4X2.#.@.1.@.| @.( #.C.F.'.N.i.9XQ.j.-.3.2.8.J.Z...n u p f p J x.P q 9.B.2.0XdXN.7.F.C.9.3.;.*.g.h.m.P.M.I.I.P.m.m.P.l.X.h.P.M.+XvXD.P G.P.0X-Xj.P.G.%X%X0XM.xX%XG.G.M.M.M.T.M.P.P.m.m.M.I.l.0XcXnXfXG.G.M.-XM.h.h.M.l.P.G.G.G.M.0XM.P.X.X.P X.P ! ] h.j.X.O.%.j.cX0XP.G.h.h.O.j.[ [ h.j.P.M.X.D.0XD.D.yXVX0XG.xXI., 1 7 1 w 1   X ",
">.>.:.G / p.i.i.[./.x.7.a.0.E.1XQ.A.0.{ &. ./ Z G G / A G V N A h N ) 0.).).).:X{.^.1.:.<.7.V.a.7.:.:.<XdXuX,.K 4.A 7 - > O * b I x.4./ j.3.2...| ( / ] ....3.2.%.( Q ( t.| 6.#.J.t.! ] H F X.O.>.#.$.J.t.| 6.B.F.l.O.#.2.L.6.#.r.6.r.L.$.h.O.g.h.P.P.[ b b w & [.{.D.Z.|.fXH.7.#.>.r.t.#.#.x.3.[ g.n.=.wXH.r.6.>.@.#.,.,.@.@.$.H.p.H.:X(.qXdX].XX`.Z.7.t.i.C.7.....&.i.:.^ >.p.,.S.S.7.) :.,.<.^.:XH.^.<.( <.>.>.>.7.u.^.p.s.u.r.A.,.,.^.p.<.,.H.7X4X6XS.N./.i./.7.:.:.( @.r.t.,.i.) ( 7.8XgXfX4XaXnX_ t i i u u y f g 7 u / g * b N I *.I } U 2.vXS. ./  .,.( G @.>.| |  .7. .Q  . .6.i.t.r.,.6.r.s.A.J.H.p.J.A.6.A.H.H.r.6.6.| Z ! $.i.p.@.r.t.r.i.7.( 7.p.7.,.1.e.,.| ,.p.1.6.p.,.@.1.r.,.y.Z.7.p.i.K.iXwX>Xp.@.@.1.,.e.#.p.2.,.6.r.,.e.7.>.7.k.5.k.'.D.B.c.j.5.=.8.2.O.8.N.#.n f / ] F H D * O.!.F.tXMXF.8.x.B.k.j.m.w.m.n.P.M.M.I.m.M.P.I.h.%.h.P.%XxXT.l.P.+.I.g.h.G.k.h.M.oXM.M.0XM.G.h.P.&XP.P.M.M.P.h.M.M.P.m.l.yXfX+XP.h.P.oXxXM.P.%.P.l.l.eXcXyXVXM.M.h.! ! ! F X.P X.X.! ! ! %.O.P.P.l.j.h.o.[ X.P.+.I.h.h.I.X.P.0Xk.eXvXxX0X-X-X0Xd 2 6 2 1     X ",
"0.<.A :.7.u.[.E.E./.7.>.q./.@X/.V.0.*. .:.*.:.>.( G ^ Z V V (  .A A A :.^.).:X).).^.(.u.1.p.&. .C s s ^ ( A s W S s u : > O & G O.j.q...-.k.N.8.2.X...2.8.X.3.k.t.$...6.( c m ,.t.#.N...%.%.O.7.7.#.Q #.e.#.k.XXG.n.c.9.2.r.t.>.X.] #.L.%.l.[ v X.P.L.M M a 2 & t.`.8X8Xt.8./.Z.1.@.r.,.#.=.2.} T ;.*.C.iXA.7.6.r.@.| #.#.p.,.( ( u.:X}.}.lXrX~.F.|.A.p.p.A.D.D.0.:.7.u.( <.p.i.u.{.5Xi.@.$.<.7.>.u.(.p. .^ i.7.u.<.,.i.A.7.:.r.7.>.,.u./.i.r.a.2X<X/.A.A.A.i.7.Z.i.,.<.) @.i.>Xi./.`.p.A.}.aX<X/./.4XZ i i i y f u n n 4 7 ) d - e b K *.} 4.*.N.nX..G Z n Z c 8 p V ..<.| ( G ( i.7.t.( Z ( 1.r.y.A.).J.J.K.H.K.H.:X6X[.e.#.,.7.@.^ ! @.r.7.7.@.@.7.r.i.Z.i.8.6.r.y.@.@.@.,.p.y.i.{.r.,.y.r.t.Z.K.J.(.;X[.H.t.7.@.1.#.6.6.#.r. .H N.,.t.D.S.9.2.O.k.F.9X].B.c.x.x.j.x.x.9.N.5.4. .n H ..! H c - ..OX0XtXBX!.t.L.8.|.G.U.U.M.M.m.M.M.m.M.M.M.h.j.h.P.xX-X-XxXP.P.h.h.l.I.P.%XG.c.G.P.M.-X-Xc.X.I.P.h.[ I.M.T.M.T.M.M.m.h.c.fXBXeXl.h.M.M.h.X.P X.P.O.L.MXBX0XP.j.k.j.k.[ ! ! X.X.! X.] O.D.j.O.k.G.F.l.%.X.[ h.h.I.[ U P h.G.0XO.B.xXeX%Xh.M.0X+.1 2 % O     @ ",
"R.7.0.R./.V. X+X6XE.u.>.V./.V.*.N.N.>.:.2.&.&.:.0.i. .) 1.^ q.=.G G K _ *.A.).).).^.p.) A >.:.K V 8 ; * 8 S S p l Z y - >   & J ;.~.E.~.9.j.c.=.4.2...O.j.O.2.5.D.L.t.>.Q W W ,.#.e.H.p.Z.%.! %.#.#.! | ..k.D.G.+XF.c.L.9.8.S.6.9.#.| ! ! L.%.m ( %.X.M a 2 3 & r.A.8X>X,.6.7.#.| ( | ..x.C...U *.-.=.}.6XJ.t.t.9.#.@.e.7.A.:X#._ ( A.:X2X6X9X%X0XJ.r.,.6.6.t.8.N.>.7.:.) i.i.u.r.@X5X:.@.,.>.<.<.) @.:.<.7.p.7.u.7.@.r.p.r.:.7.<.<.:.u.p.7.u./.fXuX(.7.p.A.A.7.,.>.,.,.,.r.J.'.i.B.@XN.7.S.MXgX/.(.<Xf i i 9 i u f Z j 4 j *.7 X N B J H 0.x.V.nXwXW Q A G Z n n A n Z @.&...( ~ 2.>.~ V @.( >.t.p.r.6.e.A.J.2XwXhXqXJ.e.e.,.,.1.>.1.p.>.( >.i.>.@.@.,.<.7.r.:. .r.7. .$.#.t.H.p.>.>.@. .,.@.#.s.[.J.>X1X>XJ.r.,.,.t.e.r.e.#.1.@.] i.( _ @.#.6.N.k.x.Q.@X].S.2.q.c.x.j.x.9.3.2.5.9.m F #.J ! b # =.%XcXyX+XF.+XeXG.@X.XT.m.M.m.M.T.M.T.M.M.T.m.P.eXxXxXoXVXT.+.h.l.P.P.P.G.h.O.H O.P.h.P.oXl.h.h.[ U P [ I.m.M.oXT.M.M.h.c.fXvXM.I.l.L.P.P.X.X.h.P.P h.aXJ.H X.X.P.M.M.l.X.X.X.%.O.O.F X.o.%.! g.&XOXM.h.o.X.[ I.P M [ I.P.+XG.O.P.l.P.l.P +.P.%XH .         + ",
"Z.u.4X}.A.[.Q.].V.&.@.{ / ) A  .q.V. .&.4.i.0.,.( G ^ 4.a. ./ E.2.2.*.( :.a.:XpXqX:Xi.u.p.7.] / q 7 y s G  .j j  .,.8 - %   % I 3.x.tXtXF.x.=.-.=.] ] [ I X.#.X.2.G.t.#.! Q m | r.s.t.6.@.! | $.6.3.B.2.#.5.N.F.G.G.G.9.N.C.D.+XL.c.L.9.>.x.9.3.j.~ a d 8 2 w & #.aXMX`.,.6.9.>.6.>.{ #.&.8.} Y ;.+.v.{./.u./.i.7.6.6.8.7.,.K.r.$.1.6.(./.p.+XxXyXR.<.>.,.t.t.8.N.8.y.@.( r.t.y.7.4X}.7.@.,.1.>.>.<.:.) 1.H.i.i.t.Z.p./.H.i.s.,.,.,.>.r.1.7.p.>XwXsXwX[.p.t.s.r.@.@.@.@.@.e.Z.J.].$XQ.7.@.2.FXaXy.`.i.u u y t 7 i C ( n y A K 4 X Y K *.{ U..XrXMXu.~ ! Q n G 9./ A C G { 7.,.<...^ ^ / >.i.r. .6.s.,.,.p.H.>X[.K.J.H.s.y.Z.s.t.s.,.6.r.#.Q ^ p.H.7.:.@.:.7.[.`.7.:._ ^ ( 1.i.t.i.7.,.( Q Q ( y.Z.A.i.A.J.r.( m G @.e.#.( ( @.| 6.8.| A m n n ! >.3.3.N.4X}.G.}.F.8.N.G.`.|.W.b.j.3.2.{ H [ D C # F !.#X%X+X!.F.~.#X#X$XE.m.U.m.T.T.T.T.T.T.M.G.jXHXZX#XoX%Xl.h.P.P.P.M.G.P.h.c.l.j.G.P.l.M.l.G.M.+.U I.+.[ U I.P.M.P.h.h.l.eXyXG.%.eXG.k.G.l.h.h.h.X.O.G.O.X.c.j.j.P.0XP.X.X.j.X.G.h.S %.k.X.X.X.c.G.P.3.g.c.o.I.P X.l.h.P.G.P.l.l.P.G.G.j.h.M.xXxX,         % ",
"R. XMX7X[.<X[.8.4.:.) ) G G V K ] 2.G ) &.q.A.N.*.:.a.7.q.2.p.<X0.) A ^ 1.0. X1X<X).{.:X(.p.2.c 8 h ^ >.( _ <.r.1.Q 7 : > O & } x.F.fX X0.j.9.O.} K 2.4...3.2.k.k.k.k.H.t.#.~ #.t.t.e.#.! L.6.9.9.%...| #.k.k.j.b.!.j.B.B.B.+XS.G.C.C.8.6.! 8.|.k.g a 8 3 1 < X ( nXfX8X7.%.| ..2.9.8.N.:.G } -.U.C./.A.^.) /.:X,.6.e.t.p.p.p.e.1.7.s.(.).u.S.9X'.A.s.<.r.Z.S.S.S.8.7.@._ >.7.@.7.S.V.i.$.( <.<.<.r.@.) :.7.i.Z.A.(./.J.A.a.i.,.1.:.<.,.#.1.t.[.p.).>X:X).K.p.H.r.s.t.s.,.#.#.t.+Xc.,.,.r.'.tXp.@.<X .t u y i 4 f ( | Z g n h * - *.I L K =.].kXu.) Q Q G S C C F Q ( | / | ..{ | C S ( ( ( 7.>.@.#.p.(./.,.y.y.e.,.| @.e.D.K.A.J.J.y.{ ! | r._.Z.>.@.( ) 7.8.S.0.| @.,.) Q G (  .>.r.<.@.@.s.7.( ~ @.@._ n g g W 1.6.r.@.#._ G 8.`.O.>.Q g @.e.7.r.t.[.|.`.J.@X9X XaXsXfXcXfXvX%XF.Q.S.2.| { G # ! | G.+X@X#XoXw.U.*X*XoX$X&X*XT.M.M.M.T.-XxXnXAXKXmX|.P.j.+.l.M.l.P.P.M.G.oXM.m.h.D.G.P.M.G.M.M.P.h.m.P.P.h.[ X.h.h.h.P.P.P.G.L.P.cXP.g.j.h.O.X.] 9.k.#Xj.X.X.%.O.I.P.X.! X.%.! l.9.X.G.P.X.,.c.L.9.j.D.eXG.X.P U P.P.h.I.P U o.[ h.l.G.h.M.M.T Y.O.        < ",
"7.}.aXpX6X6Xi.)  .@.^ C S A s C / *...| ^  .q.7.s. X<.q.V.>.V.'.'.:.G / / 7.<.,.:X2X{.{.p. .b y C  .4.8.,.@.Q a p s 8 : > X & T 5.#XB.8.7.......9.O.5.2.>.x.9.8.3.2.Z.|.D.7.2.i.N.N.t.7.#.t.#.6.7.6.G m H >.9.j.O.3.=.X.F.G.C.6.#.6.7.7.2.B.+X.XP.%.a 2 & # @ . _ '.`.8XS.#.2.2.#.9.0.2.] K U j.!.6Xi.7.@.@.7.p.r.1.1.,.J.p.r.e.,.u.Z.p.{. X#X7.#.r./.A.>.>.S.@XA.r.y.@.` r./.7.y.A.u.7.>.>.e. .,.r.p.H.p.p.u.7.t.t.p.J.).H.u.1.>.@.:.,.>.,.p.J.A.A.i.p.J.A.p.A.p.H.r.s.e.@.p.J.,.,.r.<.7.6X@Xt.p.7X) t u f y t ^ q.{ / d 4 9 4 * *.w.;.E E.rXa.^ n n n Z / Q d b G | 9.7...! ^ F Q S s G ! F ^ G _ s.J.p.1.@.) @.| | #.e.t.(.[._.H.H.t./ A ( ! G ( | <.r.:.4..... ...@.>.:./ Z C / :. .@.@.>.^ A Z @.^ A m n Z F W Q ~ W Q Q C >.S.=...Q ( e.e.| ( 6.A.t.7.t.t.`.8XgX9XG.Q.C.B.MX5Xx.Q.A.2.5.K . g ..j.@X XcX%XT.U..XoX*X&X$X*XT.T.T.T.M.-XNXDXNXAXNX0XP.l.h.P.&XM.M.l.c.cX&Xm.m.m.X.l.eX0Xj.[ P.M.h.m.m.M.M.M.I.h.G.P.l.l.G.cX0X0XxXl.F.k.X.] H ] %.h.G.%.%.j.X.X.%.O.k.! m ! 9.9.X.X.D.k.X.%.#.B.&X+Xk.fXeXk.L.h.h.P.h.I.P +.h.o.h.h.h.h.M.M.g.n.0Xw       3 ",
"5X7XaXdX}.7.Z s p d V Z G N 9 s C F ]  .*. .) { u.7.) a.V.) &. . X{.0.a.,.:.( :./.).7.) / h y b G 0.8.0.{ m 8 2 7 u 4 - @ o # F =.5XV...#...O...F ..3.N.=.5.5.O.3.8.7.N.S.N.7...#.r.Z.Z.t.t.H.N.7.#.( Q ! #.3.k.4.c.c.3.b.F.j.D.6.G.D.#.G.0X$X+XG.c.H 1 $ $ $   >.4Xt.>XS.#.9.i.0......./ K *.g.`.Z.).:.@.1.p.p.r.t.s.r.y.t.e.#.s.[.[.p.A.x.0X>.$.6.@.( @.| C.}.,.t.y.,.r.A.e.@.r.a.r.<.1.@.,.@.r.7.i.).i.s.d.r.p.s.r.t.H.H.7.,.7.6. .@.@.s.J.;XA.y.p.).s.s.e.Z.Z.J.p.t.#.@.Z.J.7.<.:.r.7.V.8X8X}.rX1.t i u i j  .&.{ ) h : % & * m.%X.XU.CX(.( ( ,.,.@./ ( @.~ G A ( r.r.6.) c C A C n V A Z C ( #.6.s.H.r.@.| | ( @.7.t.,.t.e.Z.A.p.r.@.! C G Z A @.7.u.Z.&.D 2.>.[ ..G _ ( @.7.@...@.@.>.( ( ) ) ^ ! g h W W W m g n n n Z ( &.3.X.( F @.| _ W Q ` | #.( @.( ^ >.8.E.C.F.Q.W.tXZX4X'.`.S.q.A o : d D k.rXsX%XoXU.U.U.*X*X*XFXVXxX-XxXBXDXnXMXBXnXdXvXG.G.P.%XM.M.0XOXG.%XG.-XM.P.h.P X.h.F P h.P.P.M.P.M.P.%Xl.M.0XM.P.P.P.0XxXxX0XP.G.2.Q m F ! %.k.%.k.h.G.j.! X.%.%.! ! ! %.k.%.X.X.| %.! m %.+X%Xj.0XG.D.G.%Xl.h.I.l.h.X.h.I.h.l.[ h.T.m.l.&X%XF.      x ",
"}.9XtXfXR.S h c G V N G G J D h C &.2.2.G / 0.2.7.u.^.>.( s.a.G *.).R.'.u.) i.^._.,.N s h 9 p h D >.C V q 8 8 8 7 8 5 & o . + D 5.tXx.4.5.=...H C ] 2.x.5.2.9.9.D.N.D.x.] 2.[ m m #.Z.t.J.L.O.#.J.4.>./ ] >.k.k.2.C.G.B.j.5.9.9.>.`./ H ] O.+Xb.h.J 3 $ < $ + . G 8Xi.`.J.7.S.`.i.8... .{ -.-.z.].H.7Xr.@.1.p.r.,.p.p.a.<.) ( ,.<.H.7X{.7.@.6.,.r.S.t.| ( | V.i.@.,.s.t.1.1.$.1.r.<.s.7._ | 7.,.s.r.H./.r.,.Z.p.H.H.s.p.p.7.` 7.N.V.,.:.r.#.p.H.p.e.r.:Xr.$.$.,.,.[.Z.e.1.7.J.(.).p.7.:.6.6.6.J.tXaX .t i i h ) | ..&.{ h - - % X g.xXbXcXCXu.( @.,.r.A.s.1.@.>.$.( @.e.,.( ! @.^ / / | Q C G A _ @.1.7.7.@. .@.~  .,.#.t.,.#.#.t.Z.6./ ~ @.#.^ C G /  .i.7.#.7.i.] -.>.Q ) ~ | 7.7.>.6.t.i.2.@.( |  .( n S Q ! | W m Z Z ! ! ( >./ H / ( @._ ( ( @.r.t.e.>.| ( (  .=.-.x.x.~.].v././.uXiX'.].'.- o , M z.nXlX].j.n..X.XcXMXNXFXLXDXvXcXBXMX0X+X0XcX0XxX-X%XVXcXP.l.&XM.F.cXyX&XM.M.P.P.B.%.X.h.M.M.M.xX&XcXM.h.l.0XVXxXG.l.h.M.xXVX0XG.X.! m m ! ! O.%.( G.M.xXM.k.! ! ! ! F X.%.9.G.L.X.! Z m m %.M.G.j.P.X.O.G.h.l.h.h.[ h.O.X.+.I.%.U I.h.T h.yX$X%Xb   X x ",
"].x. .F c c N D C V d h A / J J K I { *.^ *.i.>.7.i.,.1.<.<.( A A K ) ( Z *.A.u.^.( p 8 - - 1 5 v 2.{ C 8 7 9 0 h h 5 % o . X e T ;.J [ [ / G / ] &.{ N.D.t.x.Q.C.k.8.[ v F H ! ! ..k.t.9.r.K.L.C.t. ./ ..3.G.S.#.3.{.C.=.3.N.x.%.X.! -.] h.l.b 1 < $ $ $ $ #   m 4X2.D.D.N.4X>X9.>.{ ! { *.w.O.&./.u.p.,.@.7.y.y.,.,.:.,.e.s.H.S./.A./.6.,.,.,.Z.8.>.@.~ #.`.7.r.1.p.p.@.,.1.e.u.:.,.1._ ( ,.t./.a.p.p.1.,.r.y.s.p.p.r.i.( ( i.C.D.9.p.p.#.#.A.Z.$.@.$.@._ ` _ e.(.:XA.p.H.H.J.{.).H.<.e.e.r.t.N./.( j u f A | | ..(  .C 2 & O + Y .XxXBXdXA.r.,.@. .@.,.6.1.@.| ( | 1.(  .:.>...^ Q ../ C j h G Q ( @.( @.<.,.,.r./ Q | | 1.1.:.:.Z ^ ^ / H m A / (  ./ | 7.i.8.>.q.#.( 1.( / >.,.,.,.#.@.| @.| ~ ! Q S Z G /  .G F ] #.{ :.>.( | ( @.$.#.| $.@.,.s.y.t.e.~ _ ..&.9...| v.~.V.,.>.) 9XSXlXAXsX2 X M M w.5XMX4X<X].$XfXCXNXBX@XBXNXnXnXfXyX0XP.0X0XxXvXBXnXcXM.l.M.M.P.l.+X+XXXM.M.l.M.M.h.h.X.P.M.M.G.cXVXVXxXP.xXVXBXxXM.l.-XVXVXnXG.] X.] H ! O.%.#.X.c.M.0X0XP.j.! Q F ! k.! Q #.k.! F m m F k.M.P.[ ] H O.P.I.h.P.l.h.h.h.[ I.P M P T h.M.M.0X#X.X#X: . M ",
"C.*.q.A 9 e d K C C V V ) Y L C K J / *./ &.7.0.0.<.C G Z C A G A V n V G G ) J ,.Z 7 * - 5 8 p A G F F g 7 ; 5 d 6 & # . X . + 0 L b D H J ! G [ ..K 4.F.B.].Q.B.c.4.] m q v D F / ] / | t.:X}.N.t.] H X.5.C.4XC.N./.Q.c.F.B.9.J -.o.+.M w $ $ , $ $ + $ + .   m J.J.V.D./.`.S.N.>.] ..q.=.x.=.0.<X@.@.s.u.p.H.t.u.p.1.s.p.A./.N.].1X{.1.6.p.i.N.6.{  .7.`.2.@.,.#.1.r.1.1.e.i.s.1.@.` ` ~ ( y.i.r.i.a.>.@.7.p.p.p.y.p.r.1.r.p.S.`.{./.J.J.y.r.Z.$.$.@.$.~ $._ ,.t.H.Z.7.J.(.H./.[.H.i.s.A.;Xp.) p.$.S j Z ) *.>.>.&.{ F 9 %   > *.$XbXgXA.H.7.s./.<Xp.6.>.@._ ~ ( @.) @.y.p.p.7...G G G h g Z ! n c m ! ^ @.,.6.7.#.@.! /  .#.( ( / ,.] D D J | { ..>.>.t.t.7.#.9.| / @.@.1.) 1.:.( :.:.7.>.#.(  .! F c Z Z ! / m m J | | 6./.t.@.#.1.6.e.e.r.,.Z.J.Z.s.,.>.7.&...2.N.x.N.E.q.,.:.) /.^.:.a.7.: @ P R T |.kXhX4XS.}.CXvXyX|.9XAXAXnX0XG.G.0XnXnXcXvXDXDXMXBX+XXXoXM.z.c.c.+XvXeXP.P.M.M.oXl.O.l.P.l.h.M.yXcXcXM.cXBXcXVXyXG.xXVXBXnX+Xk.X.X.] ! O.O.%.( %.L.M.xXM.l.~ F ! L.k.! ~ X.%.9.F H X.X.g.P.l.X.F P O.h.l.h.I.P.h.h.+.I.P M M M M U M.n.l.!.5XbX9.# B ",
"F N g e s q q K L N V ( *.D G *.Y K D ) / *.*.,.:.K c V K { G G D C V C K C d V s * 5 5 5 2 5 c G | { C e 0 ; # % # o X . . $ 6 6 x M b B K J D C H ..2.3.] [ ..%.X.[ ] v p p b M F c c c g F >.7.9...| ..9.5.@XQ.0.8XQ.5.c.k.=.~.-.T e & $ & $ + $ $ + X .     F 4XS.k./.S.S.i.4.#.2.5.OXb.c.v.4.p.7.6.A.A.H.H.H.s.p.r.r.K.(.`.:.Q.fXA.@. .6.9.@.6.t.t.`.@X7._ #.,.:.) t.e.,.y.A.1.1.#.e.( ` 1.@.@.e.p.:.@.e.p.p.A.p.,.@.,.#.J.i.(.1XZ.[.J.J.H.r.| $.$.` ~ ` ` 1.6.7.i.r.K.[.H.H./.p.H.[.pX:Xt.s.7X/.n ^ ( | >.7.>.../ ..D p . = *XbXBX4Xr.}.)./.S.A.[.K.,.~ Q ( _ ` ,.Z./.[.R.i.7.7.| H F ^ / A G c f V F S / /  .#.1.,.e.#.G V n V D K ..4.2.8.6.p.i.i.A.D.N.:. .@.) ( #.7.,.@.>.:.:.Q #.0.4.@.@.! / | | Z c F G ~ / / ( #.t.r.#.r.t.p.7.p.7.e.H.t.@.@.r.t.i.7.7.:.8.x.i.i.0.p.^.,.@.f.h :.K @ : h.M U C.dXNXuX'.].vXvXyXB.F.HXnX0XG.eXaXeXnXnXnXBXNXAXZXMXnXaXM.l.l.P.#XMXvX0XM.%XP.P.M.+.P H X.P h.l.-XxXxX0X#XVXVXBXVX%X%XBXBXS.J.k.#.] ] [ P 9.%.! %.X.k.P.P.l.%.! F X.! F X.! ! ~ F h.h.l.O.%.X.] ! O.h.+.h.h.l.M.0XP.I.[ M P [ U R M M M U XXxXSXcXw M ",
"B N q q 0 0 0 e N N V G K G K { *.*./ D J G { G e n c b F } | / K D N q q 9 5 1 1 * 1 4 * p K ) ].C.&.C 6 & # # + O .       o B e + r 0 q N N J c.5.=.} =.;.b 9 5 0 6 h d q q 0 w b b b ] %.] F ] 2.9.2.8.'.S.5.4.I ..+.J v v b b , & $ $ $ $ $ # + + . .       ^ ].E.'.R.V.p.8.q.8.8.=.E.~.x.x.4.:.A./.A.A.u.,.7.Z.H.a././.H.(.t.t.e.,.@.| @.| #.7.( A.uXN.t.@.#.7.,.@.,.y.p.[._.:.,.$.,.1.1.$.` 1.,.@.@.y.i./.A.p.:Xs.r.,.r.p.A.:X1XH.A.H.J.).p.@.$.@.` ` ` 1.,.,.e.t.e.N.J.Z.A.e.p.H.p.J.;X:X^.>XiX~ ( :.&.>.&.8.&.=.=.F d + s vXBXCX'.a.w.<.p.( ( @.7.,.@._ @.y.7.>.@.<.H.A.7.A.N.N.t.9.t. .#.>.! Z C g m C C ^ ,.r.( @.u.| ^ / ^ / ] | ! ) i.s.p.7.A.`.[.(.t.,.t.,.) @.r.t.1.@.,.1.( / / H :./ X.../ ! G S ! @.| | #.#.,.6.r.t.H.D.p.p.A.e.e.(.#.$.:.i.A.t.p.<.@.p.S.2.r./.7.7.p.^.,.u.R./ @ X U U j.k.N.sXnXG.3.nXBXMXfX5XfXrXE.7XlXAX7X XZXgXkXAXAXgX X@XC.z.b.b.OXcXcX0X5.n.oX-X%XoXM.+.P M X.+X0X-XxXcXxXxXxXxXxXxX%X%XBXwX}.[.%.! X.X.! X.X.X.! ~ ~ %.%.P.G.X.F F F F F ! ! F M F P.P.l.h.h.! m F X.[ P +.P.P.P.+XP.h.h.+.h.l.T M M M P P I.-X-XeX+.M ",
"1 6 6 , 5 1 = * 0 9 s h h N A K ) *.) G C N A G N c b s 6 d D N d b s 0 * 5 1 * 5 * : * q &.C.b d d 8 & # X X O             & J B e & * - & 5 N &.} P K Y ;.H q 5 5 1 & , 6 5 6 5 w F F X.k.k.] v D D J J D.].8...b b 9 1 % @ o X o X + + + + + + X             ( tX~.Q.C.].@X'.i.N.4.] x.}.S.N.4...^ | /.J.,.) | e.(.>X{./.t.r.$.>.r.p.@.@.r.r.A.t.( V.S.D.t.@.J.i.1.@.1.e.p.:Xp.p.p.7.6.( | ( @.1.1.@.>.K.r.y.^.).p.H.s.t.r.A.^.:X<X}.H.[.[.iXwXK.y.r.` ` _ _ 1.,.e.#.$.t.s.t.$.p.1X:Xr.$.K.t.r./.ZXu.C  .4.5.=.5.=.x.F.C d , L bXCXFXgX<.' ` @.>.,.) @.,.,.<.H.p.,.<.:.! ( ..>.V.A.t.t.>Xp.@.#.e.1.#.( ! G ^ ! ! @.r. .V h Z { { / ..| ( :.e.6.@.#.7./.<X[.[.p.r.1.r.r.r.r. .@.:.( ....{ ] ] ] } ;.O.#.{  .| | 6.>.1.,.y.y.t.y.r.>.6.A.e.6.$.7.J.p.s.u.p././.p.>.<.Z.'.C.&.>.i.^. X9X/.E.N.C o % P R 3.m ! 9.6XfXOXvXDXBXCXMX XE.E *.zXNXfXrXfXmXmXZXlX~.;.=.Y z.XX*XcXcX+Xn.l.g.n.n.oXXXT.oXh.+.P.-XBXxX0XVXxXcXVXxXcXVXvXD.|.G.L.9.X.X.P F P %.F ~ F W X.9.L.eX|.m X.X.X.X.F F ! ! ! P I.P.h.O.X.] m b H [ M P X.+.X.+.+.X.+.+.P.h.I.P I.I.I.T I.I.+XP.XXM ",
"* , $ , = = # % 6 s e e h C G K  .{ C d y 0 d c g 9 1 1 & > % # + % X O . . # # X & 1 0 d v d 0 # X # X X O             O   e Y ;.T E b q e K N 0 = & # + % , 1 6 , , , & % * & & & 1 5 d b %.J g q b b c 8 * & # X O O X o X X X X .   . . O O .                .vXfX%XQ.].].x.7.N.S.8.[.{.i.@XO.G h :.`.S.7._ ( ( 6.>X[.S.r.,.$.#.#.e.r.Z.`.Z.A.6./ Z.i.1.e.6./.7.( ` e.e.s.s.r.H.Z.7.>.~ ~ ( ( r.,.` r.p.t.7.r.H.7.7.7.<.1.7.r.p.(./.(.wX7X7X6X{.p.i.1.` ) ~ | ,.,.1.$.( _ ` ( #.e.$.$.@.6.$.:.7.kX:X:.:.8.A.x.5.5.w.z.D v 1 N bXvX@X XV.<.u.r.r.,.,.,._ / 7.u.1.( Q $.@.#.1.i.S.t.t.[.H.t.r.e.6.#.e.@.( ( C C 7.,./ S q p c ] >.{ / A ! ,.1.#.y.H.<X6X1X{.(.A.H.H.y.t.y.r.@.(  .! @.@.| | @.6.j.3...7.7. . .@.J.J.r.e.s.p.>.6.t.s.A.K.( e.p.H.A.D.s.7.r.Z.N.A.i.7.V.~. XZ...7.^.<XgX{.i./ d . . M P M d M P X.c.G.fXLXFXMXBXtX.X~.~.E.#XrXOXsXNXNXmXtXOXv.3.} g.!.yX%X%XF.j.n.M.n.n.P.l.M.oXM.oXM.+XcXxX%XcXxXxXcXCXGXCXcXP.P.L.O.%.~ X.X.! X.X.%.F F ~ %.k.9.[.L.F X.U l.O.m X.P.X.9.+.X.h.P.+.+.o.F b P [ F P [ +.h.P.P M P h.P.P.I.I.I.M.I.M.I.M.oXP.-XP.",
"+ + # X X X > > % = # > * * - 5 0 : % X X % * X # # X O X O .       X * & % 5 q d =.~.#X9X~.E.5.J 1 O       X X           # E g.n.m.g.;.m.$X&X$Xq.J C g s 9 9 p v N F K K J F F F K b p a v 3.k.Q.@X9XfXdX8XV. .D p - > . o o     .                             &.].5XvX+XS.2.7./.{.S.}.fXV.`.fXU G G 7.S.i.2.7.J.t._ t./.i.p.,.@.$._ $.6.e.Z.s.,.( _ p.`. .$.#.7.,.@.#.,.J.A.s.p.,.Z.7.( ( _ _ _ $.#._ ( 1.e.y.1.p.H.a.p.r.$.r.u.r.r.r.A.(.}.6X4X>XH.p.i.1.p.( | e.,.,.e._ ~ ~ ~ Q @.@.6.y.#.#.i.qXgX2X<.>.4.2.V.~.5.=.O.D D 3 s vXvXMXpX:.7.<.1.r.i.7.$.( ( 1. .) _ Q @.r.8.,.1.r.6.A.H.t.6.y.p.p.s.6.,.@.( _ S Z G ^ / ( _ ( :.6.,.@.( ~ ( ,.K.[.[.{.J.[.(.Z.y.7.Z.Z.7.>.s.@.( _ Q $.,.r.p.H.H.#.4.#.>.7.2.2.7.S.S.i.p.p.r.6.Z.y.Z.J.r.m $.N.t.H.[.7. .r.s./.R.7.7.A.`.Q.$X#X XuXuXuX^.,.V q . & 3 U U M P P U +.G.aXLXLXSXnXvXMXMXnXaX@X$X#XlXZXgXrX.XtX$Xj.z.b..X%X%X#Xh.O.o.-.n.&X&XI.M.-XxX-XxXxX0XVX0XxXyX-XcXBXBXBX0XG.M.G.j.! ~ F W F F %.%.! m ! #.O.X.F m P U X.+.P.X.9.+.l.9.+.l.P.h.h.h.+.P P h.o.P P +.h.h.P.+.X.P +.h.I.I.P.I.M.M.M.M.T.P.M.-XoX",
"O O O O O O O > > - s s g N *.*.C *.w.q.v.v.*.e O O O         & d { w.5.g.z.n.E.W.~..X#XfX#X$X$X.Xg.K B M J o.j.-.v.3.} } v.U.XXY.U.U.U.~.U.v.c.v.E.E.v.N.k.5.5.4.4.=.k.q.N.C.S.~.B.V.S.G.eXyXcX8X0X%XaXMXLXLXcX$X&Xb.j.F h g t ; > o o O O O                   F tX'.DX].7.[./.}.'.S.sXnX9X5XE.K H G 8.t.7.A./.J.N.e.$.,.s.s.t.#.y.#.$.7.p.Z.r.| ` @.,.Z.1.,.| ,.,.i.p.1.N.r.s.H.>.u.,.) ( ( @.p.;X$.( 1.r.r.p.i.A.i.p.p.p.i.,.<.p.7.r.7.@.^./.{./.A.i.H.1.u.,.e.r.e.#.@.$.@.` @.~ ` #.#.6.p.| t.kXNXwXr.,.,. .4.Q.F.*.G F J w e *X*XMXFX<.^ :.@.:.:. .Q Q ( @. .Q S W ( i.].H.p.s.p.Z.r.p.,.( ( Z.A.6.t.6.@.` ..^ A S ! | | #.>.#.1.@.r.s./ ~ y.{.[.A.p.p.Z.p.K.a.r.6.r.A.Z.1.( Q Q ) y.s.Z.i.r.r.t.t.Z.s./.K.>X}.i.`.D.r.J.[.H.r.t.t.#.W _ @.6.,.e.,.t.J.A.A.E.7.).#X XQ.xXOXR.7XgX}.,.&.C 8   d B R U T R R R h..X#XnXPXDXnXMXSXkXCXSXZXfXhXlXfX].v..XvX$XU.n.*XG.G.%Xn.l.h.j.h.P.M.G.P.P.xXxXT.-XLXcXxXxXcXxXcXVXBXP.}.nXoX%XM.G.O.%.P ! F ! X.! ~ F m ~ X.F F m X.X.X.+.G.XX+XP.l.P.l.h.+.P +.U P P +.h.I.X.U +.U P.h.P P P I.U I.P.h.P.P.M.M.T.T.-X-XT.T.",
"% > > > > : ; ; V 0. X X'.OX X#XyX~.~.~.E.R.w.*.x = X X = d *.v.E.U.b.v.j.v.v.z.b.E.~.@XtXfXtXOXF.F.!.W.OX+XOXOX!.v.b.b..X.XW.W..XW.OX&X$X*X*XOX$X+X].OX.X].@X5X@XQ.B.C.C.C.!.|.Q.Q.'.+XeX0X8XeX].+XeXaXdXNXJXMXnXcX#XXXXXG.c.>. .A f ; : ; % o O               N tXq./.C.Z.dX}.<X}.'.fXfX0Xv.=.H | | 8.#.1.y.r.e.r.Z.r.#.#.7.e.6.#.#.,.:.9.7.] | ,.@.,.,.` ~ _ ,.>.1.r.@. . .,.s.t.y.7.:.( $.@.H.[.` ) r.p.p.p.p.u.r.,.u.H.p.` ,.<.r.r.p.u.i.p.Z.Z.p.,.i.#.<.r.,.1.$.@.` t.$.@.$.| _ @.| $.` Q / (.DXkXZ.p.V.i.7.N.Q.&.F D J w s *X$X'.E.>.:.:./ ~ ^ ~ _ ( ) ^ W Q W Q :.p.'.<X/.Z.H.Z.i.e.,.@._ #.d.r.$.$.#...) ( ( A Q ( ( ` @.,.t.6.@.@.( ^ ,.H.p.i.(.{./.>X[.,.) 6.r.i.Z.t.@.( Q ( 2.,. .Q Q 6.A./.J.H.Z.Z././././.N.D.`.p.J.S.H.$.@.Q W W W j h W H.>X'.i.,.,.,.:.:.>.].].6X7XnXrX/...c 1   q T P P T T T T h.g.O.-.DXMXBXvXgXMXSXPXAXaXU.rXQ.U.OXgXCX%X~..XT.&X&Xn.F.n.O.O.P.G.oXM.G.M.oXxXT.T.VXVXcXBXxX-X%XcXcXX.P G.%XG.G.k.M.M.l.j.F X.X.! ! F W %.l.! X.X.! P X.+.P.P.l.P.9.X.h.P.P M P [ U I.%.P X.U +.h.+.+.U T +.T +.+.P.M.h.P.I.M.-XT.T.VX-XT.-X",
"; ; ; : ; : ; S 0.~.~.{. XrXrX7X#X$X.Xv.;.q.w.Y L Y L Y =.E.~.E.v.x.x.x.w.;.x.z.U.~..X%XfXgXnXgXtXtX#X5X.X!.0XeX#X].].#X$X%X#XOX.X.X.X$XyXyX$X*XyX*X$XOX.XG.0XcXtX@X].!.~.OX].OX].+X0X5XeX8XtX0XaXdXnXjXAXLXIXHXPXPXMX#XW.b..X.X$X~.V...f % > > > o O           6 #XN.b 7X8XfXaX8XnXJXMX0XQ.5.I H 8.7.1.i.t.>.#.p.J.t.s.s.#.$.,.,.( | ( |  .@.@.2.#.$.,.#.$.~ @.1.( #.i.@.#.1.r.p.i.i.>.) _ @.>.p.#._ | ,.p.i.p.a.y.r.1.r.A.i.,.p.u.@.r.<X/./.p.r.7.,.$.1.,.p.i.r.#.` _ ` [.A.` @.[.2.8.9.2.@.@.7.S.[.fX:X6.J.'.V.0.].q.J v D e e *X*XaXi.<.u.7.i.>._ ~ ( 7.:.Z S V g A ( 7.`.4X{.{.(.(.J.p.y.i.p.@.` @.#.p.A.e.r.1.( ~ / @.@.,.e.p.p.p.K.p.@.#.H.A.@.( ( @.i.2X/.7.7.7.r.! $.r.>.( ~ ( 6.#.| S m / ,.r.:X).p.H.:X(.[.;XJ.(.V.,.6.H.K.6.e.^ W W W m W W @.{./.7.1.&.:. .:.>.7.<XaX{.<X XMX`.6 ,   , T h.U B -.M.T T T v ;.vXCXtXfX*XgXSXSXSXyXl.m.U..XvXDXyX&X%XW.m.oX&X&XoXl.3.j.l.M.G.P.M.-XxX-XT.M.-XxXnXDXcXxX-X%XP.P P P.cX0X+XX.P h.M.P.! X.X.X.X.F X.%.X.X.X.X.X.! X.P.l.9.l.l.L.+.X.+.[ F P X.h.I.+.P F X.h.h.l.+.+.+.T +.I.h.T.M.I.h.M.M.T.M.T.P.I.-XM.",
"; : : z u S _ >.0.q.V. XuXrXfXtX~.4.E.v.~.E.g.E q.w.w.x.E.Q.v.V.C.x.B.v.k.v.v.k.v.b.~.!.$XMXJXJXHXHXBXcX5X9XcXvXfXCXGXDXyX5X@X@XtX#XtXgXCXCX#X$XE.@X#X#XeX9XtXtX9X@X4X5X9X8XtX8X9X5X8XaXmXDXSXNXLXLXLXIXIXPXIXLXLXnXfX8X+XB.O.3.x.x.8.4.>.@.,.Z 2 ; > X         9 tXtX8XDX7X{.<XdXAXdXfXS.*.H G v >.<XH.:XK.#.1.t.[.J.N.e.e.#.#.( ( @.,.>.,._ #.S.t.r.$.e.@.$.,.@.~ $.i.,.7.p.,.7.r.r.<.( Q W :.N.( ` $.,.A.t.r.7.r.<.1.r.p.i.7.Z.i.,.r.i.,.A.i.7.,.r.#.@.6.0.S.H.p.,.@.r.J.p.$.#.J.S.Q.'.N.t.N.A.4XuXsXsX7X<XvX X}.8.| H D M q 0 *X$XgXgXa.q.7.J.@./ / r.A...( ) ^ V V S | p./.{.J.r.r.r.t./.t.1.( m m #.H.Z.e.@.,.>.( @.( @.r.1.@.>.y.Z.A.r.@.r.>._ ( 7.V.A.r.! :.i.i.r.~ ( | y.,.! | #._ W S W W ( @./.>X1X1XH.A.[.:X(./.A.(.r.y.N.H.r.( ~ W ~ ~ _ ( ) y.7.:.*.a.R.E.E.V.p.V.N./././.*.q , ,   & B h.T P Y m.h.m.&XT w.*XbXtX*XfXSXmXmXAXfXg.;.z..XyXvX$XU.fXG.XX#XF.+.j.j.-.X.l.%XM.P.M.VXxXT.M.P.xXBXBXHXBXcX0XM.P.h.[ P G.DX|.#.X.F X.X.H X.k.%.X.X.X.! X.! F +.9.P 9.G.l.P.P.+.X.F ! P P P P [ I.l.h.[ F +.h.+.+.X.P.h.+.I.P.h.h.M.M.P.+.I.T.-XI.M.T.T.I.",
"*.) *.>.0.v.v.2.,.*.0.7XkXkXsXE.K 4.~.$X~.E.E.E.~.@X+X`.`.R.V.S.B.N.N.8.3.4.=.w.w.F.!.9XMXPXPXLXHXNXDXDXJXCXnXBXnXvXDXGXnX0X+XeX X'.4X8XcXBXDXNXBXSXDXDXBXMXeX8XCXSXJXJXMXsXmXFXcXNXNXNXLXSXHXPXPXIXIXUXIXIXIXLX8X[.MXnXnXeXL.k.9.3.2.>.9.B.#XtX>X#.m u :   .   d BXvXMXZXuX`.N.}./.N.4X8./ N N c G <X7X6X7.7.H.Z.N.@.,.t.e.t.A.@._ ~ @.@.| ` r.6.` #.1.s.#.~ _ @.@.@.e.#.,.6.@.@.:.r.p.7.@.:.u.p.$.@.1.t.Z.H.r.r.,.<.:.,.u.(.A.i./.r.y.7.p.A.p.7.e.Z.#.` @.r.r.Z.e.( 6.`.S.`.S.Z.t.6.Q.vX#X`.S.`.wXuXuXfXNXDXDXMX+X&.Z D C D w 0 *X'.fXMXaXA.0.:.( &.i.`.7./ @.( _ ( A S _ @.,.S.[.H.t.p.[.}.r.( W W m m $.J.J.p.s.| ! Q W @.@._ ( @.@.@.@.r.,.@.@.t.[.}./.i.>.( D.`.6.( _ Q #.t.Z.( Q ~ W G Z A A A Q _ 6./.{.K.J.p.s.A.y.#.y.6.,.J.e.@.| ( Q ~ #.#.( ~ n j S S :.'.].7.) N e b D d 5 + < < X   & M ;.n.P M h.&XY.=XT.n.VXxXyXrXcXZXZXZXSXgXE.-.Y.U.z.c.~.b.xXM.0XyXj.%.k.O.k.o.+.M.l.l.M.=XxX-XI.I.0XGXJXLXcXnXDXG.P.n.h.o.+.G.aXL.G.j.X.! P ! k.j.! X.X.%.k.X.F X.X.! X.X.l.P.9.P X.M m a g P +.+.+.h.P.+.P F T +.X.+.P.P.I.h.h.P.h.P.l.P h.M.oXXXP.XXoXT.oX",
"E.x.E.v.v.0.2.7.0.<.7.7XkXgX1X~.~.C.v.~.E.E.].fXtXaX@X}.S.V.S.C.D.0.=.2.:.=.w.].@X#XyXDXJXJXBXFXGXSXPXLXDXBXBXDXfX0XaXfX8XaXMXnX<X X>X'.4X9XSXBXHXGXDXDXeXeXeXeXFXFXnX8X+XG.>X8XnXLXHXNXBXJXJXJXHXHXBXDXLXPXUXIXNXBXLXLXnXtX>XD.8.9.2.5.5.9...k.@XG.c.B.2.a o   v @X9XkXgXfX{.J.7.] >.8.4.{ G / ..<XhX/.s.a.K.A.[.[.,.:.1.r.{.[.r.` ~ ' ` @.$.s.6.~ e.t.6.$.` ) ( @._ | #.$.@.,.>.@.r.<.A./.u.<XJ.,.,.t.e.Z.{.p.y.r.r.r.,.p./.}.>X[././.V././.[.H.H.Z.1.@.$.t.p.p.$._ 1.#.D.'.`.5X`.S.Q.xXN.9.N.S.9XdXuX8X7XMXLXSX`./ ^ C ] ] e 0 yXvX~.fXMXdX1XA.,.7.7.>.@.@.>._ !  .:.! Q ( $.:.@.A.7XsX9X/.t.@._ ! Q m 7.K.Z.r.i.$.6.#.@.` Q | e.1.,.$.@.@.Q ( >X>XJ.t.>.@.@.i.@X@X/.e.( ! e.6.$.#.W m | _ F A G S _ | ( @.1.p.J.J.(.Z.@.| r.:XJ.(.6.#.e.A.r. ./ _ @.>.~ j j k u y h s 1 5 0 w & $ * , , +     1 R T h.U Y h.T.oX=XY.%XLXBX%X$X*XvXZXSXSXkX#Xl.c.l.5.S.D.F.OXG.L.G.G.k.-.h.O.%.+.M.M.l.P.M.oX0XoXM.T.yXVXHXJXDX0XM.M.h.T P ] P eXL.D.8X! [ O.%.X.X.k.k.P k.X.X.! ! O.X.9.P.9.O.l.9.-.h.P m X.X.+.+.+.+.+.X.M P X.+.+.+.h.P.h.P.P.P.h.9.X.P P.XXoXcX0XP.P.M.M.",
"q.v.v.E.E.E.7.i.0.q.a.7XhXrX X X].3.E.].E.].].rXdX9X}.S.S.S.V.8.4.2.*...-.C.#XdXGXCXZXCX=XXX0XDXSXLXLXdXG.cXLXJXxXfXcXp.2.G.fX8X'.}.}.aXcX8XMXnXtXMXLXJXaX8XBXNXAXDXaXB.D.|.+X>X8XnXHXMXNXdXfXnXnXeXcXvX0XnXUXUXUXUXPXPXIXLXHXG.N.3.3.8.k.2.2...X.B.!.B.B.OXS   K =.'.nXdXsXwX`.D...2.| { / N F ..S././.H.A.u. .,.N.r.1.,.Z.[.[.D.>.( _ @.,.e.Z.Z.$.,.r.,.( ` @.~ W ` @.6.e.#.e.$.@.i.r.p.`.u.p.i.>.7.p.( r.A./.i.r.r.i.u.p.A./.}.{.{.A./.`.p.7.#.r.p.1.@.,.H.}.<XZ.,.6.1.#.7.].D.|.xX].~.+X[ K 8X8X7X8X4X7X8XZXZXA u S / / ] b , .XtX XBXkXgXgX/.7.i.i.>.r.&.:.7.8.6.! ~  .( ( _ ( @.1.@.6.t.( ( ( @.$.s.p.t.6.!  .t.i.e.t.6.$.1.,.#.@.@.@.@.` ,.Z.D.L.S.9.6.2.N.`.'.N.#.@.@.#.( ( ( ( _ | ( ,.,.@./ ) ( | 6.r.,.@.r.r.1.( | r.{.A.H.Z.t.p.t.p.i. .Q G G S S f u t - 4 8 5 1 1 , 6 , $ $ X       w R T ;.I U T Y.oX=X&XGXGXBX&X$XU.*XCXSXFXE.b.W.XXOXx.c.S.x.5.#.9.l.#XG.X.g.O.O.h.G.%X-X%XM.M.oXoXM.M.M.dXLXHXG.F.XXM.P M M ! P j.%.k.L.! X.[ %.%.h.L.%.X.%.X.~ X.F 9.l.+.%.m P l.P.h.P.h.X.+.l.+.+.+.+.+.+.+.9.h.l.l.I.h.T P.M.M.P.l.9.+.P l.P.XXeXdXP.+.h.M.",
"E.0.x.E.R.,. .,.0.p.{.uXgXuX7X X].V.'.'. X'. X'.uX/.p.0.S.S.8.>.>...=.C.dXvXdXcXcXSXvXxX-X0XFXFXnXxXxXfX+XaXPXMX#X0XnXZ.@.@.#.6.V. X<X}.8XDXMXnX8XJ.cXSXJXMXnXLXJXMXfXeX0XfXfXaXnXHXBXNXfXD.eXnXG.j.yXyX5XcXcXcXPXUXIXUXUXIXnXeXOXeX|.3.X.%.O.3.k.!.+X!.].N.8   d ] =.9XfXD.aX8X4.7.8.2.{ J C J 9.D.:X>XA.7.r. .6.S.>.@.#.,.t.6. .,.#.@.,.e.Z.N.V.e.@.@._ @.@.1.` W _ @.6.r.#.6.@.:.p.7.u.A.Z.7.,.@.1.r.1.i.Z.i.i.A./.r.,.i./.>X{./.{./.Z.y.r.p.e.#.#.$.@.s.A.A.H.t.r.,.i.Z.7.D.S.Q.xXxXyX0Xh Z '.kXdXqXsXdXNXDX:.u k j ..>.C e = U.BXrX'.nXMXuXH.u.7.Z./.N.0.N.N...#.7.>.S.8._ ~ #.1.,.6.y.e.@.$.t.6.e.N.H.t.$.| 7.D.t.6.7.7.s.r.@.@.| #.1.( | ,.#.8.7. .@.@.p.! @.6.) Q ` Q Z m W | #.t.r.#.,.#.#.1.@.| 1.7.6.6.6.@.@._ @.@.y.#.@.p.s.s.t.,.#.@./ ^ ( ( n C / V f 9 9 0 5 * ; 5 9 < $ .         e P +.h.o.T T M.=X-X=XCXBX0X$X*XfX#XvXSXZXE.U.OXOXOXc.c.-.I *.O.j.P.0XG.g.O.O.o.g.M.-XxXM.oXoX-X0XM.#XBXPXPXeXU &Xl.J P ! [ h.P.P.O.k.h.P H h.h.h.O.h.%.l.L.j.P O.X.%.9.X.P.9.X.+.+.h.l.X.P +.+.+.+.P P M P U +.h.+.X.h.P.P.P.T.-XoXl.9.U U U P.XX|.0X|.M.M.h.",
"E.Q.].R.q.1.:.&.<.). XkXhXfX1X X X'.<X<X4X<X X XfX'.i.i.v.N.>.&.*.9.5XZXLXLXMX*XxXFXvXcX5XBXNXxXxX&X&X%X'.nXaX{ 2.nXtX>.` @.^ ( ( #.t.>.J.J.J.k.Z.6.6.+XdXMXG.t.k.6.L.0X8XaXfXBXBXHXHXnXeXS.D.k.9.j.O.g.%X.Xc.k.nXIXUXIXLX0X%.#.! Z.].N.6.O.j.j.F..XG.!.k.m &   F E.].9X XdXnXC.C.V.9.} K F N c.`.}.aXuX7.:.@.@.6.J.S.7. ./ | Q Q #.#.#.e.J.J.y.7.@._ $.s.r.#.$.' ~ ~ ` $.6.r.r.:.,.r.,.r.A.u.i.@.@.r.A.p.p.A.s.:.i./.p.7.{.[.}.7.>.7.p.A.i.p.H.p.p.6.` e.Z.Z.i.@.` 6.r.7.t.p.7.7.7.].xX%XF.C ] 2.fXkXfXsXFXnX<X( f l f W s.*.s O w.].cXMXCXSXgXfX<X7.A. X7.Q.].7...8.t.D.A.,.( @.t.[.>Xp.e.#.e.e.H.A.Z.A.Z.r. .@.#.@.6.>.#.#.$.@.@.` ( | e.#.@.( #.,.@.#.>.t.0./ t.7.@.! W W G ~ ( | #.6.e.6.,.,.6.r.A.Z.r.7.p.t.e.@.@.@.6.,.Q ~ ( @.,.7.,.| ( W ~ ! | 7.7.{ 9 9 9 7 ; 7 8 8 9 q 5 $ +           b T Y l.O.h.n.T.=XVXGXGXGX0XcX#XyXZXkXZXCX$X*.m.%X.Xb.U.U.z.;.l.l.h.G.h.j.P.9.O.h.M.-XM.P.m.M.-XG.+XvXSXnXG.h.P P [ P U [ I.l.h.h.P.G.P.2.! X.h.+.X.X.k.P.G.l.O.9.9.X.P +.9.X.X.X.[ U +.X.P +.+.h.T P [ P P +.h.P.l.l.P.P.M.M.P.-XP.+.+.+.+.+.P.P.P.0XxX-X-XM.",
"v.Q.Q.a.i.E.E.i.q.E.H.7XrX1XsX'.[.<X X~.}. X'.9X9XR.V.v.V.x.q.5.F.nXMXZXJXMX%XoXBXBXBXvXfXMXvX%XoXY.G.j.N.J.@.v O.G.k.2.| Q %.$.( _ F @.k.9.t.,.6.| | 6.9.{.J.9.L.#.#.t.9.%.t.8XaXnXcXD.F.3.] [ [ [ j.G.F.l.F.F.G.G.eXG.l.F.eXaXN.#.3.J.|.B.j.G.%XcXyX`./ 7 : % J ~.Q.].~.cX+Xo.-.9.x.=.J J I tX'.N.N.7.2.2.:.@.,.8.8.6.2.4./ Q | @.@.$.t.N.J.t.#.$.@.$.r.,.$.@.W _ | @.#.e.e.@.@.y.,.) <.r.i.,.@.$.1.r.A.p.p.[.p.r.u.i.i.<X:Xi.i.7.r.7.,.Z.>Xi.,.r.#.$.p.Z.i.y.,.Z.r.7.Z.p.t.y.,.r.>.Q.$XO.Z ] { i.7XnXFXDX:X(.^ l f k A :.,.u   e *.v.#X'.MXMXvXFXrX[.}.N.#X!.Q.'.S.S.D.#.|  .#.D.eXeXH.e.e.r.#.,.H.K.K.#.@.1.,.#.r.p.p.r.#.@.@.| #.6.7.r.t.t.A.t.| t.6. .2. .G 8. .~ Q Q _ ` ( ( @.@.( #.Z.N.t.[.`.Z.t.(.t.r.Z.6.@.1.t.p. ._ ` | @.,. ._ @._ _ ( 1.7.,.*.C 7 4 4 7 4 5 5 8 8 1 $ # X           M T P g.[ +.h.M.oXGXLXGXxXI.`.fX].CXZXkX*Xv.U.U.$XU.XXU.-X=Xw.O.[ } o.O.O.j.O.O.P.-XoXoXl.h.P.&XM.vXLXeXL.%.[ M P I.+.z.+.o.I.o.+.l.G.P.P.l.j.U h.%.L.L.L.P.G.l.X.X.X.k.G.|.9.O.h.+.X.U F P +.h.l.+.+.l.+.+.l.P.P.P.XXP.l.h.M.T.M.9.h.P.M.P.l.P.P.oXXXxXP.P.P.",
"R.'.E.'.'.R.E.^.V.A.a.4.'.gXgX'.@XtX#X~.E.~.'.@X`.V.v.E.v.v.U.!.nXnXkXJXSXMXyXyXbXxXvXdXnXFXJXxXT.T.b.x.N.{.Z...+.-.9.O. .2.3.2.X.#._ ( %.#.#.#.L.2.Q #.J.L.#.2.L.J.J.D.#.! t.G.OX8XL.[ ] O.X.o.[ F [ h.O.j.j.F.P.o.M m M %.G.xX5X`.`.[.>XeX0X#XoXxXvX9.y : @ - F 5.E.c.C.yXXXw.P B J Y Y P ~.yXC...! >.8.N.2. .9.2.7./ ....Z Q | | | e.K.p.D.Z.i.t.Z.,.@.@.| _ ~ ( $.6.Z.e.@._ ( ,.1.1.r. .7.,.) ) >.r.A.s.y.A.i.:.,.) 7./.^.p.[.y.i.i.:.p.H.6.@.#.#.r.p.H.Z.s.A.4XJ.p.7X7X/.p.p.t.r.>.-.H b ! *...! V.kXkXdX7X_ l j k A Q ^ 7   o 0 L { I { E.rXFXfX].}.S.yXOX5.+XBXG.5.S.8X3.t.B.H #.W m >X8X6XJ.@.,.Z.6.y.i.6.8.S.H.8.7.t.,.r.r.#.1.$.Q @.6.Z.| Q 7.D.2.x.W.XXC.W m S k n m n S @.#.#.#.i.J.>X4X{.t.7.4X(.6.#.r.Z.J.t.( _ _ Q ( _ ( @.,.,.( ( _ @...&.) p i i t 4 t 4 - 8 0 , $ X             R h.R h.+.[ h.m.-XCXCXxXXXc.O.v.E.*XnXtXyX$X&X%XY.bXyX.XxX=Xz.O.U O.+.O.o.h.G.P.P.oXM.M.h.[ I.M.nXcXeX>Xj.D [ D [ h.h.h.I.o.h.+.h.G.oXG.G.l.h.P +.h.G.P.G.L.P.G.X.X.P.M.cXaXD.X.9.P.l.P P [ +.l.h.+.[ X.+.P.P.P.P.P.P.h.+.h.P.P.9.P.XXP.-Xl.h.XXXXl.h.oXP.9.P.",
"9XrX1X(. X X1XrX{.0.0.v.E.tXgX7XrXrX#X~.C.].rXE.c.v.U.~.U.XXtXkXMXJXSXLXUXJXDXbXxXyXtXDXHXJXJXvX&XoXxX|.9.t.t.O...! | O.3.j.5.>.O.2.%.Q Z ! #.! 6.>.n F | | %.2.9.G.G.D.O.J.nXOX+XD.P m ! [ O.h.] +.G.3.[ k.l.F.M.c.j.l.P.c.&XyXbXvXvXBXnXBX0X.X$X0XfX] 2 2 @ % D !.Q.OXyX#X} J P } D L *.[ 5XtXx.| | 4.N.N.i.8.t.>.:. .S S G ( ( @.#.| [.H.N.N.t.r.[.1.@.` _ @.r.@.#.,.t.r.| ( ( @. .@.>.~ ,.>.(  .,.s.i.p.p.p.r.>.( ^ u./.i./.p.#.y./.y.t.i.s.1.,.e.y.t.H.A.A.J./.H.J.2X{.A.u.r.,.<.>.m C h C 2.4.i.Q./.i.i.:.S k f f h n s *     . X 6 N N e N k.$XxX#XOX~.5.D H 4.| F `.BXOXG.+X7.m c Z t.eXrX9X,.Z.J.J.Z.p.#.6.J./.J.J.p.Z.@.6.r.#.( ! 7.9.J.D.~ A ,.!.=Xz.&XF.~ n m ~ Q k n n m _  .%.6.N.}.}.Z.Z.K.D.t.6.r.D.`.t.t.| Q G Q | 1.@.,.p.1.Q @.>.,.! <X,.9 i i 7 t 7 9 y 9 0 < #               P I.P h.h.+.P.M.-XcX%XM.oXF.=.q.w.rXgXrX*X*X$XyXyXCXtX*X*X%X$X%Xg.j.l.j.O.h.l.M.P.m.P.M.P.l.+XnXHX>XB.G.X.P P T I.[ I.G.m.l.U +.l.M.M.M.h.+.P.l.+.O.k.j.h.X.P +.X.X.D.P.+XeX9.%.9.eXO.[ 9.[ X.X.+.+.9.h.h.l.P.XXXXM.P.P.M.-XXX+.l.oXl.l.P.+.X.P.P.P.+.XXP.oXM.",
"7XrX6X/.<X8XuXaXrX X#XgXrXrXfXrX@X$X~.U.v.].@Xv.E.U.&X$X$XrXMXmXmXSXKXLXFXvXvXyXSXJXJXIXPXJXgX2.I 2.0.| / ` 7.8.W.k...3.=.] o.2.L.2.~ | Q ! | ( .. .%.! G | ..2.O.G.G.k.D.+XG.F..X3.H F H %.O.[ [ j.G.3.X.2.v.XXXXn.h.n.M.&XoXoXF.g.C.0XvXCXBXcXBXBXJ.b n i @ X C C.x.x.F.j.D B j.m.Y ;.;.x.nXdXD.N.`.B.3.4.t.2.e.#...8.#.m %.6.#.#.>.( _ 1.`.9.( $.`.6.1.( r.A.,.>.@.$.1.#.>.( $.u.@.@.~ ~ >.9.( ` u.p.u.i.:.y.@.#. ._ r.t.i.p.,.,.p.J.s.6.s.6.@.@.r./.p.J.A.r.H.s.Z.H.t.e.e.,.:.` <.<./ b c K >.x.~.`.R.W j S j f.s y V n y *         . + 6 2 , < 6 w q 6 6 2 q s p e g [ x.|.3.3.| >.r.L.6.p.L.|.>X[.S.L.2.S.@XD.Z.9X|.|.J.J.2.4.~.OX].C.S.`.`.i.Q m V U.-XoX.X3.~ n g Z Q n j n A Q { G G #.9.V.N.i.A.S.'.J.@X+X].'.Q.] ! 7.@.:.,.<.i.7.( m / >./ /.kXA s 7 i t i y s q 1 1 & O               Y h.B I.XXj.z.M.bXBX#Xh.n.j.U 3.O.~.$XU.OX.X%XvXfXyXgXgXfX.Xg.W.b.l.XXW.b.-.b.P.M.G.0XxXfXdXMXNXnXfXtXP.F P P I.M.U I.M.M.m.+.l.M.%X&XP.F ] l.h.k.h.! P F F h.P X.G.P.j.l.P.L.X.L.8Xk.F X.h.X.X.+.l.h.h.h.h.P.+XM.G.G.P.xXbXG.l.XXP.+.+.+.l.+.+.l.-XT.-XP.P.%X",
"u.(.}.{. XrX4XE.'. X'. XtX#X#X.XE.U.v.v.v.~.~.U..XyXZXFXSXSXKXPXJXZXCX%Xn.XX*XFXPXJXLXPXJXsXa.) ^ 7.<.) ^  . .{ +X$XX.x...4.2.[ k.#.| ( |  .| %.F ..].] ! 2...O.>.+X}.8.eX].F.F.3.%.F H X.O.P ] 3.l.b.3.#.X.3.j.XXn.o.h.M.=X&Xl.l.k.j.%.G.0XG.>.>XN.m p m 2 o O c c.x.9.C K =.g.v.m.;.j.l.5XaXfX'.aXMX#Xt.| B.7.8.#.@.r.t. .6.2.7.| #.#._ ( N.F.7.( >.s.@._ i.t.( _ ( @.r.7.1.@.7.p.:.,.( ~ { 4.( @.a.i.e.<.,.,. . ./ A ( y.s.7.@.r.,.t.t.r.r.7.1.@.Z.[.p.6.7.7.t.J.p.H.J.r.1.| ` ~ 1.>.>.c / &.2.N.E.`. .^ (.}.~ k u u f h s -               X & , , < 1 , < 1 q e w 1 1 1 1 1 6 2 6 d ! 8.7.>.#.F m m p 2 p F H F Z D.eXBXnXG.C.V.q.;. ./ ! ..Q ( Q W q..XY.=XXX..! @.| W Z W n Q ! .. .m Q | @.7.#.6.Q.'.'.8XBXyX0X0XOXi.k.@X'.q.i.7.2.:.~ G / @.A.dX:.V s u y g V V p - = * X               . R T R M oXb.I.oX0Xk.P I.F.G.j.l.b.XX.XU..X.XaXCXfXyXvXtX*X$Xg.l.h.n.-XoX%X.X%XyXoXcXLXDXMXk.|.0XL.G.+Xj.! [ [ I.M.T T +.l.F.z.l.l.l.X.m F k.P.+XxXl.P O.j.O.k.X.X.l.X.h.L.L.k.O.L.l.X.h.h.+.H %.l.l.-.+.h.X.+.P.%XxXcXBXxXG.P.+.-XM.P.+.X.+.+.[ X.P.+.P.P.+.h.",
"V.[.'. XR.S.5X@XrX5X0.V.fX*X'.~.~.v.U.E.v.U.#XgXlXPXPXSXSXPXIXPXAXyXU.U.U.$XnXJXSXlXZXSXmX].>.:.:.^./.@.>.<.! S ! N.k.B.c.x.2.>.D.L.%.%.| #.{ ..m ..X.H 2.k.3.2.O.k.3.>.}.0XG.B.O.! J ! ] P P ] O.c.z.c.c.2.-.j.n.n.-.o.h.m.n.n.G.l.OX+X#X0Xr.6.8X@.2 a f o @ o h x.x.B.5.>.K -.c.j.g.E.|.aX9XBXeXnXMX}.t.N.G.XXj.x.#.$.@.@.#.r.N.#.N.t.| Q D.cX8.| y.,.r.@.` @.@._ _ <.,.) @.@.@.@.<.<.~ ~ >.....x.D.S.p.s.y.:.i...~ ) @.@.,.i.1.$.` @.y.t.r.J./.7.{.`.t.y.Z.y.,.r.p.[.(.Z.e._ ' Q W ) i.( 4.E.E.E.i.p.7.<XnXuX_ j y s f f 0 5                   X + # # < , < w b q , & & < 1 1 1 3 1 * & , , 2 6 1 2 2 2 9 w q 2 9 v |.DXGXyX#X+X!.tXyXN.7.N.N.N.| G w.b.XX-X-.C S ! s.p.,.( ! @.k.N.[ G m C G K F ..V.R.`.#XOXK ......9.4.C.Q.'.A.K ^ / :.t.N.<XkX#.d f f s n G { { d 1 - + . O               b U T b P h.XX%XI.o.+.+.l.M..X.X$XXXc.~.~.!.MXkXgXtXyXgXgX$Xv.m.n.XX%X&X%X0XxXxXcXnXeXG.8XX.F ! ! X.[ F m m P h.M.h.o.c.h.h.l.h.j.k.L.O.O.P.eXCXxXl.X.P X.j.X.F X.X.! X.k.P.%.k.X.+.h.I.h.P.U k.D.l.O.X.+.h.X.P j.j.j.G.0XM.l.G.-XXXP.+.P P h.U +.+.P.P.P.XXM.",
"'.v.Q.E.`.].]. XtXaXi. XtXtXrX@X X~.E.$XtXFXLXJXZXkXNXSXZXlXmXnXfX%X.Xg.E.ZXKXSXJXSXGXSXZX).u.) &.a./.7.7.i.! Q ( G | 5.x.F.C.5.#.9.#.@. . .t.9.! #.8.6.9.7.9.O.>...3.8.S.}.B.c.O.O.9.%.] ] O.k.c.n.l.F.l.2.X.j.n.n.U I n.Y.n.z.n..X+X+.B.9X+XtX].c g c 2 o ; : p B.N.8.C.A.8.5.b.c.g.~.fX8XsXFX0XNXaXN.C.N.O.B.9.N.%.( #.r.$.9.t.6.t.>.7.@.8.tXN.B.#.#.,.@.#.1.1.$.>.R.7.@.u.:.7.<.:.:._ @.7.4...v.R.J.p.i.p.H.i.( / #.6.7.>.e.6.@.1.@.7.p.J.i.Z.S.i.i.7.$.7./.H.r.r.p.(.p.1.` ^ ` ` $.<...4.v.C.[.'.{.kXAXMXuXW f.f u s 7 t 4 .       .   .               X % + % + o o # # & , , * , & , 1 1 2 1 < 2 < , , 2 q g v ..! k.BXBXyXOXyXBX*X.X%XyXOX~.2.! D &.j.g...F g c m |  .v d / k.Q.B.#.v c v p h D k.8XOX3.x q 0 - 9 d p s s s q 0 c K *.&.&.Q.S.C j 7 g C K A G G K 0 > O X O O             B M P B M h.%XG.P.m.n.P.I.+.M.&XM.XXg..X$XU.@XvXvXrXgXyXvX$XU.Y.&XBXCX0X$XBXFXNXvXnXMXeXG.X.m H H [ X.[ M D U l.m.l.h.l.h.XXM.h.] H [ [ [ X.P.#XoXl.I.P m P F X.F P X.F l.|.l.l.O.P.P.P.h.P.I.m O.h.O.+.h.l.l.h.! M X.M.0XG.P P.P.l.l.+.M [ +.h.oXoXT.oXM.+X-X",
"'.x.i.7.'. X#X'.9XrXq.].].].tX$XgXSXSXPXPXPXLXvXoXj.@XnXdXQ..XU.$X.X~.kXFXPXJXZXSXSXgXvXLXpX .,.1.@.#.,.u.7.| >.| ] Q C G ! 5.2.] X.8.N.>.2...! ] 8.8.9.9.3.....>.&.4.8.A.C.k.-.P ! [ 3.O.X.%.+.h.h.c.G.O.X.O.] h.g.H U l.n.n.b.g.F.O.] F.#X#X0X&.i m c - @ p 2 5 q.x.C.G.`.S.N.E.x.5.@XMX4XaXvX0XDX[.2.|.>.#.O.N.2.@.$.9.e.r.r.@.Q | ,.Z.,.| 7.B.OX>._ Q Q ,.p.@.) @.7./.a.7.i.Z.[.i.@.1.1...4.4.9.V.i.i./.J.A.,.r.>.@.2.9.#.1.@.$.,.A.i.`.8X`.}.{.V.Z.p.t.i.`.Q.i.,.,.1.,.H.@.$.1.a.@.( ,.7.v. X XkXZXfXlXZX).S W A f t 7 u - X   o 9 X .   X X       .   .   . . X X @ @ X @ X @ @ @ @ & : & & & * * & < & & , 1 , q v Q %.0XyX} x.yXj.F.!.xXxXF.F ] 3.>.O.! F v d q 9 6 , 9 9 w q v ] =.B v b d b b J P L v b c C N N Z N q 5 0 1 0 5 0 N A C H D s 8 d A J A C c D N & o O O o o O O         B P b B R U n.xXoXM.oXM.XXm.P.xX$Xn.;.~.*XyXtXrXfXyXgX#X~.v.m.XXBXLXLXLXLXDX8XeXG.nXBXcXG.O.X.X.X.c.P.[ [ h.I.h.[ M [ j.M.P.P.[ H D P F H %.h.G.xXP.I.I.U v m H F X.j.L.G.M.P.X.P P.h.h.h.M.P.P F X.+.h.h.h.h.P X.h.G.VXM.M P M.l.l.l.P X.h.h.M.T.h.P.P.P.-XxX",
"].i.:.*.'.@X].].V.'.sXgX].v.E.#XCXPXPXPXUXLXfX&XtX].E.#XdX*X#X$Xv.5.'.ZXJXJXKXSXSXJXSXDXnXA.#.H.p.r.t.,.@.1.6.9.] #.! S | Z H ] | %.! O.j.2.F 4.4.x.B.4.! | ( ] ! G ] N.J.C.`.O.H ! F ! P ! P O.-.O.P.M.-.O.-.O.[ +.J I I o.l.&XF.l.O.2.G.0X%X0X! - g C 5 y a 8 8 7.8.!.].B.`.S.E.c.F.dXMX0X0XvXvXfXeX#.>.6.r.>.6.7.Z.6.r.$.#._ ( #.Z.J.N.| | ( Q.G.| @.@.@.i.N. .<.,.p./.a.E.p.7.7.<.:.1.) @.6.N.S.Z.i.p.p.7.@.>.7.i.8.2.#.@.r.@.( @.S.7.`.aX'.R.D.Z.Z.6.Z.S.S.0.p.,.:.6.,.,.` ` ` ) 1.r.i.0.q.#X .4.)./.ZXZX1XS S ' s 7 7 9 4 o X R m.w O o O X o . . . X O . o @ % # % @ @ @ O @ X O X X X @ @ @ o o @ & @ @ & 1 1 2 1 2 2 p C c H ~..XXX3.=.=.N b p v v b x r # + + X + & + $ $ $ < & , & & , < , , < 6 q e b d p s d 0 , & = % % # # X # % 5 q 5 7 q G 9 = 0 0 % > o O > o O o > > > o       P T o.M U U U BXxXM.M.M.%Xn.P Y.%Xg.*.E v..X$XtXdXfXyXcX~.v.+.$XGXMXwXuX[.N.F c X.k.#X0XG.3.k.X.P G.M.l.[ P l.P.O.F %.l.oXM.l.M H ! H P [ h.P.h.+.h.l.h.X.D m k.L.X.h.L.P.XXP.h.%.h.X.P.h.P.h.h.U P X.U h.P m X.h.P.xX0XP m P.G.P.P.l.l.l.P.h.M.oXoX-XP.l.oX=X",
"^.^.) ( 7.R.E./.].sXFXcX%X*XyXSXSXPXIXUXLXDX*XU.$XvXvXJXSXvXMXJXSXFXnXnXAXSXZXAXmXAXSXZXaXr. .r.A.t.7.@.1.@.| >.#.2.! G ..6.>...! ! | ! O.[ t.@X| ..=.2.#./ H ] ] ] | N.D.3.9.3.2.O.X.! ] X.j.O.h.O.h.c.=.] -.l.[ D %.O.[ [ [ U G.W.3.j..XxXxXxX:.y 7 c H c g 8 8 =.B.F.B.G.S.G.Q.j.8XJXnX0X0XfXBXMX'.6.r.e.r.t.| @.e.#.` W ` ,.H.L.8.S.S.( $.( x.B. . .7.{.S.8.7.i.A.'.N.^./.7.@.@.7.7.,.r.7.A.S.`.V./.p.<.,.<.7.t.E.N.N.&.7.Z.,.#.H.8.#.#.#.8.`.i.8.8.Z.S.V.t.i.7.,.,.,.1.( @.1.,.u.a.7.r.0.&.K V <.0.) r.ZXsXf.f.f.9 4 7 4 : o @ T n.R : o o o o o o : : & : - 1 - - - - : % % % - 2 ; ; ; @ @ @ o o o o : @ X + & 1 1 1 1 2 < 2 9 x R U M b w d w < & @ .                                   . . o X o o % % % % > > % > % % % : : % > o > > o % % > - d n A K ^ / K K G N V c g u i ; o o     P T XXM B U M o.n.m.P.%XVXG.T g..Xv.Y L ;.~.~.*XsXfXOXm.w.;.g.cXtXN.( m e.:X9.M k.0XG.G.cXG.G.L.P G.M.l.j.h.l.P.l.[ H k.l.M.%.m M F v M G.M.P.X.[ X.k.%.+.h.j.aXP.X.9.+.9.+.l.X.+.h.X.P.M.P.P.M.h.+.+.[ X.P M P h.h.j.M b l.M.XXP.+XP.P.oXM.P.XXT.-XXXM.P.%XM.",
">.:.) ) ) 2.0.hXJXFXMX*X%XcXFXJXJXLXPXPXLXSXFXFXFXSXMXFXMXmXFXZXsXrX{.p.E.MXkXdXAXSXlXfXrXp.@. .6.,.@.r.S.6.{ #.| { ( ( #.H @.7.D.S.G.j.3.%.k.C.4./ S >./ ! G ....[ X.P ! G F [ 3.2.O.2.] -.c.+.[ +.h.O.+.+.h.[ v ! o.o.O.[ -.[ h.G.-.B.G.F.XX%X4.a : | 5.H S a 9 9.x.5.N.@X].`.].'.FXJXnXtX8XfXBXvXt.r.r.H.p.$.@.r.H.J.Z.9.J.k.L.[.| | 6.#.@.r.:.^ @.,.8.|.5X8XA./.`.}.{./.p.H.r.>.>.7.1.i.H.V.4X>Xi./.Z.r.r.p.r.i.N.B.B.k.Z.2.( @.t.@.` Q Q #.'.8.Z.`.J.J.i.V.A.i.A.#.,.>.@.y.u.,.u.s.7.u.a.J s :./. X2X7. XsXW S f t 9 7 : % o # ;.m.Y D p ; > > > % t 8 2 2 - - 2 - % : * % % : : ; ; 2 p b b M b x M D D P M b # % * * , * - # < , < < < X X .                           O                 @ @ : : - - - ; t i i u i z z t z 4 t t t u t i 8 7 j ) '.ZXfXE.E.S.v.E.V.0.5.=.3.3.x.v.w.0.d     T R +.R M B v b U P.&XVX%Xm.h.h.U.$Xz.;.g.$X$X%XfXvX$Xv.v.~.yXc.&.O.k.J.eXnX>.X.G.0XG.&X0XG.l.P.k.h.P.G.P.h.O.h.h.[ O.h.+.X.P [ ! H m +.M.oXM.X.h.O.P L.c.j.l.P.P.+.l.+.9.X.F X.P.%.j.P.0XM.P.M.-X+.[ X.I.[ [ h.P.P v b U l.P.+XP.l.M.XXM.-XM.T.M.XXoXP.XXxX+X",
"].^.*._ ~ #.kXSXDXFXGXMXnXSXJXJXIXLXLXSXSXSXDXFXMXnX@X].tX'.x.>.{ K K 4.2.4.N.'.@XkXZXkX'.7.>.7.@.>.t.r.,.| | ../ #.| | 2. .Z ..9.N.5.j.9.{ { q.x.N. X'.( 7.K ] =.[ ! H { ] [ x.G.k.9.O.9.O.X.o.m J M o.h.I.P m y H +.+.+.O.+.3.[ 3.o.F.0Xc.M.%XC.c y !.F./ G p 5 5.x.V.@X9X@XF.!.sXLXNX8X9XfXnXJXDXH.@.e.(.H.r.@.6.[.>XK.D.J.` 8.S./ 1.#.#.@.6.:.F ! @.>.`.9X5XS.A./.A.<X4XZ.<.,.x. .8.7.e./.{.8X(.t.`.S.u.7.<.7.i.R.Q.x.N.J.Z.@.~ ! ( / ) ) 7.}.8.V.'.V.2.>.'.9X'.`.:.@.@.$.y.e.e.u.r.p.'.'.2.^ r.0./.'.a.).SX1.k j l s 7 % > . + U h.h.I.T Y M b M M F M v g g M M F [ P.X.X.F ! m ] X.M.&XT.T.M.xXoXM.-XM.M.M.P.[ - : : % % o X O O         O O O O   O         O O o o > o o X O         . : - ; 4 t t z i z j f f V { A V k y t y t y f V ( {.gXFXDXCXCX9X8.8.q.S.D.q.N.x.q.E.V.v.3.v.c.V   B l.R M P P P P P b.=XM.P.P.P.m.m.%X!.U h.Y l.OXfXrX~.].~.@X].F.b.z.Q.#XF.J b H 0XXX#X&XF.+XG.j.] 9.l.%XM.l.[ P H H +.X.+.H M X.P [ X.X.+.l.+.F [ O.P h.k.P D.0XP.L.l.+.X.P X.G.P.k.P.%XG.k.M.M.-XM.I.P.I.h.I.M.xXP a P U U P.G.P.h.l.M.&XM.P.M.P.l.P.XX%XVXVX",
"E.E.q.>.N.NXSXDXPXSXmXAXDXDXMXnXFXFXSXSXfXS.}.@X`.'.Q.=.] H ^ C C S m C { 4.....S.9XMX}./  .6.,.@.#.@. .r.#.9.6.8.>.| ..>.7.#.>.#.>.| #.| ! >.8.3.].fX9X,.E.B.5.=.} ] 8.x.k.2.b.c.%.X.9.c.l.h.o.H [ [ o.[ ! n y i m J O..Xl.l.+.+.O.O.c.+XF..XXX!./ S OX!.>./ 9 - 5.N.Q.@XaX4XeX4XMXJXSXfX8XjXvXxXvX9X:XeX>XH.p.r.e.e.J.eXK.L.Z.@.! Z n ! | ] t.7.^ G Q >.{.8X@XN.p.^.{.uXuXH.@.,.x.>.q...>.^.3X1X7.p.A.7.,.,.r.:.V.J.N.C.8.{.H.| Q ( ( ^ _ ~ F.Q.+XQ.8.}.8.@.R.9X@X`.@._ ) @.:.<.:.$.<.7.@XtX5.q.E.{.2X X).1XSX<.A j j u 4 % > O & B +.M.m.m.M.M.M.P.P.M.P.l.P.l.P.P.P.M.oXoXG.j.2.O.3.o.xXxX&XM.M.-XoX-XxX-X-XP.[ P.b % : @ : % % % > : : : @ @ % o . @ o o   X o > > % : : : @ o   .       + 4 t t u t u f D G 4.v.$XcXvXgXtX#X X'.4.0. X X@XCXbXvXCXFXZXZXMX5XQ.E.C.C.V.5.3.].#XE.q.q.Y -.w.* e h.+.U U R P P P l.=X=X-XxXT.n.0XcX0Xj.U R T !.#X].@XrXnXfXz.g.g.;.!.8Xk.D D %.$X$XXXz.[ o.h.X.j.B.G.G.F.z.%.! o.h.l.h.l.[ X.[ +.X.X.+.+.X.P P [ P X.X.h.h.X.9.D X.+.[ X.! P G.G.9.P.l.X.G.M.M.M.M.M.M.h.h.P.[ M M I.[ I.P I.P.G.l.M.G.oXM.P.P.P.P.XX%X%XeXxX",
"~.E. XMXFXJXLXDXMXDXFXMXZX{.2.4.0.u.E.'.S.8.:.{ ] | C.c.I F F Z F F A C G >.>.#. .| i.#.G _ #.| >.@.G t.J.6.Z.J.S. ... ...9.7.i.t.6.6.( ^ / >.x.x.C.S.A./.].E.b.5.x.9.D.x.9.8.j.O.H [ g.h.c.M.G.P +.o.h.+.H c f G P H M B.g.[ [ j.+.%.h.h.G.&XG.W.>.j 4.c.,.{ C 8 9.N.S.Q.{.aXwXrXnXfXjXjXnXMXrX[ O.S.2X>X:X:XH.J.K.,.H.p.r.t.e._  .A n S G | t.p.>.~ _ >.S.8X'.S.[.7XZ.V.(.i.,.i.x.7..._ ( a.7XZ.>.r.,.7.<.<.7.8.S.'.F.S.x.( S !  . ._ Q A ^ C.j.].#XR.9XS.6.8.S.'.'.,.( 6.i.7.H.H.,.( A ) G J *.q.).2XpXsXNXNXu.' l j l - > o   - P -.&XT.T.T.oXoXT.T.0XM.M.M.P.h.I.G.M.M.G.M.j.h.F.P.j.+XM.oXM.0XG.P.P.M.%XP.P.h.P h.F 3 & 2 - : % : : - 2 : - : @ : % % : : > : - - : 7 ; : : > X X .     @ t f.f.^ {.rXtXvXCXCXGXGXGXCXGXCXCXCXCXFXSXGXSXfXCXgXfXGXSXCXmXMXaX@XS.E.V.5.5.Q.rXgXrX'.c.-.} Y 1 2 R T P T U M P [ b.xXVXxX&XoX&XBXnXcXcXG.+.l.c.].#XnXFXxXb.W.j.P [ XX0XG.P O.+X.XG.j.[ ] k.j.[ P.%XP.h.l.o.[ H h.G.n.l.I.[ [ P +.l.l.+.+.[ U X.P ! F P X.h.m m P F [ M P X.k.G.VXP.j.P.D.M.M.P.P.P.M.-XP.T M M P h.h.h.h.l.I.M.%XP.M.M.M.m.M.P.M.%XM.XX%X%X-X",
"5XMXSXJXLXZXvXDXGXHXmXS.8.N.! #.&.*.:.q.4X8.G C C G ] } F >.9.....^ ] >.H ] | G C ^ ] >.9. .! |  ...( 7.( Z Q 6.t.i.#. .2.t. .7.e.@. .| ( | #.9.V.:. .:.i.A.C.Q.c.j.4.N.D./.'.S.k.O.[ X.j.c.G.M.[ [ h.h.h.X.m c F g.h.o.P J b P j.+.[ o.P +.G.F.z. .n C.F.G | ..p 5.c.V.D.N.{.5X8XmXHXSXHXMX5XN.<X9X] G ,.Z.6X>X,XZ.,.y.e.,.@.%. .! / #.#.6.7.N.8.,.<.>.$.8.`.`.'.7X7X{.7X[.[.(.A.i.8.2.*.&.>.p.p.y.@.:.1.:.,.e.i.`.4XS.t.| / #.) #.8.] ^ >.&.N.7.5.yX5X0X'.7.t.Z.S.J.i.@.N.>...<X7Xi.) _ A K } w.^.3XsXhXZXUXpX^ S h l u - > o   % h.!.BXGXCXVX=XoXxXVXVX0XM.P.G.P.k.P.k.L.k.D.G.oXoXl.G.xX%XP.xXVXVXG.G.G.M.G.h.P I.P.l.l.P w ; % ; : : : 2 y t : : ; : : : : : : ; : ; 2 ; : : % o o o     @ f j 7.SXPXSXLXJXIXIXUXIXIXPXPXLXPXLXLXPXLXJXSXZXZXSXPXFXZXZXgX X#X5Xx.V.q.[ i.@XgXgXCXgX XV.*.T w < B P J m.P d v M o.OXG.xXxXxXcXDXNXDXBXcXl.P.&XU.~.aXvXz.z.-.} z.-.h.0X9Xk.+Xk.o.+XB.9.G.G.G.G.+X+XO.F.c.O.k.] ] b.XXh.[ U U P X.D.P.P.+.X.P H [ M m m F P m P U U P m M |.GXxXD.X.X.k.l.P.P.M.M.M.P.T.l.b 3 P h.h.I.T T T T P.M.M.T.T.M.M.M.h.P.+X+XXX+XeXM.",
"DXSXGXPXJXnXSXJXiXH.| / { R.{  .,. .G &.3.G C F K H H / v ] x.{ | K ! 8.8.>...G ^ G G :.5.5.] S A ~ | _ ( Q Z @.i.6.6.7.i.t. .,.J.6.| r./ | t.S.`.V.y.:.,.1...r.N.k.9.A.`.>X[.D.j.%.J X.D.G.G.D.k.l.G.F.l.P ] +.l.l.m.z.o.U P , d P M b v b +.M.F.9.C.$XOXE.3.d 5 j.Q.'.eX9XG.|.sXPXLXsXJXaX8.V.}.x.D 2 p | J.>XuXH.,.e.e.,.#.Q Q ~ ..N.L.r.D.t.6.r.e.J.>XV.i.J.`.aX(./.1X7X7X<X7X2.2.b.~.5.^ ` H.,.$.1.#.1.@.6.7.`.D...S.i./ / ( ] &.:.2.q. .>.| 4.~.Q.cX@XS.`.S.Z.7.:.,.i.N.7.Z.7.@.,.#.>.>.=.0.:XkXzXkXNXLX3XS k j s l : o X   2 h.xXJXIXJXIXIXGXCXcXVXVX%X%XyXG.G.D.P.G.xXM.M.xXoXD.cXxX%XG.%X0XoXP.D.M.M.M.h.X.[ h.h.I.h.h.P a 2 : 2 ; ; 7 2 t 2 ; ; ; : : - ; 8 z ; 2 4 ; i - % o X     & k ' gXvXE.*.rXkXCXCXFXSXSXgX1XrXAXFXHXIXPXPXLXJXSXFXSXDXnXgXrX*XfX@XV.7.7.N.4XdXgX#X XfXCXQ.=.*.v 1 U M x M.[ 2 w < < d M k.$XyXBXCXGXBXtXMX0Xh.n.h.+.rXfXn.j.b J +.+.o.g.+.P M v M o.O.O.OXF.+XMXXXO.] l.l.c.M.h.] +.O.[ [ [ [ [ P [ +.h.P P X.P P m m m F H [ U P X.+.h.+.g X.P F P h.P.X.9.l.h.P P h.h.U U P I.I.I.I.h.h.h.I.l.M.P.oXM.P.M.oXG.+XnXMXeX-XM.O.",
"SXSXJXSXZXFX4Xi.H ^ ^ ) | ^ 4.^ { Z F 2.../ ] ! / / K K ! ..2.2.8.A.4.8.N.4./ ^ / ^ G H ] ] =.X.G C n n W n G ` t.7.t.7.9.t.N.>.J.p.,.,./ _ >.C.8.7.>.( ,.r.7.) ,.t.@.J.[.>X}.L.3.3.] ! J.eXeXG.eX0XG.M.h.[ h.l.m.g.h.[ M [ n.+.v w b F m M P G.n.;..XW.&XOXN 7 p [ c.].eX>X9XS.7.Z.Q d ! 7.4.G w < $ 6 q 2 f @.A.y.e.` @.( m Q | t.N.N.S.S.H.t.r.J.J.>XJ.r.t.7.p.A.p.p.i.Z.A.A.`.i.| =.j.{ 2.>.$.( 1.6.t.Z.i.7.@.| | | >.( :.! C ^ ..>...^ ^ / /  .p.S.@X5X4X`.Z.1.Q W Q  .:.:.N.A./.4Xi.7.&.9.).1XhXlXzXNXAX<.S l k l s - o O   J h..XGXIXbX0XD.eXcXBXVXcXeXxXG.M.#XM.M.0X0XM.oX-XP.G.cX&XG.M.xXM.P.P.+.L.M.h.h.k.[ I.T P.h.h.h.I.X.v g : ; : 2 2 a F H m m M m n a c G g i 4 k i : o O     - C rX XE.a.J A q.>.a.E.rXrXrX XV.R.0.A.<X'.).fXZXZXFXkXnXaXgXMXcXyX5X@XS.N.9XvXMXfXfXaXrXgXR.-.;.I q R R m.-XM & 1 < , 1 , 3 e F O.h.+XvXeXnXMXM.&X%X$XnX@Xz...m J I J P U M c M J m J M v P h.B.xX0Xc.G.h.k.k.P.I.O.X.3.P U P [ P [ P X.X.+.X.X.+.+.P F P P F P +.+.+.+.G.h.2 2 m F ! k.l.X.+.l.h.F M [ +.T +.+.I.h.h.P h.h.+.P.P.G.M.P.P.oX%XP.cXwXG.eXBXcX%Xl.",
"GXLXLXBXfX'.] >.| .. .../ C G ^ K >. . .{ 4.2.K G C F ^ H ! :.7.`.}.R.t.4.2.|  .G / / / ] 3.C.4.! S n n c n ! %.#.N.t.2.`.S.S.7.6.( t.S.7.#./ &.V.7. ._ ^ :.( Q #.e.@.t.A.p.J.9.9.6.9.9.D.}.D.c.yXyXP.z.P.l.l.l.j.j.%.F ! o.l.h.G.h.M v J P B P R P [ I g.] p / h 5.O.OXaX5X4X] p , & : % X # $ # & % & 1 6 9 9 m @.$.$.( @.!  .N.J.7.8.;X:XJ.H.t.H.[.6XH.e.@.| @.( | 1.t.y.i.i.S.`.4.{ =.F >.0.) ) $.1.r.`.<X7.@.( 1.7.| Z A ( ( { ..{ ..8.8.Q _ ! 7.5X`.S./.>. .( W _ ( _ ~ W  .i.`. XN.r.i.4.^. X7XrXhXZXpX^ S h k h u ; O O   P h.0XLXMX0X+XL.l.G.BXJXDXIXLXcXxXxXVXxX%XM.0XxX=XP.nXGXxX0X-XGXBX0X%Xj.l.P.m.l.h.l.P.P.M.h.h.h.h.I.I.I.P M J P P U [ P.P.h.l.h.l.h.c.Y.m.U P c 8 : % o     = A.$XR.E.^.>.) K *.@.}.'.E.A. X2Xi.V.p.,.G ) 7. X9X<XrXfX{.'.9XrXrXZXgXfX X7XMXgXdXsXfXfX#X@X0.} +.J M P +.M.M & , 1 & & , < < < 6 x P.%X0XBXHX+X%X*X$X%Xk.F.H B P J D U P M M P +.P P P b F 9.%.G.yXM.P.j.M.G.h.O.O.O.l.[ +.[ P X.P P +.h.+.X.P P O.P P P F D P [ X.U X.P.P M m a a g m M X.P.P.X.M +.h.T T h.h.l.h.I.J P I.+.U I.oXM.l.M.P.G.+X8XeXk.j.G.yXcXP.",
"PXPXDXgXS.}.D.2.@.G V Q ) F C A |  .) {  .&.&.>.] ^ G K H c F 8.A. X'.4.| #.>.>.>.>.7.8.=.x.x.F  .@.~ Z Q ( >.k.3.F.@X}.}.D.A.y.e.,.S.C.F.+X>.Z ..7.p.>.:.,.@.,.#.@.7.A.y.@.N.e.L.Z.L.D.G.G.B.9.k.G.M.G.P.G.M.G.h.O.O.j.l.c.G.c.j.O.n.H U o.J J -.U [ K C q 9.8.5 3.-.3.OX8X .q 2 2 2 1 5 5 5 , % , , & & 1 1 < d ( #.$...$.7.J.J.[.A.:X:XeX6X[.N.L.:XnXJ.@.#.` _ ^ Q Q ( r.7.Z.'.}.D.4.} Z } V.<.$.r.,.#.y.S.9.>.>.7.Q.4.^ A  .>.4.9.6.>.N.8.G ) <.E.R.}.S.7.c.=.^ Q _ _ Q @.@.@.~ ..Z.N.Z.7.p.i.,.>.).7XuX Xf.S f.f u 4 - > O X M M B.VXG.j.k.L.P.l.D.G.cXnXGXLXLXDXNXJXLXGXVXxXVXxXMXNXcXG.k.G.BXVXVXBXM.P.P.M.M.M.T.M.P.P.h.I.I.I.l.l.m.I.m.h.I.h.I.I.h.m.P.P.M.&XoX-X-Xm.P.M.;.q > O O   5 tXrXQ.<.q.<.:.*.:.:.}.q.) &.r.4.7.'.4.*.) >.q.'.1XrX1X'.E.i.:.0.'.{.<XuX7XaXDXgXfXZXfXyX].rXE.J v.J b 6 w b b , & , , & % & 2 w w 6 w O.eXVXVX0X$X#X$X.X;.-.x.[ J P U P M o.P P I.c.P U M ] P M ] G.+XG.G.yXyXl.g.+.o.M P o.P [ P P M h.+.X.[ X.F P P +.+.X.P P [ +.h.h.h.[ D D M D h.X.g m X.b a D +.P.I.T T T l.P.h.h.O.l.+.M I.M.h.0X0XeX0XdXMXMX|.D.l.l.M.xX",
"GXLXDXZXtX/.| ! G m p c V A ! Z C C | #.>.2.>.0.x.>...] .. .^ >./.5XN.`.S.{ { :.i.7.7.C H ~.=.^  .#.,.|  .6.-.o.h.c.|.>X6X>X`.7.| ( ! O.L.+X8.F G.+X2.6.>.! Q @.( @.| #.A.1.| #.#.6.7.D.+X$XF.L.F.0X.XF.O.O.3.B.-.[ 9.j.z.j.l.+XW.2.G.x.P -.h.g.W.F.;.D D 9.7.c - c J J &.h 2 5 5 5 7 1 - , - * 1 1 1 1 - 2 2 2 9 ! ..t.r.#.t.N.[.1XwXwX:XwX8XJ.J.,XmXiXr.$.r.Z.( ) ( ` i.7.p.V.@XtXE.v.] F H 9.>. X9XS.R.'.R.i.:.8. XS. .( ^ ( 7.7.4.7.9.C.>.@.7.$.Z.t.Z.e.1.x.=.Z S _ ` Q 7.}.V.7.J.}./.`.Z.t.,.>./ p.Z.6X^.g k k W m z ; o   + M w O.yXG.%.! M %.O.3.3.j.B.vXBXnXL.%.r.}.nXJXDXcXaXk.%.k.! c %.k.D.eXcXVXxX-XVX-X-XVXVXM.l.h.h.G.l.h.h.P.I.I.P.h.P.M.P.P.M.%XM.M.M.T.-X-Xm.T m.m.I.T 3 O   f yX].'./.V.>.q.7.&.q.@X0.:.) ) &.a.'.i.&.&.>.0.{.uXgX[.V.p.R./.4.,.H.`.{.}.uXfXkXdXnXyX!.E.#X].D g.p 8 q 2 w q 2 & & , , & $ & , < 2 3 2 k.&Xm.n.OXeXfXfXG.k.G.l.P P [ [ P l.[ P I.G.P.+.P D M F F P P G.+XP.G.l.+.+.+.+.+.U P P P P P +.X.+.l.X.P +.h.P.h.+.U T +.+.U X.I.P P [ M D M a 8 8 8 i M P I.I.h.I.U T h.n.n.+XcX.Xc.g.I.&X$X%X@X8X@X8XfXCX9X|.F.!.0XyX",
"N.MXSXdX}.Z...G G S n m V V Q (  .2.:...| / ..D.0XN...>.@.2.k...p./.7.0.N.i.i.,.>.0.>.C =.z.[ / Q ( s.H.7.9.k.g.z.8.#.J.6X>X{.Z.Q m ! | O.D.+XD.B.8XJ.,...F S Q Q Q Q ( ,.$._ ~ @.6.F.#X%XOX%XXXG.yXL.Q F F ] ] O.! H O.X.X.3.3.O./ ! k.C.z.n.;.$XvXtXx.i.>.( s % n 8 - 1 - - 2 5 7 5 1 1 - - 1 2 - - ; 2 ; 7 7 9 q e c L.iX>Xt.H.[.K.7XqX1XZ.[.6XNXNXJ.%.$.@.#. .G Q ( 7.i.N.+X$X].V.V.7. .6.i.>.Q.0X5X@XOX#XR.>.7.rXN.] ^ ^ ..N.>.]  .:.x.8.V.N.@.@._ @.y.$.N.x.@._ @.1.:.D.#Xt.@.,.i.J.`.A.8.>.^ :.( A.[.H.r.m n @.@.t : o   @ 2 q g.xXC.l.3.H ] [ g.j.O.j.F.G.B.o.O.j.O.X.O.G.nXL.H H ! F M ! h.h.O.l.eXVX0XVXCXVXVXVXM.l.l.P.G.L.h.P.G.oX0XVX0XyXBXGXBX0X-XxXM.-XxXT.M.M.I.M.M.m.m.T p   #.vX@XE.#X].N./.0.) i.#X'.&./ ( ^ ^ &.>.) :.4.4.}.kXaXZ.R.S.8.N.7.) 8.{.'.6XuXsXtXkXZXyX~.E.tXrXI J p + d J c + & & & & & 1 , < < < 3 3 x M h.+.b +..XfXcXfX%Xc.m.I.P T P k.P.[ X.h.P.h.+.+.P D X.P M 9.L.|.|.P.h.+.U T +.+.U P F P P X.X.P.l.oXl.+.h.h.XXP.+.+.+.[ U P [ X.+.X.F F b 8 2 t w 8 w D P h.h.[ U P I.I.T +.+X5Xj.M.m.T XXxXB.j.5X9X9X'.tX@XS.N.5XfX5X",
"N.8XSXnX4X8X}.N...S C ^ G Z ^ K G / :.| ! / 7.C.c.B.2.| ..>.N.../ >.7.Z.7.t.7.7.p.7.<.>.=.[ D G Q ( s.J.p.8.9.O.G.|.6.$.s.J.[.D.( W Q ( $.r.S.D.i.uX1XZ.2.{ m Z Q ! Q ( @.! ` Q ( t.G.%X0X&XOXG.G.L.k.^ Z G H / ] F D 2.H v  .] m i S >.5.k.x.].F.tXCX'.e.,.! 7 o b c ; - 2 2 ; ; 8 7 5 2 2 2 ; - 2 ; z t t 7 t y e x w p  .>./ K.aXhX1XiXwX7XNXiXnXwXZ.y.6.@.` @._ n ! ) ^ R.].C.N.A.`.}.Z.i.p.,.| C.].Q.5.0.+XV.:. X4.^ ) ( | :.{ .. .2.Q.`.Q.L.$.@.$.e.e._ t.0.@.( @.#.:.2.S.t.#.:.@.@.J.7X7.*._ / ) ).:XlX(.m k ( / ; ; o   x T P U l.j.l.z.l.M.g.P +.j.O.O.%.h.l.j.O.%.X.O.l.M.M.%.m n M P P h.O.%.l.D.+XP.k.G.eXxXM.P.G.G.vXaX0XeXfXDXdX+XL.L.D.J.|.dXBXcXBX0XT.xX0XM.P.P.M.M.T.m.m.R . j.%X#X7.`.E. XrX5./ 3.v.E.4. .A V V Q ) G /  . .p.kXnX6X<XR.4.2.i.i.V.N.>XnXnXnXmXSXSXfX$XtXfX5X| F d . + c p # & & & & 1 1 $ $ , 1 < < 6 e x U h.F.j.F.sXaXfX.Xz.h.h.U I.G.l.h.%.j.l.[ D P T P I.+.h.P.P.G.0Xl.P U +.h.T +.T [ P M P U +.XX+.P.l.T h.h.P.P.h.h.+.+.h.l.[ +.P P P O.+.M 8 2 2 3 a M U h.[ M M U T T -.!.+X#X~.+XU +.T.I.l.OXfXfXfXdXaXcX4XE.@X4X@X",
"8.4XZXnXBXLXkXJ.&.7.7.../ / | / / G ! ( | #.| / |  .2.{ ^ G H ...... .7.7.r.t.u.>.7.}./.x.4.&.| Q ( r.6.| 7.N.N.8.#.Q @.#.t.6.7.! ~ #.y.K.A.Z.Z./.6X[.J.r.>.7.| ! ( ( 6.( S Q #.#.m k.OX%XG.B...%.7.#.F g m H %.[ ! F ! / | ! Q ! ! ..9.`.Q.5X5X@XyXbX}.y.@...1 O v >.8 ; 7 7 4 ; ; t 4 ; ; z t 7 7 ; 2 7 t 7 f p q 6 5 3 & 6 m #.J.:XJ.K.qXmXwX[.t._ Z ,.Z.6.#.@.#.~ ( ( _ @X'.6.N.p.{.9X<Xt.`.7.) >.x.~.c.!  .S.<X7X .(  ./ ^ | ( >.] N.@Xq.p.D.t.Z.t.y.H.K.t.0.>.( 1.>.@.( @.7.Z.>.,.1.8.4X6.Z Q ^ p.uX'.jXt.j f W _ t ; o   B T.n.g.+.U ] [ n.M.+.[ o.z.h.X.X.[ X.%.O.h.I.l.P.M.P.l.m b F U P j.l.I.l.h.P.k.k.G.G.0XaX0XnXNXDXDXnXdXfXG.! ! P 9.D.L.L.9.k.eXBXHXGXcXcXM.l.P.I.I.M.M.m.h.b j.#X]. Xi.4.0.C.i.:.>.0.`.q. .>.>.( V A G / ^ 2.( 0.{.'.V.Z.i.7.>.7.N.D.'.rX8XdXuX9XsXfXCXZXvXtXK H 8 + X . & - & & - , & - 6 1 , & , , $ $ < w P ~.#X!.5XnX0X5X$XM.P.P.l.G.[ F P k.P.h.+.I.h.h.h.+.P.G.X.P +.k.+.[ +.h.+.+.U I.P M U U U M.l.P.h.[ +.+.h.P.P.P.l.h.M.P.P X.P P P l.P 8 a a 8 M M m X.I.P U T U I.l.XX%X%Xb.$X.XT m.M.P h.G.@XdXfXMXMXnXdX8X9X'.2.",
"2.G.sXdXnXkX'.8.8.9.>.>...>.>.H / ] ] / / | G ! ) | / { ../ ! I [ =.F ^ | >.i.i.<.,.p.V.i.A./.A.p.J.A.>.( !  .#.@.m m ( | }.9.( ! _ $.d.d.e.Z.H.K.[.{.[.A.H.J.2.m ( 7.p.! W @.,.>.O.H H v H M F c n v m ! X.5.B.!.3...t.3.2.2.#.#.G.#X'.`.$XcXbXcXxX0X#.e.$.F 2   d c.^ z ; 7 7 ; ; u i t ; 2 2 ; ; 7 t y 7 t u a ; : : - 0 q [ | Q ! @.r.wXuXN.J.| ^ | #.K.L.#.@.( _ @.( Q ].i.( i.[.S.`.Z.J.}.S.) ^ 4.5.G / >.`.uX@X@.>.:.(  ./ ( i.>.D.C.8...@.#.| ,.,.#.:X[.i.@.^ @.,.@.( Q ! r.7. .#.,.A.t.) ) 7.{.wX .6.,.k u ! #.k 2 o   I.M.m.n.M.[ [ l.M.P.m.I.I.P.h.X.X.P ! X.h.[ l.I.I.M.h.! m v [ [ U +.U P.P.P.G.P.k.L.k.G.G.0X8X[.D.G.L.k.k.F Z ~ W %.`.D.L.k.L.9.#.L.aXnXNXBXM.P.I.I.h.l.P.P.g.c.tXCXrXi. .( ..0.0.i.>.3.2.7.N.8.0.0.^ / K / @.&./ ^  .7.N.`.8.:.4.i.'.8X9XR.S./.{.ZXCXgXMXtXN.G D 6   . X @ & & 1 , 1 & $ 6 6 < < < , , $ < 3 3 w M k.Y O.B.eX0XeXM.G.P.X.P ! [ X.P.P.P.I.G.G.I.P.G.%XD.l.O.l.P.l.j.X.+.X.[ U P X.+.+.9.P.+.l.+.T U +.+.P.P.h.h.h.P.+.X.P X.[ P P 2 8 a d P I.+.D X.O.h.h.h.l.M.h.n.n.-.h.n.P I.I.h.0Xv.J c.#XyXaXnXMXMXMXfX#X/ ",
"! L.>XMX<X] N.8.7.>.| { :...2.Z / ] / F C S G { ] / ..4.2.,.! Y Y *.C  .<.>.u./.7.p.>.>.u.0.Z./.wXiX/.6.6.>.| ( G ( 6.@.V.|.t./ @.@.$.y.d.d.e.r.p.Z.t.,.H.(.i.,.( | N.( @.#.e...+.n.+.v B v M d 1 p ! ] X.=.j.c.OX+XG.D.2...X...| ..3.|.0XC.[ c.#XXX] m Q @.W *   0 U.N.S k t t t u u i u i ; 7 l a t t t 7 t t t 2 ; : - - 5 v O.| ~ | J.sX[.t.e.t.y.6.e.k.r.$.@.@.~ | Q V @..._ A.[.N.J.r.H.8XA.( ( #.( ^  .8.8.<XuXt.^.u.i.(  ...0.S.C.B.9.2.( ~ W _ ,.` ` H.`.8.@.,.>.1.` Q Q ( t.@.@.6.e.D.^.R./.i.S.H.Z.( k f Q _ Z i >   I.M.XXc.M.l.+.T h.h.h.T h.P.[ ] ! P P l.P.I.h.h.l.I.b m [ H X.+.U [ m M I.P.c.%.X.O.B.F.k.G.D.] k.%.~ ! F Z Z F m S %.k.k.%.%.$.#.%.X.S.NX8XF.l.[ I.h.l.h.o.h.h.E.@XrXS.@. .:.7.2.>.7.>./ 7.V.i.V.q./ ^ ^ G ( &.| (  .<.u.0.0.4. .i.'.].`.V.:.A.gXgXfXtX@Xx.&.K B 2   . . X + $ & $ $ & , & , , < < < < 3 3 $ < < < < 3 < v OX#XxX0XxXG.X.P X.h.h.h.M.G.+X0XeXh.P.%X0XG.G.9.9.l.P.P.P.h.P I.P P U +.h.P.h.P.l.h.+.U P P h.h.+.+.[ I.T I.[ [ P F w 8 2 3 M h.I.h.U P [ P.h.P.G.M.z.+.o.T T.M.P z.M.l.#X9X`.G.|.+XfXSXMX5X@XS.4.3.",
"! G.aXnXN./ (  .6.>.>.7.:...>.| { ] H H C v G 2.] G :.N.6.2.| ] b D ( | &.<.i.:.,.>.( ,.<.,.7.p.uXqX/.t.#.! ! ! F t.L.6.p.#. .>.7.6.@.` $.r.6.e.t.[.p. .@.#.@.>.@.( @...e.6...#.+.l.+.h.l.I.T P m v G / F D ! ..5.@X+XN.3.| | O.] | #.C.0X5X!.3.G..XM ! ! #.n & O % z.!.N.! S j u i t u u i f Q ..! i 2 y i t t t t t ; ; : 2 1 ! N.! | [.S.[.y.N.Z.6.e.Z.6.7.6.>.| | _ Z W ) $.@.A.`./.H.p.J.'.>.| 6.>.(  ...8.S.(.gX{.N.*.&.( >.:.i.].C.k.x.>.6.#.@.r.e.$.~ ` /. Xp.<.r.@.,.@._ ~ #.,.@.t.}.S.}.<X Xp.[.>X:XQ u f Q ! W g :   P T.-X+.XXM.l.+.I.m.m.h.P.h.! X.! [ h.h.M.l.I.P.+.a M ] m m M M D h.h.H O.l.O.%.O.k.c.j.X.#.X.Z ~ ~ F S Z S m F F W ! O.y.%.X.$.#...! m D.D.F.m.I.I.k.P.l.O.h.l.$X0.S.7.0.p.:. .7.7.N.Q.2. .7.i.A.0. ...{ / G ..*.^ ..7.@.) @.:.@.,.i.D.N.S.`.}.fXaXE.i.E. Xx.G K 5   % + . + + $ + $ $ & & * = , < < < < 3 $ $ < < < 6 3 3 M 8XDXNXDXG.F P I.h.P.M.G.VX0XG.G.G.G.G.G.eX|.L.+.T +.[ U [ [ h.[ h.P.l.l.X.P 9.P.l.+.U U +.+.P.h.h.P P l.h.X.[ M 8 2 m b P h.h.+.I.I.I.M.oXG.M.M.xXXXz.z.+.T m.XXXX%X%X$XcX0X+X+X5XcXBXnXdXQ.| 7.S.",
">.c.vXaXG ~ C / S.N.t.4.>.....0.x.=.] ^ G G F G H H / >.D.C.k.] F v C  .0.7.7.) 7.@.>.<.( W *.e.r.[.6X1.( #.X.>.#.| ! r.7.,.@.N.#. .,.#._ e.L.Z.A.}.t.r.r.>.6.1.$.| $.#.6.9.j.j.+.[ ] c.z.o.o.h.I.%.} H F >.>.#.O.2.#.O.O.>.4.| ] N.k.B.B.G.+XW.OX%.m ! #.$.c @ O   D !.Q.8.| _ Q ! Q n p f C F J O./ n p f t 7 ; 2 t t 7 7 - 2 w I ] [.>X9.{.k.( #.@.! #.r.6.9.,.@.@.>.:.,.i.i.t.Z.i.(.[.i.i.D.>.7.V.>.@.) >.N.i.S.rX}.'.p.) ) 7.2.A.gX|.k.9.>.6.#. .#.N.t.Q 7.t./.t.,.i.e.1.1.| | t.t.|.0X!.N.>XnX4X{.'.J.J.Q u a Q ( v W y   n.T.M.M.XXm.T T I.I.h.I.h.h.h.P X.P.l.I.l.P.M.P.P m j.h.M v m m O.h.k.%.h.h.X.j.D.l.O.] ! X.X.F ~ ! m m j F ~ ! F k.D.#.#.D.X.! ~ m m ^ x.S.0XXXO.h.L.P.G.P.l.c.@X'.Q.>.S.V.0.2.( &.4...:.>. .>.0.^.&.>.i.9.| G  .^ | p.<.) ~ Q Z ( /./.Q.Q.8X9Xq.7.:.A ) V.V.{ ] 2   & 6 $ + + + # + # $ & = * $ $ < $ $ $ < < < < < r w 3 x c.bXGXMXG.k.I.l.M.M.xX-XxXxXG.G.h.M.G.+X|.+X|.+.U +.+.U P P +.I.[ P.XX+XP.9.+.+X-XP.T P T +.+.+.h.U X.P.P.X.h.g 2 M h.+.T I.+.T P +.h.M.0XG.M.P.0XXX&X0Xh.l.T.&XM.c.+X$X%XfXfXOXz.8XFXZXFX9XN.i.4.",
"3.+XMX8./ / / G :.7.&.2.:.] | 7.x.3.9.&.] ] / D F H >...| N.~.x.-.&. . .{ >.i.(.,.2.p.&.<.:.&.>.,.6.t.@.| 7.8.3.V.`.`.Z.>.>.i.>...#.7.,.p.J.D.N.J.N.>.>.6.i.t.,.6.( ^ %.>.G.g.o.] [ 5.|.!.b.j.o.+.h.g.[ | 2...] ! F H 8.OXC.9.8.2.9.9.%.m 2.B.c.b.l.+.O.%.6.n & O . D 5.OXE.2...B.5.3.X.] 3.-.} O.o.} ! Z f p g A A 7 7 t t 5 2 2 1 ! $X9XJ.[.9.e.t.| W ..H.L.7.@.>.,.7.,.N.{.p.@.@.t.'.{.:.7.t.t.@.>.>.,.#.@.8.7.>.4X[.Z.R.`.].8.q.<XdX5X'.N.F.i.R.V. .:.>._  .,.>.,.e.t.r.,.,.#.i.0XS.|.+XC.J.nXSX9XD.6.i.N.j f k m h f n 2 X l.M.+.[ h.+.M D P.M.M.h.+.j.h.I.[ h.h.O.] P O.F ! m M U O.h.+.c.+XP ] O.P %.O.k.B.j.P.k.O.X.Q W ! @.m n m W ! Q ! L.9.! X.L.( W S Z Z _ #.2.G.%X;.5.c.+X5X%Xn.c.5X4XrX0.8.0.8.V.i.i.2.| 4.0.@.( @.@./ >.8.E.V./ Q ) 7./.i.:.( ^ ~ ) 7.0.V.Q.aX4X7.*.:.^ ,.'.R.7.N.&   5 B x < # + + + # # $ , , , , < < $ $ $ < 3 6 3 3 3 2 P M.c.0XBX+Xl.M.M.M.M.M.oXxXVXG.k.X.O.P.|.0X|.L.P U h.[ H P P h.h.[ X.P.M.D.P.P.%XP.+.P P P T +.+.M.h.h.P.G.l.F 2 M +.I.I.R P I.h.l.I.M.xXM.M.P.n.M.h.m.G.h.n.n.oX%X+X$X$Xc.#X].c.$X].@X8XdXfX'.V...",
"B.~.'.6.>.7. .@...] 7.S.V.7.| ! / { ] [ ] K { H F G ^ &.#.=.E.C.x.N.B.p.i.p./.E. .<.a.i.7.7.i.,.i.,.( r.s.| / ..8.9.x.8.@.>.,.9. .( | t.S.t.i.7.8.>.,.@.| r.J.7...( | @.9.c.G.l.3.B.D.@Xx.X.j.+.n.O.[ l.l.O.X.4.} [ ] B.`.G.C.`.C.9.#.>.%.m F c F O.l.z.O.( p 2 o   N } x.$XB.4.8.4.[  .] ..9.H O.2.=.] H h h n / ..C p i 8 i 9 6 8 2 B Q.G.>.! L.8.>.#.7.L.6.%...| @.#.] :.'.E.r.@.Z.<X}.6.r.t.@.@.@.7.@.@.,.2.p.A. XN.t.OX$X#X'./.nXtX].R.'.F.V.#XQ.>. .| @.@.@.6.$.,.r.s.r.@.` `.$X.XC.!.G.}.MXLXNXD.J.N./ g h n n n g y X X h.P.+.X.X.P a F P P O.I.I.h.P h.X.c m %.~ Q | X.H 9 a X.l.l.h.h.G.P.h.%.,.h.l.c.G.k.j.l.O.X.| ~ ` %.` _ | ~ %.( ,.D.r.` $.k.] ~ Q Q ~ X.6.L.L.xXXXj.E.<XmXyXv.} Q.aXR.q.i.8.Z.S.Q.7.) &.>.8.:.>.Z. .#.6.2.>. .( A G <.i.0.>.1.<.t.N.i.7.t.V.'.}.R.) ( ( 7.R.~.E.S.%   b E E B , # # > X # # # = , < < 3 3 < < < 3 3 w 3 3 w U -XeXdXcXeXaXyX&XoX%XM.oX-XcXG.k.j.L.l.j.L.P.+.+.+.h.O.%.[ P [ h.j.P.|.+XP.9.+.X.P +.h.h.h.T +.P.XXX.O.k.h.X.< b I.T U P U U R T T I.P.oX0X0XxXG.+.l.F.+.h.h.l.z.$XxX!.+XyX#XB.j.OX8.&.9.tXyX}.S.#.",
"|.aXB.! G / #./ / >.7.Q.N.8.7./ Z H ! ....] / ! J | G C G / ..8.C.C.`.i.q.^.A./.i.Z.A.i.V.R.^.a.p.r.,.i.,.| #.N.S.7./ t.6.>.t.i.2.@.>.7.A./.Z./.Z.@.| @.#.i.N.#.^ ` %.! X.B.XXz.W.B.2.S.G.5.n.n.XXg.U h.h.-.5.D [ I { D.D.N.C.`.`.|.N.t.6.^ m n Q %.F.n.g.>.p 1 o   2 ] 5.Q.].8.O.2.2.5.8.] 9.N.D.B.5.2.! H F H ! ! ....] v s y p 0 7 1 6 v q O.C.N.O.S.`.Z...#.i.>./ >.:.v C | y.A.S.4X4X/.8.( @.( @.1.,.1.>.>.Z.7XA.7.V.v.7.2.N.rX8X9XfX5X9XN.q.<X^.:.<.) r.7.$.1.,.$.#.e.#.p.N.6.H #X%XOX!.rXHXJXDX9.N.t.n g ! G G n g 2   * h.+.+.P +.l.P M D m M O.h.+.U [ X.F m W ~ Q m m c m c.G.P.k.j.H H X.%.O.! %.P.G.G.%.! 3.k.%.! Z ! %.#.#.@.^ Q | L.G.L.%.$.k.| ~ ` ! | ] 2.%.O.xXXXj.@XkXSX8XB =.@X[.0.p.R.V.S.]. X7.>.,.| >.6.@...( ,.2.,.( ^ ^ ^ :.7.>.>.>.:.| 4.V.S.S./.i.{.'.A.,.:.:.,.E. XK G %   x E ;.E V s = & % # # # & & , < < < 2 3 3 3 < < < 3 3 M n.BXIXLXBXJXeXP.G.O.X.j.k.k.k.j.h.P.P.k.j.h.h.U h.h.P P X.o.P h.l.l.P.XXL.l.X.X.X.T h.P.I.h.+.h.P.[ h.O.h.M w I.T B P T h.T +.U P I.I.I.h.G.oX0XP.n.P.l.oXXXXXn.%XtX].5XtX@X5X!.F.7.t.....{ `.4XC ",
"@XkXS.| Z h C / / ^ #.7.Z.N.2.,.2.t.X.I ] H F H ] 4./ G ! ] 2.k.F.].V.p.1.^ ..N.A.8.u.S.0.a.7.A.i. .( >.W 6.[.Q.B.t. . ./ 6.S.8.8.J.7.@.>.J./.:X<Xt.@.6.>.D.7.( #.( ~ ! ! O.D.F.N...@.9.B.F.b.b.xX.Xh.j.g.c.-.] 2.8.2.t.N.2.] 4.k.t.L.L.9.#.` W | >.j.m.n.P p q o     J j.c.#Xx.N.k.G.~.c.4.4.|.k.'.C.5.| ..{ ..} ....=.] ] ..N p p i 2 2 1 2 c -.k.r.|.C.>.| 7.8.2.:.D.E.J 7 ( >.Z.[./.Z.i.7.~ ( y. .@.@.@.@.@.7.R./.i.{ /  .) 7.7XfX4X].@X0XJ./.2XH.s.r.r.^.Z.1.@.#.e.p.#.$.s.`.J.@.k.$XF.C.8XJXLXJ.F | G g h G J S p y #   & P F X.P b [ [ D U U h.+.U %.j.h.#.%.%.( m M 8 8 b [ G.G.M.G.l.j.X.b c [ h.X.9.D.k.X.%.] k.k.X.X.! _ ~ %.! ( @.2.J.G.,.| #.9.c.k.X.O.9.k.OX3.] aX5Xk.nXJXHXJ.V [ ].]./.`.Q.'.R.S.V.q.4.7.,. . ./ Q :.8.8.:.7.<.^ ) _ ( ( ^ W >.Z.i.N./.{.R.8.8X5X X0.,.<.7./.gX0.d >   B I.m.;.D J d * * & # & = < < , $ $ < 3 6 3 < $ < $ $ $ 3 M j.P.G.c.9.G.G.L.X.m O.c.P.P.c.D.P.P.j.O.l.G.P.l.k.h.+.P h.h.+.L.L.P.G.G.X.+.P U +.I.P.P.P.h.XXj.M.j.F - a P M P P T P.+.T h.U X.[ [ l.G.M.oX0XXXG.l.-XxX&Xn.F.xXb.#X5X+XOXG...9.0.i.2.6.N.'.w ",
"8. XR.^ Q ( Z G Q ! / :.7.2.N.N.9.#...m H I ] H ..=.{ / ( &.7.&.{ N.^.A.7.7.:.G :.i.4.:.( 0.`.i. ./ C Z | Z.S.@XS.8.@.Q ! 6.6.#.Z.D.2.6.6.| 6.7.r. .] :.@.@. .~ ! #.! Q ! O.].|.Q.'.S.D.#.5.xXyX+XXXb.c.g.c.b.5.6.2.6.9.9.8.2. .N.G.2.#.%._ ! _ | 6.! +.m.m d 8 o     6 -.O.0X8X9Xk.c.Q.OXB.k.k.O.N.C.9.q.8.=.#.2.O...C.....C.-.Z f p 5 2 2 2 1 8 G.dXuXJ.r.2.#.9.t.7.}.Q.[ H.r.r.`.D.i.,.#.r.` ~ @.~ ( @.1.t.,.0.i.0. .) _ 0.7.) ^.1X/  .E..X*X*X@XH.e.1.s.uXA.,.,.@.p.s.$.e.Z.t.`.`.t.G.9XeXmXLX`.m K H a h d v Z b c 1     % D b F X.F F P X.[ P T P U P.eXk.X.%.%.H b a m X.O.k.G.G.P.l.O.P.P.X.c F D.o.H P ] l.l.h.h.j.X.j.9.! m X.9.>.%.9.L.OXL.9.9.B.&XG.O.O.g.c..Xl...k.0X@XmXHX1X7.( K ].'.}.[.S.D.N.>.) 7.t.7.7...>.1. .:.p.i.:.i.>...i.7.i.<.Q ^ 7.R.A.0.i.0.4.| `.nXMX'.i.V.A.].MX9Xh o   e E U.w.L N b d 5 - & & 1 , $ & , < 3 3 < 3 , & $ < 1 < < < < 3 w M M h.XXG.G.P.l.M.P.l.P.P.P.M.D.F G.DXfXl.h.h.O.P P [ h.h.eXG.l.P.X.X.P +.+.+.P.P.T.M.P.M.oXh.8 : 3 M R I.[ T m.T T m.T [ I.P.M.0XM.G.&X%X&Xh.l.F.h.+.U k.5.Q.0XE.5.5.2.V.{ 2.-.] J w w ",
"..G / @.| /  ./ ! / ! / Z F t.8.| 8.S.C.&.} =.=.4.[ | | S c C G :.7.R.^.p. X/.7.:.q.7./  .:.:.@._ H C v H N.J.+XS.>.( ,.r.r. .6.6.>.>.t.>.@.|  .S ! @.:.@.6.>.6.t.#.Q ] O.t.'.9X@X<XJ.[.8XOX@X~.c.j.c.l.c.|.x.F >.9.>.#.#.6.8.>.>.D.N.#./ #.$.%.k a Q k.c.6.v p %       b J G.BX0XD.N.x.B.5.S.C.2.| 9.N.2.2...2.|.].B.8...9.5.9.2.v p p t 2 2 2 1 p !  .#.6.#.t.t.Z.t.8X9.#.7XaX<X`.N.1.@.6.,.@.Q Z S #.t.9.7.7.p.^.4.A A ` i.E.@.K u.).&.w.E U.XXE.a.3X;X_.uXA.y.,.$.r.#.e.Z.eX'.[.@X}.>X#XNXFXuXF / 3.F s c a f D m v +     @ M F F M X.P M ! +.P P P [ [ P m b m c ; ; c P O.j.k.k.D.j.j.k.O.O.l.2.%.P [ [ h.X.h.P.l.l.l.%.[ O.O.3.k.F.j.2.9.c.G.+XL.O.9.l.P.M.l.X.#.+XB.X.H -.OXx.4X] >.p K ].&.1.H.@.7.i.p.:.>.i.t.,.,.7.,.,. .0.R.R.N.>.4.q.C.4.<. .<. .>.8.r.7.&.4.p.S.nXSXtX X[.'.@XbX6Xg o   0 U.U.w.L F N K N 1 1 2 1 1 < & & $ $ & < < < < < < 3 < < < < 3 3 $ 3 3 x [ P.0XG.G.h.X.L.|.+XG.X.X.D.yX+XD.G.h.j.+.+.P.l.P.VX0XL.9.+.+.P h.h.T P.M.P.P.M.oXM.F 2 : 3 R U U I.I.I.h.-.h.-.+.h.M.0XM.l.P.P.M.M.I.+.P P J [ =.].|.j.] K D m  ./ J B x r 3 w ",
"] ! h C F / :.! C m | #...:...|  .8.N.`.5.3.9.=.=.=. ./ G ^ W @.,.i.^.E.E.'./.^.(.i.<.7.p.6.>./ / / D v F 7.N.D.8...y.Z.1. .@.6.6.9./ ( :.8.i.( #.r.p.p.6.9.>.2.r.] | o.O.2.N.eX`.J.Z./.8X@X9.3..XG.v.3.l.].8.| ....>.2.>. ...9.%.9.S.N.r.9.t._ k g ! Z.r.| n y :       , I J 0XMX@XC.C.2.x.|.x...F F ......7.S.].|.k.N.x.N.x.2.O.| b p y 2 2 7 2 1 , 1 2 p c  .Z.6XD.6Xt.8.6.{.8XZ.>. .,.t.#.@.^ ( ~ 8.N.7.8.S.i.E.:.A A 1.@.A.<.<.'.).*./ *.w.E.q.s.K.2XsXfX/.r.r.J./.D.}.9X#X].BXJ.@XCX9XC...c [ 5.I v h a g C v v 6 .     o X.%.M m F F P F [ +.+.M b a 2 2 2 a 8 M P F P %.%.,.%.%.F.L.G.k.O.O.O.M O.h.[ [ [ l.P.m.M.M.M.l.X.O.j.c.c.9.9.F.G.G.G.P.k.9.P.M.P.m.l.] k.o.[ ..=.%X].} G 9 % J b.>.S ( i.A.Z.,.( ( 7.7.7.J.Z.7.7.:.| >.i.7.7.R.E.4.4.2.4.x.&.>.0.q.i.S.A.A.{.nXZXBXaX@X X XMXfXn o   q g.;.L L *.{ K D N 6 2 w 1 < , $ $ $ $ < 3 < 3 8 p p q 1 $ < < < < 3 & & $ 3 M X.%XM.P.l.G.M.P.D.k.eX0X|.+X+XG.P.h.k.%XG.+XxX+X+X|.P +.+.M.h.+.+.h.P.T.P.P.l.2 - & 2 P P U U [ I.h.+.h.+.l.M.G.M.G.G.M.G.z.+.U +.j.+.j.c.W.cX$Xc.c.j.b p e e x e 3 0 3 x ",
"=.2. .....N.p.7.@.G  .2.#.i.7.2.i.7.t.8.D.J.'.7.=..... .2.i. .>.i.<.a.i.1.p.R.(./.A.p.[.Z.7.,.6.( ..F J #./ | 6.6.6.7.i.@.s.p.i.i.>.#.J.4.8.S./ ( | @. .@.Q ~ @...Q O.F.3.D.}.>X`.K.Z.p.e.) @.N.8..XW.-.=.=.O.8.t. .9.,.2.2.4.#.N.8.8.N.L.t.D.@.W Z W #.t.| n 8 :         B I b 0XvX].S.S.`.B.>.{ | ( ! ..6.4.x.9.t.S.@Xx.3.S.8.D.k.>.a 8 7 9 6 9 2 1 1 1 2 q b G 6XnXN.F 1.(.>XjX8Xp.r.#.$.6.#.>.>.8.t.9.V.4X@X/.A.u._ _ ` s. X0.u. Xu.u.i. X~.} { 7.6.,.H.wX{.`.@X@XaX`.9XfXfXeXbXcXdXF.F b q b p d b d p p d F J q X .     % P P H X.P F F v P h.I.a 2 i 2 ; 8 b h.I.T J P #.L.k.%.D.G.G.D.G.G.D.%.! H [ [ P P m.M.M.M.P.%XP.l.l.h.-.P.G.F.G.M.G.G.eX+XG.P.G.G.n.j.%.3.} ..4.=.x.W.I 5 - O H n.*.S S ,.i.9.@. .) ,.t.7.i.7.S.p.:...<.>.7.8.'.4X/.7.0.v.5.9.0.x.A.<X<X/.S.rXdXvXnXdXdX4XfXGXCX@.>   N w.J N N L J N J J b 2 2 1 1 1 3 & & & $ < 2 3 w 2 w 3 & 3 < $ < $ $ < < & < < w x l.xXxXM.D.eXfXcXVXD.G.|.k.P.eXG.L.cXVXVX-X[ U +.P l.h.M.M.h.I.M.P.I.+.M P 2 & : & x P P P [ h.h.+.R -.M.%XM.0XM.G.&XM.M.j.P P +.P O..X;.!.$X5X#XW.N q e e 3 3 w 3 3 $ ",
"5.j.I '.S.4.>.:.) ..#.7.V.S.i./ >.i.S.`.8.t.}.@Xt.6.6.9.2. .^  .^./.:.h G ).A.i.R./.).A.p.7.&.^ / | H ] ,.>...| ^  .@.@.@.H.J.6.| G  ./.}.`.`.S.@.#.>.#.( Q Q _ @.X.x.cXG.#.N.9.| 1.y.@.W n m 7.8.v.b.>.5.8.S.B.t.k.D.N.L.x.N.2.8.N.6.2.2.8.k.>.#.| W @._ n a g -         6 g.K x.xXtX`.yX#XS...! | | 9.Q.q...4.N.Q.#X@XN.8.x.x.} 4.4.b p 8 p 8 6 , : 2 8 1 6 q p D 2.| ! 7.>XjXmXjXjXeXt.( @.| 4.B.S.2.#.x.'.S.6.Z.e.e.$.$.p.+Xi.E.[.p.^.Z.V.v.K h g s C ( ^ p./.0XyX0X5XfXcXcXtXyXc.4.D b v v b w p w p p p a b p # +       . X.X.%.%.9.X.j.X.h.H a M F g m m X.h.I.P F X.[ k.9.m #.-.j.g.j.O.G.G.k.| X.m M H o.m.P.M.P.M.h.[ P.l.P.+.h.h.j.c.G.k.G.0X+Xj.B.k.k.B.3.H X.#.#.%.x.L.5X.Xv p o v T { ( W Q ( >.@.:.:.u.V.>.7.A.N.R.7.u.i.7.p.0.R.'.i.7.7.8.k.q.>.7.<X8X8X8X4X<X7XrXaXuXdXCXMXMXCX7.:   B m.m.w.N x x K / L L h 5 5 * * * & * < , $ < < 1 3 & < < 2 3 2 < $ $ < 3 3 < $ 3 3 3 P I.h.F.%X0Xk.l.h.G.J.9.k.+XG.eXVXVXVXoXX.P X.X.P.M.l.M.T.M.M.xXl.p 8 3 2 2 1 2 P P U h.n.h.I.g.n.m.m.M.oXoX&X=XxXoXn.n.T [ g.} +.b.o.O.&X#XfX~.J b x w 3 r w 3 +   ",
"g.U.*X#XN.>.,.>.:.7.N.i.7.7.>.F / N.V.V.`.`.Q.`.N.7.t.#.y.8.7.( i.a.7.( &.[.V. .0.[.}.<X7.:.,.i.1.>.,.7.p.7.7./ @.@. .i./.y.,.#.! Q 6.`.4X6XrX@X+X@XOX2.@.| @.@.7.D.9..XG.| 2.t.r.r.,.~ Z W Q m ! ..[ [ .XQ.N.8.D.N.J.|.}.>Xk.D.G.S.2.O.>.O.9.t.r.#.6.$.k u i a -           v o.O.B.tXfXvX0XvX#X4.*.=...x.4...2.x.].].Q.x.0.J b < < $ 9 e p 2 q p 2 , 2 p 7 2 7 q q d ! #.! [.jXqXwXuX[.J.#.( | ~ >.S.i.#._ #.7.r.(.p.y.$.r.{.'.@X#X~.d.s.) $.>.| K { I q.K Z g k H ]..XyXcXxXxXyXQ.! J J e U J 2 8 w p w 8 6 1 1 + X X       : h.P.P.k.O.h.I.M [ U I.X.P P P I.P.P.h.+.h.c.k.9.2.m ! %.X.%.O.k.G.k.k.Z ! X.X.I.P.M.F.P.h.M.l.! h.h.P.z.X.h.h.j.j.O.G.G.O.O.F.B.F.#.6.2.3.B.|.B.x.x.+XtXF 2 O D ;.;.3.| Q W ~ _ ( (  .<.:.u./.i.,.7.V.Z.7.i.7.A.p.,.#.7.7.4.i.u.i.<X<X>X8XaX8X8X'.9XnXkXCXDXaXdX,.>   N L L E L x x L *.L A N g 5 * = $ & $ & & $ + , , $ $ & < < & 3 3 < < $ $ 3 < $ $ < 3 w 3 w h.l.P h.F.G.eXyXeX0X5XeXcXvXCXVXl.k.P.X.P.XXP.XXM.-XVXVXVXh.p 8 2 8 p 3 b U U +.h.I.[ +.g.XXm.+.l.%XXXXXxX-Xn.m.b.;.;.g.-.j.XXOX.XOX@XG.S.} b w 3 w w < X     ",
"U.%XgXE.p.p.,.7.0.V.7.>...| ] &.i.S.9.5.S.S.`.[.N.7.7.,.#.>.N.i.p.i./.0.7.S.`.,.&.,.q.8.>.&.7.{.,.i.A.t.{.J.p.! @. .Q  .i.t.i.,.7.A./.@XqXeX[.B.F.9X5X .| #.@.#.9.N.t.6.8.7.2.6.1.@.( S m G W F Z H ! ..F.G.G.@X5X8.#.L.|.8X`.rX|.2.%.| F %.>.5.t.r.9.@.W u a n ;           o w P +XvXBX$Xx.B.} F [ =.3.5.8.*.[ *.4.c.3.b 6 = $ & $ , $ & < , - p 8 2 q d 9 w 6 5 6 9 D ! c >.S.t.>X7XS.N.t.( @.Z ! | |  .Q _ `.Z.6.@.@.6.S.#XOX$X~.V.u.,._ ' Q Z H J I .Xv.V.V k W Q / ..^ F.0X2.d v m d 6 B D 2 w q 2 2 2 : @ @ + .         & X.xX0Xl.j.[ P m b P h.[ P [ I.l.h.h.j.k.P.L.2.F #.9.! 3.j.X.g.B.B.O.O.F m [ [ h.h.X.j.O.B.oXn.k.j.[ h.G.X.h.h.X.c.B.j.O.X.-.k.k.F.G.B.3.3.k..XG.2.9.XXC.2 ;   L n.m.T w.8.:. .>.,.&.@.) @.i.Z.7.) ( >.,.V.i.:.V. .( ( ^ &.,.>.<.N.{.{.N.`. XF.@X4XrXfXaXCXfXrXrX<.-   e N e e N L x x L L N N x r = * $ & $ & & & # + # + < $ $ & $ & , < < < $ $ 3 3 < $ 3 3 3 2 M h.h.XXz.G.cX8XyX0XfXnXnXvX0XD.M %.|.P.|.oXP.F.j.9.G..X3.p 8 w 3 8 2 p P T I.l.n.b.U U U h.h.o.n.&Xn.g.h.;.T h.z.g.b.l.j.c.+XxX0XOXG.9.] F N 6 8 9 2 -       ",
"U.xXgXrX5X Xi.:.N.Z.8.7.<.@...p.D.t.i.N.N.`.'.S.t.8.r.t.i.7._ 7.8.0.i.>.p.R.[.7.<.i.i.:.) ^ :.H.t.r.6.J.A.7.x.:.@.@.( ( #.7.#. .[./.{.6X8X@X#.#.! ] N.k.9.@.t.D.].L.8.N.8.2.7.@.#.| G Z F C ] | G @.>.8.OX5XG.|.tXG.k.J.|.|.|.'.O.] 2.D.N.O.} #.k.S.A.eXt.$.@.k ;             . r U $X~.I q 6 6 6 d } $X#Xk.~.3.=.Q.D < & $ & # # + & , , $ & & 2 d q 8 d b m f 7 7 6 d p g ! | Q ,././.A.>.| Z S ~ G A F S Q 7. .@.@.J.@XF.E.9.!.].,.^ h h F V d h s N ~.U.$X7.f W e.1.` G B.w.p d n b s 1 b v 1 1 8 - * . . . . X .         % %.G.M.G.k.h.h.P P I.T I.P [ l.P.M.P.k.P.G.L.O.9.L.k.9.k.j.! %.k.O.3.2.#.M m -.M.j.X.O.h.O.c.XXOX+.X.] O.[ 9.+.] X.%.H M M X.3.D.`.G.j.k.B.x.k.x.2.2.b.8.m : O D m..XyX].@X!.x.N.,.:.>.<.:.7.i.,.:.:.>.i. X].Q.B.q.>.G h ^  .&.7./.6XS.&...i.R.Q.C.].9XAXaX( >. X>.8   9 e x x x e L w.E L L L N h - = = & $ & & $ & # # + + $ $ $ $ < & < 3 < $ $ < 3 3 < $ $ 3 < $ 3 U &X.X0X0XdXeX0XvXvXBXCXj.[ M M P X.P P ! F v v c g 2 8 2 - 2 2 2 M I.I.m.n.m.+.o.P v P h.U h.XXn.+.o.T g.l.m.W.W.l.W.z.XX%X+Xb.5.] N v d 6 6 q y z z o   ",
"h..XCXvXgX'.{.'.}.R.R.i.p.7.>.4.N.7.8.J.J.S.C.8.D.A.D.8.A.i.( ..U ..9.0.S.`.R.&.i.S.0.2.] G ^ N./.A.J.1X/.A.q.i.p./.2.:.| ^  .>.[.J.4X6X>X8X6Xt.| 8.S.C.|.S.eXeX'.N.S.`.#.7.D.t.! G Z D G H / { .. .t.9.4.Q.].S.}.|.D.|.S.%.6.[ ! %.G.>XJ.H ! j.c.l.0X0XZ.;X$.f % O           . , < e w w e w q w w q } -...OXc.[ B , , * * $ % $ & + @ + # @ + # 2 6 q e d c C c d d C v v ! | C c K 3.| &.&.Z ! ! A S G S G  .| / K v.I k.E.} =.w.*.q 0 q e q d e s v ;.Y U.v.S G A f.h G J D c n d p p p p 6 ; % @ X o X o O . O           @ U +X0X+XP.[ P D P [ [ o.U h.P.M.P.c.P.O.L.L.] 3.2.#.9.k.D.9.k.#.#.%.! m n c H XXj.X.k.l.h.M.%XXXj.! ] ! M 6.O.X.H m m m Z M %.O.j.k.9.c.c.k.k.c.5.2.l...9 o o P v.E.yX`.N.S.9.7.:.>.>.,.:.i.i.,.:.<.u.A.`. X+XF.i.2.@.C A ) ) &.7.R.R.4. .>.R.N.&.`.rXGX9X( >.V.( s   * q w L x 0 e L L N N N x N 0 % # % + # # + + + $ @ + + $ < < 3 3 3 3 3 < $ $ $ $ < < $ 3 < < < x h.F.M.G.0XMXBXBXfXP.[ x 3 3 $ + < $ w M P [ g.c 2 , 2 & 1 2 2 2 P I.h.l.h.l.h.g.T v R +.T g.&XXX+.T b.XXm.m.%Xb.z.5.v.b.n.v.3.c.v.q 5 6 7 i u z t u :   ",
"w.$XMXvXrXrX5X[.{.V.N.r...:.7.8.7.#.7.`.J.4.7.i.N.6.:.~ ) N.q.U *...x.S.`.).[.i.S.`.i.p.4./ >.i.7._ ,.>X7XA.8.i.4.9.7.:.{ 7.i.7.S.S.6X<XZ.mXsX3.2.>.| 2.2.x.9X`.D.S.V./.,.8.Z.S.y. .C c v H ] .. .H  .9.N./.S.[.N.8.8.C.G.}.`.#.../ 9.>XJ.N.9.9.l.z.#X[.t.H.@.u %                 + $ < < < & $ * , , 6 q ] x.D 1 , * & $ # # # @ # X @ # @ @ & & & 5 e b b b e b m b B k.c.} F d c c c d ]  .c S Z ] >.4...] F J v N N 5 g w 6 5 5 5 r 1 r 6 w e d e q q d c T F.I N g 8 q d q e M x 9 5 1 - % @ > o o O X . X .   .         o X.xXBXL.h.F v P h.%.P P h.eXG.oXl.9.k.D.O.X.| O.%.| #.j.O.X.! X.X.] m n u c Q c.g.] -.h.l.G.P.l.k.X.#.O.] H | H X.F M F ! ! %.t.L.9.k.L.3.k.L.k.] ..~.=.: o % B b.fXtXN.8.V.V.r. .<.,.<.>.y.s.r.u.7.7.A.t.}.@X&.7.0.:.) ) 7.,.:.:.:.7.>.>.7.C.R.`.}.tXSXq.^ ( K G p   o = r x L 0 0 5 x N e N L x d , % % # > # # @ @ @ & $ + + + + $ 3 < 3 3 < < 3 3 3 < < 3 $ b M w M P g.G.0XtX0XG.o.x 3 $ $ $ $ < < & < < < 3 < < < , < , & < 2 3 3 P P.m.l.n.M.l.+.o.J P U U h.oXh.P h.m.h.z.-.z.!.j.j.3.l.j.X.4.g.b 6 0 5 9 u z : z u :   ",
"E.{.N.fX5X'.].i.V.>.....| >...7.S.Z.N.i.x.9.9.@.#.@.#...V.`.3.2.0.N.c.x./.<X7X{.N.[.`.R./.p.4.7.6.7.r.A.i./ N ] H ..4.6.H.<X[.9.i.S.{.8XaX6X6X>X`.8.| ! | 5.S.`.(.t./ G i.N.>.D.N...D d b G ! ] / ..6.Z.V.7.8.9.>...X.9.D.8XfXS.6.8.9.}.}.L.7.9.O.z.0XfXe._ ` u %     O         . . . . . X . . . . . + . < b , , * & # # X o o X X X X + - 2 2 6 q q q d I D b b d b D j.5.-.I q q p b F H G h q V 7.} v b c I *.J w q = * * * = , , r < $ * < 0 e e c N b q b ;.M q q d 9 9 7 9 2 1 % X . @ ; 2 2 q 8 i i 6 9 p 9 & - % 1 2 $ h.0X+Xh.X.P X.I.P.l.P M %.+XeXG.G.O.9.G.L.2.2.#.| X.| Q ! X.%.X.m m p a m Q Q -.h.[ X.-.-.-.j.l.+.O.O.-.%.H H j.j.%.H M ! ] X.X.] M %.X.#.3.#.3.k.-.XX} 7 O : D j.tX#XE.N.8.2.:.@.7.i.i.i.i.i.,.,.<.r.u.>.<X}...,.7.,.r.7.0.7.&.>.>...:.7.V.V.N.[.'.rXgX:.A G E.J 8     O 0 e x N x N x e r x E L x 0 & % % % % 1 7 t & $ + + . + . + + + $ 3 < < 3 3 < 3 < $ $ 3 [ k.F.c.o.M J F 3 < $ & & < 3 < 3 < $ $ $ & $ $ $ $ $ # $ < < < 2 2 2 M M.U h.m.[ M d b M j.T T U ;.B o.T P Y h.z.-.g.l.F.I U =.X.;.b 0 0 5 7 9 - ; z z z ;   ",
"#X7.F `.tX9X5XR./ ..:.,...#.&.:.N.t.7.t.9.7.( 9.B.S.Q.S.Q.4.7.N.^.{.R.0./.`.}.A.S././.<XaXS.2.N./ ! @.@.>.@.F F N I 9.S.}.{.>X`.7.i.D.N.#.N.L.}.`.S.t. . .#.t.N.N.#.G ~ 9.F ] #.2.C q d b m v F | i.i.r.i.7.7./ / / ! ] ..D.4X|.8.#.N.J.7.#.L.D.G.G.5X0XJ.` $.a > X     q N 6 , , & o . .   . . X X . . X X . X . X % + + + o + X X . + - 2 2 - - 7 2 2 & 9 d s b p c B F B C v g q q e d c e q q v g 0 p c e M e 0 * = & = * < , = = = $ X # + $ * $ , 6 1 * % , # X X X . . . X % 2 a G 2.|.G.+X.X+Xc..XG.G.+X$X!.c.c.c.8.} b h.yXxXG.l.h.X.j.M.&Xk.X.9.O.h.k.G.D.k.9.k.J.[.k.t.9.X.X.%.9.2.! m y c m F c 2 [ j.] X.] m X.k.l.j.k.-.k.k.l.j.j.j.h.o.! ! F m M ! m ! X.] H ] %.c.G..Xx.y X > D ~.rX/.R.N.i.<.:. .>.i.<.>.^.a.:. .7.A.{.7.i.0.i.0.7./.R.i.i.>.:.7.,.| Z.'.S.i.7.E. XMX'.) G E U.G 7     o x x B N x L N N x L E L L x 5 + > : * 1 * * & @ . + + + + . . . + + $ $ < $ < < 3 3 3 3 3 w x w w 3 $ $ $ $ $ @ $ < & < $ $ $ $ @ $ $ $ $ $ @ $ $ $ # & & < & 2 P x w b w 6 d x v R Y -.P w e e B U M b I T [ ..{ H x.F.=.J 5 6 5 0 8 7 : : z z z ;   ",
"R. .Q 2./.@X8X4XZ.p.D.6.#.>.#.6.8.@.! 2.6.D.G.0XyXOX+X#X].8.8./.^.J./.S.}.V.`.V.N.`.}.>X4X9XV.A.N... .^ / ] K / D I ..7.N.S./.}./.i.N.| 7.i.V.8.N.`.7.] F | 8.t.4.t.7.>.8.{ ! v C b v v d m C c F 8.S.p.D.N.,.! :./ / ..t.'.'.J.i.] ] 7.! Z 8.Q.!.+XeX6X4X,.$.u > O O Y v.*.w.=.q % % > o o o o o X > + o % - - & & & & % # # & , q p g d 8 - : @ @ o o % % % % % 2 q 2 6 1 , * - - & & % # # # 8 K b b D b 5 * = $ % # = $ # # > X . .             . o o O % : 2 u j m Q ,.1.t.t.X.OX+XW.+X+Xc.!.0X#X0X+XG.C.G.+X+X0X@X5XG.5X0.%.tXG.l.l.G.h.l.z.%XG.h.P.k.! ! ] L.L.k.L.J.D.9.L.9.%.%.X.%.X.| P m m M n p m P [ P O.X.! X.%.#.B.B.j.l.j.h.c.l.j.3.g.9.] c m %.O.3.3.%.2.3.3.k..X%XyXx.H.1.o D +X8X5X2.}.D.>.r.7.i.>.,.) <. .( ) 0./. X'.~.E.E.V.7.0.p.A.i.*. .*.>.{ 0.E.R.{.E.7./.gXE.G K Y J F 7       0 N L E L L N L N L L N N L e # > > 4 i 1 : : # + @ + + + X . . . . X $ $ 3 3 3 3 x x x x 3 3 $ < 3 < * # + +             .     O O O @ X . . o o + & & & < * o . o o . 5 c b c e d w x P U J q b M U z.z.U.OX.XQ.+X~.J q 5 0 5 5 7 ; : - - 4 z ; z O ",
"Q.H G C H N.aXnX<X4.4.@.( >.,.,.>.>.7.N.`.}.0X0X%X#X0X$XQ.J.8.t.{.[.p.r.(.H.p.'.0.p.7X}.`.<XS.i.2.}.A.| H ] ..U / >.F G / 2.8.V.t.8.`.t.H.}.[.t.7.J.N.7.#.@.>.i.t.#.>.8.9.7. .F m F B J m H 4.G n C #.6.6.6.1.>./ V @.4.8.D.'.S.2. .9...Z A Z ..G.eXdX6Xp.~ ~ i > O 1 ~.5.v.~.~.&.8 - - - - % - 7 p g &.~. X5Xw.U D  .K N G Z F G F F ] 7.6.#...Q m S m S F Z S S Z Z G V V S c h p s f p h S A ,.V.b 5 * & % % X o X O                           O : % u r.6XhXlXNXsX6XdXnXDX9XyX#X%X%XOXB.N.8.B.k.F.G.OXB.3.B.5XtXnXvXyXC.#X5.h.0Xk.j.G.bXP.h.z.h.[ h.j.O.k.k.k.G.J.D.L.#.#.] #.] X.#.] m b b ] ] v a p m v b v m ] P H / ] | 3.G.j.] ] 3.B.g.k.j.j.B.9.] X.] m P X.2.9.3.L.eXyXxXxXG H./.% C tX5X'.4X0X}.D.S.i.<. .^ ( @.^  ._ A ~.$X$X#X#X'.'./.u.7.i.i.<...>.>.2.p.i.R.rX@X[.'.gXaX2.q.J s N y       O # x L L x N e 0 e e 0 e x 0 * X > % : % & > X . + X . X .   . .     + + # < 3 x x 3 w 3 3 3 $ + + + X .                                           . X X X X O O       + 1 * & * * & , 9 p b b 6 v m.m.;.Y o.o.;.K - & > - * : > o > : ; ; ; ; ; z : ",
"`.N.=.j.=.=.4XuX}.`.9.,.( #.8. ./ 0.N.9.N.J.vXfX0XxXC.C.Q.8.8.i././.y.,.r.i.A.V.`. X'.<X8X[.>X}.>.`.'.A.r.F N { t.2.! | ] ..V./.i.`.t.t.A.4.0.7.>.S.[.:X/.J.N.#.r.6.2.#.2.D.9.>.H m K ! ! H 9.8.G c G ] >.D.`.N.4.F  .>.6.N.L.9.#.N.S.7./ Z ! ] x.|.aX8Xe.W S 2 > O s v.~.tX$X~.C.7.S h h p s S G C F C.CXxXBXyX$X].OX].].$X@XC.D.8.D.D.}.`.].S.S.C.S.t.D.i.i.>.6.t.6.H.S./.V.}. X X8X9XrXMXGXJXrX].u.^.i.) n 7 - % % % > o > > > % O           . : : W ;XnXCXMXnXfX`.}.dX9X>X@.5X%X.Xk...#.8.k.O. .! ! ] | X.>.3.N.B.!.Q.C.Q...+.G.k.h.M.G.h.h.h.j.X.] X.X.k.L.9.L.D.L.k.#.! Q %.>.! m m c 7 2 b a 2 i +.m.m M F m M m F | ..#.t.k.%.#.9.L.L.k.k.k.k.%.X.L.k.#.#.9.9.6.6.k.x.+X0X%XxXS f.j > C '.N.p.R.S.`. XS.7.( / ( ( ^ ^ / @. .j.~.'.].9X6X X/.A.7.u.,.7.R.N.x.q.E. X X$XE.~. XvXfXOXE b e N 9       # $ , 0 0 0 0 , = - = , r = r * O O O .               .             . . . . . . $ $ . X X X . . X . . . . .             O       O     O O o o > : > > : : : ; ; % g N d 8 : & > % + % + o o @ % % & 6 , * % % % o . % - % > > > % - - ; 7 7 i z z z ; ",
"].yX.XC.I o.%X+XrX].S.8...8.>.! C ] l.c.c.b..X|.G..X].|.S.D.D.N.R.Z.,.,.1.,.>.:./.<X}.}.J.8X8X7X/.8.}.:XJ.7.| ] i.D.8.8...H 2.0.8.9.#.N.1XA.0.>.>.p.S.[.J.N.,.( t.H.8.,...N.8.8.7.#.#.{ / #.] >...>.| |  .@. .6.8.../ ] %...2.t.8.`.D.D.N.#.>.2.D.J.J.rXe.' m t >   E.yXE.@X~.E.~.].Q.}.E.R.N.S.2.:.>.Q.xXBXCXvX#X].Q.@X@XfX#X'.9X8X4X8XmXdX>X9XfXcXMXMXvXZXBXaXJ.9X`.].nXCXnXZXvXCXnXvXtXMXDXSXrX XV.*.{ ,.i.r.^ S u 4 - ; ; : - ; 4 %         + y W 8XBXFXFXNXfXsXjXhXaX6XA.#.!.-.| ! F Z / 8.2.] ..O.] H /  .| ] ] ..Q.N.Q.V.P h.X.k.X.H j.h.o.g.+.v O.c.k.k.9.k.G.}.D.%.F F | X.#.M m v m t 2 c M O.P.M.h.P M F X.| %.%.9.r.9.9.9.D.D.9.t.k.k.9.9.#.2.k.L.t.9.9.9.O.#.6...#.D.$XbXQ S S % s R.{.p.N.7.>.7.>.( ( ^ 7.7.( :.>.i.N.3.E.<X7X}./.R.V.u.u.i.&.7./.v.5.q.x.#X$Xv.w.q.].cXcX XJ 0.0.I 9 X   0 *.T ;.L 0 = > > > 5 5 1 q d P K b ; 4 ; ; : ; : : : : > % ; : o X o @ + X X . . . + . @ $ @ @ $ + . @ + . . O . . X X o . o . O O o o : ; ; ; z z z z z z u z u 6.yXyXcX@Xx.>.*.) G A h g y 2 2 7 7 - ; 7 y s f h c c h K 7.q.q.&.{ >.r.7.7.C f.f.k z ",
"j.c.Q...O.j.n.g.c.C.C.9. .9.2...] [ l.l.g.l.z.-.X.D.fXyXrXeXN.! ..@.:.@.y.,.:.i.`.'.4X<X<X}.<X`.`.<X7X{.[.J.t.6.0.i.9.{ G H ..N.N...:.R.}.(.V.p.7.>.6.9.6.r.H.J.9.,.9.7.>.2.4.| #.6.#.#.#.@.( | / | ! W A Q ( / :.9.] ] / ] #.8.N.`.C.6.#.8.#.7.S.}.sXBXNX$.j 7 o % v.fX].}.'.].tXtX@X X}.+X}.9X@X@X`.#XcXCXCXCXtX@XyX5XnXGXcXN.S.|.'.Q.[.E.S.].cXvXtX5XV./.4XJ.6.J.}.D.aXBXCXtX[.rXaXdX7XtXaX5X9X8X>.h S >.9.i.S.{.Z.,.j u y t ; ; 4 4 :       - C nXCXvXCXDXFXDXPXPXLXnX}.H.W ! @.G  .Q A m | | X.#.2.>.O.7.6.8.| 2.9.3.C.#X8.P h.O.l.X.] h.l.h.O.[ M j.O.j.j.O.k.9.3.%.X.Q F m ! ] ! m b x b P [ I.P.m.I.P h.[ M X.%.#.9.k.9.9.L.#.k.D.J.|.L.L.O.#.9.%.! t.L.9.>.k.G.%.( | ..N.#Xc.y W <X8 2 ../.7X9X{.>.( Q ^ ^ ( 7.S.7.N.i.V.A.R.R.#X5XA.7.7.p.^.0.<.7.a.q.i.0.K J V.tX*X.XE.E.gXCXrX].gXyX0.4 O   P n.g.m.g.m.g.;.E ;.w.m.v.n.~.n.n.v. .l u i i t i z z 4 ; z 7 4 i 2 ; - & % : @ # @ % @ @ X @ & # # + @ % @ o X X o O > % % > > : : z z z z z z z z t k f.' $.$.sXBXfXMXnXvX*XR.].%XtX0.V.V.u.q.7.V.9XuXV.1.V.p.'.fXgXtX XrXvXCXFXFXdXgXtXrXfXE.) ,._ ' ",
"8.N.<XOXb.m.m.j.c.l.c.!.2...9.-.5.j.-.3.j.X.[ ..3.-.@XcX0X|.k.X...>.>.@.:.,.^.dX`.9.<X X}.`. .>.N.S./.{.>XJ.(.J.Z.Z.7.7.7.7.7.] G ] ..i.Z.7.i.7.r.6.r.t.(.:X:XZ.@.#.>.[ 8.X.>.! ( r.@.@.#.6.#.,. .(  .| ( ~ Z G ..#.&. ...2.2.| 2.S.N.8.7.2.`.S.N.@X>X9XtX! a t o 8 V.@XMXCX}.V.V.{. XR.7XR.}.9X<X<XQ.`.fXCXCXCXbXfXtXtXGXbXx.N.S.S.V.^ G 7.V.2.x.#X$X4.| 7.t.t.[.qX>XS.D.kX/.{ ..7.0.p./.Z.>.>.q.i./.<XD.0.R.`.rX7X`.N.<.@.V k t z ; 4 - X     & I BXCXcXxXyXD.`.S.B.N.( Q Q Q $.#.| | / %.{ X.| O.X.#.| | t.Z.N.8.2.#.| =.E.2.U j.X.O.P M X.[ O.O.] ! #.] F X.O.k.k.O.! Q X.O.[ m m m b b J +.j.k.l.M.m.[ X.h.h.P ! ] %.#.$.| Z.L.#.%.] 3.G.9.D.eX6.| %.r.k.+XG.t.c.G.8.! Q ..F.-.p y W Z.y #  .A.}.8Xi.>.Q A S G ^ >.N.7.V.`.'. X@X'..X~.c.V.A.i.i.7.7.i.i.7.0.q.2...,.R.@X#X].v.9XMXZXCXE.=.5.0   . I v.g.;.w.v.v.z.E.U.U.~.XXz.v.z.n.b.c.} n u l u i 4 4 4 ; 4 t 7 i ; - 2 8 2 2 & , , 1 , & & & & & $ % % % : % + # > % : - : ; z z z z l t u l l z W i./.K._.A.6.`.r.( /.rXaX XfXbX.XU.&XyX*X*XxXcX%X*XbX].:.Q ^ G u.dXMXFXFXSXJXSXJXLXvX@XrXrXkX0.&.E.1.",
"rXaX9X|.x.-.l.c.!.F.b.5.3.k.k.-.-.G.X.[ ..I [ X.[ } x.#X#XG.k.F.N.k.8... .>.<XsX6Xp.S.<XV.i.7.6.>.7.A.{.[.(.V.6. .8.i.8.,.8.7.>./ ! >.8.i.,./ ^ / ,.t.y.d.t.J.:X>.t.6.! 4...#.#.6.A.t.t.#.6.S.`.D.>.7.s.#.@._ @.! Z ] #.7.i.N.S.`.>XD.8.J.`.>X7.! %./.<X7.j u t o C E.fXDX{.8...{ / ) *.{  .>.A.sX9X7XJ.>.S.yXdXvXaX`.C.'.C.V.rX%XyXS./ :.>./  .8.v.!.4.^ i.i.D.jXnX'.S.>.8...@.<.7.,.i.>.G A ! | / ] 4.t.D.<X>X9XuX}.'./.8.4./ V 8 z 7 - o   o * -.oXxXcXCX}.! Z G ! S m Q m n $.;X,Xp.2.3.S. .#.#.| 6.8.t.@.| ( | | D / I Q.B.I.k.O.h.j.h.B.j.J o.m b m H U +.X.j.k.X.F F F ] O.! H M [ O.j.k.j.k.O.O.%.X.j.+.P.h.X.#.#.k.9.` D.k.@.| %.%.3.O.%.G.#.X.L.r.k.J.k.9.l.G.F.F.$X2.[ c i p W ..9   W `.,.i.<.@.` ^ ( ( ( >.>.2./.9X6X X9X7XC.b.v.N.0.7.7.a.a.A.V.A.A.&.q.`.4.,.^.'.`.i.E.MXZXZXQ.| :.9 O O I v.j.3.-.=.] j.W..X~.~.~.U.W.c.] ] l.m.l.+.( W Q u z z 4 z i i t 2 2 2 2 a y 8 8 2 2 1 * 1 1 : - - - ; - - : % > : ; : : ; z z k f.z l l u z i ' /.D.7.>.@.m a W ! S C 7.'. XvXbXXXg.U.%X$X.X$XOX~.4.{ A A S V A j &.uXaXnXFXGXSXGXBXrXrXgXFXZXaXQ.rX/.",
"gXjX7XdX8Xk.J N.C.B.5.2.j.k.j.c.j.-.O.I [ O.-.-.j.O.2.OXOX!.OXF.F..XG.5.9./.uXaX7X XJ.N.0.`.A.D.S.J.{.J.N.i.p.,./ 7.N.A.N.i.i.Z.>.7.7.p.7.>.7.:. .>.6.r.J.H.6X:X/.>.2.o.O.4.#.t.Z.| i.J.K.t.Z.Z.7.t.@.6.t.,.@.t.` Q / / 2.N.`.S.'.{.i.[.9XaXaX`.#.H {.{.! p i t # F x.tXvX4.#.:...| >.>.:.( @.>.7.Z.t.@./ 7.Q.|.Q.8.N.>.7.0.BXCXnX9X>./ >.>. .| x.~.v.&.K / 4.J.MX8XJ.}.Z.7.>._ >.p.7.>.:.^ Q S C S S m C ~ { 0.S.uX{.2.8.C.tXx.&.G 4 z ; O   , g.%Xl.W.BXfX( ~ | W n G Z m G ! ( t.d.6.6.N.9. .#.6.L.D.|.L.( m S m / 2.5.C.tXS.j.j.[ h.%.h.+.l.o.m m m m H X.[ ] h.9.m m F X.! X.] ] O.j.9.k.D.L.%.2.k.D.L.#.%.X.+.X.#.,.,.L.Z.L.9.| ] X.] J ] %.9.X.X.2.k.D.G.+XB.B.j.O..XF.c p n a u A 2.y   ~ }.:.7.7.7.>.^ Z.r.:. .( ( 7. X8X5X8X5X`.R.0.8.7.u.^.A.p.'./.A./.7.@.8.q.,.u.A.E.A.`.MXDXFXN.d { 8 O O J z.j.j.q.3.{ ..U..XW..X$XOXk.x.].Q.3.OX$Xc.c.C.G.9.f i 4 z i i i i t t 2 i c f a t 2 & * - 7 2 2 i t 7 ; i i i z t z z ; ; t l f.f.l z l u k ` J._ m V m Z %.$.( H  ./ G K } S.gX*X.X X#X#X5X#X~.E.*.G A A G S ^ (  .A.rX`.{.sXtXrX8X<XrXuXrXaX#XtXyXfX",
"nXAXlXMXaX7X0./ `.x.D.C.G.G.n.F.l.+.*.g.;.;.b.XXW.w.-.+XOXB.~.F.F.XXc.c.x.6.D.{.`.}.Z.7.0.q.Q. X X}.V.A.N.@.( i.Z.S.A.Z.Z.V.N.t.>.7./.7.7.i.2.:.#. .,.r.p.1X[.H.7.( / [ j.>.t.L.8.]  .2.8. .#.p.9.r.>. .7. .( 7.,. .( ( ( >.i.N.7.6.}.aXaX4X{.D.7.{.7Xi./ y 8 i % ! 8.*.N.7.#.( ..7.4.2.>.:. . .( G @.i.>.>.9.t.8.V.S.8.#...S.@X5X/ ! 7.i.4.@...q.~.x.8.| ..>.0.'.S.t.i./.>.@.( Q @.%...( _ Q S A S A Q Q G A Q n | Z.Q ! #.#.v.k...D p : O   B =X=XU.%XBXR.G / r.9.%./ ! Z F Q ! ! m ( 9.L.6.t.,.%.L.J.+X2.! m m S ..%X~.B.8X8.h.k.M X.P X.h.X.X.m F X.! F %.P.X.F M m F P X.X.F F %.L.%.k.k.k.$.#.k.G.G.L.O.j.O.X.+.j.%.X.9.9.X.%.X.X.! X.P X.F M X.O.9.%.k.D.G.D.+Xk.G.3.p d a i a Z | / :   p ..C {.S.i.i.,.i.7.A.A.<.:.7.'.`.V.`. X<X X^.7.<.i./.A.i.(./.A.S.7.p.V.A.A.u.N.Z.N.'.SXSXZX=.6 N 5   > N g.;.W.U.3.v.!.k.5.W.C.].=.5.OXF.B.~ @. .~ _ ] { ] } / / ....K n y i u y y l y t ; - ; 2 t u t t i u ; - 4 l l l i i z z u l u k f.l z j 8.Q.`.A C / | G A :.N.Z.8.2.>.{ =.I G 4.i./.5XfXkXkXq.&./ C ^ Q ( )  .&.) K  .A.>.6.4.V./.`./.{.5X=.>./ / @XcX",
"pXmXZXlXMXkXrX{.8.6.8.N.B.~.W.F.n.n.o.;.m.l.z.k.} X.k.+XoXQ.k.5.c.%XW.v.O.7.[.7.8.`.8.S.R.&.{ R.}./.{.>X[.[.[.i.A.p.i.Z./.>.] ,.p.>.7.>.7.| G G G ! ..6.A.<XA./.N.Z.9.%.X...2.>...#.2.D.X.v.c.B.6.9.N.>.i.@.Z @.&.Q _ Q / 9.8.N.`.8X6X6X7XR.2.i.}.8X9.q q 8 u 8 % ^ 5.F ../  .,.p.8.2.<.:.>./ _ 1.| ! ,.D.6.#.7.2.N.i.8.>.| ! >.>.^ _ Z.S.7.N.i.V.b.x.0.>.&.&.>.2.>.,.A.4XN.7.@.@.^ 1.$._ Q Q Q F S A ! Q G F Z g c ( n m v D O.F.b.;.H %   . h.=Xn.XX=XfXq.! _ Q ( >.>.X.W Q Q Z Q | ( _ D.D.k.k.9.| >.9.2...~ n G ] l..X}.rX..P P.F P +.[ X.h.X.P ! P F F P +.P m j g ! X.%.O.O.X.k.k.k.eXD.%.%.k.L.D.L.k.9.%.O.k.j.l.O.9.k.#.` ~ | #.9.P X.[ P X.! X.X.%.%.L.G.k.z.&Xk.d m F c n Q | ( h @ o o % p D.BX'.r.i.<.&.i.A.p.V.A.R.S.R.[.@X}.A.7.:.>.>.>.7.8.N.}.@X0.4.V.A.8.i.A.[.[.4X XmXLXdXv 3 w *   # B U g.b.XX5.q.5.*.^ Q.#Xx.|  ./ A @.p.7.@.>...G F [ ;.-.j.w.=.-.&.m a V l u y 7 ; ; 2 t i u l k u u t t 4 z ; u k l z z z l z i f.f.j  .~.$X`.^ C ] ..O./ &.V././.A.t.q.3.w.2.v.4.*.i.{.pXZXkXV.>.:.) 2.<.q.7.7.&.K ] / ..r.( / ( ^ | 7.uXZXA.G G ^ } $X",
"SXLXZXQ. XE.C. XN.#.8.6.9.S.%X%Xn.;.o.g.n.g.[ O.-.-.j.+XW.W.yXvX$X.X-.&.D.Z.>.G { &.:.8././.2.q.q.R.7X>X/.>X'.t.A.N.7.2.}.>.~ >.4.7.7.r.:.C v m C D H >.D.i.p.2.7.'.`.t.2.,...6.#.7.`.S.8.+.h.l.Q..XG.2.( ! G A ..^ C F 3.x.S.'.@X`.S.:.t.}.p. .4.K q p 5 5 y : 8 ..] >.G ( ..8.V.i.7.7.>.>.@.>.>.@._ @.7.7.7.9.>.4.7.#.@.( / ^ ..r.i.S.D.V.V.Q.C.v.v.>.K { | &.2. .<XuXB.9.8.6.( @.@.@.( ^ | ! Q F G A F Z m C c g c g m F H P U ;.b.-.2   $ T =Xn.n.Y.@X9.,.G m Q ~ X.( W ( | ( ( ( ! ~ | L.G.J.9.` #.%.#.| ! S G ^ [ c.V.S.G X.P.P ! H P P.l.XXl.h.X.X.X.F m F D m a g P X.h.j.h.O.L.|.G.9.X.9.#.k.G.G.k.%.9.k.l.P.h.F m ~ ~ ~ ! #.%.P ! P [ [ P ! X.! ! #.k.F.8.j.oXP u m m G %.9.! S 2 o O % : g | #XR.7.s.a.7.^./.0.2.N.u.8.V.S.R.A.>.( :.:.7.( / ,.>.0.V.&.q.x.V.7.>.i...7.9X XZXgXD 1 6 5 %   * B Y g.z..Xb.] W =.k.C.7.>.&.G ^ / @.i.t.N...4.T Y ;.z.-.=.v.x.3.k.5.Q.7.k u u u i t 4 4 t t t u u l t t u i 4 u k l l z i l u i k ' N..Xx.x.#.a / #.4.=.&.0.S.R.A.Z.p.>.q.k.4.].=.{ >.V.<X X<.C.~.0.7.q.7.7.7.&. .) } { { ( / |  .*.G V.aX1X .A Z ( ) 5.",
"^.uXdXQ.9.[ C.].`.7.V.N.6.#.N.c.[ [ o.g.&Xn.g.U.n.[ =..XOXW.c.[ 2.9.2.7.7.9...{ 8.0.V.0.Q.9X@X0.x.N.V.2X>X6Xt.J.>XA.A.>.>.! / >.i.p.>.2.:.| C c v C ] 7.Z.#.}.}.>.2.#.! @.1.@.p./.[.D.J.`.9.X.k.yX#Xc.@.Q ~ / S ~ ) C V.~.'.R.R.Q.S.J.S.9.t.7X&.p 2 - 2 q y 4 o n F.N.i./ A @.7.A.t.7.i.,.>.7.7.6.#.@.| >./.S.7.7.>.../ / | !  .p.0.2.D.[.}.S.N.:.>.9./ A { 3.&.#.>.}.S.4.| 4.N.| ! @.| Q | @.( / ~ ~ ! G A n n n g f g m G ! ! U g.;.J 2   + w j.*XXX.X@Xt.#.( #.X.Q W Z Z ~ ! ( ( ( ( | _ F ~ L.L.6.G.| ..%.Q A G ..'.@X9XQ.G F l.%.P X.l.P.+.+.l.l.l.+.X.M m P D b g a m F X.%.#.%.O.L.O.! ~ #.k.O.G.L.#.` %.L.G.G.k.G.P c ! ! ~ m a 2 2 2 8 a M %.k.9.%.k.k.G.eXj.c 2 a b m X.3.3.9.Q : >   : 5 s Q 7.>.:.p.(.p.V.u.( ^ q.u.r./.'.,.>.>.:.>.) >.7.4.C.S.C.=.] =.5.5.7.0.i.7.}.{. X'.D 6 8 3 , @   5 R T g.~.b.b.9.V.].N.2. .G 4. ./ | #.2. .8.C.-.Y T =.-.=.} x.b.x.5.5.Q.`.Z t u i t t 4 7 t t ; t z i k l k l 7 f.f.l k l u l u k f.p.~.9.:.@.j h ! ..-.4.8.V.0.8.p.p.0.7.0.k.E.].{ G G &.0.>.7.].0.7.,.>.7.7. .K ( K { ..>.F G | | K / ^ ,.{ A V V A G { ",
"* e >.9.R.5X@XA Z ..S.t.8.6.x.N.O.-.[ n.oXM.T.Y.;.O.O.B.XXXXx...[ 2.7.9.2.>...7.9.4.8.x.x.].yX.Xv.F.`.>XS.:X>X8X4XJ.Z.7.Q Q ( @.8.A.,.i.H.t.9...] ] ..,.i./.i.i.S.0.>.( #.(.>X>X4XJ.t.}.S.J.N.7.i.D.6.6.( ( ( | A V ..v.C.Q.i.9.8.N.V.8.I b s 5 & % % 2 s 8 ; O Z F.Q.>.h G :.0./.J.7.t.i.i.p.r.7.#.( ) 6.i.8.#.i.#.:.>.>.>.>.7.>.&./ ^ ..4.'.9X X2.>.! :.5.2.4...2.i.-.=.] / ..t...Q #.{ #.( ! ! ! ( #._ Z Z c g a p c m F H J } *.c 9 - O $ J B v.%XvXtX6.2.C.D.9.! m Z W Q Z W ( ` %.` ` ~ @.6.#.6.G.%...| Q &. .:.+XcXvXvX0.m h.! h.T.h.h.X.[ P M P T h.M g X.P m F ! H F F P P ! X.k.9.9.X.#.k.9.9.X.%.X.X.9.G.l.9.L.j.m t i 2 2 2 8 w t 8 8 a F k.k.k.L.L.`.OXc 2 f m G ! 2.3...| Z : > O % h d G | 7.>.,.Z.A.7.>.>.>.7.7./.'.8.>.7.i.p.7.) :.8.x.B.8.2.{ H H } *.4.>.7.aX7XuXlX| < q 6 6 5 o   B h.T g.v.B.!.9X5XN.#.,.6.| #...] ] 2.8. ...B.=.[ I ] =.5.=.} O.-.k.=.3.v.7.S u y u i 4 t z z z z ; i f.f.k u u f.j u k k l k W ) 7.x.>.7.>.S n / &...2...2.4.>...>.4.0.p.C.Q.fXR.>.7.q.&.| C 0.Q.E.0... ...(  .,./ ^ K K K ] | ( / H 7.u.) ^ ( V V Z ( 7.",
"w 0 d f h ] / d n  .>.>.6.2.S.F.W.b.O.XXY.&XY.b.j.j.G.$XF.+X%X+XB.{ | 8.0.&.4.x...2.{ ..q.Q.$X.X-.].5X9X`.S.[.[.S.V.7.>.Z.6.8.t.7.7.A.N.8.7.7.O.] ..0.p.H.}.y.G Z.i.6.Z.t.A.[.[.`.`.eX+XC.S.N.8.#.@.#.@.@.2.#.....F 4.B.3.N.N.t.#.2.S.=.H b & o o > % - 5 4 ; O G |.C./ h A  .8.S.`.i.D.A.R.S.8.>.@.@.>. . .#.7.7.>.i.D.i.7.p.:./ /  .K C ! ^  .V.R.`.}.5X~.q.7...#.>.=.o...] / 2.7./ !  .2.( ~ G W Q ! ! Z c h d f a g c n H ! [ B a 5 :   e m.P Y n.cX`. .N.3.g.%.! m Z Q Q Z Z ! %.,.@.#.| #.@.| ( 8.t.! ! | ( ....=.tXtX@X..H X.F l.M.+.P X.X.[ F X.X.U m m P [ P X.X.P P ! ! ! ! %.X.~ X.X.%.9.%.O.k.L.%.X.O.9.j.O.P.j.M M M P P X.P [ P P F M 2 n X.#.L.L.|.F 1 i F 5...%.>...@.F u : % O . d G A G >.>.:.p.`.u.7.u.p.^.R.`.0...7.7.| N.0.:.7.>.7.>...4.7./ | N I 8.0.i.'.0.q.q.b 9 w w w -   d m.n.h.g.~.9X}.>.| ..8.#. .>.=.2.{ | 2.2...2.2.{ { K H } =.*...} [ =.3.J 4.5.G Z a t t u t z z > z u f.f.f.u u j y i u u k ' 1.7.Z.7...,.<./ n H D.x.8.4.>.4.9.>.4.4.0./.9XdX1X(.i.A.V.^. .4.5XV.q.'.i.) ( ^ K  . ./ ..{ ] | &.*./ ( &.{.(.>.:.G Z ^ ( 7.R.",
"q w w q q V ^ /  .7.| (  .@.>.9.x.W.U.oXXX$X&X%X.XyXxXyXQ.-.b.F.-.4.2...{ ! 4.9.N.} K 5.V.c.U..X.X5X9X@X~.`.4X>X}.D.i./ S.N.Z.6.>.<./.i. .{ { 2... ./ 7./.D.>.Q i.J.i.A.p.6.7.|.eX8XeX#X`.9.8.D.r.#.#.@.@.! 4.5.9.:.N.].S.S.S.N.9.0.5.5.=.H d 2 % - : o 4 t ;   C }.N.G m ( ..:.4.2.p.J.}./.i.8.6.#.s.7.( ~ | #.7.:...2.7.7.&...<.>./ ^ / ^ ^ #.7.9./.@X8X4X`.i.2.7.{ ..O.] ] 8.B.k.5.Q ! 8./ Q | ! | ( G Z g d s d h C n m J [ H C s q 8 o 9 I.P -.Q.#XN.#.>.] ! ! Q Q ~ _ Q ~ ( _ #.6.6.#.,.,.#.@.` | 2.6.......:.N.].tXtX'.^ M H ! k.+.P P X.P X.O.X.P F m m ! +.X.P O.+.P X.! F X.X.~ X.%.%.%.k.j.#.j.D.9.X.%.L.G.M.P.P.j.j.j.h.h.k.h.O.O.X.P ! m 2 2 m ! X.m 2 a m O.n.9.#.2.|  .S 2 ; @   X e K ^ G C :.1.E.C.Z.p.r.Z././.A.Z.7.7.>.7.7.Z.V.&.2.>.{ 7.V.x.>.F G G 2./.4XS.N 0 q q d w b q o > Y ;.l.*.T v.B.2. .#.7.2.#.#...x.O.9.5...k.x.| | 2.#.] ! ] ;.*.U { } =.=.8.C.C.=...G f 8 u u z z z z f.f.f.z k C G 9 t 7 q ( `.`.0.>.>.:.>.n y  .] 7.E./.3.V.V.c.N.C.V.<XmX<XrX7.&.A./.7.7.*.4.9Xx.{.E.2./ F A ) ..H / &.4. .] |  .2.u.R.{.7.&.@.Q ( 1.&.u.7.",
"w w d w 6 s G i.V.D.#.u. .Q ( 2.H x.fX$X%X*XyXvXyXfXMXMXyXF.} I } S.F.S...x.R./.S...:.B.v.x.0.v.].mXHXMX5XS.eX}.i.8.Z.#.>.>.7.8.>.] 7.0.2.7.2.>.&.A.>.,.:.>.>.^ 7.:X(./.,.H.}.8XfXaXk.D.8.9.Q.8.2.6.8.t.N.! 9.C...4.B.S.Q.C.D.C.F.N...q.N...] v y ; ; ; t z z O m |.N.N.C.2.| | >.6.0.V.Z.8.>.:.,.r.i...| | ,.,. .@.^ ^ ( / ^ >.&.G G /  ./ { >.7.| Z Z D.uX/.i...7.>...2.| 2.x.4.D.9.! | 2.2.! ..4.Q ! G F m f f h ! D c D ! H [ J m D D * w T x ;.$X+X[.( | ! Q | ! | | #.$.%.( | | $.2.$.9.@.( ( ( #...>.L.|.~.'.].3.E. XD.! b m O.9.9.9.X.X.+.+.X.X.P X.F m m P h.m %.l.O.X.X.! X.! X.%.~ ~ %.P.P.k.k.O.%.$.k.M.M.l.h.k.k.h.h.j.j.%.9.#.9.! %.j.%.! m g w 8 p v P O.b.n.M.F.c.t.| p : : o   ; C / G ^ N A >.../ :. .r././.A.Z.p.Z.8.2.0.7...7.N.7.>.7.6.7.>.>.{ { / 8.}.V.b q d g e q e 9 7 o & M D Y ;.z.C.3.N.2.`.S.| / / >...] x.S.N.c.B.| 9.V.9.>...I [ U =.5.-.B.3.k.x.x.S.=.k...n l k l u z f.f.f.l z m Y *.*.J F G ( 9.A.#.( >.7.:.A  .{ { G i./.{ /.S.7.p.i.^. X/.:.^ ^ ,.^.(.a.:.) G K &.K / *.2.| ^ / G ..4.>. ...&./ 2.^./.i.7.7.>.>.>.&.:.:.>./ ",
", r b e d w w d #.6.] ,._ ! >.H ! 8XaX#X$X0XyXAXJXFXMXcXx.H U -.v.j.].C.2.{.gXsXC.4.4...B I *.} x.7XZXAXdX4X|.D.] Z.D.6.#.#.| @.^ ^ { / t.Z.,.2.t.}.^.A.i.r.i.A.i.Z.:X4X8X6X9XfXnX5XB.9.2.4.8.3.8.i.2.4.9.4.7.E.x.N.2.3.N.}.+X|.G.S.N.8.D.D.2.! f p 7 t i t y   F tXq.Q.F.i.#.@.,.9...| #.,.6.@.#.@.| ( _ ( #.@. .@.#.( G G ! ) ! S Z *./ / {  .] / G / ..@.#.#.>.>.2...#.4.0.2.7.8... .>.2.4.>...] |  ./ Q F n m D ! ] ..X.] =...H D ] [ 1 w T J 5.OXdXaX! A Q ( X.%.] | ! ! ! Q ` | 2.@.Q ( Q ^ ` ..#.t.D.B.B.S.S.3.N.D.7.2.C c | #.j.X.9.%.X.X.X.X.P F ! F F F ! O.+XO.P.9.+.9.P.%.9.X.X.%.k.k.P.h.%.L.L.k.L.M.T.P.M.%.X.O.O.%.! #.9.$.k.6.~ #.k.X.X.X.X.! m ! [ o.%.O.c.G.G.Q.aX .: ; % X   % 3.>.|  .G V &.1.G ( r.V.Z./.A.Z.Z.i.V.7.7.t.7.i.D.S.V.Z.t.7.8.0.N.N.8.2.C e q d b q e q 9 6 2 O : c *.} F.W.5.=.8.4.x.k.( Q ~ 9.t.6.8.C.5.3.v.=.] ..#.>. .] I J } j.x.C.5...5.B.8.D.x.5.C./ k f.f.f.f.k l u C } } } *...{  .:.>.^ ^ i.S.0.&.@.9.K ] >.{ | G ( :.A p j ^ / / :.i.E.a.R.i.&.,.J d d &.( 4.N.=./ { L G 2.0.7.&.>.,.p.R.A.<.>.,.i.u.,.7.@.^ ^ i. .",
"r , 1 w w e e 2 p m ( ( ..N.=.v { sX>X4XfX8XfXCXSXFX8XG.5.o.z.z.-.v.I &.{ G /.tX[.'./.J e d D } 8.N.uXZXfX8X'.S.! J.S.t.r.#.@.r.#.D / ..[.:X(./.}.i.i.i.9.[.S.V.Z.N.J.eX9X@X|.`.|.=.{ / ^ 4.Q.C.Q.F.k.N.N.F.N.8.&.! | 9.`.eX[.eX4X'.`.`.].'.S./ g k u u u i t O >.9.:.|.R.N.#.{ #.>. .#.#.>.,.#.@.@.>.@.( ! ( >.r.7.r.i.#.(  ...| G / / /  .2.#.{ ^ A G ! m c G ....>.6.>.9.D.N.4.{ 4.N.>.] / ] 9.] ! 6.H F C G ] / J ! 5.8.5.c...[ O.[ H 6 x T z.%XcXFXS./ 2.2.@.! | @.X.@.| / | X.#.t._ Q ~ ^ _ %.#.$.#.#...k.8X8.Q ,.#./ / f F O.#.O.O.j.j.h.P X.X.F ! %.X.! F m X.P.+.9.9.X.l.h.%.L.X.X.%.k.j.%.#.%.%.P.M.G.G.xXG.h.! %.j.j.%.1.k.9.6.$.%.%.%.! W F F F F F m [ 3.3.#.@.6.N.`.H.f - ; : o   - } ..&. .{ G ( >.( W *.i.A./.Z.A./.A.H.7.7.R.{.N.S.}./.`.S.i.8.V.S.{.4XG s p e e q 9 9 6 8 p ;   & K b.-.XXW.c.8...#.] X.#. .| 7.t.>.9.N.X.v.=.[ / >.2.2.! ^ 2...] K =.j.C.5.3.Q.x.C.5.5.@XK b k u z l l j ( &.3.&.{ K | .. ...&.F C  .V.8.7.8.2.4.K  .) @.Q G V S A @.( | 4.7.a.{.1XA.&.,././ N e N G ^ 7.3.q.;.*.3.V.&.5.0.V.{.H.:.( 7.q.7.0.8.>.>.7.@.^ p.A.",
", 1 < < 6 w w e r q d v G H O.J F jXNXNXHXMXS.9XBXMXOXF.W.z.z.z.3.{ D | g 2 h G ] 6.C v C v b ] ].7X4XdXaX8X8X>XH.>X}.D.t.! / #.v ! 8.D./.:X>X6X/.7.t.Z.V.7.2.9.D.[.8.N.D.J.D.] ] F m F ..9.4...G ! D.S.N.9.9.| f Z ..Z.4XeX[.eX}.{.`.D.N.2. .C n m u t a i t : V.0.t.J.#.S F ~ | / 2.2.9.,.Q  .@.( >.@. .@. .,.7.7.>.7.4.>.2.>.&.G ) / ( ..../ [ A A F m F G C N / ..C.V.2.7.8...5.#.] I ] I [ ..&.7.2./ | H O.X...| H I 4.5.O.] -.z.=.J b M h.b.xXcXaX>...9.6.| ! / X.| | | ~ ` #.#.] Q ! ( ( #.r.6.>.] g a D 7.F n !  . . .c b X.X.| O.h.c.X.X.F m m F ! P F P X.P ! X.P l.9.O.X.X.k.X.9.9.%.! X.X.X.X.P.G.M.P.P.j.~ F #.k.O.] #.k.9.6.$.,.%.! #.X.9.k.X.X.X.%.2.#.L.6.#.$.t.i.i.n 7 i : O   & H | G ] | ^ Q G G A V :./.S.[. X<X}.}.}.A.[.`.>.t.>X'.J.S.i.D.S.[.4X8.d d q e q 7 7 5 y y b 2   d ;.0X#Xj.j.x.-.O.3.2...2.| #.9.! ( ..| J } ] H ..i.i.N.>...3.9.3.2.] 2.[ ..[ 5.c.3.} 5.4.H >.>.( f.k  ...{ K /  . .#.>.>.@.| :.( ^ V f C { &.&./ H 7.7.>./ G n S ! / ^ ^ :.A.N.7.2.i.p.u.i.K D D q N K *.4.v.q.h.=.N.i.7.7.i.p.p.:.&...( ^ >.7.V.7.7.>.G 7./.",
"% $ 6 < r < 1 q w p q 0 q p v p A NXAXSXJXNXdX#XyX5Xv.n.-.U ~.C...| / N F H B N b b B H v M J b ..qXaXA.[.}.'.}.uX8X/.7.v n m m 7./.J./.Z.<X/.}.>XJ.r.i.i.] 6.8.F.Q.5.5.9.D.C.W.b.H G G H ..2.2.( Q ! N.8.2.( A n C 7.7.[.>X`.'.8X9X9.D.C.2.#.g l k f i k l i 7 F.6.#.,._ ! | | #.J ! ..7.>.@. .#.,.@.#.,.@.@.@.6.>.7.6.7.7.7.>.,. . . .{ { ..../ F C Z C ! K ^ Z C H 8.}.S.9.4.x.].9. .H ] ] ] 2./.t.N.....! ! ..{ H H / [ H F [ !.j.D v D M h.$XbXMX8X .| ! ! Q ! #.t.%.| F W F ! 2.#.| k.N.%.` 6.t.6.Q n d y 7 m 5.F.x.C./ p c ! M H X.+.[ ] ! P F F ! X.F ! X.F X.X.X.O.+.X.X.X.9.X.X.9.P.%.X.! ( %.9.l.xXoXG.H m m H O.k.2.! Q X.%.,.L.r.| %.D.k.9.k.%.X.X.2.t.N.[.t.6.@.(  .S.G j q : O   : K =.| i.A.| ^ G G A V F >././.i.R.J.D././.V.R.S.S.S.[.S.9.9.N.S.}.}./ b p 9 q p 8 2 t y u _ 2   I yXMXFX#XC.] X.O.h.g.O.k.} #.] F Q C F ! H ! Z >.S.D.2.2.V.7.[ O.[ ! / { / ] q.3.[ 8.B.`.4X{.<XN.( ) &.] / ^ G  .H.s.r.>.7.:. .<.7.Q V G ( m V ( &.>.>./ G S G ^ ( / ) ( *. .:.2.1.:.i.H.&.( K L N d J ) 2.q.v.w.G i.i.i.,.:. .*.:.&.G ^ ( 7.0.7.7.:.>.| i.i.",
"& % % & , < < , < 6 q g 6 5 9 q t.AXDXHXkXsXFX%Xb.b.n.g.;.} @XV.2.*.A c *.g.} 2.C.=.U F ] } x...8.4XJ.t.`./.8.>.i.7XJ.v F S n ( i.i.7.,.r.8.>.i.[.}.`./.7.&.9.k.v.U -.} =.G.!.;.D ] 8.| G X.j.>.O.6.| #.6.#.6.| 3.! 9.7.(.`.J.p.J.4X3.S.}.F.! p f j C >.Q ( j c |.J.t.8.1.#.,.| ] / ! / >.| i.i.#.p.Z.,.6.s.r.#. . .6.>. .:.:.=.2.7...{ { / #...^ ] C C Z H G / F | ] #.v.B.&.2.{ Q.q. ...] D / 9.t.4...! ! ] F G F H H H ..! ] { b.[ C d b R h.OXxXcXsX>.../ A Z Z / | ! / _ ! ! X.#.6.#.2.#.| ! _ $.| Q %.| F c v P ;.-.].2.& M [ %.X.%.O.] [ X.X.g m P X.P F m P [ [ %.X.P X.9.X.%.! ! P L.9.X.X.#.X.X.O.-XoXG.l.F k.j.X.k.O.! ~ ! $.y.L.>X#.D.J.L.,.Z.r.X.~ #.9.>.J.Z.#.e.r.t.8.n c 8 ; O   % K ] ..8.{.i...( ^ V A C C ) q.8X6X}.{.6.N./.V.t.V.S.N.i.>.>.8.Q.{.>.] H N y 8 5 8 t y i u ( % O K XXgXDX].w.[ O.-.h.l.n.-.F O.] C C G H j.| ] 9.0.8.D.9./ / ( ..U Y [ J ! P *.I =.Q./.<XaXuXN.I H H 7.] ] ..>.7.,._.H.s.@.) <.( :.8.Z.0.&. . .^ N.V. .S V A C ( ,.,.&./ ^ 0.,.:.<.&.&.(./.4.| K K K N B F ) v.~.v.K 7.i.u.>.7.( G  .( *.:.2.0.7.,.7.7.>. .A.V ",
"7 - @ % & & & & * < w e b s y 6 f <XJXMXkXCXDX!.v.v.b.F.~.R.`.:. .^ / I ;.E.~.gX9X] { c.8.q.5X{.}.8.! { i.{ ( ( ! 4.! q n F g g Z G  .@.(  .t.8.8.|.+X8X9.i.C.x.5.O.] ! F *.v...%.8.L.] ] %...| H ] ..>.S.8.F.X.X.D C r.4X{.[.J.t.J.D.D.F.2.h k H ] 5.!.6.N.! H !.J.7.,.@.| | / ! / ] ! ! G >.9.6.t.7.6.r.J.t.#.>.,.7.#...:.:.&. .>.2.>.t.2.../ H G C c F H G H / ] ] ] N.4...4.8.=.7.9.| H / 2.7.>.#._ G H / G H H F F H F I 2.=.c.=.H H c b h.XX0XFX9X../ 2.#.F Q ! Q Z %.#.%.9.9.9.9.9.2.%.$.$.%.| ! ! 2.3.2.%.] X.3.Q.@X}.f M ! H h.O.[ P ! P P P X.X.X.X.! F X.P [ X.! X.9.h.X.+.X.! X.X.X.%.%.O.9.h.L.0X-XP.k.9.G.k.X.P.X.! X.X.,.Z.9.L.L.eXD.k.L.eXL.%.#.>.p.#.9.t.6.G.S.N.8.| g 8 2 o   & F D 7.9.4.i.0.4.:.G / G C d G 4X9X`.[.V.V.}.V.`.`.`.t.N.A.8. XS.] { H ] G p 7 i f u i i j / > o F j.].MX5.I j.-.h.h.+.h.T o.} [ ..] D ] =...8.D.N.i.>.,.( / >.*.T ;.T O.[ =.g.Y q.<XdXkX6XV.7.....{ ../ H K K @.$.r.<.) Z G  .^ / | 7.p.p.i.7.| 2.i.2.G G G A ^ ,.*./ G F ) 2.>.( :.i.`.R.7.| {  .] K C.E.J ^ 7.(.^.&.2X).:. . .( ^ :.>.>.7.7.>...,.<./ G ^ g ",
"7 ; : : % & & $ $ , , < w q 9 9 q p x.sXJXSXtXb.$XXXOX9X8Xi.&.....] I Y h.v.'.].U D D Y U =. X9X}.}.A.t.7.>. .@.@.F d 5 c / ! m G ^ ( ! / ,.t.S.9.N.F.].C.V.N.5.....%.O. .] 2.[ e.}.8.H | | [ %./ >...9.#.! 9.>.! n D ] >.r.@.r.J.|.J.B.x.] c h =.0.].N.i./ V c c.k.6.@.( ( Q ! G ] ....{ / ] =.] ! #.#.#.#.,.e.r.6.6.@.6.@.>.>.>.>.2.0.N.D.8.| G F Z m G K ( / | C C { =.{ D.N.].Q.@.7.N... .6.2.| / ! ! C ] H D F F J / ] } X...C.z.=.=.U x h.OXBXDXOX>.| 3.2.Q Q | | #.k.#.X.| %.#.O.9.9.@.| %.$.#.#.#.@.| D.].OX5X8XcX#XS.v b [ p v P M P [ P X.[ X.+.O.+.X.9.X.+.9.! X.O.X.%.X.X.X.F X.P X.X.X.j.k.k.l.G.xXk.k.j.%.! O.k.X.~ ~ X.$.9.$.L.J.L.k.L.k.6.%.#.#.N.t.| ! ( >.|.k.J.N.( m p a %   @ F K 8.V...:.8.>.) | { / ^ F C t.kX[.V.`./.`.D.}.|./.S.S.`.'.9XH D ] H H C f 8 p j u i i C &.X - j.~.v.OXg.;.h.n.m.h.+.T -.O.I [ I ] ! ..[ 4.9.V.i.#.#.( F | 2.5.j.w.=.j.} *.;.3.<XNXkX<X`.S.A.V.A.7.>.] F G G C Z V V h V ( G ^ / Q / ,.6.>.{ C ..4.| ^ ^ ( / ( / ^ G Z ^ | >...,.7.N.A.N.2.>.&. ...*.5.E.w.N G p.K ) ).<.) K A ^ (  .| /  .2.2.>.>./ F Z h d ",
"- - - : : o @ % % $ * * & 6 w 5 p p c N.ZXPXmX#XvXtXN.r.4XS.0.i...{ } *.Y E.5X].5.K =.N.3.S.7X'./.i.7.>.| | r.[.2.C C B b ! ] #.2./ G _ G G >.S.|.j.U.OX@XS.c.N Z 8.#.! O.2.] ! ..L.t.3.O.! ! ] k.C...! ! Q ] 4...! ..! @.6.@.( V.fX8X`.S.S.! h m 4.tX`.4.| Z 0 I >.7.@.| | @.#.,.>.2.N.2./  .=.! #. .| #.r.r.,.p.y.,.7.7. .>.>...2.4.7.7.i.>. ./ G !  .] ^ / ] / C Q 8.i.Z.4X'.8.2.>.#.8.t.#.#.#.#.| ( ! Z / ../ D I ..X.=.X.=...=.z.[ J b B XX#XCXNX@X3.....G Z ! | X.9.2.] | / X.%.%.G.k.%.,.$.#.#.| ..%.%.D.9XfXvX9X9.| @.h M h.O.M m P P P h.P.9.X.O.O.+.h.+.X.9.h.9.P.l.X.X.P X.X.F X.X.! ! ! X.O.#.k.j.G.l.X.O.k.G.G.F ! ! %.X.#.%.,.G.D.L.L.k.#.X.L.,.] 6.9.#.6.#.r.7.>.L.2.#. .m h %   o D 8.N...G @.>. ./.R.,.*. .{ ^ ..<XN.9.`.MXkXJ.aX8XQ.@X'.'.V.F s C ^ ] ] D C f f g f u i N F X 9 g.m.#X#X*.h.m.n.U.b.g.j.O.5.=.9.k.x.5.2.=.2.>...2.! ) / | >.=.5.j.=.x.v.-.9.4.E.mXmXuXV.7.`.A.J.Z.u.N.2.C G D G G m c j ! ^ G Q G / ( ! ( ! G >.8.*.{ ,.*./ ) &./ ( ( / &...&.:.7.7.>.0.N.0.7.7.2.0. .b s g q V <.^ ^ V w V / *.>.2.| G ( u.p.V.S.>./ ^ A p 5 ",
": 2 2 - ; @ : : - % & $ & & 6 2 2 Z / ! eXmX8X8X].t.A.r.| N.6.2.=.j.b.x.q.R.@X#X@Xq.].fX}.<XaXp.{.`.4.7.,.7./.t.F v D D C 2.2.8.x. .G G h c C ..F.b.&XyX$Xv.;.b C 9.A.9.>.9.8.t.D.N.8.j.-.X.] O.j.5.[ Q G ! H ! ..[ K | | @.r.@.A.vXnX0X`.|.H h >.D.@X0.^ @.F s I 8./ >.9.>.@.(  .#.#.A.2.] ..4.&... .( ! @.@.! #.r.p.H.<...( ..| ( #.#.{ @.| _ ! ( @.@...! / ! ! @.| i.i.}.'.N.6.1.>.( 7.{.7.#.@.@.! Q ! Q F ..=.[ [ [ X.] ] k.x.O.O.-.X.w M G.+X0XcX9X|.] G G Q ! %.#.X.] ! ! 3.3.-.l.P.3.#.>.9.#.%.#.#./ #.x.eXnXS.9.G @.J.H b U +.h.! o.l.P.G.k.O.%.%.X.%.X.P O.h.+.k.l.k.X.X.%.X.P P X.P ! P F X.X.X.X.X.h.l.k.P.G.0XG.X.%.%.X.%.,.#.k.G.j.k.k.k.9.L.eXr.m Q | 2.>.2.t.N.D.N.r.| m m C %   > 4.8.&.,.&. .7.i.[.Z.N.N.7...>.2.V.}.>.R.dXfX4X@X4X}.`. X7.p q m Z D Z m b g u l a l l p N q . p z.v.%X0X5.c.F.G.B.8.>. .7.i.9.8.4.] | N.C.b.x.5.j./ / ( ] 9.j.5.v.j.-.N.8X(.6XkXlX XE.i.i.R.V.7.i.Z.r.>.) :. ./ | &.>.:.C h C ( :.>.:. .| ..2./ { { { >.....|  .:. .^ F D &.<.^ 0.p.7.&. .q.N.i.7.>.*./ d J K A ! x.7.N D b C  .<.,.*.>. .0.S.4.&.4.2.>.m 7 5 ",
"y ; ; z ; : - > - 2 - : & & & 2 < m #.c A.MXeX| f g h g Q 6.N.3.*.U.XX9X7X2.N.8X5XrX5X'.[.aXlXmX7Xi.7.>.7.2.( G ! D 6 d >.9.3.9.4.2.| F Q ! | x.3.Y XX~.*.=.} / 9.%.>.H.p.N.S.S.8.@. .j.l.] ..N.k..... .! ] X.3.4./ ..>.( @.>.>.D.6X9X4XeX4XG Z C.9XC.! Z G H h =..._  .#.,.#.@.| #.7.t.] ] ..x.../ .. .Q ! Q Q @.6.p.p.p.>.( )  . .| @.@. .#.r.>.#. .! ! ( ( ] ( ! | 2.i.`.A.A.7.>.6.( 2.S.#.#.#.#.#.#.| ! H X.] J ! F ] O...O.] } j.o.M 8 M M.eX.X.X0X0X! ( ( ! %.@.#.] ! ! %.j.l.g.l.z.9.| k.>.6.L.t./ ! #.#.5.D.`.9.Q H `.G M M b +.h.j.F.D.k.%.%.#.2.%.h.%.X.9.9.+.9.l.l.-.+.X.! F m ! F F ! ! X.P H m ! [ ! ! c.M.M.X.F X.#.9.9.#.9.k.G.L.j.X.%.! F ! m m H / ! ! ( %.k.J.{.G.%.a ! F -     b [ 2.{.V.i.4.| 7.N.{.7XwXV.3.8.C.].S.B.F J *.V.5X@X@XV.b 5 s m m a a h n n a y u u u f Y c   y w.g.cXfXaX`.8.t.5.J.Z.| >.V.i.N.2.N.Q.yXyXv.+.;.g.=.} *.] &.-.} j.w.] wXnXaXdXR.'.Z.8.S.S.N.0.D.^.N. .4.S.N.N.8.4.i. .G V n C G ,.>./ 4.} *.8.] / ! / G m ] 4.8.7.) G { Y [ / ^ >.V.N.2.^ ,.7.2.{ | 2.8.*.E.~.=.*.{ 8.{ G D d d N / 7.7.2.7.i./.i.7.N.{ a y i ",
"! b z 2 : : - ; z 2 ; ; 2 @ $ & 1 2 ( 6.Q k.D.Q m k l a A >.B.3.Y g.~.Q.S.N.p.0.E.0.7.>.>.S./...v G ,.i.#.( H D p 6 2 q J 8.'.k.8.8...{ ] ] K *.5.[ b.-...*.-.b.3.8. .r.:XJ...] ! ] | j.h.[ 2.5.3.O.] ! / ..2.2.....2.@.6.@. .@.#.[.S.J.fX{.y C >.i.S.`._ | G q [ 4.( (  .>.>.7.6.6.6.6.! C / *.O.F / #.) ^ ( / | @.@.1.<.,...)  .:.>.( ( ^ ( 6.>./ | ( ( @./ ! ( | #.7.>X`./.Z.t.7.6.A.`.9.| | #.N.,. .| | %.O.H / ] H ] X.O.3./ ] 4.[ b p R h.G.$X%.B.k.| | ! X.#.2.%.%.Q Q %.O.l.z.h.l.X.>.G.%.2.L.%.! ! ~ Q ! v g i y F x.Z x U M I.h.l.G.G.k.9.X.O.h.X.h.l.l.+.X.X.X.%.X.X.O.P ! F ! F F F m H P ! M m M F m m m G.P.X.F ! 9.G.D.O.j.j.j.l.j.h.O.M a y m ! H H F ! ! 3.N.N.k.c.! f H I 8   O & d H x.A.7.| 4.<X{.`./.`.i.4.B.V.8.Q.{. .m & 5 h S C 7 - 2 8 u a g g S C h u u u a u h ;.C o C ;.U.~.C.bX5XA.#.7.7.@.$.( 7./.t.3.Q.$X%XxX~.=.o.[ -.;.=.} =.=.5.;.[ 8.Q.fXmXaXV.7.S.V.N.8.i.A.A.p.6.>.V./.{.`.p.2./ C C V C G / >.] | U 4.9.7.{ ..#.] / Z / >.4.:.) ! { =.*. .7.8.9.N.8.2.S.S.8.>.7.5.4.2.<X7X..&.) { *.G K J Y J c C >.4.|  .}./.2.V.A t y s ",
"! F a ; ; ; ; z ; - : - ; : : & 1 < d >.2.Z p ~ Z.#.Q ( >.x.N.c.h.!.E.i.N.Z.Z.t.>.^ <.<.7.2.f C ( A ( / ! C 1 - p C ! / G J 8...2.N.N.4...&.U } =.x.].5.-.;.x.x.9.t.#.( 6.6.,.@./ #.t.|.G.`.B.=.O.] |  .] [ #.2.3.4.7.>.,.@.( ! 7.fXnXaXdXA - 7 g m }.'.G  .A @ ..5./ | :.2.>.@.,.#.7.2.#...2.] [ ^ ( >.>.@.| | @.( ( ( ) >.,...] | ! ^ Q ! | { | @.| ! / ( @.@. .@./ Z.}.[.S.i.6.i.A.`.t.2.7.e.#.t.>.#.#.! ! %.D ..I X.4.O.9.2./ G [ [ [ x R I.P F 8 i i #.O.Q / | ! ] %.! ! ( ] j.m.l.k.] 6.! m ! O.9.6.O.%.%.| ( g p p Q 4.s w [ M +.I.M.0XD.X.%.O.%.O.O.[ O.O.O.! X.+.! m X.X.! X.P P X.! F m H ! ! P X.g F P [ F P [ F ! ! ! X.9.%.X.O.X.O.X.%.X.] m b m F ! ! [ X.%.%.N.G.! m c m ] 3.s   X > * q H 2...K &.R.i.>...A.Z.*.x.N.x.'. XR.2.g 7 7 7 ; 2 2 2 t a g f g g k y i u f u g G T b & K g.W.+XuX<XfX<X6.>.~ ( r.i.8.J.6.>.x.N.].0X!.4...3.3.j.=.K 9.j.-.} } 4.../.uX/.<...8.i.>.>.V.Z.4.|  .@.>.2./.:XV./ F ^ C Z /  .{ / ] } ] 5.x.9. .2.7.4.| H | / G | ^ H I } [ 8.0.N.>.2.=.N. X/.V.i.A.N.p.A.{./.| ../ ^ K ( K I *.*.I N N / ^ C ( p.^.u.i y a h ",
"X.] H c i ; ; ; ; t 2 ; - ; : ; & , 1 p O.,.( v t.J.A.t.6.x.G.b.z.~.0.,.,.0.i.7.r.y.7.a.7.| G ! G ! Q F H V q c [ =.] ..{ D { 2...6...4.B.c.g.;.-.} x.3.=.j.].N.8.N.t.| 1.p.J.H././.@X|.S.4X].5.k.j.! ../ ] 2.!.B.9.N.i.r.@.( @.N.>XfXaXN.f u f u g ^ C c C a X N 4.9.2.4.>.#.>.6.#.#. .>.>.>...K | @.2.#.#.|  ._ / _ ( @.,.>.| | G V / >. .@.( ! 6.#.#. .( @.7.#.#.6.D.S.i.6.t.,.t.|.`.2.#.6.#.#.6.>...| n F %...] F ] O.9.O./ ! } =.J P 2 M T l.M z i t c | ! ! ] ] #.3.O.F | ! o.P.n.j.2.| S ( Q ..9.9.2.%.9.2.6.| ! / @...p 3 M M R I.M.M.O.M X.X.X.X.[ %.O.+.+.X.h.l.X.+.X.X.F ! X.X.P F M m F D v c F F [ h.h.G.h.X.! M F ! m m X.X.H ] h.X.P P ] m b S X.[ F F [ k.k.+X#X! d y a ! ] p   o % > 5 J [ | / / G K 7.i./.7X/.i.E.'.S.&.F C g n n u t t t t y f f h g y u y i y u a n H J H - 8.w.~.CXBX/.}./.#.,.` @.6././.t.>.9.R.8.@X+X|.Q.B.i.4.} ;.*...j.z.*.&.'.MXnXV.7.7.:. .>.:.i./.i.7. .( | ( #.t.`.Z.| ^ G m F ^ &.8.i.N.4.2.9.8.{ ..2.0.`.9.] :.C h S G / 4.-.3.9.8.Q.'.C.i.8.>...:.#.>.>.<.:./ 7.7...F / / ] } { | *.*.H N C A G _.s.Q S 8 y k m ",
"] ! b n c a 2 t t t t 2 ; ; - : % @ , 1 x P ..! v | 8.4.7.k.W.OX`.a.7.,.&.:.:.,.7.p.Z.p...K { C m / #.{ J C F B H ..] / H F 2.7.5.| { S.~.g.z.n.-.} J *.4.Q.F.i.S.t.t.Z.`.S.8. .! ] F p 5 - p h [ =.[ c.c.#.3.N.2.>.,.Z.N...@.`.t.t.i.#.( k p n g h h p u f 2   N x.8.8.#.>.>.7.7.>.#. .#.#.2.2.{ :.@.r.t.@.~ / ( / | #...>.2.{ | G ! G :... . .! | #. .| @.6. ._ | ,.p.6.,.r.,.r.8.`.'.t.9.N.| Q W | #.#.! >.k.B.N.4.O.3.t.9.%.X.3.O.H P 2 M T M ! a 2 i a n Q W X.O.O.O.O.] F %.l.M.G.F.B.k.>.#.| Q ! #.9.9.9.2.O.%.2.S.9.v - $ M M M I.I.h.I.O.X.! %.! ! X.P X.h.h.h.h.+.l.l.X.F F ! P F F F P m m a M H P [ h.l.M.X.F X.! X.X.%.H m %.H H X.X.! ! ! m ! #.O.[ ] F v 3.G.$X>.p y a a o.J 7   2 J q 9 s I I | &.) ] ..0.V.`.`.[.S.>.G ^ C s p c S a u u i y g n g g f p a f u u a n k.5.5.} & { 3.s E.MXeX8XfXs.r.1.r.1./.4XN.i.Z.#.7.}.`.S.R.0.8.>.^ [ -.9.;.h...>.S.wXrX8.r.@.2.i./.R.7.7.7.:. ./ ( ! Q | i.7.../ @.7.../ ] 0.C.9.q.0.2.4.{ ....>.i.>.H A Z A G | 6.8.V.`.2.8.4.i.N.S.7.@.( @.>.>.,.0.,.>.~.].{ ^ K G F ^ ..3.=.} { 4.^ 9 g S i y f k u j h ",
"M m c f b m m u 8 i i z 4 ; - : : : @ * w 3 M 3.j.P v | Q.W.|.fXrX<.<.>.,.7.<.,.Z.{.p. .^ ] &.G D D F D D H F H ..X.] { { K 3.=.O.4.'.OXC.Q.B.j.v.x.} { m =.C.t.Z.p.y.Z.>.m q 2 1 0 s h p % & p B P } c.j.5.k.6.9.>.6.N.>.6.7.8.#.#.1.m f t v C g j W k u y %   h =.3.O.| .. .:.>.!  .6.2.6.| #.#.@.6.s.t. . . .( ! | r.>.:.>.| (  ...|  .:.:.! ( >. .| | 6.,.( ~ ( ,.e.` G r.t.D.N.N.N.N.|.D.#.@.Q ( #.7.#.#.6.L.L.N.3.9.k.D.9.[ O.[ ! ! 2 M m.! b k a f 8 g m F 2.O.O.+.+.+.2.c.n.n.k.3.L.#.9.#...#.( ..#.2.6.G.9.%.L.`.m s & . w M M b P T h.h.I.X.P ! P ! X.l.P.+.%.X.X.P.h.+.X.X.P F ! P P U F v m X.[ P X.O.h.I.F F M X.%.] O.] Z p ] j.3.h.X.! X.X.%.X.9.2.%./ v H } J 2 i g b b P P n   7 g.J N 1 e I / :.4.7.8./ { N.R.{./. .) :.F s h W Q u t u u f n n g a f y u f f u u m -.5.W.>.1 % c h d ..S.@XMXkX2XH.H.Z.6XtXV.N.V.S.V.8.V.J.Z.8.7.| / { 4.3.B.O...] { uX9X`./.i.4.7.8.N.p.7.{ ( ! G Q F Q / 6. .A ! A.S.x...H ..9.N.p.i.i.9.2.:...{ ] |  .| ( ( ..4.S./.`.].D.N.&.>.9.S.7.:.&.#.p.a.r.s.p.7.#XE.K >.} { ^ ^ { >.&.&.i.S.i.&.F 8 y f j f l S s ",
"y a n a m ! m Z n y i i t ; ; ; % > % % @ , 6 P T.oX&Xc.%Xx.S.sX1X7. .:.u.i.q.i.0.7.&.&.>.>.{ { K F C C ] ] K { 2.J./.4.&.{ *.=.I ..].~.Q.`.^ ..~.j.9./ [ 3.5.>.9.i./.Z.G c w 7 1 1 1 * % % - 8 J +.U C ..W.F.F.8.8.B.2.9.k.b.k.3.8.| Q G c P ] S A _ n 8 y %   g H =.2.| | ( / ! Z / ,.9.7.6.,.,.7.7.>.Z.r.1.>.| _ ( | | @.7.( G >.u.7.7.>.K / #.2.] #.,.#.#.Q ( @.@.#.,.6.S.S.S.N.| | S.J.8.{ | ( ^ #.t.#.2.O.3.7.k.5.2.k.G.-.[ [ O.[ M % v h.O.F m m Q ( g n F %.P [ +.l.m.z.F.m.3.#.| ..%.| | | %.6.#.%.! ( N...#.8.{ 9 8 % . + M I.P P P M P F P H F X.I.X.[ h.X.P X.+.P.X.X.+.+.+.l.P.h.X.X.X.P +.+.h.X.F +.+.j.h.X.m H X.] %.%.M m c H h.O.X.! #.2.,.X.| | X.] F H ] y y c M M v 8 %.g   & Y J ] D e { `.2.8.V.7.>./.<X6X{.| h c h V  .:.6.#.W f i f V n h n Z a p y y i y m D [ Q.3.C - X 2 N K m L.'.}.DXcXkXaXaXfX5X`./.Q.@X'.7.>.r.t.>.6.( ! / 4.v.b.].7.7.< C i.>.A.A.S.>.] V.J.i.@.A G m S m Z ~ ( C S C &.2.6...4.N.x.N.N.&...7.2.{ >.>.&.K | >.4.2.6.S.i.N.S.6X`.9.7./ t.S. ./ @.#.>.p.t.a.0.>.4. .{ ].x.>.] / { 2.7.A.A.9.6.t.2.&.V i k f j ! q ",
"y n C ! Q H ! / G F V 8 ; ; ; : : : - : & & , , B z.XX*.H F `.8X(.uXR.7.,.0.7.7.>.:.:.>. .G | { 8.:.G ..=.] { ..7.E.q.=.=.;.;.=.K E.`.].@Xq.C &.j.v.>.=.x...C F | ..{ F C e 6 < & & @ @ % % % 1 P T I X...X.O.3.*.#.| ;.M.XXT.l.XXx.V 2.*.J ;.K Z W g 7 t 9 -   h C K &...G ^ G Z ~ / ( @.#.,.6.6.>.7.y.7.p.i.9. .^ ~ ^ / ..7.>.( / 6.8.t.>.| >.9.6. .#.9.( ) ( #.#.@.| | $. .k.5.2.%.>.D.Q.O.7.D.#.p.H.D.#.#.9.8.3.#.O.O.2.X.X.] 3.j.%.v q M M M j.J.7.! ! n F H [ -.[ +.m.n.g.O.k.B.B.k.6.2.6.6.k.9.#.! ! m Q ] H | / g c q %     x h.M 3 5 2 2 w b M ! P +.h.T h.h.U P T h.h.X.X.h.M.P.U U X.[ P X.h.+.X.+.X.l.h.H [ P H ! O.] ] 3.] Q m n m k.9.X.6.L.k.#.|  ...O.O.3.c 2 v M v J v c K %   o b I J K b v }.`.&.0.7.1XrX^.>.C 9 V :.&.u.i.u.p.p.,.$. .G V V A / / V y 7 8 i C Y I x.E.C ..8   o @ p C F 4X`.tX6X{.}.8XdX*XQ.A.~.@X0.*.,.>.<.u.7.( / >.4.5.k.].i.i.h $ 1 q c i.}.[.<X{.i...Z S C Z G ! S n h Z ( ( ! Z ^ { 8.=.{ ..4...>.4.t.4.8.2. ./ A / t.i.>.V.0.i.J.}.D.#.2./ >.#.@.@.2.8.u.i./.V.1.,.,.:. .>. X:X&.G / 0.7.6.p.i.p.p.i.p.p.&.f l W C 8 ",
"H k...| X...| ] K H / C u 2 - ; - : : % - % & 1 , q p c P v Z 9XfXZX{.:.7.,.) ,.>. ./ / ^ G / | 4.N...&.>.......=.3.v.x.x.q.x.-.E.#X].~.5X].4.v.j.x.5.;.*.^ Q ^ m G 7.C d 6 - $ + # # @ % : % 5 Y I J j.j.I ..5.k.| O.Y.oXT.g.+.%Xx._ >.;.E J h p u y 7 7 1 @   7 s H ] ] G ! ^ / /  .! | >.#.>.#.( / r.#.@.7.#.! ^ ( | >.<.@...2...>.6.8.>.{ >.4.#. .#.t.D.i. .@.e.t.Q k f C 2.2.#...2.2.7.9.S.D.e.J.J.9.%.#.O.%.F ] %.m ! H X.X.3.l.j.c b r P P P G.G.H F ! %.] X.G.b.j.l.n.b.3.O.9.c.c.x.#.8.k.#.m n Z / #.O.! ! C q p 9 , %     < w x b 1 < 2 2 2 w b m P [ P.M.P.+.X.P P P.h.h.l.l.[ m X.X.P m m X.j.X.X.X.o.h.X.[ X.I.h.P.O.#.O.3.X./ ! m m ] X.6.L.L.k.X.9.C.3.-.2.i h v v M c d c 8     # q *.I b B N { @X1X{.rXi.( n h d 9 V ,.:.,.0.,.p.i.Q @.,.V V G / / F Z h s s N K I g.q.N p q -   o 2 * 6 v R.0.7.0. .( 7.}.fXxXE.@XV. .@.Q.V. .:.7.7...7.>.9.i.R.R.<.K 0 * 5 8 A 6.V.S.9._ c f C ! / ! Q A G ( @./  .( G c p H C ] b.2.#.2.8.N.N.2.] ( G ^  .2.2.>.>.6.@.| 8.5...../ K H { ....N.`./.J.7.#.r.6.>.:.<.p.p.i.>.7.<.#. .7.p./.r.s.s...i.! f G h c ",
"] j.>.v H >.=.] ..| G F ! v i 2 2 ; : ; ; : o % & 5 e b U U c k.uXgXrX7.0.( :.i.>./ G S ^ ^ >.<.] 7.0.>...>.>.=.[ [ 0.E. X8X7X].x.fXvX@X@XfXE.XX~.rX@X .C ^ A c s d F b w $ + + + @ @ @ % % + v T P P [ =...} c.j.=.U.T.T.T.Y.oXU.F j 4.g.B j k a u t 7 1 :     % p 4.B.7.>.]  .( / ~ ! @.,.>.7. .| @.6.@._ @. .G ! #.#.| ] ] { | ..2.#...{ K / .... .7.8.8.#...#.,.,.@.Q n ! 2.>.3.2.8.i.4.8.`.t.#.t.D.%. .%.k.O.! H ! ] ! H %.O.-.h.[ 9 9 o b M [ [ .XN.F F F ] [ =.F.c.B.k.c.3.! F %.k.3.! =.9.c c Z ! | k.k.9.! 9 s b 6 2 %       + , 3 6 - 2 2 2 2 3 a a b X.I.T h.h.+.h.+.h.X.h.! P ! F m m X.h.h.h.h.+.X.[ h.P.I.h.h.l.P.k.9.3.%./ X.] ] m a F %.k.k.L.D.G.#.D O.[ m J D F D b F g % O   X q I 5.H I J =.R.<XA.K V h C G s 8 V q.,.*.7.u.Z./.,.2.G d / &.| G V V c h C D J } g.v.d 9 8 o   X 9 , 1 0 J S.7.7.0.:.:.>.V.CX@Xx.i.,.( &.4.<.,.4.4.4.2.N.7.2.V.1.G G J 5 $ & 2 8 f n Z A h s A ] { 4.9.i.J.| | | / ~ ( G A ..8.9.3.t.9.2.i.8.8.8...G G #.>.t.7.6.x.,.W #.i.2.X...F F [ { ] /  ././.H.@.( @.6.:.:.7.,.)  .@.,.@. .@.@.r.i.u.a. .*.A / G b c C ",
"M O.5.! F &.2...{ ] ] ....] / b t 7 t t t ; : > o % 2 b b B D b q.gXdX'./.'.i.i.^ ^ ( (  .>.E.R./ ..[ ..8.2.2.0.0.N.E.x.x. XdXfX@XrXcXfXxXfXE.$XOXv.w.p.^ h d f c h d , + + o o o @ % : @ : p P ;.R J } O.O.} l.h.h.U.oX=X=XoX-XXX#.( vX].A A A m u y 7 1 X     % 8 D x.B.C. .| | ( ! / #.7.t.6.#.,.#.@.( / ( ( F :.9.&.>.>.>.~ ( Q ..| ..2.{  . . .#.9.8.:...@.#.|  .| Q ~ Z ..2.x.2.5.N.D.B.`.'.t. .#.G H X.c.G.k.O.] M Q m ] O.g.c.U d v   2 P M [ G..XO.[ ] 2.z.3.O.C.G.S.2.#.@.( Z @.2.m s a f n Q ! m X.[.2.g c v m 2 2 %       @ & & q 8 2 2 8 2 i 8 p m M M T P.h.I.h.+.X.H ! F m v m m ! X.+.h.h.X.F M m m M [ U I.P.L.P.B.9.] X.X.X.[ k.%.m c a 2 i f p a H 5.| -.[ U [ P / G 2 o O   o 9 B E.3.5.*.*.R.7.S A V s s 9 7 9 G p.i.:.&.,. .i.) ^ V f V  .( G G C S C K P U Y b.O.a p q %   O 1 6 * 1 g A.Z.>.! G  .#.7.@XC.<.( ( ) i.E.>.:.:.7.7.:.7.>.t./.) K / { L d 0 % - 7 7 8 f D S _ 9.[.}.t.2.t.>.7.@.| @. ./ ( #.9.9.8.i.2.i.S.t.4.5.0.7.#.2.4.4...8.E. .G t.k...} ..^ ] ] ] ..2...8.`.A. .A ( r.:.@.,.,.<.7.,...@./ @.7.r.p.i.^.,.D 7 9 q g V N ",
"0 I C.3.| 3.=.>.| / ] X.X.[ ] [ v y i i t t 7 % > > % 8 s e v b e 4.gXrX XtXE.K | >.7.:.>.,.q.^.*.7.*.G p.<X2.4.E.v.2.x. X8XtXrX@XQ.b.E.].].#XfXR. .^.E.7.G A V h s 6 % + @ X % & : - - ; ; J J o.I.P o.+.o.} b.-X*.;.%X&X.XW.v.~.!.2.].@X:.' A A p 9 5 &       o 7 5 G x.].2.| 9.2. .#.#.8.S.D.7.7.|  ./ ~ ! ! Q >.N.>.| }.V.C #.! ..2.=.;.-.2.i.{ / ^ >.Z.D.9.>.>.@.Z S  ...&.-.v.k.`.Q.Q.'.N.2.#. ./ ! ! ..X.D.x.%./ ] +.P M 2.l.B.o.J g   o B B } m..X.XxXz.j.5.D ] 3.N.5. .2.6. .#.| ( Q D m m c m ( Z t.eXZ h s 9 9 2 1 %         + * 6 6 2 2 9 2 i a a P h.[ I.h.h.G.P.I.X.X.m M m F F X.I.+.T P.l.h.X.m m b M O.P.l.+.! O.O.X.%.O.j.O.O.+.! ! m m Z n i 2 p Z ] O.l.-.-.c.J v 8 + o .   O 0 N w.E.~.`.q.{.>.^ :.V 7 5 y s N G 7.0.<.) ( Q &.A c d Z  .&.| ^ ! A C J D L K U v...a 8 9 %   X 5 q q * 9 5.V.] ^ ~ :.:.t.E./.7.7.<.,.R. X0.:.( ( @. .) r.^.7.A Q / ..{ J N 2 - ; 8 y m ....8.8.S.`.i.N.`. Xi.>.@.{ / G / / { >.>.>.2.>.N.8.2.>.9.x.C.B.Q...5.C.x.2.| =.&.] ] ] { ..{  .>.N.i.4.7.7.| / @.@.@. .^ &.7.) ( ( ( ( ,.r.p.N.V.q.*.d 0 s d h C h ",
"  * K 2...8.3...{ ] ..] ! ] ! P v F p t 7 t t ; % > % - 9 g e b b J rXsXtX'.>. X5.:.7.>.>.G ^ >.7.>.<.:.K 0.8.F N N N E C.C.5X@X5XrXE.V.R.{.'.&.K '.@Xa.A.0.G 9 q q & & & : & & & & 2 - ; 8 K ] [ n.g.m.m.;.T n.oXm..X;.G ( { ( i.Q.V.4X0.j h j g 8 6 -         O 8 1 / Q.5X].2.#.{ ..#.2.#.6.{.G.>.3.3.! / ^ C A / X.8.S.S.F / ..] ] =.=.h.z.G F S Q ! Q C.Q.8.8.#.( ! ..3.x.j.z.l.5.|.OX].8...6.#.2...G F ! ..O.] ! O.c.[ ] m %.l.P.! d &   . N J =.g.O.XXVX%XOXv h F 9.3.#.! ! | Q m u n 2.P J [ #.t.2.! k./ q 5 5 5 1 5 2 X           + * * 1 2 2 2 2 8 2 h.h.h.I.P +.-XM.X.P m n m ! %.I.h.h.l.h.P.l.l.[ U ] H ] j.M.l.] Z ] X.%.9.j.+.[ h.o.Q m m m Q ( ! n k g X.+Xl.j.c.O.H 8 : > .       0 e 4.~.5XaX7X^.K K G h s V G G K / ,.>.^ >.7.,.^ g s V >.4.( G G C V C { J D L =.C.&.q 9 2 X     * 9 d d 5 g 4.S.>.:.7.>.2.<XR.<.,.<.q.i.rX<X4.:.( ,.a.>.>.Z.&.V Z ^ =.*.I B v 5 - 7 f 8.X.>.>./ 2.`.S.8.7.:.>.4.>.( n ) | ^ ) | &.7.i.#.N.N.&...>.2.k.Q.Q.N.E.x.c.8. ./ { ] ..&.| ..&.:.7.V.i.R.i. .~ | 6.7.7.7.7.i.{ G ^ (  .>.7.Z.N.>.2.} C 8 s e d g K N ",
"O   q 2.] 2.=. .{ ..9.....] ] J J P m y z t 4 ; : % : ; 2 5 d e e *.].@X X`. XyXv.<.>.i.{ ^ p.V.A.A.>./  .G N d N e b N x N w.{ 2.}.'.R. XE.*.^ ,.'.@X XV.'.) 6 a p - , 2 & 1 1 1 : 2 y 7 s [ U J n.m.M.n.m.+.j.g.U.;.G ) 0./.u.<X}.<.7.V 5 s s 1 1 * .           2 1 / }.Q.C.B.0...>.2.9...#.8.J.k.c.F.=./ _ G Q ^ / | >.! Z ! / ~ ! ..c.z.} ^ V A S S ,.9.2... . .@.>.8.E.~.v.j.-.=.k.x.].9.>.N.2...&.F H H m F m F j.%Xh.X.[ P O.[ p 7 o .   b -.z.g.-.j.K ~.c.Z c G D.`.2.Q F S Q ~ A Q m e b M [ k.L.#.Z n 8 5 5 1 0 5 &               & : * * - 2 8 i b v F P P P T M.P.! P m m X.h.h.P.P.P.P.P.P.oXP.l.h.U J ] l.G.c.O.%.X.%.] %.g.%.P O.] F m m F m ] O.O.....=.F.W.j.j.%.d % % X         - N K ~.#XvXuX^./ ^ V c G / J K / *.<.*.^ 7.0.,.N s C @.&.>.| Z C m C I Y T Y Y P ~.G p 5 -       - e e c K 5 s '.`.7.4.0.E.{.`.a.i.q.,.i.{.fXS.>.7.<.i.>.<.Z. .V ( K &.3.} J v e 5 ; m *.9.8...7.{.R.2.7.:./ :.:.x.>.>.@.>.p.p.6.....8./ 7.`.8.>.2.7.2.N.x.8.~.v.x...| ) ] F ^ 2.>.:.:.2.y.Z.0.V.>.^ _ ..8.8.8.8.q.i.:.G G ( G 7.V.`. X7.*.J 9 9 s q d C *.g ",
".   % ....] ..{ ] ..9.] ] [ ! H P P J c t i t j t : : - - : 5 q N K v.rX@X].yXyXE.v.x.*./ >.S.<X}.0.N q s e q e N d w e e b N b 9 s s 8 y g ^ 7.&.&.q.].].R.N 8 b p 1 1 2 5 5 5 5 2 q | A v U I M m.n.Y.Y.Y.z.Y.Y.) A ^ ,.E.,.^ @.Z 5 5 5 5 5 , - * %             1 9 h K ] ~.E.x.x.4.5.>. .#.8.].S.j.j.H / #.| | ! ! H H F A ! H F D 3.b.g.K V V h g h / { / S m S G ] c.$X.X.Xb.-.x.F.V.9.| | B.5.4.9.[ O.J Z F O.O.h.G.P.j.O.h.[ b w 2 O .   M ;.g.c.g.g.F F / C c H B.8.! ! Z ( | | ! m D F v g c m %.L.F p 5 1 & , - * X               + , , % % 2 2 8 G.m @ 2 8 M U P.T.l.%.m m +.h.T I.P.M.P.h.h.P.+.[ +.[ H U P.M.n.h.#.O.j.X.%.[ [ m d c c p c n m X.B.k.z.v.;.j.l.+.D d : @ o           # b K E.].yXDX X/ D N G { G A ..&.&.>.) ( 7.A.>.g V | ..2.:.{ K / / F } Y Y E ;.E.-.b q 7 X       # b N N ;.Y * ..tX7.>.4.i.].'.7.i.a.u./. X0.0.7.7.<.>.G ) p. .C ^ K { 2.=.*.F v 9 - n =.0.E.7.5.V...H &.>.>.&.7.;.8.7.Z.Z.}.V.i.>. .#./ | 4.>.&.&.N.q.5.9.x.~.b.x.*.&.I ] / ^ >.8.t.9.:.7.7.9.>.( / / >.8.7.7.i.u.q.>.) ( >./ i. X`.'.N.&.G 0 d s q s C *.s "
};
