/* XPM */
static char *Wood_256[] = {
/* columns rows colors chars-per-pixel */
"256 256 256 2 ",
"   c #370D02",
".  c #3D1304",
"X  c #2D0A02",
"o  c #441402",
"O  c #4C1A02",
"+  c #481A06",
"@  c #531D02",
"#  c #571F03",
"$  c #451F10",
"%  c #4B220E",
"&  c #562104",
"*  c #5C2403",
"=  c #5C260A",
"-  c #5A260B",
";  c #4A2212",
":  c #592A14",
">  c #5C311D",
",  c #612603",
"<  c #642A05",
"1  c #6A2D06",
"2  c #642B0B",
"3  c #6A2E0A",
"4  c #612709",
"5  c #6D310C",
"6  c #6B3007",
"7  c #73340D",
"8  c #76380E",
"9  c #7A3A0E",
"0  c #743409",
"q  c #642E12",
"w  c #672F13",
"e  c #663114",
"r  c #6C3314",
"t  c #64331B",
"y  c #6C351B",
"u  c #6D391C",
"i  c #733612",
"p  c #753914",
"a  c #7B3C15",
"s  c #71371A",
"d  c #743B1B",
"f  c #7B3E1A",
"g  c #783712",
"h  c #573123",
"j  c #6D3A23",
"k  c #683925",
"l  c #743D22",
"z  c #793E22",
"x  c #723F28",
"c  c #673E31",
"v  c #7D411C",
"b  c #7C4018",
"n  c #754124",
"m  c #7C4323",
"M  c #75432B",
"N  c #7B452B",
"B  c #7E492B",
"V  c #7E4825",
"C  c #6C4435",
"Z  c #7D4A33",
"A  c #774834",
"S  c #714630",
"D  c #775243",
"F  c #803F16",
"G  c #803E0F",
"H  c #834215",
"J  c #83431C",
"K  c #89461C",
"L  c #8B4A1D",
"P  c #87471A",
"I  c #914E1E",
"U  c #93501E",
"Y  c #83410F",
"T  c #834522",
"R  c #844A24",
"E  c #8C4B23",
"W  c #844C2B",
"Q  c #8B4E2A",
"!  c #854626",
"~  c #914E23",
"^  c #914E29",
"/  c #8C522D",
"(  c #8A5029",
")  c #945224",
"_  c #9A5525",
"`  c #9B5927",
"'  c #93542C",
"]  c #9A562A",
"[  c #9C5A2C",
"{  c #96592D",
"}  c #834D33",
"|  c #874F34",
" . c #8C5432",
".. c #8C543B",
"X. c #875336",
"o. c #935632",
"O. c #945A34",
"+. c #9B5C33",
"@. c #945B3B",
"#. c #9B5D3A",
"$. c #955736",
"%. c #A25D2C",
"&. c #A15927",
"*. c #A25E33",
"=. c #A15F39",
"-. c #9D6136",
";. c #9D613B",
":. c #96623C",
">. c #9F602E",
",. c #A4612E",
"<. c #AA622E",
"1. c #A46234",
"2. c #AB6534",
"3. c #AC6936",
"4. c #A4643B",
"5. c #AA663A",
"6. c #A6693D",
"7. c #AC6A3B",
"8. c #A66836",
"9. c #B26A35",
"0. c #B36D3C",
"q. c #B46B36",
"w. c #B4713D",
"e. c #BA733E",
"r. c #BB743A",
"t. c #AE703E",
"y. c #955D42",
"u. c #8A5A45",
"i. c #9B6445",
"p. c #9B6F58",
"a. c #A46641",
"s. c #A56A43",
"d. c #AC6C43",
"f. c #AB6E4A",
"g. c #A66947",
"h. c #B26E42",
"j. c #B26F47",
"k. c #AE7144",
"l. c #AD724C",
"z. c #A7724B",
"x. c #B47343",
"c. c #BB7543",
"v. c #BC7A45",
"b. c #B4744B",
"n. c #BA764A",
"m. c #BC7B4B",
"M. c #B67949",
"N. c #AB7656",
"B. c #B37652",
"V. c #B57A54",
"C. c #BC7C53",
"Z. c #B47C5C",
"A. c #BB7D59",
"S. c #A56D51",
"D. c #AF7D62",
"F. c #997370",
"G. c #C27B45",
"H. c #C27D4B",
"J. c #C17844",
"K. c #C17F53",
"L. c #C0773F",
"P. c #BE814C",
"I. c #BF8047",
"U. c #BE8154",
"Y. c #BC825C",
"T. c #B6835C",
"R. c #AE805D",
"E. c #BC8563",
"W. c #BC8B6C",
"Q. c #B78767",
"!. c #B98C72",
"~. c #BD9379",
"^. c #B38A6B",
"/. c #C3824C",
"(. c #CA854C",
"). c #CC894E",
"_. c #C5854B",
"`. c #C48453",
"'. c #C98653",
"]. c #C68954",
"[. c #CB8C54",
"{. c #C3855B",
"}. c #C58A5C",
"|. c #CB8C5B",
" X c #C98759",
".X c #D28D53",
"XX c #D18E5A",
"oX c #CD925B",
"OX c #CD9156",
"+X c #D39155",
"@X c #D3945C",
"#X c #D5995E",
"$X c #D99A5D",
"%X c #D9965B",
"&X c #D18B4F",
"*X c #C48B64",
"=X c #CA8D63",
"-X c #C38D6B",
";X c #C48964",
":X c #CD9363",
">X c #CB936C",
",X c #C7936B",
"<X c #D29562",
"1X c #D59B63",
"2X c #DA9D63",
"3X c #D49B6B",
"4X c #DA9E69",
"5X c #D39669",
"6X c #C18E71",
"7X c #C49374",
"8X c #CA9573",
"9X c #CD9A74",
"0X c #C4967A",
"qX c #CB9B7B",
"wX c #C6987C",
"eX c #D29D74",
"rX c #D29E79",
"tX c #D28F61",
"yX c #DCA165",
"uX c #DCA36B",
"iX c #D9A36B",
"pX c #DBA573",
"aX c #DEA973",
"sX c #D4A37B",
"dX c #DDAA7D",
"fX c #D8A479",
"gX c #CEA07F",
"hX c #E1A56C",
"jX c #E2A66B",
"kX c #E2AB74",
"lX c #E3AE7A",
"zX c #E3A872",
"xX c #E5B27C",
"cX c #E8B37B",
"vX c #E09F63",
"bX c #C89D82",
"nX c #CDA286",
"mX c #DBAC83",
"MX c #D5A988",
"NX c #DEB188",
"BX c #DBB394",
"VX c #D8AE91",
"CX c #E4B383",
"ZX c #E9B681",
"AX c #E3B58A",
"SX c #EBBD8B",
"DX c #E9B987",
"FX c #E5BB94",
"GX c #E1AE81",
"HX c #DEBCA1",
"JX c #EDC08D",
"KX c #ECC393",
"LX c #ECC69A",
"PX c #F1C899",
"IX c #F0CCA1",
"UX c #BE9780",
/* pixels */
"VXVXVXnXnXMXVXVXVXBXgXgXnX~.BXBXnXnXUXUXUXUXUX^.UXHXLXVXNXAXAXsXmXmXsXgXaXiXgXiXiXgXsX9X9X9X,X9X9X~.,X^.!.D.6XwX-X7XW.6X6XD.D.  S.=X{.{.`.C.C.C.K.K.C.C.n.n.C.b.x.j.f.d.d.x.n.H.m.h.c.m.c.c.c.x.x.h.J.J.h.5.h.j.h.c.0.h.c.0.q.*.*.7.*.q.7.5.*.2.9.q.5.2.<.%.q.F Y.2X_.oXoX#XOXOXoX].#XOX_.OXw.P.P.P.I.t.P.].P.v.]._.].)._.OX+XI.t.I.OXI.I.OXI.I.8._.I.t.8.t.t.>.8.t.t.` ( 8.>.>.8.t.M.P.I._.I.V S :.V V b V V { v n v V V ( L ( L L / J v ( u b b n : ) R V U V >.>.{ U v b v e e b n b n V U V V n 6 > b V V U b b 6 6 u n b b ",
"VXMXMXVXMXnXnXVXVXHXwXgXgX~.VXBXnXnXnXUX~.UX~.UXUXHXLXNXNXNXFXsXmXmXaXgXgX~.gXgX9XmXsXgX9X,X^.9X~.9X9X~.^.^.W.0X6X6XD.6X6X-XD.. N.=X{.{.C.m.A.n.m.m.C.m.n.m.m.m.n.n.c.x.x.m.n.c.h.7.6.4.4.4.5.4.4.4.=.5.7.7.h.0.h.0.0.h.0.5.5.0.0.5.7.0.0.7.5.2.5.*.*.2.2.*.*.F Y.2X].OXOX#XoX].).OXyXOXP.].I.w.P.P.I.t._.P.I.x.}.I._.].].OX+XI.t.I.OXI.I._.I.I.t.I.I.r.8.I.t.>.8.t.t.>.( 8.{ >.8.t.t.I.I.].I.>.S :.V V n V b { b n v v ( v v L Q R ' V v ( b d v u u ( ( v ( v >.,.` ( v v v b 6 u b b V V V U U b - 6 b V V V V 8 > > b b b b ",
"BXnXnXMXnXVXnXVXVXBXgXgXwXgXVXVXnXUXnXUX^.UXUX~.gXFXFXdXNXKXNXmXmXmXaXmXaX9XiXgXgXsXsX9X,X9X^.,X,X~.~.9XQ.R.W.7X6X-XZ.Q.6X!.p.. N.5X*X{.{.|.{.`.`.H.`./.`.`.'.`.H.H.x.x.x.c.c.c.x.n.x.h.h.h.0.d.h.7.5.1.=.=.=.+.] ] =.*.%.*.=.*.*.=.2.=.*.*.*.=.*.5.q.q.0.0.q.T T.uXOX[.OXyX+X_.].OXyXOXI.OXI.M.P.P.I.M.P.P.P.x.oXP._.]._._.+XI.8.P.OXP.I.OXI.I.t.I._.I.t.t.t.>.8.r.t.>.V :.{ V >.t.t.I.I.OXP.>.S :.V U b V V { V n b v R V v ( ~ ( ) R u R v v b b e ( ( v { b ` 8.` ) R v V b 6 e b n V V U V V b e 6 b V V V b 8 > 6 b b n b ",
"BXVXVXnXnXVXMXBXMXVXgXgXgXgXMXVXnXUXUX~.UXUXUX~.UXHXFXmXNXKXNXsXmXsXNXgXgXgXgXiXiXsXsX9X,X9XiX^.,X,X~.wXQ.^.!.7XwX6XW.6X7X!.D.. N.}.`.{.{.{.{.`.C. X`.H.H.H.m.n.m.n.m.m.m.v.m.n.x.b.c.c.c.x.x.w.x.x.w.h.5.7.7.5.5.5.7.5.=.5.*.*.*.=.] ] %.o.] *.*.*.*.*.2.*.*.J Q.uX+X[.oXyX#X].}.].yXoXI.}.P.M.P.P.I.t.].].OXI.#X_.].OXOXOXOX_.t.I.].P.OXI._.I.I._.I.t.t.t.t.8.8.I.t.>.{ 8.8.V :.P.t.P.t.P.].:.n :.{ V V V V { V n b V R P v R / ( { ( d R V V n n r ( { v ( V >.8.>.) R v V v e b e b P U V U V V e e b V U U V b > 6 V b V b ",
"BXHXBXnXVXVXgXFXVXVXgXgXgXgXVXMXnXUXUX~.~.bX~.^.nXHXLXmXBXFXNX9XsXmXNXmXmXsXiXgXsXsXsX9X~.9XsX~.~.^.~.9X^.^.!.0XqX0X6X6X6X-XN.$ Z.3X:X:X=X|.|.|. X`.`.m.m.C.n.n.m.m.c.m./.K.m.m.m.c.x.c.c.n.n.j.0.d.7.d.0.d.h.0.h.h.h.q.0.5.*.*.=.*.*.=.*.*.*.$.*.+.o.^ ^ ^ ^ d W.iXoXoXoXiXoX].oXoXyXOXP.oXP.P.].P.M.w.].OX}.I.#X].P.OXOXOXoX].I.P.P.OXOXI.I.I.I.I._.I.t.t.t.t.t.I.t.8.V :.:.( { I.I.P.M.P.OXt.S :.V ( V V b { R n v ( R L v R / ~ o.( v ( V v v n e R ( b ( R >.,.>.{ R v b R b > b b V L ) R V b 6 u V V V V V b > u b V b b ",
"VXHXHXnXVXMXMXBXVXVX~.gXgXgXgXVXnXbXnXUX!.bXUX~.gXFXFXNXAXFXNXiXmXsXmXNXmX9XiXgXgXiXsXsXiX9X9X9X7X,X0XwXW.^.W.8XqX7X-X7X6XW.Q.. Z.5X>XtXtX=X|.|.|. X XK.K.`.'.`.H.H././.H.m.v.m.v.m.m.m.n.x.c.J.c.h.5.h.h.0.h.h.0.5.q.h.0.*.5.7.2.=.*.*.*.$.] ^ ] ] ] ] ] ' ' F W.iXOX#X1X1XOX].oXoX1XoX].].I.P.OXP.x.M.].].].I.oXOXP._.).#X]._.P.I.P.P.].OXOXP.I.I.I.I.t.I.z.t.t.t.t.8.{ 8.:.>.:.I.P.P.P.P.OX:.V D { B V V V { V m v ( ( ( R v  ./ { R V ' V v n b n ( :.b R ( >.8.>.) R V b V b b e b V R ( R V V u b V V V V V n 6 6 n V b V ",
"VXVXBXnXnXVXVXBXNXVXwXwXgXgXnXVXnXUXnXUX^.UXUX~.~.BXLXAXAXFXNX9XmXsXmXmXNXsXgXsXsXsX9XsXgXgX9X9X7X^.qXqX~.^.W.~.wXE.W.7XW.Q.D.$ Z.<X{.|.{.`.C.K.C.V.U.U.C.H.`.m.b.n.m.m.m.m.m.m.x.m.m.m.c.x.j.J.n.h.c.c.h.0.0.h.0.=.*.*.5.0.0.0.q.5.5.q.q.5.5.5.5.*.5.2.7.2.%.F W.jXOXoX1XyXoX].[.yXyX#X].[.I.P.}.I.M.M.}.OX_.P.yX].I.I.].#X]._.P.P.P.P.].OX].I.I.I.I.OXz.t.I.t.t.M.t.8.( >.8.{ B P.P.].M.I.OXt.S :.V { V b V ( v V R / / ( R v / ( { ( v ' R v b n n ( >.v ( ( { >.,.{ V v b b t e b V L V v ( b b b b { V V V ( b > > b V V V ",
"HXHXVXUXMXVXNXVXVXsXgXgXgXnXnXnXUXUXnXUXUXUXUXUXnXFXFXBXAXFXNXsXNXmXmXmXNXsX9XsXsXsX9XsXsX9X9X9XgX,XgX~.~.T.7X0XwXQ.Q.6XW.Q.Z.$ N.=XC.C.m.K.K.m.m.C.m./.`.K.m.m.n.x.m.n.v.H.H.m.v.x.x.x.c.c.J.j.e.h.c.c.c.7.4.0.h.0.0.h.0.q.5.5.5.5.5.5.5.q.q.5.5.5.2.2.*.*.q.F ^.aXoXoX1X#XOXOXOX3XyXOXOXOXI.P.OX_.v.I.[.OX].P.#XOXI._.OX#XOX].].P.P.P.].OXOXP.I.I.I.I.I.8.t.t.t.I.t.>.:.:.8.{ { P.P.P.M.P.OX8.S :.{ V b V V { V ( ( ' / R V v R ( { ' v ( ( V v n q V >.V / / { 8.,.{ ( V b b b e b L ( R P ( V b 8 V V V V U V b 6 > b V V U ",
"HXBXMXMXMXMXBXBXVXsXgXbXnXnXMXBXbXbXnXUX^.UXUXUXMXBXFXAXBXAXGXmXNXmXmXmXmXiXgXsXiXgX9XsXsX9XgX~.rX8X0X7XwXD.0X7X8XW.W.6X6X-XZ.$ D.tXK.tXK.tX'.'.K.K.K.K.K.K.K.K.`.H.H.`.`.`.`.K.H.K.m.H.K.K.H.J.n.J.J.j.j.J.J.q.0.0.q.h.q.q.5.h.0.0.0.5.q.5.5.5.q.*.%.*.q.2.q.F ^.aXP.#X1X1XoXoXOXiXiXOXOXOXI._.oXP.P.I.OXOXoXP.1X].P.OXoXoXOX].OXI.I.I.#XOXP.OXI._.I.].P.8.M.t.M.I.t.8.O.8.t.-.>.P.P.OXP.].OX>.S i.( { W V ( { R R / O.' R R R R E o.{ v ( o.( v V t W 8.( O.( { 8.3.{ ( R b n 2 2 v V ( P ( V V u V ( ( ( V ( V V u 6 V V V U ",
"BXVXMXVXBXMXNXBXBXgXwXgXnXnXVXnXUXUXVXUX!.UXUXbXMXBXFXVXAXAXAXmXiXnXmXmXmXgXsXmXUXaX9XgXsXgX~.,X8X0X0X6X7X!.7X7X7X-XW.-XW.W.Z.$ A.tXK.5XtXK. X XvXvXK.K.K.K.K.K.H././.m.H.H.H.H./.H./.H.J.J.J.K.K.J.c.c.h.h.5.5.5.5.5.q.h.h.q.h.0.0.0.h.0.q.q.5.5.0.q.5.=.%.*.! T.jXP.1X:X1X1XoXOXiXyXoXoXOXP.`.oXP.P.P.U.P.oXP.#X].OXoX1XoXOX].OXP.z.].OXOXP.OXP.P.P.P.I.8.z.t.M.r.M.8.:.8.6.-.:.P.].U.P.].].{ S z.{ ' V V / -.( W / ' o.R R R T ( { +.T R o.V n v t R 5. .( { -.,.>.` U b v b r b V ( R R R b u V V ( ( U V V V V > > b V ( ( ",
"BXVXMXBXBXNXNXBXFXgXgXbXnXnXVXMXUXVXVXUX!.UXUXbXVXFXFXFXNXAXFXmXUXmXmXmXNXiXgXNXiXgX9X9XsX9X,X~.7XqX0X6X0XD.7XwX7X6X6XW.W.6XZ.$ D.K.K.5XXX X XXXK.vXvXK.K.vXK.K.'.H.`.`.(.J.H.K.K.H.H.K.H.J.J.n.c.c.n.n.J.J.h.J.0.h.c.h.h.h.J.J.0.h.0.0.h.q.h.q.q.h.h.0.q.q.q.~ R.iX#X#XoX1X1XoXOXiXaX#X#X}.P.`.OXP.U.OXOXP.oXP.#X].oX#X#XoXoXOXOX].I.OXOXOXP.OX].P.P.].M.:.t.I.I.I.t.8. .;.6.8.:.P.oX}.T.P.].>.S z.-.o.V ( V O.' ( ( / O.Q R Q T / { +.( T O.R v V t ( 8.o.( { 8.8.>.[ ( V v r b n V ( ( ( ( v u V V V ( ( V V ( u > b b P V ( ",
"MXMXMXVXMXBXBXVXBXgXgXgXVXnXnXMXnXnXnXUXF.nXUXbXVXFXFXAXNXAXBXGXaXmXmXNXNXUXiXaXgXgXiX9X9X9X9X9X7XwX0X0XqXD.7XwXwX6X6X6X6XW.Z.$ A.5X5XK.K.tXtX XvXK.K.zXK.K.K.K.'.'.'.`. XK.H.H.H.m.m.H.J.K.K.J.J.J.J.J.J.h.h.J.J.J.J.0.J.J.J.h.J.h.J.5.q.j.e.q.q.h.q.q.5.0.0.E ^.aXoXoXoX#X#XOX#X$XuX#X#X}.P.P.OXU.P.OX#XU.#XOX1X}.OXOX#XoXoXOXOXOXP.].OXOXOX].].OXP.OXI.t.t.I.P.I.v.-. .-.t.-.t.P.oX].OXP.P.:.C z.-.O.V  .m o./ o./ ( ' / E R R Q ' +./ R -.R n V u ( 8./ ' O.-.8.>.{ R V V b b b V { ( ( { V b V V V ( ( V V ( b > b b V ( ( ",
"VXVXVXNXVXBXVXVXnXnXbXbXnXVXnXnXnXnXnXUX!.nXbXwXMXFXFXVXNXBXAXMXaXgXmXNXmXUXiXmXsXmXgX9XgXgX~.9X7XqX7XwX0XD.6XqXbX6XW.!.6X6XZ.$ A.GXK.5XGXK.K.GXvXK.vXK.K.tXK.K. X`.K.`.`.H.K.H.H.H.J.J.K.c.J.j.j.j.J.J.J.j.h.h.h.h.q.h.0.J.c.h.h.J.q.J.0.h.h.h.h.q.q.h.e.q.0.E ^.iXOX#X1X1XoX#X#X1XuXoXoX}.]._.].].].}.#XP.#XU.#XOXoX1XoXoXoXOXOXoX].OXOXOXOX].OXI.].OXI.t.z.t.M.P.x.t.O.-.6.6.8.k.#XOXT.I.P.8.S z.{ >.W W W +./ ' / ( O.( R R R R o.-.O.( O.B n V j R 1./ ( -.-.1.-.[ J T R n t b ( { / ( ( ( V ( V V ( ( V V { u > b V ( ( ( ",
"VXVXVXVXVXNXVXVXnXVXwXbXnXnXnXVXVXnXnXUX^.nXbXwXMXFXLXFXNXFXAXGXaXmXmXmXgXiXUXgXsXsXiXUXiXgX9X9X7XqX0X7X0X!.7XwXqX7XD.6X6X!.D.$ D.A.A.A.K.K.K.K.K.K.K.K.K.K.K.K.n.c.m.H.H.'.'.K.K.K.K.H.J.K.J.J.j.J.c.j.j.c.J.h.h.J.J.c.J.q.q.h.J.h.0.0.5.q.0.c.h.0.h.*.2.*.5.T ^.yXoXoXiXOXoX#X#XyXuXoXoX].].].U.]._.OX#XP.oXP.#XT.oX1XoX#X1X#XoXOX].P.OX].OX].I.OXOXP.M.t.t.t.M.P.v.t.O.-.8.t.6.t.T.oXT.I.#X:.A R.>.O.V V W +.o.' / W ' Q ! Q ( V / -.+.( -. .V R u W 8.o.R -.5.1.8.+.R R v n b n ( ( ( ( V ( V V ( ( ( V ( ( ( u > u V V V U ",
"VXMXVXVXMXMXVXVXMXMXbXbXnXnXnXnXnXbXUX~.!.bX~.bXMXBXHXLXBXFXAXMXMXNXmXmXaXUXaXiXiXsXgXiXgXgX,XgX7XqX7XwX0XQ.7X7X8X6XW.7X7X6XD.$ D.K.bXA.A.K.K.K.K.K.K.K.A.K.A.A.V.m.m.K.K.K.K.H.K.K.H.H.c.J.J.K.J.J.J.J.J.J.J.J.J.h.J.J.J.J.h.q.5.q.q.q.5.5.*.*.5.*.*.*.*.5.=.J T.kX#X#XiXOXOX#XyXiXpXoX}.].}.OXP.].U.}.T.OXOXOXoXP.#X1XoXoX1XoXOX#XOXP.OXOXOX].OX].OXOXI.t.I.t.M.v.P.k.O.;.t.;.t.t.Y.#XOXP.oX8.Z l.-.{ n V ( / O.O./ ( / ( R / ( R R +.-.W -.( W V t V 1.O.( { 8.1.-.{ ( R T b n V V ( ( ( ( ( V ( ( { V ( V :.( u > b V ( ( ( ",
"NXnXMXNXVXMXNXVXMXgXbXUXUXnXnXbXVXbXnX~.UXbX0XnXMXFXHXFXFXFXAXGXmXmXmXmXgXaXgXmXUXiXsXgX9XgX9XgXwXqX7X7XwX6X0XbX8X6X6X6X!.Q.Z.$ D.K.K.A.A.K.A.K.A.A.K.K.K.K.K.A.C.K.K.K.K.n.j.b.c.n.j.j.f.j.j.j.j.j.5.f.j.5.5.5.5.*.5.5.5.2.=.=.+.$.=.=.=.2.=.*.*.=.%.=.5.=.=.J ^.jX#XiX1XoXoXyXiXiXaXoXoX].}.}.M.].P.OXOXU.oXT.oXoX1X1XOXoX1XOXOXOXOX].OXOXOXOXOXOXoX].P.z.t.t.v.M.I.k.O.:.6.t.k.k.T.1XP.P.oXt.Z z.-.-.V B  . .o. ./ / / V R  .( ( V +.4.( 1.( W ! n V 1.-.( o.1.6.,.{ ( ( V v b V ( { V ( { ( V ( ( ( V ( ( ( V u u b V ( ( >.",
"VXNXgXMXBXNXVXMXVXbX0X0X0XnXnXbXnXnXbX!.!.bXUXbXNXFXFXHXFXFXFXGXMXNXNXsXsX3X9XsXeXsXsXsXqXeXeXnX8XwXwX7XwX7X!.bXrX7XW.0X7XE.N.; S.B.S.D.B.B.B.B.S.A.B.B.B.B.B.j.j.B.B.j.j.j.B.B.B.B.B.j.j.j.n.B.j.j.j.j.5.a.=.a.a.j.=.a.5.5.=.=.=.=.=.=.5.=.=.*.] ] $.] ] $.' z ^.xX1XiXiXOX#X#XiXaXiX1X1XoXU.oXP.]._.Y.U.#XoXOXoXT.#X#XoX1X1XoXOX#XOXOX].OXOXOXOX].#XOXP.I.t.I.I.M.P.t.:.:.t.t.t.t.1XoXR.].#Xt.Z R.8.-.R W B  .O.X./ o.( m V  .R W V :.5. .-. . .( V V 8.;./ { -.5.8.{ { / b n V ( V :.U V { V ( V :.V ( V ( ( V > u u V ( { ( ",
"NXnXMXMXNXVXMXMXnXnXbX0XUXbXVXbXnXVXbX!.UXbXUXbXMXFXFXFXFXFXFXMXNXdXsXNXsX~.9XsXsXMXrXsXsX9X9XrX8XqXwX7X0X7X7XqXbX7XW.7X7X6XD.$ F.6XD.B.B.S.A.B.B.S.S.S.j.S.j.S.f.S.y.y.g.g.g.g.j.g.j.a.a.g.=.y.g.a.=.a.a.=.$.=.=.=.=.$.=.=.=.$.$.] =.^ ^ $.$.] =.=.=.+.] ' ] d ^.aXiXaX1XoXoX#XiXaXaXoX1X}.].oXU.U.OXP.oX#XU.oXOX#X1XoXoXoX#X1XOX#XiXOX_.OX#XOX#X].1XOXP.t.t.z.I.M.P.M.8.B :.t.t.z.iXoXI.].OXt.Z M.6.-.( B V :.O.( W O.o.V V (  .R R  .5.' -.{ B B B ( k.>./ -.-.8.t.{ { V b v V V ( { { V V V V V ( ( V V ( { ( u S u V :.( >.",
"NXMXVXVXMXVXBXMXnXbXnX0X6XnXnXnXnXnXnX!.!.bXUX0XMXHXHXAXFXFXFXGXNXdXsXNXdX9X,XsXsXdXrX9XMX9X9XrX9XqXwXW.wX7X~.qXqX7X7X6X!.~.D.; S.A.A.S.B.S.S.B.B.S.S.B.j.S.B.j.j.S.g.g.g.S.f.B.j.j.f.g.j.a.a.a.a.g.j.a.a.a.=.=.=.$.y.=.$.=.=.=.=.=.=.=.=.] =.] +.+.] ] =.*.*.J ^.kXiXiX1XoXU.1XiXiXxX1X:XY.}.@XP.P.Y.P.W.#XOXY.oXoX#XoXOX#X#X#X#XiXiX#XOXOXOXOX#X].#X].I.z.t.I.t.P.P.I.:.B :.I.t.I.^.#XP.].].R.X.R.;.>.( } n  .o.( R O.o.( V W  .( R ( 8. .(  .( B V W t.' ' 8.-.8.8.>.( V b n b V :.{ V V V V V ( ( ( ( ( :.( V b S u V ( >.{ ",
"VXMXNXVXVXNXVXNXnXbXbX0XUXnX0XnXnXnX0X!.!.bXUXbXMXLXFXAXNXFXBXAXNXNXsXmXdX9X9XsXmXsXeXeXsXeXeXnXqX9XwX!.qX!.7XwXwX6X7X~.6X0XD.; F.A.F.D.D.S.S.S.S.B.B.j.S.S.S.j.S.g.S.g.a.y.g.g.a.y.g.g.y.=.a.=.#.=.=.y.$.=.y.=.$.$.$.$.$.$.=.$.^ $.$.$.$.$.=.] $.^ $.o.^ $.] z ^.cXaXaXiXoX#XyXiXiXaX1X#XOX|.}.P.P.].P.OX1XoXOX1XT.#XOXoX#X1XOXOXiX#X#XOXOX#X#XOX].#XOXI.z.t.I.t.M.I.I.t.:.t.P.t.R.1XoX].].].M.X.R.8.:.W ( } / o. .' o./ ' / ! {  .( R 1. .( { ( V B V 6.-. .3.8.1.;.>.( b n v V ( V V V { { V V ( ( ( :.( ( { V u u u V ( :.{ ",
"BXNXMXVXNXMXMXVXbXbXbX0XwXbXwXnXnXnX0X6X!.bXUXbXMXFXFXFXMXAXGXmXgXBXsXNXNX9X8XeXsXsXeXeXsXrXeXrX9XrXqX7XqXwX7XqXbX7X6X!.6X0XD.$ S.6XA.E.A.A.A.B.A.A.B.j.S.S.j.S.g.j.S.j.f.j.j.f.j.f.j.B.j.j.g.=.a.a.a.=.a.=.=.=.=.$.=.$.=.=.=.^ | | ^ | ^ ^ | | W Q | Q } ! ! w T.cXaXiXiXE.yXiXiXiXiXiX4X|.].].P.P.}.P.].iX}.#X1XoXoX#X#X#X#X#X#XiXiX#XOXoXoX#X#XOXOXOXR.:.:.I.P.P.P.P.t.B t.P.t.P.1XOXoXT.OXM.X.V.4.O./ ( X.O.O.o.+.' { { o.( / { ( W 4.O. .8.B V B B t.6.( 8.7.8.6.-.V b n V b V V U { V B V ( ( ( ( :.( { ( V n > n ( ( :.>.",
"MXMXmXMXVXNXNXMXbXbXnXwXbX8XbXrXMXnX0X6X!.nXUXbXMXFXHXFXGXFXNXmXdXdXdXNXNX9X9XsXsXmXeX9XrXeX8XqXqXqXqX0XqX0X6X0XbX7X7X6X0X6XD.$ F.6XA.A.B.A.A.A.B.B.A.A.A.A.B.A.B.j.S.B.B.j.S.j.j.B.j.f.j.B.g.g.i.=.a.a.a.a.g.g.a.a.=.=.$.=.=.$.=.=.=.$.$.$.$.^ $.^ ^ o.! ! } y W.cXiX#XiXoX1XaXiXiXiXaXiX|.]. XR.P.oXP.].yXoXoX1XoX#X1X#X#X#X#X#XiXiXOX#XoX1XoXoXOXOXOXOXt.z.P.P.I.P.P.:.:.t.P.I.I.iX].oXR.OXz.X.T.4.O./  . .-.+./ :.-.O.{ -.o.( -. .V -.4.O.6. .B n B k.6.( ;.x.4.7.1.V b V b V V V ( { V V { ( ( ( { { { :.( V S u S ( { >.( ",
"MXmXMXMXmXMXBXMXwXnXnXbXnXwXrXrXnXnX0XF.!.nXUX0XMXLXFXNXAXFXVXmXmXmXdXBXmX9XrX9XdXmXeX9XeXrX8X6XqX8XnXqXwX7XW.7X8X7X0XW.0X6XZ.$ S.;XA.A.A.A.A.B.B.A.B.B.A.A.j.A.B.B.j.B.B.f.g.f.f.g.g.f.g.a.a.g.g.g.f.j.a.a.g.a.g.a.=.=.=.g.a.j.5.=.=.=.=.=.=.$.]  .^ Q ^ ^ ! y ^.xX1X#X1XoXeXaX1X1XiXaXiXoX}.].I.P.].P.OXiX}.1X1X^.#X1X#XoX1X1XiXiXiX#X#XoX#X#XiXOXOXOXI.z.t.].P.P.P.z.:.t.z.P.t.OXiXP.1XoXOXt.X.R.6.+.W / ( :.O./ O.4.{ { -.O.W O.O.W o.6.o.4.O.V B V 6.;.( ;.t.4.6.8.V b V V V V ( ( { V V V ( V { :.:.{ :.( V n u u V :.:.( ",
"NXBXmXmXMXMXVXqXwXnXwXnXnXnXnXnXnXnX6XF.UXbX0XbXMXLXBXAXGXMXGXGXmXsXsXNXNX9XsX9XmXsX9X>X9XrXqX-X8X8XgXsX7XW.W.7X8X7X6XW.6X6XD.$ F.6XE.A.;XA.A.A.B.B.B.B.j.A.B.j.B.B.B.j.j.j.B.f.j.j.g.f.g.j.j.j.f.a.f.g.a.a.j.=.=.a.g.=.$...| ....$.y.$.=.=.=.$.$.$.$.$.#.$.$.s ^.xX1XiX1XoXiX1X1XyXiXpX3XoXoXoXP.].}.U.oXiXoXoX1XOXoXiXiX#XoX1XiXiX#XoXiXoX1XoXoXoXoXoXOXt.t.P.P.P.P.t.:.t.t.P.I.R.iX].oXoXOXM.X.T.6.O.W ( W :.O.O.O.4.+.O.-.O.} ( O.( / 4.O.;.:.B W n :.;.O.:.M.4.4.5.V b V V V V { V V V { { ( { :.( >.:.8.( V u n n V ( >.( ",
"NXNXMXMXMXGXMXbXbXbXbXbXMXqXnXMXnXqX6XF.bXnXUXbXMXHXFXFXNXNXGXAXNXsXmXNXNXsXgX9XmXeX>X9X9X>X0X6X-X8XrXnX7XW.6X7X8X0X8XD.7X8XD.$ F.tX;X6XA.A.A.;XK.A.A.A.A.A.A.A.A.K.A.A.K.K.K.B.B.j.K.K.n.K.n.B.j.j.f.f.a.a.a.a.a.a.a.=.=.$.$.$.$.=.$.$.y.$.$.$.$.$.^ ^ | $.^ s ^.jXOXiX1X#XiX1X:XiXyXiXpXoX`.].T.OXOXT.oXiXoXoX#XoXiXiXoXoXOXiX#XiX#X#X#X1X#X1X#XoX}.oXP.M.6.P.P.M.P.k.;.k.k.].t.].iXoXoX,XoXP.X.T.3.O. .} / O.O.+.O.6.+.O.:.o.O.W O. .( ;. .O.:./ W n  .6.B 8.x.4.6.6.v v V B V V { { B { B B ( :.>.( >.:.8.( V S n n V ( :.>.",
"MXMXMXMXMXMXMXbXbX6XbXbXMXA.nXMXMXqX6XD.bXnX0XbXnXHXFXFXNXNXMXGXNXsXgXmXmXsX9X9XdX9X>XqX7XD.D.!.D.-XbX8X6XW.6X8X8X8X8XD.7X6XZ.; S.;XD.B.A.A.A.A.A.A.A.A.A.B.B.B.B.A.B.B.B.B.j.j.j.B.j.B.j.j.j.g.=.=.y.=.=.=.=.=.=.a.a.g.a.a.j.a.j.a.a.=.=.=.=.=.=.$.$.| Q | | s ^.iX#XaX#XP.iXaX@XaXiXiXaX}.m.`.].].OXP.oXiXoXoXiXoX1XiX1XoXOXiXiX#XiX#X#XiXiX1X1XOXoXoXP.P.k.P.z.P.P.M.:.t.M.U.P.P.iX].OXiXOXI.@.T.7.-. .B ( :.O.o.O.6.-.o.O.( O.W ( :.! ;. . .o. .B n :.6.B 6.6.-.4.6.R v v ( ( V ( { B { { V V ( >.( ( >.:.{ V V n S V :.:.( ",
"MXNXMXMXMXMXbXbXbXbXD.MX8XnXnXGXnX0X6X!.bXbX0XbXMXFXFXBXGXAXbXGXAXmXsXmXmXgX9XiXfX,X8X-XD.F.F.D.W.6XrX7X-X-X7X8X6X8X6X-X6X7XZ.; S.A.E.A.B.A.B.B.B.B.j.B.j.S.j.j.j.S.j.g.g.j.g.a.a.g.j.j.j.a.=.a.g.g.g.d.a.j.a.j.a.j.j.j.g.a.=.=.=.=.=.a.=.5.=.=.#.$.$.^ } ! } y T.aX1XaXoX#XiXaXyXaXiXyXaX].P.P.P.P.].].T.iXoXoXiXOXiXiX#X#XOX#X#XiX1X#X#X1X1XoX#X].OXOXP.M.k.U.M.P.P.M.:.s.M._.t.OXaXT.oX1XoXt.@.Y.t.:.o.B / :.O./ ;.6.-.o.:.X.O. .( O./ :./  .O. .B n  .:.B 6.6.:.1.1.V V V R V V V { B :.( { ( { :.( { { :.>.V S V V V :.:.>.",
"FXNXmXMXVXMXD.bXbX8XbXnXnXMXMXVXnX0X!.!.bX0X0X0XMXHXAXFXGXGXmXGXAXmXmXmXsXiXgXsXsX,XqX-X!.F.F.!.6X7XwX7X6XW.7X8X8X8X-X-X8X7XZ.; F.6X;X;X6XA.A.A.A.A.A.A.A.B.A.B.j.j.j.B.j.B.j.B.B.B.j.j.B.j.j.j.j.j.J.j.j.a.j.g.5.y.=.$.$.=.=.=.=.y.$.=.$...^ | | ^ | ! } x ! s ,XaXiXaX#X1XiXiXaXdXuXaXyX_.P.`.z.P.].].P.oXiXiX1X].iXiX#XOXoX#XiXiX1X#X#X1XoXOXyXP.OXoXI.M.M.].k.P.].k. .6.M.P.M.].iXoXoX1X1XR...E.w.+./ }  .;. . .;.;.;.o.-.( :.:.( O.:.;.( / O. .B n :.z.B 6.M.4.-.1.R ( ( ( V V { { { ( { B >.:.{ >.:.>.8.:.V S V V ( :.:.{ ",
"NXMXMXMXMXbXbXbXbX6XbXGXnXMXMXA.nXbX6XF.nXwX0X0XnXFXAXFXAXAXnXzXNXmXVXdXsXiXgXsXrX,XrX9X0X!.!.-X8XbX7X8X7X6X7X8X8X8XbXA.bX8XZ.; F.B.S.B.B.D.A.A.A.A.A.K.A.A.K.A.K.A.A.B.B.K.K.A.n.B.j.j.j.j.j.g.a.a.=.a.=.=.=.$.=.=.=.=.a.=.=.=...| | | | | ^ $.o.^ ! } ^ ^ ^ s ^.lXiXiXoX1XaXiXuXaXaXzX1XI._.].M.t.P.OXP.oX1XoXiXOX#XiXoXoXiX#X1XiXyX#XyX1XOXOXoX_.oXoXP.M.M.].B.P.].t.:.:.t.].R.OXiXoXP.iX1XI.:.E.t.+.}  . .;.O.@.4.;.;.O.6.( O.;.W O.6.d.X./ O.Z V S :.t.B t.k.6.4.-.( ( ( ( B :.{ V V >.V >.:.>.>.:.:.:.8.( V S S V ( :.8.:.",
"NXMXGXMXMX8XD.bXbXbXnXMXMXMXGXbXnX0X6X!.bXwX0XwXMXFXAXAXBXAXMXGXNXmXmXsXiX~.iXsX9X,XqXMXqX8X-X>X8X8X8X7X6X6X>X8X8X8X8X8X8X8XZ.; S.D.D.S.S.S.S.B.A.A.A.A.B.B.B.B.j.B.B.B.A.B.n.j.B.j.j.a.a.a.=.=.a.=.=.a.a.=.=.y.a.=.=.$.$.......| | ..$.=.$.$.y. .! | ^ Q Q Q z ^.aXiX#X1XiXaXaXaXyXuXyXoXx._.].t.8.R.OXI.OXoXoX#X#XiXiX#XOX#X#XiXiXiX#XiX1XOXOXoXOXOX#XP.M.M.U.M.P.].k.:.:.t.P.P.].iX#XP.iXiXt.:.}.t.:.X. .@.:.:.:.6.;.O.O.;.O.-.-.( X.d.x.$.O.O.( B B B 6.X.6.d.7.8.-.o.' ( / { { V :.>.:.B :.8.:.>.>.8.>.8.{ V V V V V >.8.>.",
"MXGXMXnX6XbXbXbXbXbXnXnXGXMXMXbXbX0X6XF.bXwXwX6XnXFXFXFXAXAXGXGXmXdXdXsXiX9XgXsX>X,XrXrXrX8X-X9XrX8XwX7X0X6X6X8X8X7X6X8X8X8XA.; S.A.B.D.S.D.S.B.j.B.B.B.B.S.j.S.j.g.g.g.f.j.j.j.j.=.a.a.a.a.a.a.j.a.j.5.g.a.=.=.y.$...........| $.$.=.=.$.=.^ ^ } Q o.! } ! ! F ^.xXaXiX1XaXlXiXzX2XuX1X/.7.P.P.t.:.t.P.P.OXoXoX1X#XiX#XiXOXOX#X1XiXiX1X1X#XOXU.OXoXOX1XP.P.M.P.M.P.].M.:.:.6.].I.].iX1XOXiXiXz...:Xt.' ( O.:.;.#.;.;.O.o.;.4.6.:.4.O.W 4.x.:.O.X.B B B X.t.:.t.6.x.5.-.' ' ( / V { { { V :.V 8.8.:.V 8.8.{ :.{ V V V V V { :.8.",
"MXMXnX8X6XbX6XbX8XbXGX5X5XbXMXbX0X6X6X!.8X0XwX6XMXAXAXFXFXGXMXGXmXsXsXsXsX,XsXsX>X>X9XeXeX>X>X9XrX6X8X6X8XA.8XbX8X8X6X8X8XbXD.; F.E.D.A.S.S.S.S.B.B.B.B.B.B.B.S.g.S.S.y.a.y.g.j.a.j.j.g.a.=.a.a.a.j.a.a.a.a.=.=.$.$.$.y.=.$...$.=.=.=.=.^ ^ ..^ ^ o.o.} ! } ^ s ^.xXsX1XiXaXaXiXzXiXyX[.m.k.P.t.t.P.t.OXR.].1XiX1XiXiXiX#X#XOX#XyXiXiX#XiX#XOXOX#XOXOX1XOXM.z.U.P.M.].x.6.:.8.].P.oXiX1XP.iXiXI.:.Y.t.:.}  .;.;.#.O.7.#.( ;.6.k.-.6.4.X.s.x.;.O. .Z B B  .t.:.:.k.M.3.-.o.' / / { V B { { :.V >.:.{ >.:.:.>.8.:.V S S V V :.8.:.",
"bXbX0X~.6XbXbXbXqXGXnXMXnXrXMXMX0X!.!.!.6X0XbX6XMXLXFXFXAXAXdXmXsXmXsXmXgX,XiXsX,X>X9XeX9X9X9XeXeX6X6X7X6X6X7XqX8X8X-X7X7X,XE.$ p.D.Z.D.Z.B.A.B.A.K.B.B.B.n.A.B.B.n.A.j.B.j.j.j.g.j.j.j.a.j.j.j.j.a.j.=.a.=.=.=.=.g.=...=.=.=.=.=.^ =.=.| ! $.! ^ $.$.! ! ^ Z F ^.cXiXiXaXxXaXxXiXiX1XOXM.t.t.;.6.M.P.].].oXyX1XiXiXiX1XyXOXOX#XyXyXyXiXyX#XOXOX#XOXOX1XOXP.:.P.P.P.P.x.g.;.6.OXv.}.aXaXoXiX1XI.:.Y.x.;.X.W #.6.@.O.4.+.Q 4.6.6.-.:.6. .6.C.-.;.:.B B B  .d.:.6.k.k.4.8.-.{ / / ( R (  .:.{ -.;.6.{ -.;.O.-.;.-.{ B n n V :.>.>.",
"bX!.!.6X0XA.bXD.8XAXK.GXGXMXnXGX!.0X!.!.!.6X0X0XnXFXAXFXAXAXmXGXsXmXsXsXsX9XsXsX>X>X9XeXeX9X9XrX9X7X-X7X0X-X8X8X8X8X;X7X8X7XE.$ N.D.A.A.A.A.A.A.A.A.B.K.A.A.B.A.A.A.A.K.B.A.B.j.B.j.n.n.j.j.j.j.j.j.j.j.a.=.=.y.y.=.y.$.=.a.a.=.=.=.=.=.^ | ^ ^ ^ ^ $.$.^ | ..F ^.cXiXiXaXaXaXxXaXiXOXI.t.:.6.6.6.k.P.U.}.oXiX@XpXiXiX1XiXOXOX+X#XyXyXiXiXyXOXI.#XoXOXiXoXP.t.T.U.M.P.k.k.:.k.].I.U.aXiX1X1XiXR.O.{.w.-. .W O.s. .#.4.+.O.7.6.4.+.( ;. .#.m.6.;.:.B B X.B 6. .6.k.5.1.-.+.O.' { ( R V ' -.{ -.;.6.>.{ -.{ t.-.{ { B n S V :.{ O.",
"!.!.!.0XD.6XbXbXnXMXnXMXnXGXbXK.bX!.^.D.!.0X6XbXMXFXAXAXFXAXdXNXmXmXsXdXsX1X,X9X-X*X>XeXfX9XeXrX9X8X6X7XwX;X8X8X-X7X;X7X-X7XZ.$ p.-XA.A.A.A.A.A.A.A.B.B.A.B.j.K.A.K.A.B.B.B.A.A.K.K.J.K.j.j.g.j.j.j.j.j.g.a.=.y.$.$.y.$.$.=.=.j.j.=.=.=.=.$.^ ^ ^ | $.$.$.^ ^ F ^.lXiXaXxXxXxXxXaX1XP.M.7.:.}  .I.P.OXOX#X#XiXoXaXiXiX#XiX#X+X#XyX#X#XjXiXyX#XP.#X#XOX1XT.P.R.I.`.t.m.M.s.;.M.`.I.}.iXiX,X1X1XM.:.Y.t.-. . .#.6.O.;.s.O.#.;.6.7.;.X.:. .#.M.d.:.O.( B ( B 6.:.-.k.t.6.5.' +.-.O. .' ( ( :.O.-.-.-.-.-.;.{ ;.-.O.O.B n V V { O.O.",
"!.!.~.UXD.0XA.8XnX5X5XrXMXnXbXrX6X6X!.!.W.wX^.0XMXKXmXFXFXAXrXGXsXNXaXdXsX,X,X9X,XE.,XrXsX9XeX9XqX8X7X-X7X;X8X8X-X-X-X-X-X6XZ.$ N.6XZ.A.A.A.K.A.K.B.B.A.A.A.A.A.A.B.B.j.j.j.j.j.B.j.B.K.n.n.n.n.j.j.j.j.j.j.j.j.j.g.a.=.y.$.=.=.=.5.j.=.=.a.=.=.$.! ! $.^ $.$.F ^.aXiXaXxXxXaXxXxX#XI.I.4.B S  .t.P.P.P.#X@XiX1XaX1XiXyXyXyX#X#XyX#XyXaXiX1X#XP.#XOX#XoXP.P.I.P.`.k.m.x.d.:.x._.I.}.1X1XiX#X#XR.@.:X5.:. .O.6.:.@.6.7.X.#.6.=.7.1.o.O.X. .M.z.;.:.X.B X.( ;. .;.x.7.6.4.{ ;.O.O. .O.(  .-.-.:.>.-.{ -.8.O.-.-.-./ B n V / { { :.",
"UX6X!.6XA.MXbX8XMXrXrXnXnXGXbXnX6X6X!.!.W.0X!.W.MXFXAXFXFXAXsXmXsXNXsXsXsX1X,X3X,X,X-XeXeX9XeXrX9X8X8X,X-XW.8X8X-X6X;X-X-X7XZ.$ F.A.A.D.A.B.A.K.B.A.K.B.B.B.B.B.B.B.B.B.B.j.j.j.g.g.j.g.a.f.g.j.j.j.a.j.j.j.j.j.j.j.j.j.=.=.=.=.=.=.=.=.=.=.=.=.=.=.$.^ ^ ! ! F ^.kXiXiXxXxXaXxXkXuX).x.:. .O.+.8.P.P.#XoXoXiXiXaXyXiXyXyX#XiXaXyX#XyXiXyX#XOXOX#XoX#XoXOXP.P.T.].M.P.x.k.:.w.].P.E.1X:XiX1X1XP.:.}.t.-. .O.d.;.#.4.s./ 4.s.7.d.;./ :.O.X.M.k.:.:.O.B W ( :. .6.M.t.;.7.1.-.O.O. .O.( -.-.:.+.-.{ -.-.6.O.{ -.8.{ ( n S  .-.{ { ",
"0X0X6X6X8XrX8XrX5XnXK.MX5XbXnXK.0X!.D.6X~.W.!.W.MXKXFXAXFXAXdXdXfXmXmXdXsXW.9X9X>X,X-X3XeX9X9XrXqX>X7X8XW.-XqX8X-X-X-X6XE.-XA.$ N.6XA.A.A.A.A.A.A.A.A.A.K.A.A.A.K.A.A.A.A.B.B.B.B.j.j.j.J.j.j.g.a.=.=.=.a.=.=.=.=.=.=.=.=.5.a.j.5.=.=.=.=.^ ^ =.=.$.=.=.=.=.^ F ^.xXaXiXaXxXiXiXzXyX+Xc.c.-.4.5.z.P.T.iXoXiXiXiXiXiXyXiXyX1XiXaXiX#XyXiXyX1XOXOXOX#XoXoXP.P.P.].P.v.P.v.t.;.v.].P.].1XoXiX1X1XP.:.}.t. .o.#.6.s.-.6.;. .4.6.s.7.+. .;.@.} k.M.O.X. .n  .( ;.O.s.M.6.5.k.-.O.+.{ { ( O.O.O.-.+.-.:.-.{ 3.-.-.-.;.:.B u n ( :.( :.",
"8XbXbXbX8XbXK.nXK.rXGXnXnXMXbXrX6X!.!.~.!.6XW.!.MXKXAXmXSXAXrXmXdXfXdXdXpXW.,XeX>X,X>X9XeX8X8XnXeX8X7X7XE.-X8X-X6X;XW.-XE.-XA.; N.;X;XA.A.A.K.A.K.K.K.K.A.A.A.B.A.j.B.B.B.j.n.A.K.J.K.K.K.j.j.K.K.j.g.a.5.=.=.$.$.$.$.$.$.=.=.5.5.5.=.=.=.^ =.^ ^ ] $.=.^ =.=.F T.kXiXiXiXCXaX#XuXyX#X/.t.7.x.x.t.P.T.1XoXiXiXaXaXyXiXiX#X#XiXkXiXyXyXyXyX1X#X#XOXoX@XoXP.P.R.].`.M.P.I.k.;.v.}.P.}.oXoX,X1X1XP.:.:Xc.-.O.+.#.;.O.7.+.O.4.4.d.4.;.O.#.;.( ;.x.:. .X.n  . .8.:.d.x.6.5.7.-.O.+.o.-.( ( o.o.+.:.4.-.{ O.-.;.-.{ ;.O.{ n n  .-.{ -.",
"8XbXMXA.rXMXGXMXGXbXMX8XK.bX5XbX7XD.!.!.0X~.Q.-XMXFXNXmXFXSXeXmXmXmXfXNXeX:X9XeX>X>X>X9X9X>XeXrX8X8X,X,X-X-X6X-X-X-X-XE.E.6XZ.; p.A.B.A.A.A.C.A.A.A.A.A.B.j.g.j.j.j.j.j.j.j.j.j.g.j.j.j.g.g.j.j.n.n.n.n.j.j.j.j.j.j.a.j.j.=.5.5.=.5.5.=.=.$.=.=.=.=.=.^ =.=.^ F ^.cXiXaXiXCXaXiXiXaX@X].c.x._._.P.].oXoX1XiXoXaXaX1XyXyXyXyXiXaXiXaXyXiXyX#XiXOXOX1X#XoXU.I.k.OX`.m.P.x.k.6.x.].].OXoXU.#XoXoXP.:.:Xt.-.O.;.i.#.o.j.6.O.7.4.6.6.6.#.:.@.X.;.k.;.:. .n  .-.6. .k.b.3.6.7.-.-.4.O. .O.o.O.{  .-.7.4.-.O.:.-.;.-.8.:.{ n n X.:.-.8.",
"nXbX8XrXrXrX8XrXnXbX8X8XbX8X5XMX8X6XD.6XbX6XD.6XNXPXCXmXAXAXeXzXdXdX9XmXeX=XeXrX9X,X,XeX9X8XeX>X8X>X-X7XE.,X-X-X;X-X-XW.E.-XN.$ N.;XA.A.K.{.{.{.K.;X;XK.C.A.C.C.A.K.K.K.K.B.K.n.n.B.j.j.a.a.S.j.j.g.a.a.a.a.5.=.5.5.5.j.5.j.j.j.j.j.j.5.=.=.=.=.=.=.] =.*.=.=.F ^.lXiXaXiXlXaXaXiXkXoX:XP.P./._.].^.OX#X1XiXiXaXiXyXyXyXyXiXyXjXiXiXiXiXiXiXiX#XoX1X@XoXU.].k.OX`.P.P.x.x.;.w.].].^.].].OXOXoXP.:.:X3.-. .6.;.;./ c.s.+.s.7.s.6.#.@.4.#.} 6.M.;. .:.B X.{ k.:.6.M.b.8.k.-.-.:.O.o./  .+.-.O.:.6.8.:.( O.O.t.:.t.O.{ n k { :.>.8.",
"MX5XrXrX8X8X8XfXbX6XA.bX8X8XrXrX8X6XD.!.0X6XD.D.AXFXGXlXAXAXeXmXdXdX9XmXrX=XeXrX5X-X,XeX>X>X>X9X9X-X,X,X-X,X-X-X-X-XW.-X-X-XB.$ S.;XA.A.C.A.C.K.A.C.B.j.B.B.B.C.B.B.n.A.n.J.n.K.K.n.B.n.J.K.J.B.n.j.j.j.j.j.j.a.=.=.=.$.=.$.$.=.=.=.=.=.5.5.5.5.5.=.=.=.=.] =.F ^.xXsXlXiXsXiXxXaXaXyX#X].P._.'.OXOX].iXOXiXiXaXiXyXiX#XyXiXyXaXiXjXyXiXiXiX1X1X@X#X#X@XU.OXk.}.].P.P.x.k.s.t.[._.oXOXOXoX1X#XP.i.:X4.O.o.k.4.@.O.x.d.4.s.a.d.a.@. .+.:.} s.M.d.-.:.B W O.k.:.;.k.k.4.d.5.4.-.+.O.( R O.-.;.{ 4.z.6.O.O.( :.8.8.:. .B k D >.:.:.",
"nX5XbXeXrXeXrXrX6X6X!.bXA.bXbXMX-X-XD.6X0X6XD.;XNXFXGXfXAXNX4XlXdXdX9XNXeX>XeXeX9X-X>X9XeX8X>XrX,X,X-X;X,X-XW.-XE.;XE.;XQ.-XN.; B.tX X X X{.|.=X X{.=X XK.{.K.K.K.K.K.K.K.K.j.J.K.j.j.j.J.j.J.J.J.J.n.n.K.J.n.j.h.j.j.j.j.5.5.=.=.=.=.=.=.^ =.=.=.=.5.5.5.5.5.K ^.iXaXaXiXiXiXxXaXaXaXOX[.P.`.].].].^.iXOXiXiXiX#XiXiXyXyXyXyXiXkXjXaXiXiX1X1X#X1XoXoXoXU.OXk.}.].P.`.x.k.t.x.].].OXoX,XoX1XiXM.y.:X-.-.O.6.g.O.;.h.7.6.h.a.6.4.@.O.X.:.} ;.x.s.X.:.B ( X.6.6.t.k.6.8.k.7.6.4.O.O. .(  .-.-.:.-.t.t.:.{ / O.8.:.( { V k ( :.8.8.",
"eXrX5XbXrXeXeXMX!.!.!.D.0X6XbX5X6X6XD.7X7X6XD.-XCXFXGXmXAXmXfXmXdXsX8XxX9X>X9XeX3X,X>X>X>X>X8X5X>X-X,XE.-X,X;X-X-X-XE.W.;XE.B.; A.tX|.XXtX<X=XXX X X XXX XXXXX XK.K.K.K.K.K.K.K.J.K.K.K.K.B.J.K.n.n.n.n.j.J.j.j.j.h.j.j.h.5.j.J.J.j.5.q.j.=.=.^ ] ] =.*.=.&.=.! ^.iXsXaXiXiXiXxXlXaXaXOX[./.OX].].OXOXiX1XiX1XiX#XyXiXyXyXiXyXaXiXaXaXiXiX#X#X#X1XOXoXoXOXOXt.}.`.P.].M.M.k.w.].].1XiXiX,X1XiXP.y.,X-.O.O.s.4. .4.n.s.d.d.6.a.4.;.:.O... .@.x.:./ X.B X.X.t.;.k.x.6.;.5.7.-.-.+.-.{ -. .O.-.{ -.t.:.:. .( O.:.{ B :.B n B  .:.t.",
"8XrX8XqXnXeXqX8XbXD.!.!.bXA.8XrX8X6X-X6X8XQ.D.-XNXFXAXlXAXlXeXlXdXdXeXGXeX>X5XeX9X-X>X9XeX>XeX8XeX,X-X*X;X,XE.-X;X-XE.W.6XE.Z.; A.1XXX<X|.[.|.|. X`.`.`.'. X'.`.K.K.K.K.K.H.J.K.K.K.K.K.K.H.J.K.H.K.H.H.K.K.K.J.J.n.J.j.j.j.j.q.j.q.q.j.q.j.q.q.j.j.q.=.=.*.=.K }.aXiXxXaXiXiXdXdXaXaXoXoX].1X].OXoXiXoX#XiXiXiXiXiXiXyXyXaXiXaXkXaXiXiXjX#X#X#X1XoXoXoXoX}.M.P.U.U.].P.M.t.t.OX].iXiXiX1X1XiXP.:.*X4.o.o.4.;.@.6.n.d.d.x.s.+.#.;.#.:. .O. .k.6. .} B  .B s.4.k.m.M.;.;.k.-.W ;.{ O.-. .O.-.{ d.6.:.{ / ( O.:.O.( :.B k B :.:.t.",
"rX8X8X8X8X8X8X0XD.bX6X!.D.D.8XrX8X6X-X-X-X6XZ.-XGXFXZXmXGXpXeXfXsXiXrXlX3X>X>X>X>X>X>X9XeX>X>X>X9X*X-X;X*X-X;X-XE.-XE.-X-X;XZ.; A.2X5X5X<X<X5X<XtXXX<XtXXXXXXXXXK.K.K.K.K.K.K.K.K.K.K.J.K.H.K.J.n.J.n.j.J.J.J.J.J.K.K.J.J.j.J.j.j.J.j.q.q.5.5.=.=.5.q.q.q.q.2.^ ^.kX#XxXaXiXiXaXaXaXaXoX@X#X1X[.P.iXoX1XOXyXiXaXyXiXiXyXyXcXiXaXjXaXiXiXiX1X#XoX1XoX1X#XoXU.M.k.P.].].U.M.t.I.P.I.iXiXiX1XiXsXP.:.{.#.+.#.4.#. .d.b.s.x.d.;.o.:.a.+.O. .X. .d.d. .X.X. .W 4.6.6.U.k.6.k.k.+.( +.o.:.:. ./ ;.O.4.6.:.:.O.:.{ O.{ ( :.B k B 6.:.8.",
"rX8X8X8X8X6X6X6XD.D.bXD.bXD.-XbX8X7X-X6X-X-XQ.-XNXSXGXmXmXeX9XeXeX3XfXfX>X>X=XeX>X=X>X5XeX5X8XeX9X,X;X*X;X-X-X-XE.;X;X6XE.E.B.$ {.4X@XXXXX|.[.|.|.|.|. X|.`.K.'.K.K.K.K.K.K.K.K.J.K.K.K.K.K.K.K.H.H.J.J.c.j.j.J.J.J.J.J.j.L.j.J.j.q.j.J.J.q.q.j.5.q.5.q.q.=.*.K ^.aX1XaXaXeXiXiXiXaXpX1XoX1X1X'.OX#X#X#XiX#XiXaXyXiXiXyXiXaXaXaXiXaXiXiXiX1XoX1X1X1XoXoX}.].M.6.P.P.OXP.t.t.t.OXP.9XiXiX#XaXxXU.:.Y.+.O.#.s.:.O.b.c.4.7.4.@.X. .;.;.+.@.Z o.x.s.O.:. .X.} :.s.;.M.d.4.k.5.+.O.+.-.O.+.-.o.-.:.O.-.-.{ :.:.>.8.:.B :.B n V :.O.6.",
"rX8X8X8X8X6X-X!.bXA.8X6X8XD.D.8X8X7X-X-X7X6XZ.-XDXAXCXdXlXeXeXeX9X9XfXfX>X;X-X>X>X{.-X9X>X>X>X8X>X,X*X*XE.-X;X;XE.E.;X8XE.E.B.$ A.<X|.|.|.|.'. X|.'.|.`.`.K.C.K.K.K.K.K.J.J.J.J.K.J.K.n.J.J.J.J.n.c.j.h.c.j.j.j.q.j.j.j.j.q.j.q.J.J.q.q.j.j.q.q.q.j.q.q.q.q.q.K ,XxX1XaXiXiXpXiXiXaXpXyX@X1X2XOXR.#X#XOXiX#XiXaX#XiXiXiXjXaXjXjXiXaXiXaXiX1XOXoX1X1XOX#X}.`.M.k.P.P.P.P.t.t.I.].I.1XiX,XU.aXaXP.:.}.-. .#.s.#.@.c.h.i.:.O.Z M B @.;.:.;. .O.f.6.:.:.X. .(  .6.-.x.d.7.d.;.-.O.:.-.:.o. .O. .-.:. .:./ O.:.8.:.:. .{ V n B -.:.:.",
"7X8X8X6X6X6X6XD.6X-X-X-X6X6XD.7X8X8X7XD.7X-XZ.-XAXSXCXmXdX9XeXeXeXeXeXfX=X*X,X5X=X;X>X5XeX>X,X>X>X>X-X*X*XE.*X*XE.E.E.-XE.E.Z.; ;XtX<XtX<X<XtX|. XtX|.|.XXtXXX'.K.XXtXK.K.K.K.H.K.K.K.K.K.K.J.K.c.j.c.c.j.0.h.h.7.x.c.h.0.5.4.5.5.j.5.5.5.j.j.q.0.q.q.q.h.q.5.^ ^.SXiXiXaXiXiXiX#XaXiXiX#X#XiXOXOX1XoXiXiXiXiXaXyXyXyXyXiXiXaXaXaXaXiXiXyX#X#XOX1X#X1XoXOXT.M.z.P.].P.P.t.M.I.P.I.oXpX:X}.aXiXP.:.oX:.o.4.a.X.#.x.f.#.#.Z N | B } ;.;.f.O.#.a.d.;. .X. .} :.-.-.d.k.k.z.6.6.-.-.;.;. .o.O.O.-.:.:.:./ -.O.;.:.;.:.O.B n S O.O.:.",
"!.0X6X6X6X6XD.-X6X-X>X;X5X8X6X;X8X>X>XA.D.;XZ.;XAXFXGXGXlXeX3X5XpX>XeXeX,X*X>X>X>X;X>XeX9X>X-X,X9X,X*X-X*XW.E.*XE.Y.Y.-XE.E.V.; A.4X5X2X4XhXhX4X4X5X2X5X4X<XtX<X%XtXtXtX%XvXK.%XvXK.K.K.vXK.K.K.'.H.m.n.H.G.x.x.c.v.c.G.c.h.h.0.5.h.0.q.q.5.5.2.5.5.q.5.q.5.*.K ,XxX#XiXaXiXiXaXyXxXaXiXOXiXiX1XoX#XoXiX1XiXaXiXiXyXiXiXyXiXiXaXaXjXyXiXiXyX#XOXoX1X1XOX].].P.P.P.I.OXP.t.I.v.].P.#XiX1XoXiXiXP.i.}.1.:.s.4.X.4.v.6.+. .M | o.O.B :.a.b.s.X.s.x.;.X. . .} 4.-.-.t.M.t.7.k.d.O. .-. .( O.-.:.;.;.-.O.( :.O.8.-.:.{ / B n V :.O.-.",
"D.6X-X6X6XD.D.6XD.>X5X>X5X8XD.A.-X8X7X;XD.A.D.-XSXFXCXAXGXeX5X>XfX>X9X3X-X}.=X>X=X;X>X>X5X8X*X=X>X,X*XE.*X;XY.E.-XE.Y.-XE.-XN.; ;X4X<XtXtX5XtXtX=XXX X'.`.'.`.`.K.K.K.K.K.K.K.K.K.K.K.K.K.K.K.K.[.'.'.'.'.'.K.H.H.c.m.H.H.v.c.c.q.5.=.5.5.5.5.2.5.5.0.5.q.5.*.K ^.cX#XiXiXiXiXiXiXxXaXiXOX#XiXoXoX1XiXiXiXiXaXiXiX#XyXyXyXiXiXiXaXiXyXiXyXiXOXOX#X1XiXoXP.].P.t.P.P.P.P.t.x.I.]._.:XiXyX1X1XiXP.:.}.5.O.#.4.X.6.c.6.#.N W o.#.#.$.( s.s.k.X.6.m.;.X.:.} B ;.s.6.M./.k.1.6.;. . .;.O.( ;.6.;.O.4.:. .(  .-.6.:.O. .O.V > B :.:.{ ",
"6X6X7XD.6X;X6XD.-X8X8X>X8X7X-X!.>X-X>XQ.-X8XD.8XSXFXDXGXlXeXrX9XfX>X3X>X*X;X-X5X>X;X>X>X>X>X-X;X,X*XE.*X-X*XE.*X-XY.E.-XE.E.V.; B.K.A.A.K.C.C.B.A.V.B.f.g.g.N.j.B.J.J.j.h.h.j.J.j.J.J.J.H.K.j.j.b.j.m.m.n.c.n.n.n.m.G.H.H.H.G.H.J.J.h.j.j.q.0.j.j.q.q.j.q.5.5.F ^.JXiXiXaXiXiXaXyXaXaXyXOXiX1X1XOXoX1X1XiXiXaXiXiXyXyXyXyXyXyXiXjXiXyXyX#X#XOXOX#XoXoXoX].OXP.z.P.P.P.U.t.t.M._.P.oXiXiX1X1XiXY.:.U.5.o.4.6.o.h.d.o. .N / o.#.O.#.W #.4.d. .;.x.6.O.O.Z B :.k.6.k.m.M.6.-.O. . .:.:. .:.6.6.4.4.{  . . .:.t.-. .:.O.V n W  .-.-.",
"6XD.6XbXD.6X6X-X8X8X-X>X>X>X-XD.-X-X>XZ.Q.-XZ.*XFXDXGXfXzXfX>X5XfX3XeX=X*XE.=X,X=X;X>X>X5X>X;X;X,XE.;X;X-XE.Y.E.;XQ.A.6XE.E.N.% B.A.A.K.K.K.{.K.{.K.C.K.C.K.m.C.K.K.K.K.K.K.K.K.H.H.K.J.j.j.j.j.x.j.j.j.h.d.5.h.5.=.0.=.5.0.7.h.j.L.j.J.J.J.J.J.J.J.J.J.q.q.h.K ^.xXiXiXaX#XiXaXyXiXaXiX1XoX#X#XOX#XiX1XyXiXxXiXiXyXiXyXyXyXyXiXiXiXyXiXyXyXOXOX#X#XOXOXoXOXP.8.k.`./.[.c.t.M.I.P.oXiXiXoX#XiX}.i.U.6. .6.;.@.d.;.o.Z Q o.$. .$.#. .#.4.6.@.@.x.:. .@.} B :.k.;.7.U.k.4.+.O. .B -.O. .-.6.6.6.-. .X. .B :.t.-. .O.O.B t ( { :.-.",
"0XD.D.6XD.D.D.A.-X-X>X8X-X>X8XA.;X>X8X;XE.W.Q.>XSXAXGXfXGX5X>X>XpXeXeX>X;X;X-X=X=X>X;X>X>X>X;X;XE.E.E.E.;X*X*XE.A.A.;X-XE.E.N.% A.tX{. X{.K.K.{.{.|.|.|. X X`.`.K.K.K.XXK.K.K.K.H.K.K.J.J.K.K.K.n.J.c.c.c.c.c.c.J.J.c.c.h.c.h.0.q.h.5.q.5.5.5.5.2.q.h.q.h.q.q.^ ^.xXiXaXxX#XiXaXyXiXxXiX1X1XoXoXoXOXiXOXyXiXxXkX#XiXiXiXyXyXyXiXiXiXyXyX#XyX#XOX#X1XoXOXoX].I.z.x.`.P.].P.k.x.m.P.oXiXiXoX1XiXoX:.,X8.O.6.@.#.7.+...W o.o.o.( W O.#.#.:.;.O.| s.;. .@. .Z O.c.;.x.`.d.o.;.;.O. .:. . .-.;.5.6.:.O.O. .B :.8.>.:.-.:.B >  . . .-.",
"6XA.D.!.D.D.D.-X8X-X-XeX-X-X-XD.E.-X>XE.D.-XE.,XFXAXGXGXGX5X5X5XpX>X3X>X;XE.=X{.=X>X;X>X=X,X-X*XY.T.Y.-XE.E.}.{.Z.A.W.-X6XZ.S.% ;X X{.K. X X'.'. X X'.H.H.m.H./.H.J.H.H.H.H.H.K.K.J.J.n.J.n.n.J.n.n.n.j.h.h.h.j.d.h.c.c.c.c.c.J.J.J.J.h.L.j.h.q.5.5.q.5.q.5.5.K oXDXiXiXaXiXaXaXiXiXxXiXoXoX#X#XOXoXiXoXyXiXiXkX#XyXiXiXiXiXiXyXaXjXiXyX#XyX#XOX#X1X1XoXoX].P.I.c.P.V././.6.M.v.I.oXiXpXoX1XiX].:.oX:.;.4.X.4.6.o.W o.o.$.W B N W #.@.@.#...X.s.6.X. . .Z :.M.s.k.M.d.O.6.:.{ :.:. . .;.:.4.;.;.{  . .X.O.:.O.:.:.O.V n  ./ { -.",
"8X6XD.D.D.6X-X8X5X-X-X-X-X;X-X;XD.;X>X;XE.7XE.>XFXDX4XpXfX5XtX>XeX:X3X>X;XE.=X;X=X>X;X>X-X=X*X-X*XT.E.;X*X*XE.E.Z.E.A.-X;XA.l.% K.2XXXtXXXXX X.X.X'.'.`.'.[.'.'.K.&X'.K.H.K.K.K.H.K.J.K.K.J.K.J.H.J.H.c.j.c.c.h.=.=.5.=.5.5.5.5.5.5.5.j.q.q.j.q.0.0.h.0.q.0.5.K ^.xXiXaXaXiXxXaXiXaXNXiX#X#X#XoXoXOX1X#X1XiXiXaX#XyXiXiXyXyXyX#XyXiXiXyX#XyX#XOX#XoX#XoX#XP.I.P.M.M.x./.P.t.P.x.P.1XeXaX1XiXiX].6.U.O.6.i. .7.+.} } o.| W W | N n X.O. .;.;. .;.h. . .X.( X.4.6.5.c.6. .6.:. . .-. .( -.-.:.-.;.O.Z B ( :.{ O.:.-.O.} t /  .o.-.",
"6X-XE.Q.E.E.>X8X-X>X6XA.-X-X-X;XZ.;X9XE.E.-XD.>XFXSXiXpXsXiX}.*XpX:X5X5X;XE.=X;X;X=X=X-X-X=X;X*XE.E.E.;X;X;X;X;XE.E.-XD.;XA.N.; A.XX'.K.'.|..X X|.XXXXXXXX.XXXXXXXXX'.'.'.'.K.H.K.J.K.J.J.J.J.j.h.j.h.j.j.J.J.j.h.h.j.5.5.0.h.h.q.5.5.5.5.=.=.5.*.5.5.5.q.2.=.E ,XxXiXaXjXyXaXxXiXaXxXiX#X#X#X#XoXoX#XoX1XiXiXaX#XiXiXjXyXiXyXyXyXjXaXyXyX#X#XOXOX#X#X#XOXP.].OXP.M.k.m.P.x.c.M.I.#XyXiX1XiXiXoXz.A.o.6.#.@.7.$.Z  . .W N } } W | W O.$.;.a... .c.;.X.X.Z O.;.6.5.P.6.O.a.O.O.#.{ :.(  .:.;.-.-.:. .B ( :.O.X.6.:./ W k W / / ;.",
";X-X;X-XE.E.-X>X-X-X-XA.8X-X;X-XD.D.>X;XE.E.Z.>XFXDXeXfXfX3X}.:XpX>X5X5XA.;X>X{.*X=X;X;X*X-X*X,XT.A.;XE.;X7XA.A.Z.A.A.A.D.;XN.: {.XXXX<X X'. XXX X`.H.H.'.XX'..X&XXX'.'.H.H.H.H.J.J.J.j.j.j.j.J.J.J.J.j.5.h.h.5.5.5.0.q.J.0.e.J.J.L.h.q.h.q.q.q.5.<.2.5.*.*.*.K ,XDXaXxXiXyXiXiXxXxXaXiXiXiX#XOX1XOXiXoX1XyX#XiX#XyXiXaXyXiXjXyXiXjXyXyX#XyX#X#X#XOX#X#X#XP.OX]./.P.d.k.P.x.M.x.P.oXyX:X1XiXiXOXk.V. .6.$.;.;.X.| o.Z j k k x }  .W X.+.6.;.O.O.k.:. .X.B X.6.6.6.c.x.O.:./ #.:.;.:.O.O.;.7.;. .( :.Z  .:.{  .:.-.:.B n B O.O.;.",
";X-X;X-XE.;X-X-X-X;XA.;X8X6X-X-XZ.N.-X;XE.E.D.9XFXCX3XfXfX3X}.5X4X5X3X>XA.;X=XA.E.;XY.;X*X;X;X;XZ.T.;XE.;X;X-X;XE.A.D.D.D.A.N.; K.tXXXtX%XtX<X<XXXXX X&X'.'.K.K.K.K.'.'..XH.K.K.K.J.J.K.J.J.J.K.J.K.K.J.j.h.j.q.q.j.J.h.h.q.q.q.q.j.j.J.q.h.q.q.q.q.q.q.q.5.q.K oXDXiXxXjXiXyXjXaXxXaXiXiXiX#XOX1XOX1X#X#X1XyXiXyXyXjXkXiXjXjXiXyXjXiXyX$XyX#X#X#XOX#XyX#XP.OXOX_.U.k.k.M.x.x.x.P.oX:XyX:XiXiXOXs.R.O.#.O.6.$.Z } Q M c j h k } ....W O.s.6.o. .;.:.X.} X.X.d.6.k.m.7.+.:.X.O.;.:. .:.{ s.6.O. . .:.X.B :.{ O.6.-.:.( M B / / -.",
"-X;X>X;X-XE.-X>XA.-X6X-X;X;XA.-XE.N.;X-XE.E.E.>XFXCXpXfXiX3X*X>X4X>X3XtXA.;X=X{.{.;X;X;X*X}.-X*XE.;X;X;X;X;XA.-XA.Z.A.W.Z.D.S.: ;XXX|.|.tXXXXXtXtXXX<XXX.XK.H.H.K.K.H.H.H.H.H.K.K.J.K.J.J.K.K.J.J.J.J.J.J.J.j.J.J.J.j.J.j.0.5.0.h.q.q.0.h.q.L.h.J.h.q.h.q.2.q.~ ^.JXaXxXiXiXjXaXaXcXaXiXiXiX#XOX#XOX1XoXyXyXyXjXyXjXiXjXjXjXiXyXyXjXyX#X#X$XOX+X#X#XOXyX#XI._.OX/.P.k.M.m.M.M.t.k.oX:XiXyXyXiXOXz.U.O.a.+.#.| A Z Z x k k x x N  ...} X.4.f.#.$.;.s.( X.} ( ;.t.M.P.d.:.{ } O.#.:.( O.:.;.k.-. .B ( B V :. .:.6.:.O.( M n X.(  .",
";X,X-X>X>X;X>X;XE.7X;X;XA.Z.-X-XE.Z.E.;XE.E.T.9XSXAX3XpXfX5X:X:XhX5X5X=XT.;X;X{.;X;XE.;X{.;X,XE.A.;X;X;X;X;XK.-XA.D.Z.Z.Z.A.N.: ;XtX X'.{. X X X X`.{.'.K.tXXXXXK..XXXK.K.H..XK.K.K.K.K.K.K.K.K.K.J.j.J.J.J.J.J.J.J.J.J.J.J.j.L.e.0.0.q.0.e.L.e.q.5.2.2.*.2.2.F ^.JXaXxXiXyXyXaXaXcXjXiXaXyX#XOXoXOXyXoXyX1XiXjXyXiXjXaXjXiXjX#XyXyXyX#X#X#X#XOXyXOX#XyX#X_._.OX]./.k.6.P.m.k.x.k.1X1XuXuXiXyX_.k.T.O.4.;.;.| N Z N k k x Z } N N .. . .#.f.4.X.4.f.X. .X.} ;.7.k.P.k.O.O. . . .{ Z :.:.8.R.t.B B X.V :.O.O.:.6.>.:.V S n  .( / ",
";X;X;X;X-X=XE.E.;X;X-X;XA.Z.;X-X{.N.T.E.Z.T.A.5XAXCX3XeX3X:X=X<X3X5X5X;XY.;X=X{.{.;X{.;XE.Y.>XY.Z.-X;X{.;X;XA.A.Z.A.Z.Z.Z.D.S.: {.5X=X=X|.{.{.{.K.A.C.C.K.K.K.K.K.K.K.H.H.K.K.K.K.K.K.J.J.K.J.n.J.K.J.j.j.0.j.e.j.J.j.j.q.L.j.e.q.q.j.L.e.0.0.0.q.q.0.q.q.2.2.F oXJXiXaXyXyXyXkXcXcXkXyXyXaX#XOXOXOXiXoX1XiXiXyXyXyXaXjXkXjXyX#XyXyXyXyXyXyX#XOXyXOXOX#XOXOX_._.]./.k.s.U.P.t.P.M.1X1XiXiX1XyX].z.T.{ 4.#.#.| N Z c k x x x x N M } ..} +.s.+.W ;.s.W / W B ;.6.4.c.s.O.O.X. . .:.B O.{ 8.t.8.:.Z B B B ( O.Z :.{ :.B n S B B B ",
"8X;X-X9X9X>X;X-X-X-X>X8X;X;XE.;X-XZ.E.8X-XE.E.eXSXCXpXfXpX5X=X5X3XeX4X>XA.>X>X;X>X{.*X,X;X;X-X-XE.>X;X>X=X;XA.A.A.A.D.Z.Z.A.D.: *X5X=XtX=X=X=X{.;X X{.K.B.K.K.K.K.K.K.K.XXK.K.tXK.K.K.K.K.K.j.B.n.j.J.K.j.j.J.j.J.J.j.J.J.j.J.J.j.j.J.j.J.e.j.L.h.q.h.J.h.0.e.T ^.DXaXDXxXiXaXcXjXcXcXjXjXjXyX#X#X#XyX#XiXaXjXiXjXjXjXcXcXyXiXjXyXyXyXyX#XyXyXOXyXOX#XOXOXOXOXOX[.'.k.s./.v.c./.M.yXiXuXyXuXzXOXz.E.=.4.4.4.W Z N k x Z } N } Q B B ..X.#.4.:.o.-.s.X. . .B ;.d.x./.6.#.;.O.O.#.:./ ( >.6.:.8.:.D B B :. .:.( :.:.:.V S B Z Z Z ",
" .W W W | | Q $.o.o.$.$. ./  .| X.W W @. .|  .;.V.s.4.s.6.4.O.o.=.=.#.o.Q o.o.o.o.Q Q / Q / Q X.W W | Q | | | } } | } } ! } x : @.| W N z T m T ! ! ! ! T z T J T E ! K ! K K F F F F F F F F F F F F F s F F s F F F F F F F F F F F F F F F F F F F F p p a 5 ].#XOX#XOXOXOX#XOX#X#XOXOX_.I.I.P.P.P.P.OXP.P.OXOXP.P.OXOXOXOXI.I.I.I.I.I.I.I.r.I.I.I.I.I.t.t.t.t.t.>.{ 4.-.-.6.8.m.P.`.P.U.].M.z.@.n l l j : > : ; : > ; > > k : > t k t n n u l n t t u : u n V ( n j u > > > > > > > n > u e > > > > > > > > u > > : h : h : ",
"N.Q.D.D.Z.Z.N.T.Z.Z.N.Z.N.R.Z.Z.N.Z.R.R.B.B.Z.B.B.N.B.Z.V.V.l.l.B.B.N.B.B.M.l.l.V.l.R.M.l.l.z.z.z.z.l.l.z.z.z.z.z.g.s.g.g.s.z. ...D Z D X.Z Z Z Z Z B Z B Z B X.B X.X.X.X.X./ .. ...X.X.} B } } B B B B B B B B ( X.O.X.o. ./ W /  . . .| W  .W W v n } V n n n } ! ! ! ! ! T ! T ! ! z l ! F s ! ! F ! ! ! ! F F ! F ! ! ! F F y F y F F y F y F F y F F F y F w w w w w w w s F w 4 F 3 w w 4 M S > h : % - : ; : ; ; ; % % % ; ; : ; % % : ; ; ; % % ; ; % % : : : % % % % % % % % $ % % % % $ $ $ $ $ $ $ % . $ % $ . $ $ $ ",
"IXLXPXSXPXFXSXFXSXFXFXAXSXFXSXFXFXFXDXCXAXZXCXCXGXlXlXCXCXGXCXZXGXGXlXlXCXxXlXaXaXaXaXxXaXuXpXaXaXuXpXeXpXpXpX3XpXuXpXiXiXfXyXR ,XsX,XeXeX9X-X>XQ.^.E.W.*X*X-XfX>X3XlXaXeXpXaXpX5X3X3XpX,X:X:X,X:XU.E.}.U.Y.eXoX:XxXkXyXzXkXuX1X1X1XzXhX[.C.}.*XU.z.z.}.V.l.{. .x u.x x x ! x ! ! ! x ! x ! ! ! ! F ! ! ! ! F ! ! y ! y w t F F y y F F w F y F y w t : q w w w F s s g F w F w 4 w w w r 4 F 4 ; D.i.:.i.X.@...@.@.@.4.O.X.X.}  .#. .#.:./  . .O.O./ / (  ./ :.4.-.4.O.:.O./  ./ -./ ( {  .{ / / :.:.( -.-.( V V (  .V B B V V ",
"FXFXSXFXmXAXAXNXCXCXGXAXNXNXlXlXlXdXNXdXGXGXGXGXdXfXpXlXlXdXlXCXlXlXmXlXpXpXfXpXiXiXiXdXaXfXfXuX3XpX3X:X:X:X<X3XeXiXpXpXfXiXoX( W.,X:X,X=XE.T.-XN.D.T.T.T.T.*X:XY.-XfX3X3XiXiX5X}.Y.:X,XE.Y.T.T.T.R.Y.E.T.T.1X}.}.pXaX#XuXaX<X<X3X|.iX4X{.b.U.`.V.;.B.{.z.z.U.W D y.! ! ! ! ^ Q ! ! ! x l ! ! ! ! ! ! K ! ! ! ! ! y F F F ! ! ! ! ! F F ! y F F y F F F F y F w F s F w F g F s F F F w F F F 4 h p.i.i.@.X...@.:.@.;.s.:.X.X.(  .a.O.i.;.Q @.O.#.O.W /  . . .a.4.;.s.O.O.:.O.:. .;. .( / V :./ { ;.>.O.:.;.{ ( V O.B V B { :.{ ",
"FXFXFXFXFXKXFXFXFXFXFXFXSXAXAXAXFXSXDXSXFXSXDXAXmXGXAXDXAXAXCXCXAXCXCXCXdXdXlXdXdXCXCXxXxXdXaXfXdXkXaXpXaXaXkXCXaXdXlXlXaXdXpX) ,X,X,X3X}.=X*X=XZ.Z.R.E.T.Y.*X:X}.:XzXzXsX3X5X3X5X}.Y.yXoX,X}.T.T.P.U.oXY.U.:XU.].iXiX1XpXpXoX<X4X|.iX1X|.`.U.U./.i.V.}.T.g.C.W x ..} ! ! ! ! } ! ! ! ! ! ! ! ! ! ! ! ! ! ! ! ! ! ! ! ! ! ! ! ! ! ! ! ! ! ! ! F F F s F F F y F w F s F s F F F F F F F F F F 4 ; N.i.:.O.X.@.@.@.i.g.s.O...X.X. .;.#.4.O.o. .O.O.O.( X. .( #.6.;.6.6.O.{ ;.{ :.O.:.O.( O.( :.( :.6.:.{ ;.-.O. .( { (  .:.{ B { ",
"NXAXAXNXFXFXAXAXAXAXAXAXAXAXAXSXCXmXCXZXDXDXAXDXAXNXDXAXSXSXAXCXAXDXAXDXSXDXAXDXFXAXSXFXCXCXCXDXSXZXSXZXZXGXlXZXlXcXZXZXxXxXaX{ W.>XY.5X=X*X}.*XN.R.Q.Q.R.,X}.,XY.:XiXfXiX:X1X3X3XoXT.3X1XW.E.U.,XR.P.E.}.E.,XU.}.pXiX1XzX4XoXoX5X`.4X4XoX XV.`.U.k.M.}.{.z.B.W u.a.$.^ | ^ Q ! } ^ ^ Q $.^ ^ $.^ ^ ] ^ ^ $.^ ^ ^ ^ =.^ ^ ^ ^ ^ ^ ^ ^ ^ ! ! F F ! F F F F F F F F F F F F F F F F F F ! F F F 4 h p.i.4. .X.:.@.@.i.s.s.;.X.X.}  .;.6.;.o. . .o.O.#. ./ o. .;.s.6.4.4.-.O.+. .:.O.-. .( o.( O.X.{ 6.5.O.;.-.O.R V  .:.V { { { { ",
"NXGXMXmXrXfXrXrXeXeXeXrXsXrXrXfXdXfXrXrXrXrXfXpXfXdXzXlXpXfXpXfXfXlXzXfXfXfXpXpXpX3X3XeXpX3X3X3X3X3X3X5X3X5X5X5X3X3X<X:X5X1X}.( Y.,X*X,X>X=X-X*XN.Q.Y.T.R.Y.,X*XT.:XpXpX3X:X:X5X3XoXU.eX,X}.E.U.Y.R.U.Y.oX}.}.}.=XiX3X3XpX2X[.|.2X`.hX2XoXP.U.].U.s.l.}.Y.l.m.W c =.o.$.! ! ! ^ ^ Q Q Q ! ! ^ ! ^ ^ ^ ^ | ! ^ ^ ! ^ ^ ^ ^ ! ^ ! ! ! ! ! F ! ! F y w y w F F w F g g s s s F g 4 4 w w 4 w w w 4 h N.6.z.#.( :.#.:.;.;.6.:.Z X.} ..;.4.a.O. . . .O.O.Q  ./  .;.4.7.;.4.+.+./ o.O.o.;.-. .O.( :.( -.8.-.O.:.-. .V V :.( { V :.B { ",
"FXFXAXNXAXNXNXGXfXmXmXmXmXlXrXeXsXrXzXmXdXeXeXpXpXzXzXrXlXeX3X3X3XeXeX3X3X5X=X:X=X>X5X:X:X:X:X:X X=XtX5X<X=X}.*X}.{.Y. XY.U.m.L Y.>X,X=X:X=X:X:XN.N.E.T.U.Y.}.}.}.=XiXdXpX:XoX3X1X,XT.1XoXoXT.T.T.P.oX}.E.OX>X}.:XiX1XiXiX4X|.XX<X'.uX4X|.m.`.|.U.l.l.`.C.B.m.W c } l x l y j l l ! ! ! ! l ! ! k ! ! ! k ! k ! y ! F F F y y y y F w w w w q 4 4 : : : w w w w 4 q 4 4 4 w 4 4 # # 4 w 4 # 4 # h N.z.k.#.( #.@.O.;.;.;.:.X.@.X.O.:.4.6.#.X. .O.@.' W  ./  .;.4.k.4.6.-.O./ O.:.O.;.o. .O./ O.( O.4.-.{ O.O.o.n B { { X.(  .:.( ",
"rXdXdX4XeXrXmXlXmXGXfXlXrXdXdXdXdXmXsXlXlXdXlXdXdXrXeX4XeX>X5X5X3XeX9X5X5XeXeXeXeX3X3X3X3X3X3X5X3X3X3X4X5X2X3X3X3X1X1X3XiX1XOX( Y.:X=X=X-XY.*X>XR.N.E.T.V.}.=X}.oX:XiXpXpX<X5XiXiX1XoX:X,XW.U.U.P.T.W.Y.U.oX1X}.oX5X3X1X4XuX@X@X#X'.zXuX[.|.U. XU.l.U.[.V.l.V.W c } j j l s j y k j x k k k t y F y k F F y y k F F y w t k F y y y w F y y y y y w F w 4 w 4 w w g 4 w 4 w w w g F w r F 3 w 4 h p.s.s.:. .:.#.O.;.;.:. .X.X.:.X.#.4.6.@. . . .+.X.X.Q  . .4.4.k.1.5.-.+.R o.-.o.-.o.O.+./ O.( { 4.{  .+.O.( V B { { X.{ { V { ",
"mXMXGXrXeXfXpXpXsXsXfXsXeXeXeXrXfXfXeX5XeXpXdXdXdXdXGXmXeX5X5XrXpXsX>X|.:X>X3X3X5X5X:X>X:X5X5X3X5X<X5X<X<X:XoX|.|.:X<X@X:XoX}.L E.*X,X:X*X*XY.}.T.Z.T.E.M.*X:XU.:X<X3XpX3X3XiX1XiX3X}.:X*XU.U.}.T.}.}.P.Y.oX>X].:X3X3XuXuXuX1X|.1XoXzX1X|.'.`.{.C.C.M.].m.f.C.W c } k k l l j j k k l x l l y k k ! y ! k ! s F F k y k F t F y F F k y y y w y w y w w w w w w w w 4 w 4 4 w F w F 3 r F 4 3 # h N.6.f.#.O.:.#.@.#.#.#.#.} X.O. .O.#.a.#.W O.O.+. .o.W O.O.;.6.7.1.6.4.O.W o.4. .;.o./ :./ o.} o.6.O.( O.o. .V B :.O.) ( (  .( ",
"NXmXNXAXAXmXmXNXAXAXNXAXGXmXmXlXdXdXfXeX5XeXeXfXeX4XzXGXfX4XeXeX5X9X5X>X5X>X>X>X:X:X-X>X:X5X:XoX=X<X<X:X=XoX5X<X<X3X5X<XoX}.`.( E.:X:X>X:X*XY.,XZ.N.*XE.R.Y.-X}.*X<XeXaXiXiX3X:X3X5X}.5XE.U.Y.oX}.:X}.}.}.:XoX].oXiX4XpXuXhX<X|.@X@XhX4XoXm.U.P.`.C.l.`.b.l.C./ c ..! z z z z T F l l y l l T ! ! k ! y y k y k k F F y y t t : t t y : w w w w q = w 4 4 F y 4 4 F 3 3 F w F 3 3 F 3 3 4 4 4 # h z.s.s.#. .:.#.+.:.#.4.:.} Z O.O.#.#.6.@.W  .o.#.o. .X.@.o.:.7.6.-.4.1.4.( o.:.o.-. .( {  .( B +.4.' !  ./  .V V >.:./ V (  .R ",
"sXmXdXmXmXmXmXdXdXfXfXfXfXdXfXeXfXmXmXrX3XeXpXpX3XfXfX3X5XeXpXeXiXeXeXiXiXpX3X5XiXiXiX5X5X5X:X1X:X:X|.:X:X3X:XoX}.|.<X3X1X>XoX{ E.,X}.:X5X*X}.-XZ.l.E.Y.V.}.-XY.}.3X3XzXaX3XoXoX1X3X}.1XoXU.U.:XoX:X:X}.}.:X}.OX:XpX3XuXzXzX1XoX<X<X4XyX+XT.V.C.`.V.V.|.V.b.`. .c #.^ ! Q ! ! ! ! } ! ! ! ! ^ } ! F ! ! F ! ! F ! ! ! ! ! ! ! ! F F ! F F F F F F y F F F F F F F F w F F F w F 3 3 s w F 4 F # h N.f.d.#. .;.#.#.#.#.=.:.} X.O.O.:.O.;.+.X. .o.O.O.X./ @./ +.4.6.+.6.4.4./ o.:. .;./ /  . .W W O.1./ V o.( ( M B { :./ R ( ' ( ",
"mXmXdXmXdXdXdXfXmXGXmXdXmXGXGXGXlXGXlXfXpXeXeXpXeXfXzXeXfXfXpX4XfXpXfXiX3XpXpXpXfXsXfXiX1X1X:X1X1X1X5X3X3XiX1X1X<X}.oX1XiX3XyX{ E.3X}.,X5X*X}.*XN.R.E.T.V.Y.:X].}.<X1XpXaXiX5X1X3XiX:X1XE.Y.].W.}.5X5X`.}.1X}.}.|.fX1XhXpXkX:X|.4X@X4X4XoXm.M.U.U.m.C.oX{.m.{.$.c $.! ! T z ! ! ! ! ! ! ! ! ! ! ! ! k ! k x ! ! F ! F ! F ! F F ! k F ! y y ! F ! ! F F F y w F F 3 F w 4 4 w F F w F F F F F # h N.d.b.:. .;.+.:.;.#.;.+.} X. .$.O.:.+. . .#./ o.#. . . . .O.-.6.+.7.4.1./ o.+./ O.( X.O./ B / +.;.( V / / W V ( :.:.( ( O. .R ",
"FXFXFXFXFXSXFXAXAXCXAXCXAXAXDXCXCXSXCXAXAXDXAXAXAXAXDXCXGXGXGXcXdXdXaXdXaXdXxXdXxXxXlXCXlXaXaXaXaXaXpXiXdXxXaXaXpXzXlXcXxXxXxX{ ,X3XoX,X1X,X*X}.V.R.Y.V.R.T.,X}.{.1X3XiXiX1X3X5X3XiX1X1XoX}.}.}.}.:X:X`.}.oXoX].}.pX3XiXzXlX<X<XuX<XuX1X<X{.k.U. XV./.@XK.A.`.W A =.^ ! ! ! ! T ! ! ! ! ! ! ! ! ! ! ! ! ! ! ! ! F F ! F ! F ! ! s F F F F w F y F F F F F F F F F F F F F F ! F F F F F F F F 3 h N.z.g.#. .:.:.#.+.#.;. . .W  .@. .:.:.(  .;./  .O./  .o.X.o.-.4.+.4.1.4./ ' O.( ;.W / O.X.B  .+.4.W m (  .R n ( :.:.W ( o.' ( ",
"IXIXLXKXKXKXFXKXKXKXSXSXCXlXAXZXCXGXlXGXCXZXAXSXDXFXSXDXCXZXCXGXxXdXaXdXxXNXxXxXCXCXxXZXxXJXJXDXSXCXZXDXJXDXJXZXZXxXDXSXZXxXkX{ Y.,XE.:X:X:X:XY.Y.N.Y.l.l.V.:X}.Y.3XiX4X:X:X1XiX1XiX:X:X}.Y.E.oX].:X}.}.}.5X:X].oXiX3X2XuXkX<XoX4XoXzX4X@X|.z.U.].M.V.|.`.m.`.Q A =.^ ^ ^ | ^ ! ^ ^ ^ ! ! ^ ^ ^ ! ! ^ ^ ^ ^ ! ! ^ ^ ! ! ! ! F ^ ! ! F K ! ! ! F K F ! F F ! ! F F F F ! F F F F F F F ! K F F 3 h N.f.k.:.@.4.O.#.:.;.;. .X.X. .O.O.O.-.@.} O.o.O.o./ X. .} O.4.;.;.6.-.5.o./ O.X.;.W Q O.W W +.;.-.W m (  .( n V ' '  .X. ./ ( ",
"DXSXSXSXFXLXLXLXLXIXPXPXPXPXPXPXPXFXSXSXFXKXPXLXPXPXPXLXIXPXFXPXKXKXKXKXKXLXKXLXKXKXKXKXJXKXLXJXSXZXZXZXZXZXJXZXDXJXcXcXCXxXxX{ E.:XT.:X,X:X*XY.Y.N.T.N.l.T.oX*X}.3XpXuXiXoX:XiX:XiX:X:X}.U.U.oX}.}.}.].}.1XoXU.}.iX:X2X1XkX1X@X4XoXuX4X<X{.g.].`.k.l.oX{.C.|.X.D a.$.^ =.$.$.^ ^ ^ ^ ^ ^ $.$.^ ^ ^ ^ *.^ ^ ^ ^ ^ ^ ^ ^ ^ ! ! ^ ^ ^ ^ ^ ^ ! ! ! K K K ^ ^ ! ! F ! ! ! ! ! ! ! F T F F F g w r 4 h p.6.b.s.;.;.O. .;.;.;. . .O. .O.O. .;.#.B  .+.O.O.o./ X.( #.;.4.4.6.+.-.o.( O.X.#.W  .O./ W +.+.O.! V ( o.B V W  .O. ./  ./ ' ",
"KXKXKXKXKXKXKXKXKXLXLXPXPXIXIXIXIXIXIXIXIXLXLXLXPXLXLXPXPXFXSXFXFXSXFXJXJXJXSXDXJXDXDXZXJXDXcXcXlXxXxXxXlXcXlXcXZXZXZXZXZXxXlX) E.oXE.}.:X5X=XT.T.N.T.N.V.Y.=X}.|.4XiXiXiXoX:X3XoXiX3XoXU.U.P.E.:X}.U.T.oX@X}.].oXiX5X1X1XpX1XoXuX@XuXuX<X`.l.}.C.b.m.|.`.V.m.W x y.^ ! ^ ^ ^ ^ $.] $.^ =.] ^ ^ ] =.] =.&.$.$.^ ^ &.^ &.^ &.$.^ ] ^ ^ ^ ^ ^ ^ ! ^ ^ ^ K ^ K ! F F F F w F w y 4 : = = 4 w 4 q # h N.4.d.6.4.i. .X.O.i.#. .X.#.O. .o.O.;. .W o.O.O. .}  . . .;.;.4.4.6.+.-./ W O.' +.V / O.Q / ;.+.o.V ( ( o.B V V ( { } / o./ / ",
"IXIXIXIXLXLXKXKXKXKXPXKXKXJXLXLXPXPXPXPXLXLXKXJXJXJXDXDXSXDXJXDXCXZXDXCXZXDXcXZXZXZXJXcXcXDXcXcXxXxXkXxXcXlXxXlXxXxXcXkXkXkXzX( T.,XY.}.*X5X=XV.N.N.V.N.V.T.}.:X=X3X4X4X3X:X1XiX3X3XoX:XC.V.U.}.}.oXT.}.:X:X}.}.:XiX5X:X1XkX:X:XhX5XpXhX[.U.M. Xm.V.`.|.U.C.`.W c ..! ! ! ! ! ! ! ! ! F x ! ! } ! ! ! ^ ! ! z z ! ! ! F z ! ! ! ! F F y F y y F t F w w w w w w 2 2 q q q q w w w w w w w 5 i # h N.6.b.d.-.;.$.X. .4.:./  .O. .$.o.o.4. .W $.o.O.O. .V ..O.4.4.4.6.6.-.+.O./ O.O.;.W o.O.W / -.-.( W / ( o.W n V / O.R  .-.R  .",
"IXIXLXLXLXLXLXKXKXPXKXKXPXPXKXKXJXSXJXSXJXJXJXDXJXNXDXDXDXAXCXxXlXcXCXxXxXCXcXcXxXZXDXcXcXDXcXZXxXkXxXxXxXZXZXlXxXxXkXcXlXcXaX` T.3X*X*X}.{.}.Y.z.V.R.z.N.Y.|.|.}.oX3XiX<X<X1XiX3X1X:XoXU.l.U.}.}.:X`. X=X|.oX].@XiXoX2X2XkX[.|.4X1XhXzX XP.T.`.`.U.C.|.m.Y.`.X.c } x x k ! k l k k y ! ! k ! F z z z z z z y ! F ! F t y y F y s w y y t t y y w w F w F w w F s g g s s i r r s i 3 w w w w # h N.s.M.f.;.+.X.O. .:.o.Q X.o.X. .#.O.;.;.X. .O.O. .( } O. .4.4.4.6.6.-.+.+./ o.O.+.W +.O.! / ;.+.W ( o.( ' ! n W o. .B  . .W { ",
"IXPXKXKXKXJXJXJXJXJXJXJXKXPXLXJXKXKXKXLXLXLXKXJXJXJXKXKXSXZXCXDXDXZXDXDXJXSXSXDXJXcXcXcXJXcXDXcXcXZXcXxXcXZXcXcXxXxXcXcXcXJXcX>.Y.iX,X}.U.C.{.Y.Z.V.V.N.l.V.}.:X}.|.<X3X<XoX<XuX1X3X:XoXU.V.Y.}.=X:X X}. X/.oX}.:XiX}.yX4XuX X`.<X2XuXzX|.m.U.|.U.C.b.|.C.U.U.Q c | z x k y y k w : k k ! k k k k k z k ! F k F F F k y y F y F ! F F y F F F F F F F F w F F F g f g s i r w i s s i w w r r = > N.6.k.f.#.4. .@.o.O. .W } X.Q X.#.O.;.;.X. .O.O. ./ .. . .;.4.6.7.7.1.-.+./ o.+.O.W O.' V o.-.O.R  .O./ ' W n V O.W V  ./ ( O.",
"JXJXKXKXKXJXKXJXJXJXJXKXKXJXJXJXSXKXKXKXKXKXKXKXSXFXJXKXKXJXKXKXPXFXSXSXJXJXJXJXJXJXDXJXcXcXcXcXcXcXxXxXxXkXlXcXkXkXkXkXlXkXzX{ E.iX}.Y.Y.}.}.Y.Z.z.V.N.l.V. X:XU.:X4XoX1X@X5X3X1X<X:X<X}.P.}.}.:X:X XU.}.U.oX X:X3XoXyX1XyX].].1XhXzXzXoXM.C.].U.m.f.`.U.}.Y.( c } z x l x ! ! ! ! ! ! ! x F F F z l F F k y y t y t t k F y y t y w y y t y y y y t y F y F w d F g F g r r r w w w 4 q = = O h p.;.z.6.+.6.O. .O.#.O. .W X.W W o.;.a.+. .O. .O. ./ W O. .;.4.6.7.d.4.-.O.o.O.O. . .O./ V +.#.o.V / ' / / W u B o.( B  .} / O.",
"LXKXKXLXLXKXKXIXLXIXPXPXPXLXPXLXLXPXLXLXPXLXLXLXLXLXPXPXKXKXJXJXZXCXcXzXzXcXcXlXcXkXkXkXkXkXjXjXuXjXuXuXhXjX2XhXyXyX2X2X2X%X+XE E.3XT.=X=X*XY.{.N.z.V.S.S.U.|.oX].|.3X@X<X3X:X1X3X1X<XoX XM.*XoX=X<X|.`.]. X|.].oXiXoX4X1X4X].|.4X4XkXhXoXb.C.`.U.V.d. X`.{.{. .c u.! } x x ! x z z z z k ! ! y x N N x z z z F ! ! x ! F k ! y F ! ! F y ! ! F F F y F F F ! w s g r q q 4 : 4 4 q q q w w w 4 h p.O.#.6.#.4.#.O.O.#.O.| X. .B | O.#.;./ } O. . .O./ W o./ ;.-.4.s.h.4.+.O./ O.o.O.W O.W V #.+./ V / o./ o./ n V o. .V  .W  . .",
"IXPXIXIXPXPXPXPXPXKXJXJXKXKXJXDXSXZXZXxXZXDXZXZXZXxXxXcXlXaXaXaXhX$XvX4XvXvXhXhXuXyXzXjXjXkXzXkXjXzXjXjXhXhXyXyXyXuXjXyX4X2X%X) -X:X}.Y.;X=XU.A.b.V.V.S.z.U.`.=X X|.1X<X@X5X<X4X1X3X:XoXU.M.}.}.|.:X X}. X].}.`.<X1X<XuX2XhX[.[.1X2XzXhXoXb.U.].P.m.k. XC.U.C. .c } x ! } ! } ! N | ! ! x ! k ! F ! ! F z k F k F t F y k F y y t : y y t t w t : w : : : w y w w w w q w r r r r r i g g g F 3 h S.+.4.7.#.+.#.O.O.#. .Q  . .B | O.O.+.( W X./ o. .Q  .O.' ;.;.6.a.7.5.O./  .O.o. .W O.V W #.;./ V /  .' O./ n V o./ n  .R ( -.",
"xXZXZXDXJXJXJXJXJXJXJXJXZXZXCXZXxXxXZXxXcXxXxXkXaXxXxXxXkXkXjXkXcXcXcXZXcXkXlXlXkXcXkXkXkXjXzXkXhXyX2X%X%X$X2XhXjXzXkXkXjX1X@X{ }.*X}.Y.{.{.A.B.l.A.V.p.S. X X<XoXoX3X5X<X1X5X<X<X<X3X|.m.M. X}.|.:X X XoX]. X`.3XiX1XzXuXhX[.|.2X2XzXhX+XC.m.P.C.m.x.}.m.{.U. .c } l ! ! l x l | ! | ! ^ ! z z ! z z z z z t F k F k h y y t : t h t : t y y y y y w F F w F F g s s f a g g f F g g s F g s 2 h p.4.a.a.#.#.4.+.X... .|  .W M V #.:.O.X.( / /  ./  .W  .o.-.4.6.6.f.6.O./ / o.o./ W @.m / #.#.W V ( ' ' o./ V V  .W M  .B / -.",
"JXJXJXJXDXDXDXJXZXcXxXxXZXZXZXZXZXZXZXcXxXkXzXkXxXxXxXaXaXxXxXcXGXcXkXzXzXzXzXhXyXzXjXuXvXjXjX$X1X<X2X2X5X2X2X2X2X2XyXjXhXuX2X{ }.5X:XY.|.Y.{.l.f.V.A.z.S.U. X3X:X[.<X1X<X|.%X1X|.<X<X].C.V.}.|.|.|.].].:X|.U.].4XiX4XuXuX4X[.|.5X2XzXyX[.U.C.V.m.C.M.U.k.Y.U.W x | ! } ! k ! l z z N z ! ! | ^ ^ ! ! ! ^ ! ! ! F z ! F F k F ! F F y F F w F w w F F w F F F w f g F f J f f f g i s F g g g 4 > p.6.f.s.4.o.4.O./ W W | W V M B #.;./ o./  . ./  .( M / ' +.4.6.-.k.5.-./ / o.O. .W  .n Q 4.+.T V / '  .' o.! n ( W N ( V / O.",
"JXJXJXJXJXJXcXxXZXZXZXCXZXZXZXxXxXzXiX2XyXaXkXzXaXaXkXaXzXkXzXzXzXzXhXvX4XhXhXhXhXhXhXhX4XhX4X4XyXyX2X5X2XvX4XvXvX<X2X2X5X2X%X~ Y.<X{. X}.}.V.l.f.N.A.A.S.V. X|.4XXX<X1X<X<X3X1X<X|.<XU.m.U.|.}.}.oX X X}.oXU.P.4X3X4XhXhXjX[.[.yXhXzXhX Xn.C.n.M.m.C.`.f.V.`./ A $.^ | ! ! ! z z z z z x z z z z ! ! | ! ! ! F k F F ! k F F F F s s y F s s y F ! y F F F F F F s F f F f a f F F F w F F F 4 h p.;.4.a.s.+.=.o.X./ | | W N N M +.#. . . .O.O./ ( W B Q / +.4.-.6.7.-.+. . .o. .( W  .n / +.O.V Q ' o.' o.o.Q m ( W V W B / -.",
"ZXZXcXcXlXaXaXaXpXzXzXkXkXzXzXdXaXkXpXpXaXkXkXzXaXaXzXuXuXzXuXzXcXzXzXzXzXhXhXzXzXhXhXhXhX2XvX2X2X4X<X2X%X<XXXtX<X%X%XXXXXXXoXL Y.5XY. X{.b.l.A.b.A.C.A.i.b.{.`.5X<X|.5X4X4XyX3X{.`.3XU.x.}.|.|. XoX]. X].|. X`.5X3X4XyXuXuX].OX2XhXzXhXXXb.C.b.V.U.m.{.k.k.{./ c ..^ ^ | ! ! ! z | ! z z z z x k y z z ! ! ! ! z ! y F F ! k k s s T F F ! F ! ! F ! F F w y F g i s i i 3 5 g w F w F w 4 G 4 h z.;.4.6.a.+.4.#.Q o.o.N N } M B :.;./ /  . .:./ } B W o./ O.;.o.6.5.-.+. .' o.o.V  ./ B ' o.Q T ' / ' o.' { / m n W W B V ( O.",
"#X1XyXiXaXaXaXaXkXcXlXcXCXlXkXkXlXxXxXxXxXxXlXlXaXkXkXzXuXiXzXuXyXyXvXhX4X<XhXvX4XhXhXvX2X%X4XvX2X5X<X%X<XtX<X1X2X2X2X2X1X%X XL Y.:XT.m.C.V.b.`.A.{.;XN.i.i.A.`.@X5X|.<XvX4XhX5XU.U.:XC.b.}.}.|.|. X X].].}.|.P.@X4XuX1X2XuX'.OX5XhXzXhX|.U.`.b.m.}.U.{.k.s. X .x $.^ | ^ | ! ! ! ! ! ! z ! z z k y y k y k ! k ! y F k F k F F F T ! ! ! T ! F w y F F F F F w g s i i i s i g F w 4 F 3 3 4 # h N.;.#.4.a.o.a.+.o.o.o.N N | N  .O.;.o. .O. . ./ ( V W ' / O.+.O.6.5.+.{ O.O. .o.W / W V o.O.R ! ' { ' ' O.' ' V j W W R V W +.",
"aXaXiXaXlXxXxXxXSXZXZXZXCXcXZXcXxXlXxXkXaXuXaXkXiXyXuXaXhXyX2X2X5X2X4XhX4XhX4X<XtX<X5X%XtX%X%X%X%X2XvXtX%X%X2X<X2X<XXXtXXXXX'.L =X:XV.U.C.`.A.C.{.K.C.i.i.i.S.Y.|.3X|.tXhXhXuX<XV. XoXm.C.}.`.|.}.`./.].'. X].`.tX@XuX2X2XjX@XOXhXyXlXhX|.`.C.m.B.`.`. XV.l.`./ A $.! ^ ^ ^ $.^ ! z z z z z ! z ! y ! t y F t F k F y F k F y ! ! F F F s F F F F F F w w w ! F g g i s s F s g 4 G w F F F F G > S.4.6.6.s.o.+.#.o./ ' V N W N  ./ O.o. .O.O.( / W M W  . .+.4.+.4.6.4.o.o. .{ #.( / W W O.O.R Q o.o.{ { O.o.' R n W W V n ( +.",
"xXlXxXxXcXJXcXxXlXcXkXcXZXZXZXlXlXlXzXpXuXpXaXuXzXzX2X1X2X4X1XuXhX2X<X<X2X2X2X2X4X5X2X2X2X2X%XXX%X<X<X@XXX.XXX[..X X.XXX@X@X[.L }.}.`.`.{.`.C.{.|.{.i.i.u.i.f.V.'.5X[.@XzX4X4X=XU.}.|.U.C.}.|.|.`.].'. X`.|. X].|.[.uX2XuXzX@X[.4XhXkXyX|.m.m.U.m.m.C. XC.V.K./ A $.! ^ ^ ^ $.^ ^ ! ! ! ! z z z ! F k F F ! k y F k F k F y F F s F F s F T y s ! F w F F F F F F s F T s F F g F F F F F F w 4 h S.;.5.;.d.#.+.o.o./ Q W V V N N  .o. . .O. ./  .W N W /  .#.;.+.;.6.1.{ o.( o.-.W / W W +.o.! / ] O.] { O.] ' Q n W V M V ( +.",
"xXxXxXxXDXcXcXlXkXkXkXcXcXkXlXZXcXkXiXkXlXpXiXzXkXkXuXuXiX2X4XyX2X%X%X2X2X5X%X5XvXhX5X%XvX$X<X%XXX%XXX|.XX X[.XX<XXX<X%X@XoX_.P Y.{.{.K.`.U.C.C.K.V.u.D g.g.l.l.`.:X`.5XhX4X5X X`.U.}.U.`. X X|. X`.}._.m.].].P.|.|.2X2X2XzX@X'.4XhXlX4X:XC.V.`.'.U.b.U.C.V. X$.c $.! | ^ ^ $.^ $.^ ^ ! ! ! ! z ! z k ! k k F k k F F k k y k F s s s F F l F ! F F F F w F F w i i z F F F s g F w F w w F F 4 k N.-.k.;.4.#.;.#.o./ o.W } W l M V o. . .O. .(  .X.W ( / / +.=.+.;.1.4.' ( / O.o.! / ! V O.o.R O.O.+.+.' O.o.+.E M V V m m ( +.",
"lXlXkXkXxXcXcXcXcXcXlXlXkXcXZXcXxXlXkXiX4XyXuXzXkXzXzXzXhXhX4X2X<X2X2X2X2X2X5XvXvX5X2XXX%X1X<X%XXX@XXX.X'.|.XX<X<X<XXXXX@XXX).R Y.|.C.|.{.`.{.`.A.b.y.D y.l.B.g.{.XX XoXhX4X=Xm.C.V.m.`.{.`.U.[.`./.|.H./.'. Xm.|.XX1X2X2XhX%X|.2XhXkX4X<XU.x.P.[.m.m.V.m.C.`.o.x $.^ ^ ^ $.^ $.$.^ ^ ! ! ! z ! z z z z F k ! F ! k y t k F s y y F s F F F ! F y y F y F w y y s F F s T T F s w F w 4 4 F F 4 k N.;.M.6.4.O.4.#.o./ / | }  .l n /  .o.(  .O. .Q W V Q ( ( ;.6.+.+.-.1.' ( / { / n Q W W O.' E O.+.o.{ ' o.O.{ / R m ! n n W { ",
"xXxXxXlXxXxXkXkXkXzXhXhXkXxXxXcXkXlXuX1XuXhXuXuXaXzXzXzXzXhX4XvX2X2X2XyX4XvXvX2X1X%X.XXXXXXXXX<X%X<X<X@X@X|.|.tX<XXX@XXX1X<X[.( Y.=X{.=X}.C.`.U.K.N.i.y.S.g.S.i.`.@X|.<X3X<XU.V.`.`.m.U.`.].`.|.`.'.|.P.`.'.'.P.|.%X2X4XuXhX[.[.2X4XzX1X:XU.x.m. XC.b.Y.m.}.`.Q A =.$.$.^ ^ ^ ^ ^ ^ z ! ! ! F ! z z z z z l l k F F k y y y l F l s y y s s y s s s y F F F s F g i w g s s g F F F F w 4 F F 4 h N.;.k.6.d.O.#.+.' /  .Q V W N M / / O.( (  .B V V V | W Q +.6.-.-.1.4.' ( / o. .n Q W ! { R Q O.O.' { { { ] O.' ( V n v m R { ",
"kXkXlXkXlXkXzXzXkXzXzXzXzXkXkXxXxXkXiXiXuXkXjXkXkXkXkXyXuXuXhXhXuXhXyXvX4X2X2X4X4XXX.X<X2XXXXXXX<X<X%XXX<XtX:X<X<X<X<XXXXXXX'.J V.5X|.{.U.{.U.`.U.l.i.i.i.y.i.l. XXXXX<XXX Xm.m.`.`.`.`.'.m.`.].[.'.|././.|.'.P.[.@X2X4XyXjX'.(.4XhXhX1X<Xm.M.H.m.V.b.{.`.=X`.Q c $.^ ! ! ! z ! z z z N z ! z z z z z ! ! F x z k F y k t w F y y y y w : q q t w y F F F F F F w s g r F F s F F F F w 3 w F # k S.;.k.5.s.+.O.#.Q  .o.X.M W W W /  .o.Q X.o.M V m W ( R / -.5.=.1.1.1.{ Q o.o./ n / T Q ' R Q O.+.' o.' ' o.' ' Q V d l v R ' ",
"uXiX1X4X4XuXhXzXzXcXkXkXlXlXkXxXcXkXkXkXkXjXjXkXjXyXiXjXjXzXhX2XuXyXhXvX2X2X%X4X<X2XtXXXXX2XXX X{.{. X|.XX<X<X<X@X@X<X%X@XXX'.L C.|.{.{.C. X X{.C.l.i.f.S.g.b.A. X'.[.2X@XV.V.m.m. Xm.P.`./.m.`.`.|.|.`.'.'. X/.`.@X2X1X2XzX].'.2XuXzX<X=Xm.`.`.`.b.b.C.C.{.`.Q A $.! | ! ! z z z z ! ! z ! z z ! z z z k ! F h y h : t t t y t y y y y y t t : w q w w w w s s F F s F g s s g w F w F 4 F w # h z.-.7.s.d.+.O.+.!  .| Q N W W  ./ / O./ / / B V m m / T / ;.4.-.1.1.-.o./ O./ R n ( n W Q Q ' [ { +.] { / ' ' ' ' V u m V W ' ",
"zXaXkXkXkXzXjXzXkXcXcXkXkXkXzXkXkXxXlXkXkXuXkXkXkXyXyXuXzXaXiX#XvXvX4X4XvX4X2X1X%X2X%X%X%XXXXX@XXX'. XK.{.`. X|.XXXX<X2X4X2X+XE A.|. XC.`.C.m.Y.f.l.g.S.z.B.B.K..X|.XX1X Xb.m.].`.`.b. X].n.m.`.`.[.[.'.|.`._. X/.OX1XuXyXjX[.].2XuXzX<X|.m.`./.m.M.l.b.l.`.`./ c $.! N z z z z x z z z z z z k F k x F t t h h y h t t y t F k k F F s F k F F y w t y w w w w w i F F g F g g w F F w F w F # h i.-.f.4.s.#.O.+./ X.W W W  .W o.o./ o./  .W W | n n / V ' +.4.1.4.4.4.]  .o.o.W m R n W E ( +.+.' o.+.) ' Q / / { E n d V ( { ",
"lXaXaXkXzXjXjXjXzXhXuXhXkXkXkXkXkXkXcXkXkXkXkXkXkXkXkXzXaXuXiX1X<X<X4XyXhXhXyX2XvX<X%XtX<X2X<X%X<X2XXX X'. Xm.m.'. X X.X+X+X.XR A.:X`.C.V.C.C.b.i.l.g.g.g.b.K.{. X XXX<XC.K.`.m.].`.m.|.{.x.C.m./. X'.`.'._.`.|.H._.1XuXyXzX[._.2XyXzX|. Xm.m.V.m.b.z.M.j.`.`./ c | z z l k k z F k k k x k k F h t k k k t F F ! F ! ! ! F ! ! F ! ! ! F F s y y F y F F s F F s i r i w 3 w i F w F F F F 3 4 > z.O.j.4.6.6.O.O./  .B V | X.W / O.' /  . . .V } V m / m / 1.1.4.6.1.1.o.Q / ' W m V v ! ( / { ] o.' ' ' _ Q ' ' { Q d u ! Q ' ",
"SXSXZXcXZXxXkXkXkXjXkXcXkXaXiXjXkXaXuXkXkXaXkXkXkXkXaXkXaXkXaXiX3X4X2X@X1X4X1X%X%X2XtX%X%X<XvX<X2X%XtX5X@XtXXXXX@XXXXX+X[.(._.v Y.=XC.`.C.V.C.B.l.g.i.z.g.l.C.'.|.'.|.XXm.`.m.m. Xm.m.|. Xx.H.P.`.'.`.'.[./.'.`./.'.%XuXuXzXoX_.#XuXhX|.U.`.b.d.x.V.k.V.x.m.`./ c x k k k k k k x z x z z z x k x F k l ! F F x ! ! ! F F ! F F F F F F s s s s y F w F y w w w w i i 3 i r i i F w F F F F F 4 > z.O.k.6.s.4.O.O.' ..V N W X.W ( O.+.Q W '  .m W n W / z / =.+.4.4.1.=.] Q  .' W V m l R Q ' O.] O.Q E ] { ~ ( ' { W v n V W / ",
"FXSXJXJXJXJXJXJXJXJXJXZXxXkXkXkXaXiXyXyXyXyXyXzXaXyXaXiXyXiXiXiX4XhXuXuX2X4X2X<X5X2X2X2XvX2XvX%X2X$X%X%X@X%X1XvX<X%X%X.X.X@X'.v V.`.b.C.`.m.b.B.l.p.i.g.g.b.`.'.XX[.XX'.b.M.P. X XP./. XU.b.m.m.`.'.H.[.|.H./.U./.|.<XhXjXjXoXP.oX4XuX+X[.U.x.V.f.M.V.m.V.b./.+.c Z x z z z F ! z z ! z z z z F z k F F k k k F y y t F t k y y w w t w w s F F F y w y s F s s g s g s g i 3 i 4 F w F F F F 4 h i.o.6.6.s.4.+.O.{  .N B W / V  .o.o./ W X.X.W Q N W ' n / =.*.5.1.1.1.+.Q '  .R V m m Q Q ' +.{ ^ m V o.] _ Q { { ( v ( v ! ' ",
"KXKXJXJXJXJXJXPXJXJXJXJXJXZXDXDXcXcXkXlXlXkXjXzXkXcXkXkXaXiXiX1X4X4XuX4XhX4X4X4XhXhXhX4XvXvXvX2X$X$X$X2XvX4XvX$X%X%X%X@X%X%X+XT V.{.K.{.C.n.K.B.b.i.i.z.g.b.H.[.[.|.|.`.d.b.H.'.].P.U.`.C.b.m.`.`.H./.'.[.H./.H.H.OX1X2XzXhX[._.@X@XyX1X@XC.k.m.6.b.C.C.m.k.m.;.c z l l x z k l z z z z z z F F k ! F ! F z z ! F F F ! ! ! z z ! ! ! ! ! ! ^ ! ! ! ! ! ! ! F ! J T ! F s z F r w w w w 4 w 4 4 > g.o.4.s.6.;.O.O.O.X.V B V W W W o.o. ./ W | W Q n m o.m ' +.[ 1.+.1.4.' / o.' ! V m V Q W ' +.{ R z v Q { { Q ' ' / V V v R ' ",
"xXxXJXSXSXJXJXJXZXJXZXJXJXJXDXJXJXJXJXJXJXcXDXcXZXZXZXcXkXlXaXaXkXaXzXuXhXzXhXuX2X2X4XvXvXvX$X$XvX$X$X2XvX2X$XvXvX2X2X2X2X2X%XT N.`.{.m.V.`.C.l.l.i.i.g.g.C.H. X'.|.%X/.k.c.`.`.'.m.H.[.m.b.m././.H.H._.'./._././.[.2X2XuXhXOX[.@X+XuX%XoXb.b.m.d.x.V.m.C.M.`.+.c N l x l x k F z z z z z N ! ! ! ! z | ! ! ! ! z x ! ! ! ! ! ! K ! K ! ! ! ! ! ! ! F F F ! ! F J J J J F F F F F F F F w F F 4 > z.:.8.6.4.#.#.+.O./ N V M Q W W Q o.' / ! W W W n m O.T ' +.O.+.[ 4.=.R Q o.o.! ! m T W R ' O.' ! d m T ' +.' E / / v m V ! / ",
"xXcXxXxXxXxXcXcXcXcXcXkXkXcXcXcXxXSXZXcXSXSXJXcXZXZXDXDXZXxXxXZXZXcXcXkXcXcXkXhXhXhXjXjXvXjXjXvXjXjXjXjXvXvXvX$X%X$X$X2X2X2X@Xv l.'.{.m.C.U.l.f.B.:.i.g.g.C./.[.|.[.XX'.b.n.`.[. XC. X[.b.b.H./.`././._._._./.'./.[.1X2X2XhX+X[.2X#XhX+XoXb.k.m.k.b.d.V.C.V.'.-.x ..z z ! ! ! ! ! ! ! ! ! ! ! ! ! ! ! F ! F ! ! ! ! F F ! F F F F F s F s s w s s F F F s F F F F J J J F T F ! F F T s w F w 4 > z.+.6.4.4.O.' +.o.W M M ! W | V X.o.o.! / W V W u n o.T o.*.*.*.+.2.+.R ' o.o.Q R v W Q m ( ] / m m d f R { ~ R o.' T v V V / ",
"SXZXSXSXDXxXZXSXZXJXZXZXcXZXcXcXZXZXcXxXkXaXuXaXuXaXaXxXlXaXkXkXxXcXlXxXZXZXcXcXlXZXcXkXkXkXjXjXjXjXvXvXvXvXjXjXyXvXjXjXuXyX@Xv l.V.b.C.V.A.b.f.f.y.g.j.f./.H.[..X`.XXXXx.m.H.'.m.m.H.'.h.m.`.'.'./._.'././.m.'.'.[.%X1X2XhX+X].2X2XyX+X|.b.k.m.k.M.d.m.K.x.`.-.Z $.^ ^ ^ ^ ! ^ ! ^ ! ! ! ^ ! ^ ^ ^ ! ^ ! ! ! ! ! ! ^ ! ! ! ! ^ ! ! ! ! ! ! ! F F F s F s w y g y s s F F F s g F F F F F F F 4 > z.+.6.4.1.o./ +./ B W B W Q W ! / O.O.W  .W N m l n ' ! ' O.[ 1.=.1.] Q / / o./ R v / / m / { / v d v s n E / ( ) _ E T ! V E ",
"SXJXJXPXKXJXJXJXJXJXJXJXJXJXJXJXSXZXZXcXcXxXZXZXcXcXZXxXkXxXzXkXlXzXzXzXkXkXzXzXkXcXzXkXjXcXcXkXcXcXcXjXcXjXjXjXhXuXjXzXjXjX$XV z.b.Y.C.C.U.b.B.l.@.z.b.f.H.m.|.|./.XXXXx.x.`.`.m.m.`.C.x.m.'.].(.'.[.'.m.c.G.).[.|.[.2X1XhXoX_.#X#XuX[.].b.6.m.x.f.f.d.m.V./.+.x =.^ ^ ^ ^ ^ ^ ^ ^ ^ ^ ^ ^ $.^ ^ ^ ^ ^ ! ! ! ^ ! ^ ! ! ! K ! ! ! F F F F F F F ! ! ! K ! ! ! ! J ! J F F r w F F F s F F F F 3 : z.+.4.4.1.o./ +.X.| W m W W V W o.O.+./ X.W n n n l Q W ' ' +.1.*.+.] T ' o.o.Q W m ' ) V Q o.' v u V m r v / ' E ) Q R T v V ",
"JXcXSXJXJXJXSXSXJXJXJXJXJXDXJXJXJXSXZXZXZXJXSXDXJXJXZXZXZXZXlXCXZXcXcXcXcXcXcXzXkXkXzXhXjXkXkXjXjXkXzXcXcXcXcXcXkXcXcXjXjXyX$XV z.b.m.V.C.m.d.b.f.i.z.f.b.n.m.[.XX'.XXXXb.M.H.m.m.K.K.m.m.H.m.'.'.'.'.'.v.c.m._..X[.[.2X%XhX+X_.+X$XyX'.`.b.k.m.k.d.s.s.m.m./.' c ^ ^ ^ ^ ^ ^ ! ^ ^ ^ ^ ^ ^ ^ ^ ^ ^ ^ ^ ^ ! ! z ! ^ ! ! ^ ! ! ! ! ! ! ! ! F ! ! ! ! J ! ! F F T F z F F F g 3 w w i F s 4 F F 4 > z.O.1.4.4.o./ +./ / W W W W m V o.' O.Q ! W z m l n W ! ' ' O.5.*.*.' J / o.' E R V O.O.R Q o./ d p v V y d E / R Q Q R T d V ",
"aXuXkXlXdXpXzXxXxXxXkXxXcXcXaXxXGXlXlXlXlXZXZXZXcXZXZXZXCXZXZXZXZXxXxXcXZXZXcXcXcXcXcXkXcXcXcXjXcXcXcXcXcXcXkXcXxXcXcXkXcXjX%Xv f.m.l.b.b.f.b.m.f.i.l.b.b.m.m.[.%X'.XXXXm.m.m.x.m.m.m.m.m.`.H.H.'.|.'.+Xm.v.v.P.'.'._.$X1XjX.X_.@X#XjX+X`.k.d.m.d.6.f.d.b.b.'./ x | z N z ! x l ! ! z ! ! ! ! ! ! ! F ! ! ! ! F ! ! ! ! F ! ! ^ ! ! ! ! ! ! ! ! F ! ! F F ! F F F F T J F s g F F F F F F w w 4 > M.+.+.1.4./ / +./ Q W W X./ T ! o.' o.W W | n n n T V T ' ' *.5.*.+.^ V Q ' Q W T m O.{ E ' ' E f s v T f u R / E E E E R v V ",
"fXfXiXpX3X3XaXlXzXzXzXlXkXjXaXaXlXhX4X4X1X<X@X1XiXuXiXiXuXkXzXuXkXzXuXzXzXzXzXcXcXzXzXkXcXcXcXjXcXzXcXcXkXzXcXcXcXcXcXZXcXcXyXJ z.b.b.C.V.4.f.f.a.i.d.b.j.n.m.+X2XH..X%Xm./.H.b.H.n.m.c.c.m./.'.+X[.|.+X/.v.m./.[./._.2X$XhXOX].|.oXyX|.M.d.s.v.x.6.x.x.b.m.'.' c | N x ! z F ! ! ! z z ! z z x F ! F ! F h y ! F F ! k F F F F F F F F F F F F F ! ! F s s F s s s F F F F F F F F F w F F F F > l.+.1.4.4.( ( o.' Q n W ( / W W o./ ' m W W f z N W ! W ' ' 4.*.*.[ ' T R Q Q T V T +./ R { ' v f d b v V r V ' ) R / R R m v ",
"CXdXmXdXlXaXdXkXkXzXlXlXxXxXcXxXZXZXZXlXlXlXkXaXaXzXpXpXhXpX4X1X4X4X2X<X4X5X2X<XvXtX1XvXvXvXjXjXzXjXcXkXjXjXjXcXkXzXzXjXjXjXjXR l.x.b.`.C.#.s.s.a.@.j.b.j.m.m.@XXXH.@X@Xx.m.n.m.m.n.m.x.b.v.I.'.OX'.[.+X[.v.v./..X_./.2X%XjX+X[.oX+X1X[.b.d.d.x.x.6.x.b.c.m.[.' k x z F x F k k F y y y l k F F k y F k F ! z z z z ! F ! ! F F l s s s y y y s s s s y s F F s i g i i s g g F w F F F w F F 4 h b.+.-.-.4./ E o.Q W V R / / Q R O.Q / V T W l m V Q R ! Q ' 1.*.*.[ ' T Q Q Q V v V O.Q E ' R v v u p v v f f / ' L ~ R v v d ",
"5X:X:X3X<X:X<X1X3X1X3X1XiX1X1XoX=XXX3XuXpXzXkXuXpXzXkXcXzXlXcXcXlXzXuXuX4XvX4X4X4XvXtXtX%X.X%XvX@X%X%X$XjXjXjXjXjXzXjXzXcXjXvXT g.m.V.U.n.#.s.f.i.@.b.b.x.H.m.@X.XK.2XXXd.b.b.x.m.b.m.s.m.P.c.'.[.'.'.|.[.v.e.'.'./.(.$X|.uX@XoXoX@X2X[.k.6.f.c.d.4.h.f.6.f.[.+.k x x k x k k k F t k k F k h k t t : h h t k h y k y k : y t t y w w y s l T s s s s s s s w s g s i i g g w i w 4 w F 3 F 4 4 h l.[ +.-.4.o./ O.( W n ! Q / Q R ' Q Q W m W n n n ! Q R Q ] *.*.1.*.' T R Q R m f R O.R Q Q J v d p p v v b u J ' E E / T v m ",
"dXfXfXpXiXpX3X4X4X4X4X5X5XhX5X X=XtXtX5X3X5X<XtX<X1X<X5X<X<X5X1X4X4X5X<X4XuX4XhXhXhXyX4XvXhX4X<XvX2X<X2X<XvXvX%X2X2XvXhXyX2X%XR i.V.U.m.b.b.g.d.@.:.z.b.m.v.H.XX.X'.@X@Xj.x.j.j.m.b.m.x.m.`.m.'.'.[.[..X).v.v./.[.(.).#X).yXoX[.oX2X2X[.k.f.6.x.7.7.a.d.4.x.[.+.k Z ! k ! k ! y x ! F k F l l ! ! F k k k t t h t : : : : : : : q : : q : q : : : q t t w w y s F w w F F r F i g F i i 5 r w # > l.[ 4.+.5./ ' O.W B n R / / E E ' Q ' Q T n l m V R R Q ' { *.%.=.%.Q m Q Q R n v E ' R / T f p r b p b b v n r ( ' ~ ( E v v ",
"dXxXlXlXlXlXlXcXkXkXcXcXcXcXzX4XhXzXhX4X4X4X4X5X:X=X|.=X=X5X|.K. X=X`.`.|.tXtX|.|.=XtX@X2X5XXX2XvXtXvX$XvXvXvX4X5XvX2XXX2X%X+XJ i.l.b.m.m.b.a.f...;.b.b.v.n.H..X.Xm.XX@Xc.x.x.x.V.x.m.x.c././.].).[.).[.].G.w./.[.(.).@X).#X|.'.oX2X2X].b.x.a.k.s.6.d.j.x.x.'.+.c c ! ! ! ! ! ! ! ! l ! l l y y ! t k F F ! ! F ! ! y F k ! F y y s s w q q q : : q : = : q q = = 4 w w 4 4 4 w w i w r 5 s g 4 > l.[ 4.1.1.( / o.R ! l ! / / ! R Q Q / Q V v l m n R Q Q ' ] =.[ 1.+.R V Q Q R V f Q Q ^ ( b b p p v f 5 b b v p v ' ' E R v b ",
"*X-X*X-X}.-X>X>X>X>X:XeX5X3XeXhXhXeXzXzXeX4XhX4X3X5X5X5X1X1X5X<X|.@X|.tX5X2X4X<XXX X|.|. X X X X XK.'.XXtXtXK.K.K. XXXXX%X%XXXT s.z.x.'./.d.;.g...a.x.b.M.c./..X'.m.|..Xx.c.x.c.b.k.n.x.c.P.P._..X[.'.[._./.7._.+X_._.$X'.+XoX[.OX#X2X[.x.s.4.k.7.6.d.b.m.d.'.O.k Z ! ! k F ! ! s ! ! ! ! y y y y t y y t y k F t F ! ! ! F ! ! F s F s s y s s s w s w w w w 4 q q 4 : 4 4 4 4 4 4 = # = 4 4 # > z.-.1.+.4.Q / / W m d R ( ( R ! / Q Q ! ! n l m l ! ! E ^ +.*.+.*.{ Q T R Q R v f Q R ) J p J v p p p e 5 5 b v p R { ( v u v ",
",X>X=X;X*X;X;XA.Z.A.A.E.K.;XA.;X;XA.A.A.;XK.C.A.{.}. XtX5X5X5X4X5X5X4XhXvXtX=XXX<XtX X=XtXXXXX'. XXXXX XK.K.f.i.S.y.g.K.K.'. XJ ;.;.x.|.`.f.@.f...4.f.b.m.m.'..X.XH.@X.Xx.n.h.x.x.k.c.v.m.m.H.'.+X'.).+X_.G.w.v.OX].(.$X[.@X%X[.'.%X#X'.d.d.4.l.d.6.h.v.m.d.(.' N $.^ | ! } ^ ^ ! ! ! ^ ! ! ! ! ! ! ! ! ! k F F t y : k t w k F s F s F F F F T F T F F F F s r F s g g w s i w w 4 q = = 4 4 O > k.+.-.*.4./ ' / R m m Q W ! T Q ' Q R ! R n m n l V ! E Q *.%.%.+.{ ! T R E T v m / E / f v J p v p 5 q 6 6 b b v b ' ' m v v ",
"=X;XE.Y.;X>X;X;X;X;X;X;X>X;X;X;X;X;X=X;X;X;XK.C.A.{.A.V.B.N.A.{.A.E.=X X=X;X X{.|.=X|. X|.tXtXXXXXXXvX<XXX'.n.a.y.y.f.f.b.j.s.p i.d.x.'.H.f.@.s...i.x.k.J.J.H.%X'./.@X'.0.c.d.x.d.x.c.P.'.v./.[.[.+X(.(.(./.w.v.)._._.#XOX$X#X+XOX$X@Xm.7.f.:.d.6.x.7.n.m.t.H.Q ! | ! ! ! ! ! ! ! ! ! ! ^ $.^ ^ ^ $.^ ^ $.^ ! ! ! ! ! F ! ! F F F F w w g r s r y y w w F s r i w F w w 3 w g F g F i w r 3 w @ > z.+.+.{ 1.( O.( m n m R ! m V Q / R f T T s m d d m T Q ' +.*.*.=.) m Q ! R m T J E Q Q f L v p f p < * < 5 < p v f L ) L v v ",
">X>X-XE.E.T.E.E.=X;XA.A.;X;X;XA.K.K.;XK.{.{.{.;X{.|.5X;XY.;X{. X{.K.K.;XtXtX X{.C.A.C.C.C.C.V.C.K.K. XXXK. XK.K.n.C.K.C.V.C.n.u i.b.b.`.m.a.@.a.$.a.j.x.J.J.&X%XG.'..XH.x.x.h.x.6.x.c././.e./.'.[.OX(.(.(.H.c.v.)._._.#X).$X$X#XOX$X%Xm.x.;.;.7.s.4.#.x./.h.H.' x $.| ^ ^ ^ ! ! ! T k ! F ! ! s ! F F F ! ! F ! ! ^ ! K ! ! ! ! ! ! ! J ! T K T T F F w s g s s r 4 w w w 4 4 w 2 w 3 4 3 5 3 # > k.+.+.{ 5./ ' Q m m ! ! R T V T ' Q v V V u V n d T V R ' [ =.] { ' v ! Q E V V T E ^ J f T f b p 6 2 * < < 5 5 b f b / E d v ",
";X=X5X5X*XA.V.A.K.;X;X=X=XK.{.K.A.;XK.A.B.B.C.K.A.A.A.{.K.{.=X{. X=X5X=XXX;XtX=XtXtX=X XK.K.K.{.K.K.K.K.C.j.j.B.C.n.C.C.K.`.m.s :.n.b.m.c.a.@.i.o.j.j.h.J.J..XH.v.'..Xc.x.x.0.x.7.x.v.(.m.w./.[.+X/.v.].(.G.c.c.)._._.+XOX$X$X$X[.@X@Xv.h.4.6.a.x.4.+.b.`.c.H.' ! 5.$.] &.^ ^ ^ ^ ^ ! ^ ^ ^ ! ! ! ! ! ! F ! F ! F ! F ! ! F F ! J J J ! J T T F F F F T F F F F F F K F F w w 3 i 4 w 1 2 4 4 O > d.{ +.+.-.Q ~ ! v V R T T R T T / R ! m v s n n d ! v R ' [ +.] [ Q f ! E R T J R T Q v v b f b p 5 2 < * < 5 5 p v f ( ~ v v ",
";XA.=X>X=X=X5X=X;X X=X;XK.;X{.{.=X{.{.{.;XK.;XK.A.A.K.K.A.A.A.B.B.A.B.B.B.K.{.{. X=X X;X{.K.K.K.K.K. XK.n.B.n.n.C.V.n.B.n.b.x.y i.x.x.H.H.6.@.4.#.j.j.h.h.K.%XH.H..X.Xd.0.x.5.5.f.x.w.'.v.w.'.[.].c.c.).'._.v.t._._._.+X).$X$X$X+X+X.Xm.7.6.4.d.d.;.+.x.H.c.H.E | =.*.=.2.5.<.] &.] =.^ ] ] &.] ! ^ ^ ^ ^ ^ ^ ^ ^ K ^ ! ! ! ! ! J J J J F ! T g s F T s g w w s F F F F i i F F F F F F g g i # > z.+.1.{ +.W / R n ! R T R R R R ' Q T J l l m d s V V Q ] [ ] O.+.E f R R R m f R K L v v f f f 2 2 = * * * < 3 6 i p v ( J v ",
">X=X;X=X=X=X5XtX5X5X5X5X=X=X;X{.K.K.K.A.;X{.K.=X=X X=X X X X{.{.A.B.N.f.S.B.B.N.B.A.A.{.K.B.B.B.C.C.K. X X X.X'.'.'. X X'.C.j.y 6.c.x.m.n.6.@.#.a.j.j.d.J.K.%XJ./..X'.0.j.c.4.7.h.c.c.'.c.c.].+X/.x.t.v.'._.G.w.'./.G.@X&X$X%X$X+X#X+Xc.7.a.s.d.4.o.4.0.G.c.H.' | =.^ ^ ^ ] =.=.*.&.] $.] ] ^ *.&.*.*.&.*.=.$.^ =.^ &.&.&.&.^ ^ _ ^ ^ K L ^ K T K F K F F F F F F s F F K F F F a g 7 5 g g g 4 > d.+.+.' +./ / ! V ! ! V T T R R / / T m d d v d s V v ^ ] ] ] [ [ T v R R T f ! ! E E F T f f r = = * @ @ & @ * 3 6 5 v ( P b ",
"5X>X>X=X=XtX5X;X;X X=X=XtX5XtX=X=X{.K.;XK.K.K.K.K.{.{.K.{.{.{.K.K.C.A.K.K.K.B.B.f.b.b.V.B.C.K.K.K.K.K. X[. X'.`.`.[..X X|.[.H.y i.m.x.m.c.4.#.#.4.j.6.x.H.K.%XJ.H..XH.h.h.d.7.j.6.h.G.H.w.m._.|.m.c.x.x._.'.v.e.)._._.+X+X$X$X$X+X$XoXc.s.7.0.7.s.+.=.c.m.0.(.' ! =.^ ^ ^ ^ ^ ^ $.$.] ^ ] *.*.^ ^ *.&.^ ^ ^ ] ! *.&.^ ^ ^ =.&.&.] ] &.] ] &.&.&.] ^ ^ K ! K K K ! F F F K K K K F a g g p g g 4 > d.O.+.o.{ E Q T V T R T v R R T R Q J m m l d l y f V ^ ' *.' *.] J d R ^ T v F ! T K T F f d 3 & O @ @ @ @ O O = e 5 b ( R p ",
";X;X=X=X{.;XtX=X=XtX=X=X=X;X{.=X=XtXA.;X=X XK.K.{.K.{.=X X X{.{.{.K.{.`. X|.|. X{.{. X'.K.K.K.K.m.K.K.'.'..XXXXXXXXX|.'./.'.'.d 4.n.x.m.j.4.a.=.4.d.6.h.H.&X%XH.H.&Xm.h.n.5.7.4.5.x./.G.7.P.'.[.M.v.v.x./._./.0.(.(.G.+X+X$X%X$XOX2X+Xv.s.5.4.d.h.O.+.c.c.0.(.) ! $.! ! ! ! F ! F ! T ! ! ! J ! ^ ! ^ ! ^ K F ! ! ! ^ ! ^ ! ^ ^ ^ K ^ ^ ^ ^ ~ ~ ~ _ &.&.^ ~ ^ ^ ^ K K F K K K K K F K K F F F 3 > s.+.O.] o.R / ! V R T T R E ! m V ! m m s n d d u d T Q ) ] ] +.) F v T ^ T m J Q ! F f f f i 2 O o o O = 2 , & & 2 5 8 R L p ",
"eX>X=X=X;X;X{.;XK.=X=X=X=X=X;X=XtX=X{.tXtX=X;X{. X{. X{.=X=X{.{. X;X X X=XtX=X=XtXtXtX|. XK.K.B.B.j.j.K. X X.X X'.|.XX.X|.XX.Xd i.n.n.c.h.#.#.=.4.h.5.j.H.H.&XH.H.'.m.h.c.4.a.7.7.H.(.v.w.m.'._.w.x.P.v.c.G./.q._.)._.+X$XvX+X%X+X#XOXc.h.=.2.a.5.o.o.H.n.0.(.' x | F F F ! ! F F F T F F J J F ! K K ! F ! T ! F F F F F F F F s z F F K K F ^ ~ ~ ~ ~ K F F J ! ^ ~ ~ ~ ~ ~ ^ E K K ~ ^ F I G > d.+.] O.o.Q R ! V R V v ( R V d f V ! m s d s s u s T E ' ] ] ] ^ T T T E v v F ~ E K F f f i 4 O . o O 4 = = & & < r p J v b ",
"5X5X5X5X5X=X;X=X;X;X;X{.;X=X{.{.{.;X=XtX5X5X=XK.=X=X{.tX=XK.K.{. X=X{.|.;X X|.tXtX|.XXtX XK.C.C.K.B.j.V.K.H.'. X.XXXXXXXXXXX[.d f.5.x.H.h.#.#.#.4.j.1.h.H..X.XH.H.&XJ.j.c.d.7.s.h.H.(.J.x.m.].v.w.M.m.c.w.v.(.0.G.&XL.+X%X$X+X&X+X%X+Xv.6.-.4.7.5.+.O.H.v.0..X) ! $.! ! ^ ^ ^ ^ ^ ! ! K ! F F F F F ! F F ! ! ! ! ! F F F F F F s F s F F s s y G G F g s g g F F F F F F F K K K J F K K K K i > z.+.' ' ' Q Q R m R z V R R T v d V ! v d s s d u s T ~ ~ ^ ] ] E J T T ^ f v J ~ ! ! v f f p = & O o o & & = 2 = r i p J v p ",
"=X=X;X;X=X5X;X;X;X=XA.B.K.{.;X{.;XK.A.A.A.K.A.C.{.K.;XK.K.C.B.A.K.K.{.|.tXtXtX|.<X<XtX XK.{. XK.`.C.C.V.V.C.{.K.H.{.`.'. XXX[.l s.4.0.H.c.$.#.$.4.h.=.d.H..X&XH.H.H.J.h.h.5.7.d.h.c.(.c.0.v.'.c.7.I.v.v.v.x./.w.L.&X(.+X%XvX+X&X+X+X+XI.+.-.7.6.k.+.+.H.c.w..X{ ! $.^ ! ! ^ ^ ! F ^ ! ! ! ! ! F F ! ! F s F F F F F ! ! ! ! F F T F F T F T F F F w g F s F g s 3 i 3 w G 1 3 3 7 i g p g g g < > k.{ ' ' Q R ' ! f J z V T R J v s v T m s s l d y s R ~ ^ ~ ^ ^ J J T K E f f F ! K K a p a r 2 = @ , 2 O & 2 2 < i 5 8 L J p ",
"3X5X5X5X=X5X5X5X5X9X3X5X>X>X{.=X5X3X5X>X>X=X=X X{.{.;X=X=X=XK.A.;XY.;X=X=X=XtX|.=X XtX<X5XtX{.=X X X;X{. X{.{.K.K.K.C.K. XXXtXT s.x.b.H.j.X.i.#.6.d.5.d.J.&XH.H..XH.J.J.c.5.j.0.0.G.'.H.0.G.'.c.x.v.w.c._.m._.c.L.&X(.&X%XvX+X&X+X%X+XI.4.4.-.7.h.=.1.v.v.c..X) ! ..F ! ! ! ! ! ! ! ! ! ! ! ! ! ! ! ! F ! ! ! ! ! F ! ! F ! F ! s z s F s s s F F ! F F T F F F F i s F F s F F i g i p 7 7 8 3 t 6.o.) ' Q Q o.Q f T f J T R J f f T R v d d f d s b Q ^ ^ E ] ) F J T E R p J T E K J F a p 5 w * * 3 6 - * e = 5 a i a J J a ",
"$...$.@.#.#.#.#.=.a.4.a.a.a.a.#.#.y.a.a.a.i.#.y.#.@. . .......o...$.$.$.o. .|  . .Q  . . .o.^  .$.#.#.o.$.Q  .Q | Q  . .Q o./ s :.{ +.+./ ! Q R ^ ] ^ ] 2.e.q.q.L.e.*.2.*.] 2.%.1.3.v.9.2.2.3.2.3.8.,.8.3.3.9.2.<.q.r.L.&XG.L.(.L.I._.3.+.{ { *.1.O.' 5.0.1.0.~ w s w w w 4 w 4 4 w w w w q q w = = = = 4 4 4 4 4 4 4 4 = = = : = = q q q 4 - - - - - @ # # O # 4 # # # # # # # = * = & @ @ @ o > / m f f d p d f s r r r y i e q 2 y d e e w r q 3 r a F F a F f i s i p f i p i p i p p 2 2 4 * @ = 3 - & = - & 2 5 5 i a p 7 ",
"u.D D Z D D D D D D D C D D A D C D D C C D D D A D D D u.u.u.u.u.Z u.....u...| A A A c C A c A C c c c c C c c c c c c c c c h S.S.S.S.S.f.f.f.f.f.f.f.j.j.j.n.J.j.j.j.j.j.j.j.n.j.j.j.j.j.j.j.5.j.j.j.h.h.j.j.q.5.q.j.q.j.5.j.5.j.5.5.=.=.=.=.*.=.<.=.=.=.=.! ....W W V W B M V B B W W W ( W W  . .B B W (  .( X./ o. .o. .o. . . .( ( ( ( V B V n V n n m n l n l l u j u y u u j n n n n M V / P V J T v v v T v J T J J T J J J E R R R E R R E L ~ ( Q E E R P R R J R J L P R L R ( R R V V R ( R R V R R J L R R L J J ",
"F.B.S.F.F.D D u.y.u.u.u.u.u.u.y.u.u.u.u.u.p.u.i.i.S.B.i.*X=XA.{.A.S.B.A.B.A.A.A.D.S.S.S.D.S.S.S.i.u.D u.u.u.u.y.u.u.i.i.S.y.u.: B.K.A.C.K.C.C.n.V.m.n.n.C.n.B.C.B.B.B.J.j.j.j.j.j.j.5.j.j.a.=.5.5.5.=.a.=.=.=.=.=.$.=.=.$.$.=.$.=.=.=.=.] =.=.=.] =.^ $.^ ^ $.F j.K.j.H.b.b.m.c.x.M.m.H.m.x.m.m.x.m.m.t.w.x./._.).[.(.).&X+X+X+X)._._._./.P.c.I._./.c.m.m.x.m.x.5.k.b.7.4.d.O.-.-.' 6.m.M.7.c.4.O.6.U { _ _ _ [ _ [ %.&.[ [ [ %.%.[ >.[ %.` _ _ ) ) ) ) ) ) _ _ ) _ _ [ ` ` [ [ ` { ` { ` ` ` ` ` ` ` ) ) ` [ >.[ ` ) ) ) ) ) _ ",
"=.S.S.y.c c A ..u.......A ....y.D X...A A u.@...u.u.a.y.b.m.n.b.g.y.g.B.=.g.J.j.a.y.y...S.y.y.y.u.u.Z D C u.| u.u.} y.y.y.y.z + g.j.j.n.j.h.j.j.x.h.h.h.j.n.c.j.j.j.j.d.j.d.5.j.j.j.5.5.=.=.=.=.=.=.5.=.=.=.=.=.=.=.=.$.=.=.=.=.=.$.=.] ^ ^ ^ $.=.^ $.$.$.^ ! w g.B.5.j.k.d.6.0.4.3.c.c.x.7.c.t.6.k.0.1.>.3.c.c.G._.v._.G./._.P.I.x.v.v.c.v.t.w.v.c.8.x.x.k.x.6.+.k.x.6.-.4./ +.O.W -.k.k.-.5.>./ 1.E ) ^ ) _ _ _ ] ] ] ~ ~ ) ~ L L L E L J J J J J J R E ) E ) ' ) E E E ) ) ) { U ( L J P R ( ( ~ ( I ~ ` { ~ ( ) ) ) E ) E L ",
"$.y.S.S.D c ..D y.y.u...A ....y.u.Z ..u.A i.u.......g.y.d.m.C.b.g.#.j.j.a.j.n.j.g.=.y.y.g.y.a.=.y.y.A x c u.| y.} u.y.y.y...! ; a.f.g.j.n.j.j.j.d.j.j.j.j.h.h.h.j.a.a.j.J.j.j.5.j.j.j.j.j.j.j.=.a.=.=.=.j.a.=.=.5.=.=.=.=.^ ^ ^ ^ ^ $.^ ^ ^ ^ ^ ^ ^ ! ! ^ ! ! w f.J.h.j.x.1.7.c.7.3.t.v.v.x.c.k.2.w.7.1.1.7.v.v.G._.H.G.G._._.G.c.x.P.r.v.c.w.v.P.c.{ t.x.t.x.6.-.7.x.6.+.d.o.O.+.' 4.t.x.4.5.{  .1.L E ~ J J J J E K v p a v a J L v L L J L R ~ ) ] _ ] _ _ ) E E I E I ( E L L E L U ( I E I I L I L L L P P L L L E E L L P ",
"..y.a.y...c D ........y.| ..y.y.X.Z u.Z Z y.u.....y.i.@.b.C.m.b.d.=.g.f.=.j.j.j.j.=.y...g.=.a.$.$.y.} c A u.u...} u.y.y.=.y.} ; g.j.j.g.a.5.g.5.d.d.d.a.y.#.#.y.$...$.=.=.a.=.=.=.=.=.=.=.^ $.^ $.$.$.$.$.$.$.$.$.^ ^ ^ ^ ! ^ ! ^ ^ ^ $.=.^ ^ ^ ^ ! ^ ! ^ ^ ^ F g.v.7.x.3.1.x.t.7.w.3.c.c.x.v.t.1.w.w.[ ,.7.v.v.v.)._._.G._._.G.w.e.P.v.I.w.w.v.v.c.>.t.w.3.x.3.1.6.x.t.+.h.'  .;.o.1.4.M.5.8.'  .1.L J L E ~ ^ ) ) ~ _ ) E ] [ ) ) ) ) _ _ ) ) ) ) ^ I ) ) E L E L ( ~ ~ ) ~ ~ ) ( L L ~ ~ U ~ E { { I ( P L ( E R E L L L E U ",
"..$.y.a.u.C A ........y.....y...u.Z Z Z Z ..@.u.u.@.i.@.V.m.K.x.j.=.g.j.j.j.n.K.j.$.....g.y.y.y.$.y.Z A x u...u.} y.$.$.a.y.! ; S.B.B.j.g.a.a.a.a.a.a.a.a.#.=.=.=.=.$.#.=.=.=.a.=.=.=.=.=.=.$.$.^ $.$.^ ! ^ ^ $.$.$.$.$.=.=.$.=.$.$.*.$.^ =.=.*.$.$.$.] ^ ^ ^ F 6.c.x.w.3.5.e.7.t.w.t.c.x.x.v.w.1.x.0.[ 1.e.e.e./._.L.L./.L._.G.w.w./.v.x.v.t.w.v.e.1.x.x.t.x.5.1.7.7.5.-.6.O. .+.+.d.7.k.7.1.'  .3._ [ [ [ %.] _ _ [ ` ] [ [ ` [ ` E ) E L Q _ ' ) ) ) ) ~ ) ) ` ` ` ` ` ( ~ { ~ ~ U ( U R L E ~ I L I I L L P P P P L E ) ) ) ",
"y.$.=.y.y.A C ......y.y.y...$.y.u.| A D A u...u...@.g.:.V.H.n.n.a.$.g.j.a.a.n.J.j.y...y.g.y.a.y.y...Z A x y.| u.} y...$.y.y.} ; f.B.B.g.a.a.f.j.j.h.d.j.j.5.a.h.5.5.j.5.=.5.5.h.j.5.5.5.5.5.5.q.5.5.=.5.5.5.5.=.=.=.=.=.=.^ ^ =.=.*.] ] ] &.*.&.*.*.*.*.=.&.$.F ;.v.w.t.t.7.t.7.3.w.v.v.c.v.v.t.1.3.5.[ 1.e.e./.v./.G.L._.r.G./.e.t.I.I.w.v.w.v.P.x.1.k.w.t.c.3.-.x.x.5.+.4.' o.-.+.t.t.x.6.4.)  .t.,.,.] _ ) _ ] ] ` [ [ [ ` ` ,.<.,.[ [ _ ) L E E ) ) ~ ) ) ) ) ) U E L L ~ ~ ) ) ( U R L I E ~ L L ( E ~ L P L P J L L I L U ",
"y.y.g.$...A C | y...$.=.=.$.y.y...u.A Z A ....X...y.4.i.j.`.n.m.g.y.a.j.j.j.n.j.j.y.....j.y.=.=...u.A A x y...} } y.$.y.=.$.} # j.B.j.h.g.a.d.d.h.j.j.j.j.j.J.j.j.h.j.j.j.5.j.5.5.5.j.5.5.5.5.=.5.5.5.5.j.5.j.q.5.5.5.q.2.=.2.5.2.5.2.=.*.=.] *.*.*.*.2.=.=.$.F ;.v.e.w.3.3.7.3.1.x.c.v.w.v.c.5.4.w.8.-.3.c.w._._./._.v.G.c.v.G.w.t.v.v.r.t.w.w./.c.1.w.w.k.t.3.1.w.c.1.-.5.o.{ +.O.t.k.x.6.8.{ :.w.,.,._ _ _ &.,.%.&.%.%.` ` ,.,.` >.<.[ [ ` [ [ ` ` [ [ ,.[ ` [ ` ` ` >.` ) ) U ) ` U U ) ` ) ) U ) U U ~ U ~ ) ) ) ) _ ` ) ) ",
"$.$.y.y.$.Z c A ....y.=.=.y...y.@...} Z A u...} ..i.;.#.A.K.`.H.h.@.a.b.j.j.j.c.j.=.....g.y.y.y.y.$.Z A A ....| x y.y.| =.y.! ; B.K.K.H.K.n.K.H.H.n.m.n.m.K.J.n.J.J.J.J.j.j.5.f.5.j.j.j.j.j.L.j.j.j.0.0.0.5.j.0.q.5.=.=.=.2.=.2.=.2.5.5.2.*.] ] ^ *.^ ^ ^ ^ ^ F z.G.w.w.3.6.3.3.1.w.x.G.w.I.v.w.3.c.1.[ 0.r.e./.G././.r.v.v.v.G.w.w.P.v.t.t.w.w.P.e.+.x.w.x.7.7.+.w.c.4.*.7.' O.O.O.h.7.7.7.4.{ #.H.2.q.2.&.<.<.3.9.0.2.3.9.9.3.2.2.2.2.2.8.1.3.7.q.7.w.w.0.3.0.t.7.t.q.w.0.3.3.3.8.1.,.2.3.<.3.8.8.2.2.3.2.3.3.2.<.3.3.3.9.3.8.",
"$.y.y.$...| A c | ..y.y.$...........u.A C u.y.} ..@.i.;.C.m._.m.d.y.d.j.d.b.j.b.j.=.....g.y.=.y.y...Z A | ....| } $...y.=.$.} : a.a.g.f.d.f.j.j.j.h.j.j.b.j.n.n.J.j.j.J.j.j.j.5.5.j.5.j.q.j.j.j.j.5.=.=.=.*.*.=.$.=.=.=.$.] ^ ^ ^ ^ $.^ ^ ^ ^ ! ! ^ ^ ^ =.=.$.F k./.x.w.3.7.8.t.1.3.c.H.t.x.v.w.7.c.*.[ 3.e.v./.G.G._.L.r.v.r.v.w.e.I.e.r.t.t.w.v.w.1.w.7.w.3.7.[ 7.7.1.=.4.' o.+.+.0.k.k.t.-.>.#.H.2.2.2.2.2.q.2.9.2.9.9.3.3.3.2.9.2.,.[ ` [ [ [ { [ %.+.[ [ *.[ ` ) ) ^ _ _ _ _ _ _ ) ) ) U E U ~ ~ ) ) ) E E L ~ E L L I I L ",
"$.$.y.y...A c A ......y.y.$.......| u.} x u...} | @.;.;.m.H.`.b.a.#.d.j.6.f.f.n.j.=.....j.$.y.=.y...Z A | ..u.| } ..y.$.=...^ ; f.j.a.a.a.f.a.i.4.i.=.a.a.=.=.5.a.5.d.5.5.5.5.a.j.=.=.=.=.=.q.5.=.$.] =.$.] ^ ^ ^ ] $.] *.=.=.=.=.&.^ ^ ] ] $.] &.=.] *.=.*.*.F j./.c.w.7.3.3.t.2.8.c.v.w.x.w.5.t.v.,.[ 0.v.v.G.G./.G.v.r.v.c.v.w.w.w.c.t.3.w.w.v.e.4.7.t.e.7.7.+.0.4.1.2.4.o.o.+.+.d.d.7.6.1.>.@.=.~ ~ ~ ~ ~ E L K J L L K H J F F F F H H K J H v J J J J F J F a H J a a F a a H K H F a a p 7 5 6 i 8 a i 7 p p a b b v H b ",
"$.y.$.....| c Z ....| | ....| ..} u.u.} c | u.} | @.a.y.m.m.H.h.h.#.d.f.d.h.d.n.j.y.y...=.$.=.=.$...Z A Z ......} $.| y.y.^ ^ : g.n.j.n.n.n.n.n.j.j.j.h.j.h.j.d.g.5.=.5.=.=.=.=.^ =.5.=.=.*.=.=.*.*.=.=.=.=.5.=.=.=.5.5.q.5.2.2.2.5.q.5.5.2.q.=.=.2.2.=.&.^ &.F f.H.x.3.3.3.3.3.2.8.c.v.x.w.3.3.x.v.1.{ 0.e.G./.G.G.r._._._.r.v.v.w.e.I.t.3.q.v.v.x.2.6.t.w.3.7.+.6.6.+.=.4.{ ] O.{ 7.x.7.1.-.-. .{ F ~ E K L K K J H K K J J K K K E K L E ~ L J L J H J H F K J H a f a a a H H J H J J a a p p b f a b v v J P v P J P J P H ",
"$.$.$.....Z c Z ......Z Z u.A A c u.u...A ..y.} } $.a.;.H.K.n.x.j.#.7.a.6.j.d.n.j.$.$...a.=.=.y.$...A A A ....| } ..$.$.$.$.| ; d.K.n.H.K.H.H.K.K.H.C.n.c.H.H.J.c.h.0.h.j.h.5.d.5.5.5.2.5.q.j.q.q.j.5.5.5.5.5.=.=.5.5.j.q.j.5.j.j.q.5.=.=.5.2.5.5.2.2.=.^ ^ ! F k.G.w.5.1.8.3.3.3.3.v.c.c.t.3.7.w.v.*.%.w.w.v.G./.G.G.L.G._.r.G.v.w.c.I.q.t.w.x.x.r.8.1.7.c.8.w.%.4.0.+.O.1.O.O.O.{ w.7.k.1.5.>./ -.J L K K F K I E E ~ I E ~ L T L L K K K J F J J L K F ! K K a 7 4 i f a a J J J J P L E E L L E E E E L J J a J J a a a a H ",
"..$...$.y.Z c | | ....} C C C A c } | u.A u.$...| ..;.#.`.H.m.m.j.#.d.j.a.h.h.j.j.y...$.=.$.y.$.y...Z x Z ....| } y.| $.$.$.! - j.n.j.j.n.n.n.n.n.J.n.n.n.n.j.j.j.h.h.h.J.j.j.j.5.=.=.=.j.j.q.j.h.5.=.=.=.=.2.=.5.=.5.5.5.5.5.5.=.=.^ ^ ^ ^ &.^ ^ ^ ^ &.$.^ ! F k.H.e.7.1.3.5.3.7.3.v.x.e.w.w.3.7.w.%.,.w.w.v.G.G.r./.G.G.(.G.r.r.w.x.v.t.w.w.c.w.w.-.-.t.w.3.7.*.1.2.+.' 4.{ ' o.{ 5.5.6.1.7.+.o.4.) ) ~ ~ ~ I L L K L L K K K K J K K K J K L K H J J F g g 1 = = # 6 J f J J J J L L L J J J v b b b a p a a a f a F J J J J ",
"$.$.| $.....x | | Z | A c c c A c } | } x ..y...| $.#.=.K.K.c.x.d.=.h.d.d.j.h.x.j.=.....a.y.=.$.$.| Z A A ....Z } ..^ $.$.^ ^ : d.j.h.d.d.j.d.a.a.a.h.j.j.d.5.j.j.h.j.j.h.j.j.h.j.j.5.5.=.=.=.q.5.=.*.=.=.=.=.=.5.5.=.$.$.^ ^ ^ ^ =.^ ! ^ ^ ! ^ ^ ^ ^ ^ ^ ^ ^ F x.H.w.7.1.7.7.w.t.3.c.c.t.w.3.8.7.0.[ 1.e.w.w.G./.G.G.G.L._.G.r.r.3.w.v.w.3.x.I.e.t.-.1.x.0.8.0.+.*.2.+.' 4.Q Q { ^ 4.6.1.8.5.[ ' O.K J F ! ~ E F F K E J K E T F K K J F F K K a a a 9 F a a g 3 6 i v J a J J H b f i i i i 8 p 7 a a a J J J L J J K L J H H ",
"y.$.| ..y.| Z ....Z C c C A } c k u...u.c | y.| .. .#.4.'.H.h.h.s.=.a.7.d.h.j.x.j.$.$...a.=.y.$.$.| A A A | ..Z } ..! $.$.$.| = h.n.h.h.7.d.d.5.=.=.a.j.j.d.5.5.5.j.j.5.h.j.0.0.q.j.5.5.=.=.=.=.=.] $.=.=.] $.] $.$.^ $.! ^ ! ^ ^ ^ ^ ^ ^ ^ ^ ^ =.*.=.*.=.=.=.F b.m.0.5.3.w.3.w.3.q.v.e.7.e.5.8.c.w.%.1.e.q.w.v._._.G.L.J._.v.G.v.3.x.r.t.t.w.v.w.q.+.-.v.t.<.3.[ 1.1.{ ] 4./ ' ' Q 1.7.6.1.8.>.O.-.E E K F ! J J F K K F K K F f F J T F F J F K E L I E E F s f p a f p p p i r 5 5 i i a f p f J J J L E J J J v v H H H J K ",
"=.$.| ....| A | ..| A A c ..| c x u.y.} x } | } } y.$.=.H.H.x.j.d.=.a.7.4.c.j.h.5.4...$.g.$.#.@.$.} } x Z | | A | | | $.$.$.^ ; d.j.h.j.d.5.f.a.a.5.f.5.5.g.h.5.j.j.=.=.5.j.=.=.j.=.=.=.=.=.] =.$.] $.$.$.^ $.] $.] ] =.$.*.] *.*.*.*.&.*.=.=.*.*.&.=.=.*.=.&.! M.x.c.7.8.q.7.w.2.0.J.0.6.7.1.x.w.w.1.2.e.c.q.c./._.G.L.L._.L.G.r.3.v.x.w.3.t.r.w.7.{ -.c.k.1.8.] *.2.{ { 1.' / / E -.3.7.1.3.[ O.4.L K K E K K ^ K ! K ~ ] E K ~ ~ ~ ^ ~ I ^ ~ E ^ K J F F F J J f f p r r r i p f a J R L E L J J J J F a f f F J J H F F a F ",
"$.| ..$.| | Z Z | | A | ....| A } $...} c } } } } y.$.g.n.n.n.x.7.#.a.5.4.j.d.h.d.#.| $.d.$.$.$...} ! c A | | Z | ..| ^ $.^ Q : a.j.h.0.j.5.=.5.a.5.5.=.=.5.f.5.=.=.=.=.=.=.q.j.5.j.q.5.5.5.5.5.h.5.5.=.5.5.5.5.5.5.5.5.q.=.*.*.2.=.*.*.=.&.*.&.*.<.=.&.<.=.<.! x.w.5.5.5.7.w.t.1.0.c.0.3.3.5.c.t.7.%.2.w.r.q.e.G.L._.r.L._.r.L.w.,.v.v.w.t.t.w.t.3.+.{ e.w.1.8.] 4.1.+.O.+.Q E ' ( -.2.t.1.3.[ o.x.[ [ ) ] +.] ^ ] ] ~ ~ ^ ~ ^ ~ E E E K J K J J J F J J T F a f a a f b a v J P L L E E E L J H v v J J J J F F f a a a F a a ",
"| | | ..| Z | x | ....| ..| A Z | $.y.x x } } | } $.$.h.H.n.j.d.7.@.4.h.5.j.5.h.d.#.| $.d. .$.@...} Z A A | } Z | ^ | ^ ^ $.^ : j.J.j.c.j.c.J.h.J.h.q.5.h.j.J.j.5.q.j.J.j.j.q.q.j.q.5.q.5.j.j.5.5.j.j.0.q.5.5.5.5.q.5.<.=.=.] &.*.&.*.*.&.*.&.=.5.q.q.<.2.&.<.K k.c.8.8.3.5.5.7.3.x.c.0.d.0.0.0.w.5.{ 1.w.e.q.v.G._.L.L.r._.r.G.r.8.w.v.w.t.3.r.w.3.{ +.w.7.1.1.O.2.1.=.) 1.' / ' ' -.1.2.8.3.{ O.7.) E T E K J K F F F F K F F F F F F F F F T J J F T f g f a f a J K L L J E ) E L a p a J J T L L J J a i a f F F J F a a F ",
"Z | ! | | A Z Z Z | | | Z A A Z $.$.u.x } } } | } $.$.h.H.c.h.7.a.+.=.h.5.a.5.h.5.@.| #.a.| $.$.| } Z x Z | } A } | | $.$.$.! ; n.K.H.H.J.J.J.J.j.J.0.J.J.J.J.J.J.J.J.J.j.q.j.j.q.=.q.j.q.q.5.5.5.q.5.5.5.5.5.*.5.=.*.*.&.&.=.^ &.*.<.<.2.2.5.q.q.2.<.=.*.<.=.! k.x.t.3.5.5.2.7.3.x.c.3.0.c.7.h.7.2._ 2.e.e.q.G._.G.L.G.L.G.r._.w.8.v.x.w.t.8.w.w.7.[ { w.3.1.3.+.1.2.*.O.4.Q Q ' { 1.1.1.3.8.` -.1.H J F J J K K F K E K F F T F K T K ! L L E K T g g f J J ! L L L E K L L J J J b v J P J J a J J a a f F J F J J F H L E I ",
"| A Z Z N Z x A | | Z | | A A | $.| } k } } | } ! ..+.j.K.H.c.d.5.=.4.h.h.4.5.j.=.$.} y.5...$.$.} } ! x } } | Z } | ^ =.$.^ } - n.K.H.H.H.H.H.J.J.J.J.J.J.J.L.J.J.J.j.j.j.j.j.5.5.=.=.=.*.^ =.=.=.=.*.*.&.] *.*.*.=.*.*.=.5.5.q.q.5.5.q.5.q.5.5.=.*.=.*.&.=.&.! x.x.w.5.5.3.6.7.3.c.0.3.e.h.0.0.0.1.[ 2.e.e.q.G.(.G.L.L.G.r.v.G.r.8.w.v.t.3.t.w.t.3.{ { w.2.[ 7.{ +.4.=.+.1.E ' o.' +.1.1.t.2.` =.9.K I ~ ~ L E F E F F F ^ ~ ^ ~ ~ ~ ~ ~ ~ ~ F F F E K L ~ ~ ~ ~ L L L L J J J J L _ _ ^ J F F a v a J F F J H J J L E ~ L L K ",
"..x A | A x A c A Z Z Z A A | Z ..o.! c } } } x } $.^ j.H.J.G.j.a.#.4.h.0.5.5.h.=...! $.a. .$.=.$.} x x x A Z Z } ! $.$.$.$.^ : J.H.K.K.H.H.H.H.H.H.J.J.J.j.h.h.j.j.q.5.q.=.=.=.=.=.=.=.^ =.^ =.=.*.=.=.5.=.2.5.2.2.q.j.q.q.q.q.q.<.&.=.2.2.<.&.^ ^ ^ &.=.&.&.F x.x.3.1.1.5.1.5.7.w.w.5.h.0.2.0.7.5.[ 3.G.e.q.G._.L.G.G.r.r.r.G.t.3.w.w.q.8.w.t.w.3.1.{ w.1.*.0.+.[ 2.*.[ 4.Q R / ) +.3.1.3.3.` =.2.I ~ L L K F E F ~ L ~ ~ _ _ ~ ~ ^ J F K K T F L ~ _ _ ~ I K ~ ) ~ E H J L _ _ ) ) E F F F F H J J F a J J L L L L L J K P L ",
"| A Z | x x Z x c A x A A A | | ....x Z } } } W } +.$.j.n.K.j.j.5.o.4.h.5.5.=.d.d.$.! $.a.| $.=.$.} Z x A x Z Z } } | $.=.$.! : c.K.J.J.G.J.H.J.J.H.J.j.j.j.5.5.=.=.=.$.=.=.=.=.=.5.5.=.=.5.q.5.q.q.j.5.5.0.j.q.j.q.j.q.q.5.5.=.=.*.<.=.5.q.q.*.q.q.5.q.q.<.=.^ x.w.7.1.+.1.1.3.3.7.0.3.0.0.5.0.0.2.[ q.e.e.e.G._.L.r._.w.w.r.G.q.r.w.v.w.3.w.I.3.3.1.-.7.3.1.7.%.=.2.=.] +./ Q { ) -.1.1.0.,.` 4.0._ I ~ ~ ~ I ~ ~ ~ _ _ ~ ^ L F F F F E L E E _ _ _ _ ~ F L ) _ ~ K K I _ _ ) ~ I J H a F a F a a J J L E L L J L H P J J J H ",
"| A | Z Z Z x A c x A A c Z A | $.| x x | } | } | =.$.j.n.J.d.5.4.$.=.h.j.5.5.5.*.$.} =.=.Q $.' y.Z Z x Z x Z Z } ! ^ $.=.^ ! : j.J.c.h.J.0.h.J.J.j.j.=.=.=.^ $.$.=.=.=.=.=.5.=.5.5.j.q.j.q.5.q.q.5.q.5.0.0.q.h.q.q.q.q.5.q.*.&.] ^ &.2.5.q.5.5.q.q.j.q.2.*.<.! d.0.3.2.[ +.7.5.2.w.0.1.c.0.1.9.7.1.[ 3.r.e.w.r.G.G.r.r.r.e.c.r.t.w.t.x.w.w.w.w.3.3.1.{ 3.3.1.3.*.1.1.%.{ 1.Q ! ' { 1.2.2.7.{ [ 4.G.<.*.&.%.&.%.&.~ ~ ~ F F F F F E K K L ~ ~ ) ~ _ ~ K ~ &.&.~ L H L ) [ _ ) I E H a a a g g F a H K L ~ E J J P v P K K H b b ",
"| Z A | A A x Z Z x c A x Z x .. .W k x ..Q } x |  .o.j.j.K.7.a.=.=.5.j.5.5.h.=.=.$.} $.+.Q  .+.$.! } x } } Z x } | o.$.+.$.W : h.h.5.5.0.5.=.=.=.=.=.=.=.=.$.=.=.=.=.=.5.q.5.q.q.J.j.q.j.q.q.q.q.5.q.q.j.J.j.j.j.q.5.2.2.=.*.^ *.<.*.2.2.q.2.q.q.*.*.*.*.] o.J 7.0.5.2.%.=.2.2.2.c.0.2.h.0.1.0.0.1.%.3.r.e.q.v._.G.q.r.v.e.r.w.9.v.t.w.w.v.w.w.3.3.1.>.,.3.1.3.1.[ 1.*.' *.Q E ' ] +.1.1.3.{ [ 6.v.&.%.&.&.L ~ F F K K F _ I ^ ^ ~ E ~ _ _ ~ ) ) I I _ &.&.E K K ~ ` ` ) L ) ~ K F J F 8 7 a F H J L L U J v J v P L L P b b P ",
"Z Z N x Z z | Z Z Z x x A | ! ..| x c N } } W W o.} $.7.h.J.h.5.o.$.5.j.d.=.5.5.=.^ W $.+.|  .$.| x x x Z x x x } ^ ' $.+.| z : 5.j.5.5.=.5.=.=.5.=.a.=.=.a.=.=.5.5.=.j.j.j.5.q.q.j.q.j.q.q.j.q.q.q.5.q.q.j.q.q.q.2.2.2.2.&.] *.2.2.<.*.2.2.*.&.+.] ^ ^ $.] %.J h.0.7.2.*.2.%.2.2.e.0.7.0.0.1.0.3.1.[ 2.c.e.w.r.G.G.r.r.v.e.v.e.3.w.t.r.r.t.w.w.t.8.,.1.[ 2.1.2.1.+.*.[ ' { Q Q Q ] [ 1.1.1.1.[ 4.v.&._ U I K F ~ ~ ~ ~ ~ I I L I ~ ) &.` U ) ^ L F ~ &.&.) L F ~ [ _ ) L K ^ I K H F a 8 a f F b L ~ I L b L P b J ( ~ L L b P ",
"z | Z Z x z A Z Z x x Z Z | | ..N x j W } N W | o.| o.5.J.n.h.h.$.+.a.7.5.=.d.h.=.o.W @.=.Q $.$.| } x x } } } } } ! ^ $.$.Q ! : 5.d.5.=.5.h.0.j.j.5.5.=.a.5.5.j.j.5.5.j.=.5.j.J.j.q.q.q.J.q.q.j.j.q.q.J.J.q.q.q.5.*.<.5.*.=.*.*.<.2.q.5.2.2.*.] ^ Q ! ^ Q Q ^ f h.9.2.2.%.1.2.*.q.e.9.0.0.0.2.0.3.2.-.2.r.e.0.v.G.L.r.v.G.v.r.e.t.r.t.e.t.3.t.w.3.2.1.<.{ 8.1.1.[ ] +.[ ) +.Q R ' +.*.1.2.1.1.{ 2.r.&._ L F K U ) _ _ _ _ I ~ ~ ) ] _ ] ` ) ^ ~ L L ] ) _ ) ~ K H _ _ ~ E K K ~ K H H a g a F a H E U ) L L P J P v v P ~ E I L ",
"! Z z A x A ! } | x A | } ! | | } c x } } W N x o.| #.h.J.J.h.h.$.+.5.d.5.5.0.h.=.o.N @.=.Q o.o.| x } x c } } x ! } ^ o.$.} z : 5.j.j.j.d.5.j.j.j.0.5.a.5.5.5.5.5.j.q.q.q.q.q.j.j.J.J.J.j.q.q.J.J.q.j.q.q.q.q.=.2.<.*.&.*.<.<.<.2.q.5.q.q.2.2.*.] ^ Q ! ! ^ ^ f d.7.*.*.*.2.2.2.*.c.7.9.2.0.2.0.1.*.[ 1.e.w.q.c.(.L.q.r.v.r.r.w.w.w.w.e.r.t.t.r.3.q.2.,.{ 2.,.8.] [ 1.*.+.-.E R / ) [ ,.1.1.,.` =.r._ U I I L I I ~ ] &._ _ _ ~ ~ ) ~ ) ` _ U L K ^ ] ) ] &.] ) L ~ ] _ ) L K ~ ~ L K J G a F K F H L E E ) I ( L P P J P P L ( ",
"! | Z x c Z N Z N } z } ! ! ..! Z k x } | } N N +.| 4.7.h.0.0.a.$.$.4.0.0.5.5.0.$.$.} $.$.} ^  .} ! x } x } } x } ^ o.o. .} ! - a.j.h.h.j.j.5.j.j.j.j.j.5.5.a.5.5.q.j.j.j.J.q.J.J.J.J.J.J.J.q.J.J.q.q.q.q.<.=.q.2.<.<.*.<.2.2.q.5.2.q.h.0.q.*.*.] Q ! Q ! ! ^ F 5.2.%.2.,.1.2.2.2.c.9.*.3.w.3.3.1.*.%.3.w.q.0.e.I.v.q.r.G.r.r.w.9.t.r.t.w.w.w.q.3.t.<.,.) 5.1.<.{ 1.1.) *.+.T T Q ' [ =.,.` 8.[ 1.e.&.&.&.U U U U _ &.&.&.&._ _ &.) ~ ~ ` ] ) L K ~ _ ^ _ &.&.&.[ ` U ) [ _ ) ~ L ) ) ) E P b H H b a H J P L L E E L ( P P P b ",
"Z z Z N z Z N } N | Z N | | | | x h x | } Q N } $.W 1.5.0.5.0.5.+.' 4.0.*.5.5.h.] $.! $.@.| | $.| x x x x x } } Q | ^ $.^ W W : =.=.=.=.$.=.=.a.=.5.=.5.a.=.=.=.j.j.j.q.q.q.j.j.q.q.j.q.J.J.J.J.j.J.j.j.2.=.=.<.&.*.5.<.<.<.2.=.q.q.5.q.5.*.%.%.' ! W ! ! } ! s 4.*.2.2.*.1.2.2.9.e.0.5.3.q.2.0.1.%.>.2.r.3.w.r.r.e.q.v.r.r.r.w.9.3.3.w.t.w.t.3.3.t.8.[ _ 1.1.8.+.] 3.] { [ R v Q ] ] [ [ { <.[ 1.L.&.&.&.&.&.&.&.&._ &.U _ &._ &._ _ ) ~ ~ _ ~ L K L ) ] ` ` [ %.%.%.` U _ _ [ ) ) L ) ) ) ) R J a a a b a a b J P L L R E ) E ",
"| x Z z x Z z | N } ! Z | $.| ! k k N | W W x o.| W 7.4.h.*.7.=.o.' 2.h.5.5.5.h.o.^ ! $.$.W Q ^ } ! x x x x } x | ^ ^ $.Q W ! - =.=.=.=.=.y.$.y.=.=.$.=.=.=.=.=.5.5.5.5.j.q.q.q.j.q.q.J.J.J.J.J.J.J.L.q.q.q.<.=.=.&.=.q.5.q.q.<.*.2.2.2.*.*.*.*.] ^ W ! ! ! ! s 1.2.2.2.*.%.2.2.q.0.0.2.2.7.0.0.,.[ 1.2.w.3.w.I.v.r.q.r.w.r.w.w.t.8.3.q.w.e.t.3.3.w.<.>.{ 2.1.3.] ' 2.*.) ~ R T R { { [ >.+.8.[ 4.G.<.<.q.<.<.<.%.&.%.&._ U _ &.&.%.*.%._ ^ L E E E E ~ E ^ _ _ _ [ ,.,.[ ,.[ %.,.>.[ ` _ ) ~ ~ E R L L P v b b a a b v P P L L ",
"! z Z x z A x Z N z z | ! ^ | z k k } Q N N N  . .T 4.4.h.*.h.+.Q ' 5.0.5.5.2.0.+.^ } $. .W $.$.} } x } x x x ! o.! ^ ! W ! N : h.c.h.d.5.5.j.5.5.=.$.$.$.a.=.=.=.=.q.q.j.J.J.q.J.q.J.q.q.J.J.J.J.J.J.J.j.q.q.=.&.=.&.*.*.5.q.q.q.q.2.2.*.2.2.4.=.+.o.^ ^ ! F r 1.2.2.*.%.2.2.2.0.0.9.2.2.2.0.0.%.{ 1.0.q.t.c.v.r.w.t.v.r.w.r.q.9.8.3.3.t.t.3.3.3.3.,.[ [ 1.3.3.] ^ 1.*.' Q E R R [ _ [ 1.[ ,.` 4.G.<.<.&.&.<.<.<.&.<.&.&.&.&.<.%.%.&.%.%.&._ ~ ~ ~ _ ^ ~ I ~ ^ ) ) ` ` ` ` [ ,.,.[ >.>.[ ` ` U L L L L L ( L R L L L J P b J P ",
"| z N Z x z x Z x N | ! $.! x x k k } | x } x ..| ! 5.5.q.5.5.=. .^ =.q.5.5.5.0.*.Q } o.} } ^ $.! x k x x x } x ^ o.^ ^ ! ! z : 0.J.G.G.J.h.h.7.0.7.d.d.=.+.] $.#.=.=.0.h.c.q.e.J.e.q.q.h.q.J.J.e.e.J.J.J.e.q.q.h.5.2.%.] ] *.*.5.2.5.q.5.2.2.*.2.*.*.<.*.^ ^ s =.%.2.2.%.2.9.*.q.9.q.2.2.q.0.2.[ [ 1.e.0.3.v.r.r.q.t.r.r.r.t.q.9.,.3.3.3.3.t.8.9.3.[ [ [ ,.3.1.[ ' *.{ ' ] T V R { [ [ <.[ ,.` *.J._ ^ _ ~ ~ I _ _ _ &.&.&.&.%.2.<.%.&.%.%.%.*.[ _ _ ` ) ) ~ E L L E ~ ) ~ L ) ) { [ ` [ >.,.%.` ` I L ) ) L L ( L R U ( U L L ",
"| z Z z x z c z x N ! $.$.^ ! ! k k ! | ! } x | ! ^ =.=.5.5.0.] Q Q 5.5.q.2.*.q.' ! } ' Q } $.' ! x k x k } x ! ! o.$.o.! ! z : c.J.G.G.H.J.h.c.c.h.j.c.h.h.7.4.=.+.+.+.*.=.5.5.q.*.2.=.q.q.q.5.e.0.q.0.0.0.L.h.0.e.q.5.5.*.] ] ] ] &.*.<.5.5.q.*.*.2.*.5.*.*.T *.%.q.*.*.%.2.2.q.*.2.q.q.*.q.2.[ ] 1.v.0.<.e./.c.t.t.r.q.t.q.t.3.8.t.3.,.3.w.2.3.3.[ [ ` { 8.3.[ ) ,._ ) ' v s J [ [ [ 1.[ 1.{ =.q.~ ^ I ~ K ~ I _ I F L _ &._ ~ ] &.&.%.%.%.&.[ %.1.,.[ ` [ ) ) ) ) I L L L P L L L I _ ` ` >.` ` ` >.` ` [ ` ` ) U ~ U P L P ",
"z x N Z x x x x k x ! ^ ^ ^ ! k h x ! } x x ! } ! | =.] 5.5.5.$.Q o.2.*.5.*.2.5.o.} ! =.$.! Q ^ ! k k x k ! x !  .! ^ ^ } ! z : J.H.G.H.G.J.J.c.e.0.c.c.J.c.h.x.x.h.5.5.=.5.5.*.=.=.*.*.=.%.] ] =.*.2.q.2.q.q.q.q.q.q.q.q.q.2.2.2.*.*.*.=.] ] $.&.=.<.5.<.2.*.T *.<.q.*.*.2.2.9.e.2.q.2.2.&.2.5.*._ ,.0.2.2.w.v.w.3.<.r.9.r.r.t.9.,.8.8.,.8.t.3.9.<.` [ ` ` ,.2.1./ *.[ ' E b d R [ %.[ ,.[ ,.) ] J.<.*.&.&.&._ &.&.&.~ ) ) ) _ ~ I ~ ) U _ ~ U ) _ [ &.` [ %.%.,.,.[ ` ` ` [ [ ) L E E E E ) E E ) U ) { ` ` >.%.>.%.` >.>.>.` ",
"| z z x x z l k ! N } ^ ! ! ! k t x ! ! x k ! ! ! } =.$.5.] =.] ^ ] *.5.*.*.2.2.o.! ! =.| ! } $.! k k x x x x } ^ ^ Q o.! ! N : J.H.(.H.&X&XH.H.J.J.J.H.J.c.c.J.J.n.J.H.H.H.J.J.J.c.c.h.5.h.5.a.*.%.=.*.%.*.=.%.=.2.2.2.q.5.q.2.2.5.q.2.<.<.*.*.*.*.*.&.*.&.&.J *.2.q.%.%.2.2.2.0.%.q.2.&.] *.2.[ ] 9.3.,.0.e.w.q.3.3.v.9.r.t.w.3.8.3.,.,.2.3.<.<.8._ [ ' >.,.1.[ ' %.{ ^ E v m R { %.[ >.>.,.{ $.J.&.&.] &.&.&.&.&.%.%.&.&.&.%.%.&._ &._ _ ~ I U L I L I L ~ _ _ ` [ [ [ %.,.%.,.` [ ` ` ` [ [ ` ) U { ` I I ) ) ` ` ` ` ` [ ` ",
"N z x x z x x k ! N } ! ! z x F h ! N N ! x ! } ! ] =.*.5.*.*.^ Q +.=.*.=.*.*.*.^ ! W =.o.! ! | ! l k k k ! k } o.^ ^ o.} T z = e.(.H.G.G.H.G.H.G.(.H.&X(.(.H.'.(.(.H.G.H.(.H.(.G.H.H.J.J.c.c.J.J.h.c.h.c.*.=.*.=.*.%.*.*.*.*.=.<.=.*.2.5.2.=.2.5.2.*.&.*.*.*.J *.q.q.&.2.*.2.2.q.2.q.q.*.%.*.q.[ [ 9.2.<.q.e.v.w.3.9.w.r.t.3.w.8.8.8.,.,.8.3.3.3.1._ [ ) +.,.1.[ ) >.{ ' ) v b E { >.) 1.,.1.E ] 9.~ &.&._ _ _ &._ _ ~ _ &._ &.&.&.%.%.%.%.&.] _ _ _ ) ~ ~ L L L L I L L L ) I ) ~ ~ ) ) ` ` ` [ >.>.>.,.[ [ >.{ ` ` ` ` U U ` ",
"z Z z k z x x k k } ! ! ! x ! k h x N ! k ! ! ! ! =.*.*.5.*.*.$.Q =.*.*.*.*.q.+.Q ! ! =. .T !  .! k k l x x k !  .^ Q o.^ ! z % 9.J.J.H.H.G.L.L.e.J.H.G.c.c.J.G.J.H.G.G.H.G.G.G.J.J.J.J.J.J.c.c.J.J.J.J.J.J.e.e.J.q.q.=.q.*.%.%.*.*.&.] *.*.*.*.*.5.2.2.2.&.&.J %.q.*.%.%.q.<.2.2.*.q.*.*.%.*.*.{ ] 0.2.3.0.w.r.r.8.3.t.9.t.3.r.,.3.3.,.>.<.2.3.q.1.~ [ ) [ [ [ [ ' 1.) ( o.V u R [ %.) [ [ ,.) ^ 5.^ ^ ^ _ _ I ~ ~ ~ ~ ~ _ _ ~ ^ ~ I ) _ ~ ~ _ %.&.&.%.&.&.] ` [ ] _ _ _ _ ) E P J J L L E L L E U I ) ) U ~ ) ) ` ` [ ` ` ` ` ",
"k N F k F ! z c k ! | ! z z ! h h ! ! ! k k ! ! N *.*.$.*.$.+.! Q +.*.5.*.&.0.%.! ! } =.^ ! | ^ x k k k l l k ! ^ ^ ^ o.Q T z % 0.c.j.J.c.h.e.J.c.v.c.c.c.c.c.H.c.J.J.J.e.e.e.c.J.e.c.J.J.0.c.c.J.L.c.J.J.e.0.J.J.q.J.J.J.e.q.5.q.5.q.5.*.*.] ] *.&.*.*.<.&.<.K ] q.*.*.q.q.%.q.*.<.0.%.*.&.2.2.] _ w.3.3.q.w.e.e.,.3.w.q.r.8.t.,.8.,.,.,.8.,.3.3.1./ [ ) [ ,.[ [ ) >.{ E { R v E [ 1.) [ ) [ ) ' 5.~ I K L ~ F ~ F I I ~ I I ) _ ~ ~ I E L L ~ L I ~ _ _ ) _ _ _ ` [ %.&.%.%.` ` ` ) ) ) ) U E I L E L J b H L J H P L L I L L ",
"l N ! k c ! k k x ! ! z z N ! k h ! ! ! F k ! ! z +.*.=.*.] $.! ! %.5.=.%.*.5.*.Q ! Q ^ ! ! Q } l k k l k k k ! Q ^ Q $.Q z z ; 0.0.9.h.0.h.0.q.0.h.x.0.h.h.x.0.h.0.h.h.0.q.0.0.e.0.0.q.0.e.J.0.0.q.e.0.q.0.c.c.q.J.q.J.J.h.J.c.e.h.0.0.q.0.2.5.<.*.*.*.&.*.&.F &.0.%.2.q.q.2.q.2.%.2.%.%._ *.2._ [ 0.3.q.3.q.v.t.8.9.r.r.r.<.3.3.8.,.,.,.8.` 3.3.<.~ _ _ [ %.,.[ ) ,.[ L ' V v T ] ,.` [ _ ,.) o.7.&.&.&._ _ _ &._ &.~ I _ ) ` _ ] &._ _ _ ` ] ) ~ E ~ ~ I I ~ ~ I L U ) ) ) _ ` ) ` _ ` ` ` ` [ ` [ { ) E E I L L P K P H H H ",
"x N z z k ! t k k N ! ! ! F ! t k W m z n d ! m z =.=.*.*.=.' m ! *.=.2.&.*.2.] ^ ! ^ $.! ! ! } l t k x ! t x ! ! ^ ^ $.! z l @ v.(.(.'.(./.J.J.H.H.G.c.h.h.h.0.7.7.7.7.7.0.0.2.2.9.9.*.9.0.7.7.q.q.q.h.e.0.0.q.q.e.q.0.q.5.0.q.q.q.h.q.q.q.q.0.L.0.0.q.q.q.5.F %.q.&.2.q.q.2.q.%.2.q.*.] ^ &.%.] %.0.2.9.9.9.r.q.<.q.w.e.r.3.q.8.1.,.` ,.,.,.8.8.,.L ) { [ [ ,.) ' ,.{ ~ / P v R ` ,._ ,.[ >._ Q 9.] ] _ _ [ _ ] ] &.&.] &.&.[ ) &.%.%.] ) _ ~ I ^ ~ ~ ~ _ ) ) ~ L L ~ ~ ~ E I I L ~ I ) ) _ ) ) ` ` ` [ [ { ` ` { ` ` ) _ ) ) ",
"k z k l ! k k t ! z x F k ! k h t ! n l l l Q T m *.%.=.=.%.' R ! +.*.*.%.%.5.^ ! ! ! ^ ! ! ^ ! l t t x k k k ! ! ! ^ ^ ! l s : G.(.(..X.X.X(.(.(.(.(.'.&X(.(.H.G.H.H.G.H.H.c.e.h.n.G.J.h.0.9.0.L.L.=.q.q.q.q.<.*.*.2.q.q.q.5.q.q.5.5.q.2.*.*.2.2.q.0.q.q.2.2.^ *.*.&.2.2.2.q.q.%.2.2.%.] ] =.&.&.2.0.9.0.9.9.G.9.3.t.r.e.r.3.9.<.2.>.` ,.,.>.3.1.>.E ) ) [ [ %._ ) 1.) E E T v J ( 1.` ` ` >.) / 5._ [ ] ] [ ] ] ] ) ] ] ] ) ) ~ ) _ _ ~ ^ ~ ~ ~ ^ ~ ) ) L I ~ ) _ ) ) U ~ ) ) ) ) _ ) ) ) U ) _ E L ( L I E E L L E ) _ ) ) ) ",
"k c F k k y h k t ! z ! k k x t t x l u s l T m m *.+.7.=.] ] Q ! ^ *.] %.*.*.^ ^ ! ! | ! ! ! ! ! k k y k t ! ! ! ! | ^ T l s : L.G.G.&X.X&X&XH.G.(.(.(.&X(.&X'.(.&X(._.(.(.(.H.G.G.(.G.G.G.J.H.G.G.G.J.c.J.L.L.e.q.q.q.q.*.2.q.2.q.<.2.2.<.<.<.<.2.<.*.%.] &.^ *.*.&.2.q.2.2.q.<.q.*.%.^ ] %.] &.2.9.9.q.9.0.v.<.3.w.r.r.w.3.3.,.8.%.` ,.>.>.,.,.,.L R L [ ` ` [ _ 1.' R / E b v ) ,.{ [ _ ,.E ' 2.' ) ~ L ~ ~ ) ~ ^ ) ) ) ) ^ ) ) ~ I ) ) ) ] ) _ ] ] ) I ~ ) _ _ _ _ [ _ _ ) _ ` ` ] { ` [ ) _ E ~ ~ E L L L L L J E ~ L L K ",
"F F ! k k F y t y ! ! t F k ! t k z z u s m ! z v +.[ 2.[ +.^ T ! ] ] *.*.*.%.^ ! z ! ! ! F } ! y t y k y h y ! ^ | ^ ^ z ! s ; L.G._.H.G.G.L.J.G.G.L.G.G.(.(.(.'.(.(.H.G.G.G.H.G.G.G.G.(.G.H.G.G.G.G.J.G.H.G.J.J.J.G.J.J.H.G.J.e.L.j.q.2.5.q.q.2.2.&.] ] ^ ^ F %.2.&.%.q.2.2.q.%.q.q.&.~ ] ] ] ` 2.2.q.r.q.q.r.3.3.q.q.r.q.3.3.,.1.>.` ,.>.>.,.[ >.~ T E [ ` %.[ [ >.) L ~ R v T ) 1.` [ _ ` U Q 2.) ^ ~ ~ E E L ~ L ~ ~ ~ ~ ~ ~ ~ ^ ~ ) ' ) ) ] ) ) ' I E ~ L E ~ ~ ~ ~ ~ ~ ~ ~ E ~ ) ) ) _ ) ) ) ~ L E E I E E ) ) _ ) L ) ) ",
"k k z x y ! y ! x ! x t ! y k : y z z l y z T d f *.+.4.+.+.E J ! ] %.5.%.%.] ^ ! T ! ! ! F ! ! k t y y t h y | ^ ^ ^ ! F ! s - J.(.H.G.J.J.e.e.v.J.v.J.e.e.e.c.c.c.e.c.J.J.J.J.J.J.J.H.G.J.J.J.J.J.J.J.J.J.J.J.J.J.J.H.G.G.H.G.J.H.J.J.H.J.J.J.J.L.0.0.0.q.q.K =.*.&.%.q.<.2.q.&.2.*.&.~ *.&.&.%.9.9.q.q.q.r.r.<.9.9.9.r.9.2.2.,.,.,.[ >.,.%.%.,.[ ) v E { ` [ ,.[ [ ) E T v J J ' 8.` [ [ [ ) Q *.] ] ] ) ) ^ ) ] ~ ~ ^ ^ ~ E ~ E E R R E T L T L K K J J J J J J J J F J J J J J J L E L L J L L L E Q E E E E Q ) ) L E L K ",
"F y k F k t k y ! ! F t : ! F h k f l s y d T f ! +.] 2.%.' ! T ! ] *.&.*.*.] ^ Q l ! ! k F ! ! k : k k t h y ! ! ! ! ! l j j # 0.J.q.9.9.e.c.J.e.e.e.c.e.c.c.J.c.c.0.9.q.c.0.9.2.0.e.c.e.q.0.q.e.q.q.q.q.q.2.2.q.5.0.q.e.L.J.J.J.J.J.J.J.J.J.J.q.L.e.J.J.J.J.*.*.%.&.2.q.q.q.q.*.*.%.] ) *.&.] %.<.9.2.r.t.r.r.q.3.<.9.r.9.9.2.,.1.,.[ >.,.>.U [ [ ) b J ` >.,.[ ` [ ` ( v v v b E 1.[ ) [ [ ) T +.' ~ ^ ~ ~ L E T F T J F F F f f a i p p f f f F J J F J H f F f T J F F F f J H J J J J J a b v P J L J J H J J F a H J J J ",
"k y F t F y y y F x y t t F k : y z d y y s J z T ] ' *.+.^ f m ^ ] *.&.&.*.] ! ! F ! ! F ! ! ! y t y t t t ! ! ^ ! ^ ! s l s ; e.e.c.c.h.q.0.e.0.c.J.n.0.0.q.0.e.0.0.c.0.5.2.5.2.5.h.q.7.q.e.e.e.q.h.c.q.q.5.5.q.=.*.*.*.*.2.*.*.=.2.q.q.q.2.2.q.q.q.2.q.q.J.^ +.&.%.q.q.<.<.<.<.2.&.^ ] 2.] ~ %.<.9.3.q.q.q.q.9.<.<.r.r.9.9.2.` >.` ` %.,.,.` ` ` ) J b ` ,.,.[ ` [ _ L b p v b L 2.[ { _ [ ) J ^ F f F F F J K F T F F J T J J f f f f v J J J J J J K T J J J J J F f a a a a J J F v J J v J J v v v J J v F F J J J J a a ",
"k k k h h y y ! k F y t t y t : y z l e y d z T E *.' *.] ' f f ^ *.] ] &.&.*.! T s T T ! ! ! F k t y k t t x ! ! ! ^ ! s z s : c.G.H.(.H.H.H.G.G.J.G.G.H.H.H.J.c.L.h.c.c.e.c.h.0.q.0.0.h.e.e.e.e.h.q.q.q.0.q.0.0.0.q.0.7.2.1.=.*.*.*.2.q.q.2.2.*.*.&.*.*.*.&.E ] %.%.q.q.<.<.q.%.%.&.] ] *.] ] %.<.9.<.r.q.r.3.r.9.<.r.r.2.2.%.` %.%.[ %.[ >.` [ [ E L p ) ` [ [ ` { ) J T f b v E 1.[ [ _ %.E T ' T T T T E K F E E E T T T J J J J J J J J v f f f a p a p i 7 5 r 5 i i r i p i 7 i 7 i 5 7 b p p 8 5 i 7 i 7 i i g a p a p ",
"j l t : y t t f z d t t y t y : t z s y y f z T R ' ^ *.^ ^ f T ^ &.] &.] *.&.^ F F ! F ! ! ! k t t j t > k J ! ^ R T m l z s ; h.H.H.G.J.H.H.J.H.J.H.H.J.H.H.H.J.J.H.G.J.J.J.J.J.J.J.J.h.J.h.0.J.0.q.q.h.5.q.5.0.5.2.5.7.9.5.4.5.5.*.q.q.2.*.2.*.%.*.*.*.] %.K ' %.%.q.q.<.<.%.%.2.%.) [ *.) ] &.2.q.<.q.r.q.9.r.q.<.r.w.<.2.%.` ,.[ [ [ %.` %.[ [ ~ L a ) _ [ >.` _ ) R J p f p E %.{ [ _ %.) m ^ a f F F J J f f F d F f g g p p y i i f a r p f f f f f p a a f v J J J b f H v b b J J b b b b b b v J v v b J b J J b J H ",
"y y e : q t q l z l w e y q y > u d u e e d f v T E ^ ] ~ ~ J T ^ ] ] *.] &.&.~ F F ! ! F ! ! y t t t y t t z T R T E m l z s - 5.h.9.4.4.5.5.5.5.0.0.*.*.=.*.*.=.=.=.4.5.5.5.=.5.=.*.*.=.*.*.*.=.*.%.*.*.2.2.5.q.5.5.5.5.h.0.7.q.q.h.q.5.q.2.5.*.q.*.2.*.*.%.T ] %.%.9.q.<.<.%.2.%.%.~ %.*.) _ %.9.q.<.q.r.r.<.w.q.3.r.w.<.%.%.` [ %.&.%.[ [ %.&.] ) ~ J K ` ,.[ _ [ ) E v f v p L [ ) ) E %.) T ! p p f F f F F s g F f T J T J J J J J L E L J J J J J J H a f J J J J a a a a 8 a a a 8 p b v p f b p p a p p a b v a b a a ",
"w y y t > : : z d s e y e q y : s l y w w d z f E ~ ^ *.^ ^ f ! ^ ] ^ &.] &.^ ^ ! F s ! ! ! ! F : t y k t t J ! T T ! d f s s + +.=.7.d.=.7.7.4.=.0.h.=.5.5.=.*.h.*.*.7.5.5.5.0.5.5.5.5.2.=.%.^ ^ ] ^ *.+.] $.^ $.^ ^ ^ o.] %.*.*.=.5.2.2.*.5.*.*.q.5.q.2.2.5.^ +.%.q.9.q.<.q.%.9.2.&.T %.%.~ _ %.q.<.q.q.q.9.<.r.q.q.e.r.<.,.&.` [ ` %.&.` %.` ] %.) ) T J _ [ [ ) [ ) L R f v p E >.) E ) [ ) T ] F T ! ! J J J T ! ! T T T ! E L v P J a a a f f a H f J a a p i a a p 5 7 p i p b a p a b b J H v v J b p b 8 a J J a f a a ",
"q y : q t e q z s s e e y e e : l f y w w d v f ~ E ] ] ^ T f T ^ &.&.&.&.=.^ ^ y y s ! F ! ! y t t t t t t z ! T E T s l s d + +.4.=.4.=.+.$.#.=.=.*.=.=.5.0.5.=.*.*.=.*.=.5.*.=.5.5.5.=.=.*.=.=.2.=.=.*.<.*.*.*.] =.&.] *.=.*.*.*.2.=.*.%.^ ^ ^ ] ] ] ) ^ ^ J *.<.q.9.<.9.q.&.9.2.) L %.%.E ~ %.q.9.<.q.r.<.<.q.q.w.r.q.<.<.` [ &.` &.] ` ,.,.&.&.~ ~ J J ] [ ` ) _ ) R L b a a E 1.) E ` >.) m ^ J J F J F F F f F F f F F F f b v v J v J J J L L L J K K f f J J a J J J b v H v b J J b v v v H v R J P J v v v P J J v a ",
"e e : q : : e l d y w y r e t > d f e w r f v p ^ E ) ) E T J T K &.&.^ &.&.&.K F t y ! F ! ! k > t t t t y z T J ! f z d s y + =.j.j.h.5.4.=.4.a.d.5.h.7.h.h.0.h.5.5.5.5.=.5.5.*.5.=.=.*.*.+.*.=.*.*.=.*.*.=.0.5.*.*.*.] =.$.] *.%.*.+.%.] ^ ] ] ] ] *.&.' ] F &.q.q.q.<.&.q.&.9.%.) ~ *.&.K ^ <.q.<.9.q.q.%.<.q.q.w.q.q.<.%._ ] &.` &.` &.%.1.] ` ~ E J F ] &.[ _ _ ) E J f p a E <.) _ _ ` L T +.E ^ ^ ) ~ ~ ~ ~ ^ ) ^ ^ ^ E T J J L P P v P J K J H f a a p i p y i p p p p i i i i b p e 7 i a p p p f i p b r e p p p b v ",
"y w q e q : y y s w 3 s e e w : f d q e y f v f ~ E ] _ E J T J ^ &.&.&.&.^ &.^ ! y F ! F ! F y : t t > q s J T J ! f d d y i $  .o.#.4.4.=.#.$.=.=.+.+.=.=.=.=.=.5.5.5.5.0.h.5.q.=.*.] %.*.*.*.] *.*.] *.5.2.*.5.2.] %.*.+.] %.*.^ ] ^ ^ ^ ^ ^ ^ ^ ^ ' ] ] ^ F <.<.q.r.q.<.%.&.q.<.) ^ &.) E &.<.q.<.<.q.q.%.9.q.9.r.r.q.<.%.` %.] &.,.&.&.<.%.&.&.L I K F ^ &.>._ ^ ~ E f f f a E ,.) _ ` ` L T +.E E K I ~ T E L K T F J d f v b v p b r b b 5 i r i p p i i i p a f v v v b J J v v L v b b b b a J J v v v v b b p p a a 8 ",
"w q : y w 4 w y r y q s q q : q m d q q y f p p ^ E ] ^ L T v J &.&.&.^ &.^ &.F s F ! ! F F F t h > t q q l J T T T s z s s e $  . . .o.$.o.#.a.+.$.#. .W $.o.$.*.$.*.$.] #.=.=.=.*.=.*.=.5.5.5.=.%.] *.*.] ] +.&.] ^ $.^ ^ ^ ^ ^ Q ! ^ ^ ^ E ~ ^ ] ] &.%.^ ^ a <.q.<.r.q.<.<.&.<.<.) ^ ] ) ~ %.9.<.<.9.q.<.<.9.q.9.9.r.q.%.%.` &.[ &.<.&.<.%.%.%._ I E L p ^ %.[ _ _ E J f 7 p a ~ ,.) ) ) ` L d E f d d f f i p d i s d d s J v v b v p b b P J v a J L J H I L J E E E J v J L P J b v P v L v a b b J v P L v L P P L U ) E ",
"w q 2 w w 2 y r y w q y r e : e f s 2 q p f i f ' K _ E E J f f ^ ^ &.&.^ &.^ F y F F k y ! F h : : : q e d z F T m d d s d e + | @.#.#.+.$.$.$.^ $.=.$.o.o.' ] o.^ ' ^ ^ ^ ^ $.$.] ^ ^ *.*.*.*.*.$.^ *.=.*.^ ] ^ ] ^ ^ ^ ^ ^ $.o.^ ^ ^ ^ E ^ ^ E ! ! ^ ~ ! ! s 3.q.q.q.q.q.&.&.q.%.) ^ ] ) ~ &.9.9.9.9.9.<.<.q.r.9.r.9.<.<.&._ [ &.&.%.<.%.<.<.%.~ ~ L K p F *.[ _ ] ) J f r p f E %.L E _ _ L d ^ J f f p f f f F E J L ~ Q E J J V P P R U U ) E L L ~ ~ ) ) L J L L P v P J J ) E L ) ) ) L ) ) ) ) ` ` { ` { { >.>.` %.,.` ",
"r w 2 2 w q w s u 2 2 i e q : : f u q 2 d b r f ^ K ] L E F f f I &.&.&.&.~ ^ F s F F s s ! y t : : : : w s F T J f y d d s e + o.$.@.$.] +.+.$.o./ $.+.+.o.+.$.o.^ ^ W ^ $.^ $.$.^ Q Q Q ! ^ ^ ^ Q ^ ^ ] o.| ^ ^ ^ Q o.' ^ ! Q ! ! ! ^ ^ o.^ ^ ^ E ! E T K J s <.q.q.q.<.<.<.&.q.&._ _ &.^ ^ %.<.q.9.9.q.<.<.r.q.9.r.<.<.%.%._ ] &.%.2.%.<.<.<.&._ I L K g T %.%._ _ L K F r i g E &.E _ ` _ P v ,.` ` ) R P U ^ _ ` [ [ ` ` ) U ` P V U U P P P b b U U U P I E ` ` ` ` { U ` >.` U ` ` U L ~ { ` U ` U { { ` ` ` ` ` ` >.>.` ",
"s 3 4 3 w 2 2 y e 2 : u 2 q - q i r - 2 p b 5 f ~ K _ E F f s d K I &.^ ^ ~ ^ F s s T s F ! s t : : t : t s F F v p y m s y y . @.5.=.=.=.$.] =.*.=.4.=.#.+.o.o.o.o.$.^ ^ Q | ^ ^ ^ Q ^ ! ! ^ | ^ Q ! o.^ W ! ! Q Q ! ! ^ Q ! ^ ! T ! ^ ^ ^ ^ Q E Q ^ ^ ^ E ! i 2.r.q.q.q.<.<.&.<._ L ~ _ ~ ) *.<.q.<.q.<.,.<.r.r.9.r.<.%.%._ ` &.%.%.<.<.%.<.<.%.U I H K F F *.%._ _ L E ! g i F ! _ ~ ) U ) P R 8.,.` { ) U U L _ _ ) L E ~ ~ U U U U U P P P P P U ` ,.,.>.U ` ,.` ` ` ` ` ` U I L U U U U { U U I ( ( U U U U U ( L U U U L ",
"i w r r q q 2 s : e : 2 2 2 : q i r - : p p 2 p ) L _ K T f f F &.&.&.~ ^ I K F F F F t s ! s : : : t w q y ! F v u r d s s e + ^ =.=.5.5.=.$.=.2.4.5.0.0.0.=.+.+.+.=.*.+.+.=.] $.^ ^ Q ! ! Q ^ Q ! ^ E ! ! | ^ Q ! ! ^ ! ! Q Q ^ ! T T T T ! Q ^ ^ Q ^ ! T E w <.r.<.q.<.<.&.2.<.I K ) ~ ~ ) *.<.q.q.q.9.&.<.r.9.q.9.<.&.` ) _ &.<.%.%.<.&.<.<.%.I L L F F J &.%._ _ K K F g i a K ] ~ U I ` P P t.>.` ` ` ` U ) ` _ ) ` ,.>.>.>.,.,.,.>.>.,.,.<.<.<.9.,.,.<.>.` %.` ` ` U ` U U U U U ) U ` ` ` U U U U I U U ` ` ) ` ` U U ) ",
"g 5 r r 4 4 3 w 2 2 e 2 q : - q p i - = f p 2 a ^ L _ E E F f F ^ &.^ K I &.K F s l F w F T w : ; ; > t w w T F f u u d s s r + #.5.c.0.q.5.*.=.=.*.=.4.4.0.0.7.5.4.=.5.5.5.=.5.=.=.#.^ $.=.=.$.+.+.+.=.=.] ' ' ^ Q Q ' Q ! Q ! ! Q Q T T T J F E T ! ! T E ~ i <.r.<.r.<.<.&.&.&._ L ~ L ~ ) &.9.q.q.<.<.,.9.q.<.9.<.<.%.) L ` %.%.&.%.<.&.<.<.%._ ~ L F s K &.%.U ~ ~ ! F f g f K &.U U U ` P v r.,.` >.,.<.&.&.<.8.3.8.<.,.>.,.<.,.,.>.>.` ` >.&.&.&.&.` &.,.,.` ` U ` ` ` ` ` ` >.` ` ` ` ` ` >.` ` >.` ` ` ` ` ` >.` U ` { ",
"i 3 3 q # r w w - : e * 2 e : 2 p i & : p p q v ) L ) E K F a F &.I ~ I ~ ^ ! F s ! F w F T : ; ; ; : w y s F F f r u u s i w + =.j.h.h.h.h.0.0.c.h.e.0.7.7.2.2.2.2.2.=.*.5.*.*.2.=.=.*.=.5.=.<.2.=.*.=.=.*.=.] +.=.+.] =.] $.] ^ ^ ^ ^ Q Q T T E Q E T m F F w <.r.9.q.&.<.&.&.&.&.F ~ ~ ~ ~ &.<.q.9.9.&.&.9.q.q.<.9.,.U U _ _ <.%.&.&.<.&.&.<.q.&.U I F F K &.%._ I ~ F F g s a K ` ) ` U ` H ( r.<.8.,.,.,.,.,.>.,.>.>.` ,.,.>.` ` ` ` ` ` >.,.` ` ` &.,.,.,.&.>.>.%.` ` U ` >.>.` >.>.>.>.>.>.>.>.,.8.>.>.` >.>.` ` >.` ` >.",
"i w 3 3 # w w 3 - - 2 2 = 2 2 = 7 2 = 2 p p 5 f ~ ~ ~ F F p f F I ^ ~ &.~ ! F F s F F w s F = : : : t q w F s F v r r s s s w $ O.o.o.+.+.+.=.0.0.0.0.h.0.c.0.0.9.4.2.*.q.*.*.*.*.$.%.=.=.5.=.*.=.] ' ] ] ] *.=.+.] ^ ^ ] $.=.*.=.+.] *.' ^ $.] ^ ^ ^ ~ E ^ ' i 9.r.<.9.&.<.&.&.&.&.~ E ~ ~ ~ &.<.<.9.9.&.&.9.9.r.<.<.<.&.U ` %.<.%.&.%.&.&.&.9.%._ U I F F F &.&.&.U F F K g i a K ` _ U U U H R r.<.<.<.,.,.,.,.>.` ` ` ,.8.,.,.,.,.&.` &.,.,.>.,.,.,.>.>.>.&.>.>.` >.>.` U ` ` U U ` &.>.,.>.>.>.` >.` ` ` ` U ` U ` >.` ` ` ",
"g 3 2 r = 4 3 q & - 2 e 2 5 : 2 p e = 2 i p i F L ~ ] E T i p F K K ~ ^ I I K F F F J w g F w : ; : t w s F F F p u u d s u r + +.4.4.4.*.=.=.*.4.=.1.=.*.*.1.*.5.2.9.0.e.q.q.q.q.*.=.=.*.*.*.*.*.+.=.2.*.*.] ] ] +.+.+.' ' ] +.+.=.*.*.*.5.*.=.*.] ] %.] ^ ^ p q.r.9.<.<.<.&.<.%.%._ ^ _ _ &.q.q.r.r.q.<.<.q.r.q.9.<.9.` ) %.,.%.&.%.%.&.&.&.%.<.&.&.U F F F &.&.&.&.I K F F g g K ` ) I I U H R q.,.,.8.8.8.8.<.9.8.,.8.t.r.9.8.<.8.8.9.<.8.>.,.,.,.<.8.,.8.8.<.<.,.,.>.>.>.` >.` ` ` U ` ` ` ` >.` { ` ` ` ` { U U ( U ( U U ",
"* # @ @ @ O @ @ o + O & + & & & = & & & = # = 3 7 g f p 3 2 3 5 G G F F G G F 3 4 w i 4 w q # + + @ # # 4 4 4 q = * * = = & @ $ V f z m f z z J f f J T T T T m v T T T ! ! J ! ! F F J T ! J F J J K T E E J K T K T ! ! T J ! F F ! F ! F ! F T F J T J f p r <.U I I U I L I K K F F F F ^ _ &.U U U I U &.&.&.U U U J J ~ E ~ I I I I K H L I I K G F g 5 F F F F F g 3 w 2 3 i K H b b Y a b ` ) I U b P P I U ( b U L L P V U U U U P P I P P P I U ( U L P P L b b v v P P P b b v b b b b v b b V b V b b V b b b b b b ",
"^.^.!.!.^.^.^.^.^.^.^.^.^.^.^.^.^.^.^.^.^.^.^.^.~.~.^.^.^.^.^.,X^.,X^.^.,X,X^.,XQ.E.Q.Y.W.W.Q.W.Q.W.Q.W.,X^.R.R.^.^.^.T.^.T.R.:.Z D D A D C A D A A Z Z } Z u.} ..u.y.y... .@.y.....X.X. . . .@.X. .|  .@. . ...X. .Z Z M n j S S k j k k k k M j M n M n N B T n S j M M j M j j k j M n l j j n M n n n M n n M n B V n n l s j l l j k t > t > t t > t > > : > : > t t y y t > > t t u t e : > > % % ; ; % ; % + % ; % ; + ; ; $ + % $ + + : : - - ; 4 = : : - - - ; - ; : - # - ; ; - % % # - ; - % O $ + + $ + % + $ % % % ",
"kXcXxXaXyX#X#X1X1X1XOXOX1X1X1X1XyXyX#XyXiX#X#XyXyXyX#X#X$XyXyX$X#X#XyXyXiXiXyXyXyX2X1X2X#X#X#X#XyXyXjXjXjXyXyXyXjXjXyXyXyX$X#XU n ! Z n N N ! o.X.R W O.+.{ o.O.+.-.4.4.+.+.1.4.5.+.1.*.] +.=.d.*.] ] +.=.{ 5.1.3.6.W ..M j t l j j x M j t l n x Q Q / T ^ 6.^ W M n T W T W z W m / Q ( W ! T / O.Q W W W / W T O.4.+.! ! Q T T ! ! d q q e w e u e - y t w t u r u n V V n d u u n n v v v r ; > & & - & = & = = = = & & & O O O O O O @ O @ + + + # # # # # # # # 4 # # # o O O O O O O O o o o o o o o O O O o O O O % O O ",
"yXyXyX2X#X#XOX).P.OXI.OXI.OXOXoX+X&XOX$X#X$X$X#X#X#X#X#X+X+X+XOXI.I.OXOXP.I.I.I._.+X#X$X$X$X%X+X+X).#X#X$X$X+X+X#X+X$X$X+XOXOX( s V f d f f ! R ! v V R ' ^ R ^ ' Q [ [ ) ' { %.&.) ] ] E ~ [ [ ] ^ E ~ ^ E 1.[ 1.*.f V l t y s y > y l t : l m s T E R f Q %.E m u s d f T f l m m T T R R J R / o./ E R ! / R v { 2.*.J T ^ K J J z s q - w q 4 y q - y 2 q r e q e b v m v u e u v v V v b e ; : & = = = = & = = = 2 2 = * = * # O O O O o o o O o O o o O O + O O @ O O o O o o O O O O O O O O @ @ @ # # # & & @ @ & @ O . ",
"#X#X+X#X$XyXyX+XoX#X#X#X#XOX#X#X#X+X+X&XOXOX+X+XOX+X+X+X$XyXyX$XiXyXyXyX$XOXOXOX_.(._.).%X+X+X+X+X%X+X+X).&X).OX).OX+X+X$X#X#XP d v f d f f R T R f J T Q ^ ' ^ ' ) *.*.) ' 1.%.%.^ ' ] ) ' %.] ^ ' E E ^ ' 1.%.2.*.l T m t y s y : u l : e d v f T ' ^ f ] 9.E m l e y m J f f T m f J ! R T Q / o./ ( R ! E E T 1.*.%.T J ^ ! T T J w q q y w 2 y 2 = y 2 w r r e u m v v p u 2 i n b v b b e ; e & & & & & = & = < = 2 2 2 < 3 < , = 2 = 4 * 4 # # # # # # # # # # @ # @ O @ @ # * * # # # # # , , 4 , , , , * * & * & @ & & ",
"+X#X#XyXyX$XyXyXyX$X$X$X#X+X$X#XyXyXyX$XOX).+X#X+X+X).).+X).+XOX$XyXyX$X#X#X$XyXyX$X%X+X%X+X+X+X&X&X).).)._._.OX).).&X+X).)._.V n v b f f v R J R F J J Q Q Q E E ) [ 1.{ _ %.[ [ ] ] ) ] ) ] ] _ ] L E ^ ) 1.[ 2.[ m v d q y s y : t y e t s m f ! ' ^ p +.3.~ v l y s T f d d f m f p T T J R ' ) Q R R R R R R 1.2.[ T T E ! J T J q 4 w r r q s 4 = p q e r r e f v v v p y e i f v b n b 6 ; t & & @ @ @ O O @ & & + & - @ @ @ @ # # 4 * 4 4 4 4 * * , 4 * , , , # # # # # # * * * # # # @ # # # @ @ @ O @ @ O o @ @ @ o O ",
"OXOX).OX#X$XyX$X$XyXyXyXyX$XyXyXyX$X$XyX$X#X#X$XyXyXyX$X#X#X+XOX+X#X$X$X#XOX_.+X$X$X$X$X%X%X%X+X+XOX+X+XOX).).$X$X+X$X+X+X)._.P d v v d f v R J Q F J T ^ ^ ^ E E ^ 1.1.' ^ ] ] ] ) ' ^ ] ~ ' ] ^ ] T L ^ ] =.[ 2.*.m T d t y n s : t s y e l f f ! { ^ f *.9.~ f s u v R v s s m V f f f ! T R ' / R R T v R ( L [ 3.1.E T E F J ! J w : w w w w i 4 = i 2 r r r 2 d V v p b e u y u b v 5 b : ; t = = = 2 2 4 = = = & & O O O @ O + + @ O o O O @ # # , , # # # , , # # 4 , 4 , * , , * # @ @ O O o   o       . o o O o o O o ",
"jXjXjXyX$X#X#XOXOX+X+XyXyX$X$X$X$X$X#X+X$X$X#X$XyXyXyXyXjXjXjXjXyXjX$X$X+X%XyX$X$XjXyX$X$X$X%X%X+X$X$X$X$XyXyXyXyX$X$X$X$X$X$XU s V m p p v R v ! J v T ' ) { ^ R ) *.%.) ^ ' ] _ ^ ' _ ] ~ [ %.) ' K E ) ' +.+.3.*.m T s > y m y t s s u y d l d ! ] E f 1.0.~ m s y v R v r d T f V v d F T E ' ' R Q T V R R E 1.3.1.L K T T J T v r 2 w w q q s 4 q i 2 r r r e b v f v p e u d d v v n b e $ e = 2 < 6 2 , < < 2 < , 2 4 = = & * * @ @ @ @ O O O # # # @ @ # # # # # o o O o o o o O o o o o o o O O O O # # * * * # # & * ",
"#XyXyXyX$XyX#X#X#X+X+X#X#X$XyX+X+X+X#X#XyX$X).).#X#X+X$XyXyXjXjXjXyXjXyXyXjXjX$X%X$X$X$X#X$XvX$X$XjX$X$XyX$X$X$XyX$X$XyX$XyX$X( d v v d f T V v ! T f R ^ ) ] R Q ) %.%.] ) ] ] ) ^ ] ) ] ^ %.] ] ] Q E ) ) [ 1.7.[ m T y q y d j t s y y t l d d R ' T v 1.3.E d i y V ! v s J V d v v f F J Q Q ) Q Q E V J V ~ %.1.[ E J K E E J J y q r w q 2 s = = y 2 r e u e v b v b p e r u d v v e b q ; t = 4 4 = * 4 2 3 , , 2 * = 2 , 4 4 2 2 * = , , 1 1 , # # # * # # # O # # # O @ @ # @ @ @ @ # # 4 * * # * # * # * * , * , * , ",
"jXyXyXyXyXyX$X$X$XyXyXyXyXyX$X$XvXyXyX$XyX$X$X%X$X$X$X%XyXyX$XvXjX$X$X$X$XyXyXuXvX$X$X$XvX%X+X%XyX$X$X$X$X$X$XvXjX$X$XvXvXvX$XU d v v d b v v v R R f E ' ' ' Q E ] %.2.] ^ ] ] ] ] _ ~ ^ ^ ` +.[ ' E L ^ { { 1.3.1.f m d t w s u q u u e : d l f E ' b v 2.3.) d s u v J V d J v d v T v v J R ' ' E Q Q T T T / [ 1.,.Q J T J T E J y e i r q 2 r @ 2 y r q 2 u 3 p v f v p e u 5 b v n u b e ; f 3 3 3 3 4 < , = = , 2 4 , 4 * 4 * 4 , 4 4 , * , , , < 4 , < , , , , # , , , , , # # , * # # * * * * * * * * * # & & * * * & ",
"kXkXjXjXjXjXaXyXyXyXyXjXjXjXyXyXyXyXjXjXjXjXyX$XvXyXyXvX#X%X2XyX$X$X$XjXvX$X2X$XyXjXvXjXjXvXvXvXjX$X$X$X$XjXyXyXyX$X$X$X$XvX#XU v V b b b v v v Q R f E ) ' ) ' Q ) [ 2.&.) ] ] ] ] ) ^ ] ~ _ &.[ _ ) Q ) ) [ +.1.,.m T l w y s y t y y q q s y f Q / f v 1.7.E s d s b V v d v V f T E T J Q E ' Q T ' E J R E ~ [ 3.1.E J T J E T J y w y e q : 3 O e r 3 r 2 d 2 f v p b u e u 5 r v b e b e ; ! F F F F F 8 8 7 7 7 3 2 2 3 < 3 < , , * * * * , # * # # * * # # # , # # # , # , # , * * * * * < * * * & * * , * * & @ @ @ & ",
"kXkXjXjXyXyXiXjXjXyXyXjXyXyXyXjXyXyX$X$XvXyXyXyX$XvXjXvX$X#X%X+X+X%X%X$X%X#X#X#X$XvXvXvXvXvXjXjXvXvX$X+X$XjXjXyXyXvXyXvXyXyXyXU d T b v v v v v E R z Q E ' ) ' ' E [ 2.] ^ ] &.` [ _ ) ) ~ ] ] [ ) ' E ~ ~ ) 1.2.>.m m d t e s t w e y w y s e v / o.J J 8.0.Q s d s V v i s T b d R T T R Q R ^ Q J ' T J T Q ~ [ 3.%.I J J J E J v r r y 2 2 = r & e i 3 w q u 5 v V p b r e e n r n b u b b : ! F F a a F F b a F a a a H H H H F F a a a 9 a a a g i 7 7 7 i 3 G 0 3 G 1 G 0 4 1 1 , , 4 , 6 1 2 6 6 6 6 < 1 , < < < 1 6 1 ",
"$X$XyXjXjXyXyXyXyX#X+XOX+X+X+X+X#X$X+X#X$X$XvX$X$X$XvX$X$X$X#X+X$X$XOX%X$X%X%X2X+X$X$X$X$XvXjXjXvXvX+X+X+XvX$X+X$XvXvXvXyXjXyXU d ! v J v u b u Q R f E E ' ' ) ] ' %.*.%.) *.&.[ [ ] ] ) ^ ] ] [ ] ) R ~ { { 1.3.[ v J u : y s e w y t y t s y V ' ) V R 1.3.( u r b R T y s v s f L T R R E E Q R J Q v v R E ' [ 5.[ ~ J ! J E v v 3 e i q q 4 r % 2 i r 2 e p e f v b p r r b r r r b r b r ; T g p 7 g 7 8 8 7 7 7 7 7 8 8 8 8 9 g a a 8 9 8 8 g 7 8 8 7 8 G 0 0 G F 0 G F G G G G 7 g G g 8 9 8 0 8 8 b 0 0 8 a 8 8 9 8 8 ",
"OX).OXOXOXOXOXoXOXOXOXOXOXOX).OX[.[.[.OXoX[.OX+X$X$X#X#X+XOX).#X$X+X+X+X#X%X#X+X$XvX%X+X@X+X+X#X$X$X$X$X$XyX$X$X+X+X+X$X$X$X$Xb v ! v V v u b f E E f E R ] ' [ ] ) [ 1.&.] %.*.&.[ ] ) ) ~ %.&.] ] ^ E ' ) [ *.3.[ m T s q y s e s y e e y d e b ' Q J E 1.0.E y u f Q R s f s s T T V T Q Q ' ' R J Q R v R Q ' { ,._ ~ J T J Q F F w 3 r 2 2 e r & r 8 u = e i u v R f d r e b e e b b b b r > J a a a F 8 8 a a 8 0 7 8 9 9 a 9 8 8 8 9 g 9 8 8 7 0 3 7 1 3 3 3 3 3 3 1 4 3 4 1 3 1 3 3 1 1 1 6 7 6 6 6 6 6 6 < < < 1 1 1 6 ",
"OXOXOX).]._._.P.I.I.I.].OX).I.I.P.P././.I.I.x.I.).I.I.I./.].+X[.OX).OXoXOX].]._.].[.OX[._.'.OX'.I.I.I.).OX+X+X+X$X$X).&X)._._.P v V b T v b s d R T f Q E ) ] [ _ ^ %.2.%._ %.%.] %._ ) ' ~ ] ] [ ) L E ' ) [ { 5.[ m J u t e d y s q : y y d y v Q R f ' 1.2.~ s u s T b s p s p J J v J R Q ' Q J R / E J E ~ ) [ +.) E F L T R f f w q r 2 q 2 5 + 2 u p 2 5 e 5 v v v f 5 e b e 5 r b b b e ; T G a a 8 g a a a 9 F F a F a 9 9 8 8 8 8 8 7 8 a a g i 7 0 7 3 G G 3 F G 3 G 0 3 3 3 0 3 3 3 6 5 7 5 0 6 6 0 6 6 6 6 6 6 1 1 ",
"I._.OX#X[.OX].OXOXOXOXOX+X#XOXP.[.OXOX+X#XOX+X+XOX+X_._.'.)._._.I.I.P.P._._._._.v.x.I.P./._.'._.I.I.r.I.).&X_._.)._._._._._.I.V v v v R p b d s J J f E L ) { %._ ~ *.1.[ _ %.] ] &.] ^ ^ ~ ] ] _ E E Q ) ) [ [ 3.{ f m u q y d e s e e y q s y v Q R J Q 1.0.Q u u d V u s f v d v v f v Q Q ' E f E Q Q R R ~ ) =.%.^ T F J T T F f 2 3 r 3 2 2 2 . 2 i i = e r 5 v T b p u 5 u e e u n p b r ; E F F a a a a 9 H H a a a 9 9 F a F 8 7 G 9 9 g 7 0 7 8 8 8 9 F F G G G 3 3 3 0 g 0 g G 7 0 0 8 8 8 8 b 0 0 b 8 8 6 0 0 0 8 0 ",
"yX#X#XOX+XOXOXOXoXyX#X#X#X).OX#X+X).].OX#X$X$X$X$X$XyX$X2X2X2X$X#X%X#X%X%XyX#X+XOX+XoXOX[._.[.).I._.+X).&X+X)._.OX+X+X+X+X+X_.b V v v v p u v i T E f K L Q ^ %.) ~ [ %.&.] %.) ] ] ] _ ) ~ *.%.) E E L ~ ] +.{ 1.[ d f s t y f y u e y e t u i m E E ! ^ 1.3.E y s d v r d v f f T v f v R R E T b E Q Q R R ( ) =.] ^ ~ F K T J a s 2 2 r 3 4 2 r o 2 i r - 5 r r v v b p e e b e 6 p p b b e : T F f 7 7 9 a 9 a a a 9 9 9 F 9 a 9 9 a g 9 9 a 7 7 7 8 0 a a 0 3 3 G 3 F G G 0 0 7 7 7 7 g g 8 8 9 8 0 b 0 0 8 0 0 8 8 8 8 8 ",
"+X+X+X+X+X+X+X+X#X+XOXOX).[._.r.I.I._.(.&X+X+X%X$X2X$XyXjXjXuXyX2X#X#X2XvXjX$X@X@X+X@X%X@X+X+X[.OX$X$XvXvXvXvX%XvXvX$X$X$X$X&XY v V b v d p b e J L b R E E E +.&.K ^ %.&.*.&.) ] ] ~ _ ] ] %.] ] E K E E ^ ' [ 5.[ s f u t u f t s r y : e d d v T E J Q %.2.T s u m f r d f v d V v f J f T V v b W ( Q T Q E E 1.[ Q T J J J J f p 2 w 3 2 3 w g O 4 s r 2 r r 6 b T f p e r b r r b v b b e ; Q F a a a a a a H H J H J H J J P H P H b b 9 9 9 8 7 7 7 7 0 0 0 0 7 8 8 0 7 7 8 8 8 7 7 7 8 5 7 8 8 9 b 9 9 9 9 8 8 b b 8 8 ",
"+X+X+X&X)._.).OX+X%X#X%X+X+X+XOX&X[.+X+XOXOX&X)..X.X_./._.'.].|.[.'._.(.).[.[.'._._.v.v.v.e./._._.I._.).&X&X&X+X+XvXvXvX$X$X+XP p R v v b b b i R R f E E J L ) ] ! ^ %.%.*.&.^ ] &.~ ) ] ] ] &.) K K E ~ E ' _ 8.{ p v s e e p r r u y y t u d J E T J ) %.1.v d v v s m v s f b v V f f f f i s v V E R R ( E E ,.[ ) J T F J J f i 2 w w 2 5 3 g # # s 3 4 r r 2 f v p r 2 r b t e b b i b e % J i a J J v H J J J P P P L L P L L K P P Y H H H F H H H H a H F a 9 7 0 7 7 6 0 7 7 1 1 1 6 6 1 1 3 6 6 6 7 6 6 7 5 6 7 0 6 ",
"_._._.r.r.I._.).&X&X(._.].(.+X+X%X+X+X+X$X+X#X#X%X%X@X@X$X%X%X%X%X$X%X#X@X+X.X).'.).[.@X+XOX&X&X).).&X&X&X&X&X&X&X+X&X&X_.I.r.V s v v p d v u p J L f L J J ^ ) ] F K &.*.%.*.^ ] %.I ~ ) &._ ) ) J E T ) E ) ' 1.' s b d : e u t y y r t e d u E ^ R f Q [ ,.J t f v r f v f f v f d J f p f i s b v E R T E Q Q [ _ ) K F F F ! J p 3 2 2 5 i 3 3 # = p w 4 r r 5 f J i r 2 e b t e b b e v r ; f 5 6 5 3 6 7 7 7 7 5 6 6 5 r 6 5 p a a 9 9 b a a 9 a H H H J L J K J J H a 9 9 a a 9 9 8 8 8 7 7 6 8 6 6 0 6 6 6 6 6 5 6 5 6 ",
"_.).)._._._.I._.I.L.L.G._.r._._.)._._.(._.&X&X_._._.)..X+X+X+X.X.X+X).)..X[.).).'._.).+X).).).)._.).&X&X&X&X&X&X&X+X&X&X)._.I.b s v f f p p p i J E f J T E E ~ ] ! E &.<.*.%.] _ *._ ^ ^ _ _ _ ^ K T L E E ' [ 1.~ p v s e u f e r u r e e p u J ' E f Q ,.<.J e v v r f d v m V f V R f s i s v f v Q T R R L E =.) ) ! J F a T F p 3 2 4 5 5 i w # = i q 4 3 2 5 p v i r 2 t u 6 e v b 5 b p ; f 3 2 3 2 3 7 r 5 5 8 5 5 3 6 6 5 5 5 6 1 1 1 1 1 1 3 3 7 1 3 1 7 0 0 a F F F 9 H 9 F F a a 9 a a a a b b b 0 8 8 8 0 b i i 6 ",
"&X&X+X+X+X+X&X+X&X&X(.&X).).(._.).&X&X&X&X&X&X&X&X&X&X&X&X.X).&X'._.(.(.(.&X&X(.&X(.(.&X&X).&X+X&X).&X&X&X&X+X+X&X&X%X&X&X&X&XY s J b f p p s i T R f J E J L ) ] ~ ] ] &.%.%.&.] %.] ^ ~ _ _ _ ~ J L E L E _ { 8.) p v p : e d e e r e : r d s R _ J p E *.2.J y J s s v f v d V b T T p f r p v v V Q T E R J [ [ _ [ J J f a J F g 5 2 2 2 5 i i # # i 2 = 5 5 r b f p 7 = e e 5 e v p r b p ; p 3 4 2 2 2 2 = 2 = 2 3 < < < < 2 1 2 < 6 < 6 3 3 6 1 2 3 6 3 1 3 6 5 1 7 7 7 8 7 6 6 7 8 a a 9 a b 9 9 H b P b b b b b b b b ",
"&X&X+X+X+X&X+X&X.X+X+X+X+X+X+X+X&X+X&X+X+X&X&X&X&X.X.X+X.X+X.X+X+X%X%X%X$X$X%X%X%X%X$X$X%X+X+X%X+X&X%X%X%X%X%X%X%X+X%X+X+X+X&XP f v v b p i p s J L p E J v T ] &.%.*.&.&._ ] 5.&.%._ ~ ~ _ &.] L v L E J ~ ) [ 1.E u J u : e f e r e e e e u u E ) L i ~ ,.3.v y v e f d d b d b v Q J f p p v f J J R R E J L [ { ] [ L f a a F F g 5 2 2 3 1 3 3 = * i 4 = 5 5 r v a p u 2 5 p u e b b i v 5 ; J p i 7 5 3 6 5 5 6 6 3 3 6 1 < < , = = * = * , , < , , , < 1 6 7 i 7 0 7 0 1 1 1 < 3 3 3 0 3 7 5 6 5 6 0 8 p b b b b b 0 b 0 ",
"r.I.I._._._.).)._._.(.(.).).).'.).).&X+X&X&X&X+X+X%X$X$X%X+X+X%X$X$X%X%X%X%X%X%X%X%X$X+X+X+X%XvX+X+X%X$XvXvXvXvXvX%X%X+X+X&X).b f f p f i s 3 f J E f E J J E %.%.%.q.2.! ! ] q.&.%._ _ L &.) _ ~ J L L L E ) [ ,.E p v u - e b q r r e = u d i ( E T f ~ -.2.b s f r V f f s v f R / f v J V v b V ! v J R J Q [ %.] ] L K a a F z a 5 , 3 3 1 2 3 = * 5 = = 2 5 i b b i r = r p e 5 b b b b 5 ; d i p p i i i a a b b p i f p 8 5 5 5 6 5 6 1 3 1 < 2 < < , = * * , < < < < < < , < < 1 < 3 1 6 5 1 1 5 6 < 2 6 0 r 6 5 < < < ",
"8.,.8.8.8.9.9.r.r.L.G.G.G._.G.G._._._._._.(._.).&X&X&X.X.X+X+X@X%X%X%X%X%X%X+X+X+X+X&X+X.X+X&X'.&X_.(.&X&X+X+X&X&X&X&X&X&X+X).b p b f p i p 5 f V E J F J J E &.%.] q.%.J r K &.q.%._ _ I _ ) _ L J Q J L E ) [ 1.) s b u = e f e e 2 r : 2 u r E E L p ) <.1.f s s s b f p s v f ' E b T R E T T v v J T R J E [ +._ ] T K f g F F a 3 , 3 3 4 4 7 = * r 4 = 4 2 p b p 5 i 2 u r 6 p b b r p e $ - @ @ = * = = = = = 2 2 5 2 = 5 2 5 2 2 2 3 6 3 6 7 7 6 1 , , , , * * < 1 3 0 1 1 , , , , * * * , * , 2 6 6 5 6 6 6 2 6 6 < < ",
"t.t.r.3.7.0.q.<.1.q.r.v.v.c.w.0.q.w.e.w.v./._.G.G._.(.(.(.(.(.(.).(.(.(.H.G.H.(.(.(.(.(.H.G.e.0.c.c.e.J.G.G.G.(.&X&X(.G._.G._.F f J f f i 5 i d F L T f T F ~ %.&.~ ] K i s f [ %.%.) _ ~ I L _ E J ~ K R E [ [ ,.~ u b i 2 r f r r = r = e s u E E J p { 1.1.b u d v v a f f J T ] T f J Q E E v d v ( R v T ' +.%.] ] F F a g F F g 3 * 1 3 2 2 7 4 # r 2 = 4 2 p a i 7 i = p i 6 5 u b v p r $ = = = = & & & & & - & & & O & & @ & O & O & @ & * = , , 2 < < 1 3 1 < 2 2 < 1 6 5 5 6 7 1 , , < < , * < 6 1 1 < < * * < < * * ",
"8.,.8.t.7.0.w.w.3.2.0.r.r.e.e.w.3.5.t.3.3.0.w.3.3.r.G._.G.G.G.H.v.G.v.v.c.0.v.r.e.e.w.e.e.J.e.e.G.G.G.G.(.G.G.H.L.r.v.J.L.L.r.f z J g 5 5 i 3 i F E J a T F K *.] &.] r = 2 J %.2.&.~ ~ ~ I L ) ~ J Q J J ~ ) [ ,.' i f y q 2 s e q 2 q = e p s ~ R f p _ 1.<.b r d p T f p f E ^ ) F J J E E T p y v E R R E ) ] ] ] ) K F a g g g a 1 * 3 1 2 4 1 4 @ 2 = q 2 2 r a i 7 i 2 i r 3 i f f J 8 7 $ e 2 2 = 2 = 2 * & & & * * & & & & & = & & & & @ O O O O @ @ @ O O O & * * * = * < < , 4 , , 1 6 6 < < < * * * < * * * * * * < ",
"t.3.3.3.9.2.1.3.0.9.q.e.r.G.G.r.w.w.c.c.0.0.0.3.0.e.e.w.0.0.0.e.e.c.e.e.v.J.c.L.G.G.G.G.e.v.e.0.q.J.G.J.L.G.G.H.L.G.G.J.r.v.e.f a J f i i i 2 i F ! J p K F F &.&.) L 3 = r L 2.2.&.~ L L I L ~ L J ~ J L L ) [ ,.) r b r 2 2 p 2 q = e 2 q u r E R v i ) >.1.J u s v J i r J T ) ~ J E T E E F f p v ! T E J ) ] ' ^ ~ K F a i s F p 3 4 < 6 2 4 3 , # 2 = 2 4 4 7 a 7 i i 2 r p 2 p b v a a i $ 2 & = * * * - = & & = = = = = < = , 2 = * & & & & & # @ O @ & @ O o o . & & * * * * & & @ @ @ @ @ & & * < 1 1 < < < < < < < * ",
"e.c.r.r.v.r.J.G.G.G.r.v.e.e.v.v.G.G.G.v.G.r.G.G.G.G.r.G.v.G.G.v.G.G.v.c.q.q.v.J.r.v.c.0.3.7.0.x.c.0.c.r.G.G.c.7.L.r.r.7.7.1.1.y a T i 5 i a 3 5 F T K a T T f ] *.L a a 8 a ~ %.*._ L L L ~ ~ I J L E J L Q ) [ ,.( t i = 2 r r q q 2 e = 5 r y Q E v s { -.2.J s s T v i r J K Q ~ J E ~ ~ T f T J f f E E Q E { ~ ^ ^ F F g i g g g 1 , < 6 2 * 2 4 @ q = 3 2 , i p 5 5 r 2 2 e 5 a f a p b r . % o o + o % & o + & & * = < < 2 3 2 3 1 3 < = , = * = = @ O @ @ O O O o o o o o O O & & & & # & @ & O O & O & & & < < < < 6 6 ",
"4.3.3.5.1.1.2.7.0.c.c.e.w.c.c.c.v.c.v.c.c.G.v.c.c.v.v.v.e.v.G.H.H.H.H.c.0.0.c.v.H.G.v.x.w.x.c.c.c.x.0.0.7.4.=.+.O.O.' o.;.-.+.r f J f 5 7 a i 3 a J K a K ~ a ~ %.] F p J E _ _ %.I K K ) E L U J J L v J E ) { ,.~ e p 2 2 r r 2 w 2 w 4 y w i E L v f { 1.1.b v d v v i r J J ~ ~ K E K J f f E E F i f R E E ~ ~ J I K F F g f s 7 1 , < 6 2 = 3 4 O 4 4 3 3 2 p a 5 5 5 2 e 6 e b b p 7 b 7 ; % o O O O + O O O + . + o . o o o o O O O O & @ & * * = , , = & & O & & O O O O & + . o O O O @ & * * * & & O & & O o % & & O ",
"+.-.1.4.2.*.*.=.+.+.*.=.1.+.*.*.1.4.1.O.+.=.#.+.{ 1.4.4.7.0.h.x.c.x.7.j.c.c.w.c.v.G.v.c.c.x.7.4.s.4.4.+. .^ +.5.0.t.c.c.c.w.2.r f J f 3 i a 7 3 a F K f J ~ f J %.%.F F ~ &.%._ _ L L J ` ) L ~ H J L J J ) ) _ 8.( e v e 2 5 i q 2 2 r 2 r q i E E v f ) -.,.a d d b v a i f K E ^ T E f e p E T K E F p L R J E E F E E F F s a g i 1 , = 3 2 = 6 < O = 3 2 2 < a p 6 r 5 2 e 5 b 8 b p 7 b r ; e & - & - * = & & & = & & & % O O O o O o o o . o o o O O O o o . o O & & & & * & & & & O o . . o o O O @ & O O & & & & & & O ",
"{ ] ' ^ Q ' ' ' ' +.*.=.=.=.4.=.4.1.4.+.+.*.1.4.1.+.+.#.O.+.$.+.+.#.+.O.#.#.4.+.O.| / o.O.+.+. .$.o.o.O.+.*.2.4.7.4.4.4.=.O.' r F F p 3 i p i i i a L f F Q F F ] &.K K ] &.%.] ) L P J ` I ) ~ a J L J H ) E ` <.) 5 v e 2 e u = 4 q w 2 r q r ( E J b ) >.>.p f p f v f i p K K J J f f i f E T J J J a E J v E J a K E F a g a i i 3 * < 2 2 & 1 < @ & 2 < < < a b 6 i 5 2 2 5 7 8 b i p b i . & O O & = & = : = 2 2 2 6 2 6 2 = , = = * @ o o o           . . o . o o O & & & & & * & @ & @ O o o .       . o O & O & O & O ",
"2.0.3.7.2.5.1.[ ] =.+.' { { ] O.O.*.2.2.1.=.1.1.4.+.+.+.+.+.o.' / o./ Q Q Q / | W Q ! Q o.+.+.O.O.+.1.5.=.=.+.o.o./ Q ' ] [ ] r T F i 7 g f g i g a K a f E ! f ) ] L K _ _ %.%._ L J L ` I ) I H K J f a _ ~ ` <.E 2 b 5 2 2 r 2 q q q = y 2 r ) Q f b { ,.[ f y p a v f i 7 K T J v f J f p J f v F J J R J f J J f K F F a i a g i 7 < = , < * 3 1 @ & 2 4 2 2 p 8 2 0 e 2 2 5 7 a b 8 i b 8 $ % + + + . o + O O & & & - * 2 2 < < 2 , = & * & @ O o .         o O o o O % & O O O & * * & & @ O O o o .   . . o . O O O & & ",
"q.7.9.0.0.e.e.0.0.2.2.1.1.2.3.1.8.3.1.<.2.=.+.+.=.=.+.4.4.1.=.=.+./ o.o.o.' / o.+.=.] +.+.+.=.4.4.=.*.' Q ' ' o.*.=.*.1.1.2.2.i J J i 8 f a 7 5 i a J a v J L F E [ I J _ _ %.%.` ) K ) ` L U I J K K a a ~ U [ %.~ w s w 2 2 r 4 q 2 w 4 r 3 r ~ ) f f ` >.[ f s a p p v a 6 a J T J J J J J f f J T J Q E J f E f a J J J a 7 f a 8 5 4 * = 1 * 6 1 & @ , = 2 1 a i 3 7 3 2 2 5 5 p H p 7 b 5 . - @ O @ & O o . . . o o O & = < * 2 * * & & * * & @ @ o o o .   X   o o o o & & O . O * * & & * & @ @ O o O o o         . o @ ",
"0.9.7.9.2.7.9.9.2.2.2.,.<.1.1.1.1.,.1.1.1.7.9.7.2.7.3.0.7.4.4.#.o.o.W m m W ' +.*.*.4.5.=.*.O.] ' ^ Q ' ] *.=.1.2.1.1.1.*.%./ w J R i i f a 7 3 7 a J F f J L J K _ L K _ _ &.%.` ) U ) ` U U ~ J K J a a ) ~ %.&.~ r g w 2 2 r 2 q 3 r = 2 r y ~ K f p ' ,.[ f p a i p v b r 3 J J Q J J J E J J J J J J J a f E a H J F J a 8 f F i 7 2 * * 3 = * < & @ = = 1 2 i i 5 3 2 2 3 2 5 p J i a b r . = & @ & & & & @ O o O o o . o . & = & - * & O O O @ @ @ O o o . . X   o o . . O O O o . O & & * * # @ @ @ @ O o o . .         ",
"*.*.2.*.*.*.2.2.0.9.2.1.8.,.1.3.3.3.2.3.2.2.2.9.2.3.2.4.1.o.Q Q Q T l W $.^ ' ] *.*.=.o.Q T T T ^ ' ] *.] ' *.*.%.[ ] ] ) n y q L J p p a p r 3 7 F J J b L P J J _ I F ~ _ _ %.` U _ ` U U I U K K J p J ) I 1.%.~ 3 g r 4 4 g 2 2 3 w = r r i E E v f ) -.{ p r f 5 p v f i 3 i H J E J f E T J T J J J f p f J f b J J J i 8 a F i 7 2 = , 2 * , < & @ = = 3 1 i i 5 3 2 3 3 5 6 f P a b b 5 $ % @ & & & * * & & * * & O o o . + O O & & & & @ @ O o @ @ o o . . . X   O O .   O O @ O o @ * * * * & # * # @ o o o o o .     ",
"<.2.*.2.2.9.2.3.0.2.0.3.3.8.3.x.w.w.w.0.7.q.0.7.2.2.2.2.+.{ W m Q W l ^ =.] ' +.=.' R T ! T z ^ ^ ] ] ^ ' +.%.] ' ^ ^ Q u t n q J J i 7 i i 7 3 7 a F J v L L J J ) ~ a L ) ] %.` _ ` _ I U I I K K H 8 J ) L %.%.L r 5 3 4 2 g 2 2 3 2 & r 5 i E E H a { { ) f r f p p f a p 5 3 f a T R J E K J K J T T f a J J p H J F a 7 i a F i 3 , 4 , < * * 1 & # , * 6 < 5 i 3 w 4 2 5 7 6 a P 8 p b 2 . - & @ & @ & * * , * * & @ @ @ O . . . . o & O O @ o o   @ @ o     o     o O o o o O & & O O * * * & * * # @ o O O o . . o o . ",
"q.q.9.9.7.0.3.3.2.3.7.0.7.3.3.w.e.w.w.e.w.0.9.3.7.w.h.7.5.+.{ Q T W Q Q +.=.5.=.+.o.! ! ^ Q F Q ] ] ^ ' *.%.%.[ ^ T T T t t n q H J a i p p i 3 7 a a H F K L J K ) ) a K _ _ _ _ _ _ ` U U U U K K F a J ) K ` ] ~ 3 i 3 4 w g 2 2 w 4 = 5 2 i E E b a _ { ` b y p i p a a p i 3 a f v T J T T J J J E J p a J J a J J J a 7 a F f g 7 , 4 , , & , 1 * @ , * 3 , i i 3 3 3 4 3 i 6 p b 7 i b e . % o O @ @ & , < * * * * * & @ O O o     + & & O O o o o O O .   o     . @ @ O O o O * # O # # # # # # @ o o o o .             ",
"%.*.4.5.5.1.1.%.1.2.3.7.w.7.3.3.3.8.3.5.5.3.0.0.0.0.0.7.3.1.*.' Q W ^ ' ^ ^ $.+.+.$.' Q Q o.^ ~ ^ ' ^ ' [ 1.2.*.~ f T ! u t r 2 f J p p p a i 7 7 g a H a F J L L I ) G G _ _ _ _ U ` %.U I I U K K F a J ~ K [ ` L 5 i 1 4 3 3 4 4 2 2 = r 5 f E J f J ) >.) f r i p p a i p a i 5 a f J F J F J J J J v p f J J a b L J a i g F F i 1 4 * , 1 * * , * @ 4 = 3 < 3 i 3 2 2 2 3 p 6 i v i b p 6 $ % O & @ & & * * & & & * * * @ O o . o O O + & O . o O O o o o o       o @ @ O O @ * & @ * # @ O @ @ O O o   o       X         ",
"Q ' +.*.1.1.[ O.O.' ' O.+.+.+.+.+.O.+.+.+.+.-.4.5.3.7.w.0.0.0.7.5.=.+.+.=.$.+.+.+.+.$.$.Q ! Q ' ] _ ' ] { ' ] ] ' T T R m v u = f J i 5 i i 3 3 7 g g J a a J J K L U G G U ) I U ) &.&.I L I I K K a f K L F %.&.E r i 2 4 5 1 4 4 3 4 = 2 5 b E P p a ) [ _ i e 7 f a i 7 a a a 3 5 a J f F f J J E J a i J J a F J K J g 8 g F F 0 3 4 * # 4 & * < & @ = , 3 2 3 5 3 2 4 3 2 p 7 i b i b p 6 . & O O & & & * * * * * & @ O O o o & & & & & O o O O O O o o .   X o o @ O O O = , * & & & @ @ @ O O o o o o . .         o . o ",
"*.1.=.4.1.O.{ ' ( R ! W Q ( R W W V W ! V V ! / / O.-.1.5.2.7.0.e.e.e.0.0.7.0.*.2.=.+.] o. .W x Q =.*.] ] ' ^ ' ' ] ^ ' Q Q T = a J i 6 i i 3 7 7 g 8 K J J L H K ~ _ F F I _ I U ` &.U I I U P F F a a J K K %._ F 3 7 4 = 5 2 4 3 4 4 = 2 2 p L J a a E [ ` u e 5 p a i r p f p i 3 i J f F a a J E H p a F F F a H K J i i 8 F F 7 3 , # # 4 & * < * O = , < 1 3 5 < 3 < 2 2 8 p 6 b b 5 r 5 $ % O & & & * & @ O O O o O O & * * & & O O O O O O O O o o   . o o O # # # # 4 , * & & # @ O O o o     X X       . o O o O @ @ ",
") ' ( ( Q / ' { +.1.+.4.+.-.-.-.+.O.o.'  ./ / / / ' O.O.{ +.+.*.=.=.2.3.h.x.x.x.h.7.0.4.+.' Q V T Q ' { *.+.[ ] ' ) ' { ' +.^ 2 v F 7 i f 7 7 7 0 b 8 J H b P J K L _ F F I U I I &.&._ P U U I F H a a J J K %.` H 3 3 4 = i < < < 3 , # 2 2 a E P a a L ,.` 5 e 6 p p i 5 i f a i 5 i f F f a F J T F g a F a b H a E J 7 p 8 F F 3 , , # , # O * , # O 4 4 , < < 7 2 3 2 = * 8 p 5 b b 7 6 5 $ & & & % O O O O O o O & & * * * * & & & & O O O O o o . O O & # , , , * * * # @ @ O O O o o     X X X X   o o o @ # # # @ O O ",
"-.+.o./ ( W ( o.{ O.+.O.o.' ' ' { o.O.+.-.1.4.5.:.o.W / ' ' ' O.{ +.O.+.+.-.1.1.1.4.6.3.1.=.+.+.o.' Q Q ' { ] +.+.] ) *.=.%.) q f a 3 i p i i 7 0 a 9 J a b E H K K ) H F L I I U _ _ _ P I U P F F F i H K L %._ F 3 7 4 # 1 4 4 , 2 = @ 3 4 J L J p a I [ { 7 r 6 p b 5 i 5 f f i 6 a z F f a F J J F i a F g v H a E a 6 g i g F g 4 # # # # O * 4 , o , , , < 3 i 3 < 2 < 2 i 8 5 b p p 5 6 . % o + O & & = = * * * & @ @ @ O & + & O O & O O & & & = * * & # * # # O O O O o o o o .     o o o o @ O # # # # # @ @ O o o O ",
"w.w.e.0.t.7.x.7.t.7.w.w.k.6.6.4.1.-.5.4.1.8.8.4.1.-.4.1.+.O./ / o.' / Q ( / ' o.O.O.O.1.{ ' +.[ +.*.*.+.+.] { { ] ] ] { 1.2.+.q i a 6 p i r a 7 6 a 9 J a b ~ J L H U K G I I I _ U _ U I U I P F F F 8 K K K ,._ F 4 7 < # 7 4 3 , < = @ 2 = a L b a a E >.) i u 8 i f 5 i 7 i a i 7 p F F a a f T F p 8 F a g a a a E i 7 8 8 G G G , # , , # @ # , * o , , * * 2 7 5 < = < < 5 8 p b 7 b 6 3 $ & O & & & & * & @ @ & @ O O O & & & & & * * 2 * & * = & & O & O O O o o o o o o o o o o @ # , # # , # * , , * * * , , , # # , ",
"c.t.t.x.e.7.w.c.c.t.3.7.w.w.x.w.7.3.3.t.t.3.8.1.t.w.v.x.x.0.*.1.4.1.+.o.W ( / / { +.-.1.1.O.+.{ *.O.+.+.[ =.1.1.1.*.1.%.[ { ) 2 i p 7 i 5 6 p 1 7 9 9 H a J L H L L ~ K G P P P U U _ U P U U Y a J a a L H K >._ F 2 1 4 * 7 4 , = 3 * @ 1 , b K f 8 a ` [ E p u i i 8 i p 5 i i 8 3 g F a a a a E F i p F a a a a a K p 1 7 8 3 G G 1 # , , , @ * , * o # , # * < 5 5 1 * = , 6 < 5 b b p 3 2 $ & & & & & & & & O & & * * @ = = & & & & & & & & O o O O + . o o   o o o o o @ # , # , < < , < , , , , , < , , < < , , , , , # ",
"/.P.v.v.v.P.v.c.m.x.e.x.M.c.v.v.v.x.w.x.c.c.x.x.c.v.v.c.w.7.t.c.w.w.7.2.4.-.-.;.4.=.4.-.{ { O.+.1.1.4.4.5.1.+.-.{ 1.1.1.5.2.[ 2 i 8 3 p p 3 i 0 7 9 8 J a H L K L K ~ H K K Y I I I U U P U I P F J a g L H U ` U F 3 0 = , 7 4 = * 2 * @ 3 , f L J 8 a _ [ ) 5 p p p 7 i i 7 i i i 1 p F f p a J K f i p J 8 a a a f F F 7 7 g 0 G 1 , # , , # @ # * * O @ # # * , 3 5 < , * * 5 6 p b 8 7 1 3 % - & & & * * & & & @ & & @ & & & O O O % O o o o O o o o o . o O O # * , , , < < < , , , , , , , , , , * * # * # # # # # # # # ",
"v.m.v.x.m./.P.c.v.I.P._./._.m.P.I.v.m.v.m.P.I._.m.v.x.v.v.c.w.c.c.x.w.w.w.w.7.0.w.w.w.7.5.1.1.-.+.+.{ 1.1.4.1.5.5.1.,.1.1.O.' = r i 5 i a 7 i 7 0 a 0 J a J L H L H ~ H K K P I I I U I Y I I L H H 9 i P H U ` U F 3 3 # 4 3 , * * 3 & O 1 < a L b p b ) { ) i i a i 5 i p 3 i a g 0 a F g g a J J a i a K 9 a F a a F F i 7 g 1 G G # # # , , @ # * # @ # # # * < 2 5 , , = = 5 6 p b p 7 1 < % 2 = & & & O & & O O O @ O O o . o o o o o o O O * * * # , * , , , , < < , , , , * * # * & # # # # # # # # # # # # # # , , # , ",
"5.-.1.t.x.c.c.M.c.c.v.v.P._.`._.].P.P.v.v.P.P.P.m.P.H./.`./.P.m.c.c.v.m.v.v././.G._./.m.v.c.x.w.w.5.3.5.1.-.{ +.-.-.+.-.1.4.1.e 5 i 5 8 7 5 7 3 7 8 8 a a K ~ K L H I F J H L P P I I I I I I I H H 9 8 P P U [ I g 3 3 # 4 7 * * * 1 @ O < < H L b 8 J { [ U i p a a 6 7 i 3 3 a 8 7 a F p g a J F 7 7 a J g a a a a F a g 5 a 1 G G , # # , , # * , * O # # # & < 6 5 = * , , i 6 v b p 8 3 = . - O O O & O & O O O o o o @ & & * * < * < 1 < < < 1 1 , , , < , < * # # # # # # @ # # @ @ @ @ # * # * , , # # # # # # @ @ @ O ",
"{ ( ( ~ / { { -.-.>.-.5.1.8.3.t.w.e.w.c.e.c.c.w.v.v.v.v.P.v./._._.P.P./._./././.v./././.P.v._.v.w.7.x.w.w.t.3.1.[ -.-.>.+.1.{ 2 r p 7 a i 3 3 1 8 8 7 a a L L F L G L F K H K P I P Y I P I I Y P K 9 9 P P U [ _ a 4 3 # * 7 4 , * 2 O O < , H L b i J [ _ L i u a 8 6 3 i 7 0 i 8 7 g J a a g F F 7 7 F J g a a g a F F g 0 7 G G 1 1 # # 1 , @ * , * @ , # @ & < 6 6 * * < 2 6 6 b v 8 6 1 < . % O O O O O o @ @ & * , 1 1 < 1 < 1 1 6 1 1 < , , , , * * # # # # O O @ # # # # # # , * # # # # # @ O o @ # @ @ # O O O @ @ @ ",
"' ' / { +.-.>.>.{ / ' -.{ o.o.{ ' ' +.-.-.1.1.O.+.-.+.-.-.-.5.w.x.w.x.c.v.m./././././.P./.v./.m.e.w.x.I.x.w.w.t.3.3.3.3.3.8.' 2 g g w g 3 3 3 1 G g 5 g 9 L L G L H L G L H H P L K G K Y I I P L H G 8 K P U ,.U a , 6 & = 1 < < * 1 O O 1 < b L a p L [ ) H i p a i 8 3 i 3 8 p i i a J g 8 g f F 7 7 a J 9 a 9 a a H H 7 6 8 G G 4 , # # , , # # # # @ # # # & < 6 1 # , < , 3 7 a G 7 3 3 < $ & & & * * < < < < < < 1 < , , * < * * * * * , * * * * & & & * , * * # * , * # & & & & & & & & @ # # @ & & * * * * * * , , # * ",
"k.k.w.w.7.w.7.0.w.3.7.7.3.8.1.1.>.-.8.1.1.-.1.4.1.4.-.+.O.o.{ O.{ { O.:.-.O.1.7.5.6.7.7.7.w.0.7.x.I.v.w.e.c.x.w.w.w.w.e.x.w.w.r 7 3 0 g 3 3 3 1 g 7 0 F 0 H K G P H P H P H P Y L K G K I Y I I I H g 7 H P I &.) 8 , 2 & = 6 , < * 1 & & 1 1 b J H 7 L [ ) K p p i 9 i 5 7 i p a 7 a a H a g a f f 7 i g F a a a a b H K 7 3 7 G 4 G # # # , , # # , , @ # # # = 2 5 2 * * , , 1 7 8 a 0 0 0 < % 2 2 * < * < * < = < , & * & * * & * & * * * * * * * & & & & @ @ # # @ O O O O @ O & & & * & & # # * * * * * * * * * * # , , , ",
"1.4.1.1.-.[ +.1.1.{ { ) ' { { >.+.-.>.+.-.5.t.t.x.v.c.x.w.c.t.6.6.1.-.1.{ ' ) O.o.{ o./ W ( / ' O.;.8.3.w.t.c.P.e.x.v._./.w.e.e w 3 3 g 3 7 1 3 0 0 g g 7 K L F H H P H P H P P I G G K L Y I P L L 9 7 Y H I ` U 7 = , # , 3 * < = 2 O O 6 < b P b 5 L [ _ K p i 7 a 8 3 i i p 8 3 a a a a a i a f 7 5 g a 7 a 9 a H b F 7 0 1 1 G G 1 # # G , @ @ , , @ # # @ * = 6 3 , & , 1 6 7 8 8 8 7 7 2 % 6 * * * & & & & * * , , # * # & * & * & * * * & * & & & & * * # * * * * # * * * & * * * * - * * , , , < < < < < < < < < 1 1 1 ",
"8.1.1.-.+.[ 1.1.1.3.3.5.8.1.1.8.8.8.+.' ' -.1.+.-.-.5.3.t.7.k.x.x.c.w.x.w.t.t.5.3.3.t.5.+.:.{ { / ( ( /  .' / +.8.8.8.7.t.w.w.2 i i 7 7 1 3 4 1 5 3 7 5 0 K L G H L P F H H P L I K G H L I U P K L 7 g b H I ` U 6 * , * , < @ < * < O & 3 < b P b 6 E [ ) P p i 7 9 i 3 5 7 a 7 5 i 7 a a a g g F 7 i g p 7 g 9 a J H F 7 0 1 G G 1 , , # # # @ # , , @ @ O # & < 6 1 , * < < 7 3 8 9 0 0 7 , + * * * * * * * * * * , , , , , < 2 * < , < < < < < < 6 1 1 1 1 1 < , , , , * , * , < < < < < < 6 0 6 1 6 6 6 6 0 6 6 6 1 0 1 1 ",
"1.>.{ ,.-.>.1.3.3.7.7.7.t.3.7.w.e.v.w.7.t.w.w.7.3.6.1.-.-.-.1.1.-.1.5.8.6.8.5.-.5.t.t.w.t.0.5.t.3.5.1.5.8.-.1.-.1.{ O.{ ) { ) 2 i 3 7 i 3 1 , 3 5 3 g 7 0 K L G I P H G 9 H K L L G G J L L U Y H H 7 7 F G P ` I 3 4 , * 2 < @ 1 = < O & 6 < b J a 6 R [ ` J p s i 7 p 3 0 i i 5 5 p i a p i i a a 7 7 5 p 7 g a 9 F K J a 7 < G 1 G G # , , , @ # # , # @ O # & * 6 6 , & < < 7 7 7 0 0 7 7 , . 6 < < , * * < < 1 3 1 0 0 0 0 5 7 5 6 6 < 6 6 0 5 1 6 6 6 1 8 8 6 3 6 6 6 6 1 6 1 1 1 6 6 b b 8 0 6 6 6 6 6 6 6 6 6 0 6 6 1 6 ",
"' T m T E R Q / ( E R Q ~ / o.) { +.[ +.{ 1.{ -.t.3.7.7.5.3.t.w.w.t.7.7.3.5.8.{ o.+.-.[ [ -.-.1.3.7.w.7.3.7.t.w.q.w.w.3.3.8.1.e i 0 3 0 3 0 , 3 3 1 g 0 7 K I H I L F G F H L L K a F F L H P I L K 7 g F F I U L 5 , 1 * , , * 1 * < O * 1 * b H 8 6 L [ ) H i i p 7 a 3 3 7 i 3 i i 7 a a 8 8 F F 7 0 5 g 7 7 a F K F F 9 0 1 1 1 1 4 # # # , @ @ , , @ @ O # & * 1 6 , # , 6 1 3 7 7 1 0 0 , % v 8 0 0 8 8 8 a 9 9 9 7 0 7 i 8 8 p i b 6 b b 8 9 8 6 8 7 7 6 6 6 6 1 1 1 1 1 1 6 6 6 6 6 < < 1 < 6 < < < < < < 6 < < 1 < 1 , ",
"( T T ( / ~ ' ) ' ~ ' ' ) Q ~ ( ' { -.-.{ { / ' / ' E { ( ( ~ ) ) { 1.8.3.k.0.t.t.e.e.w.7.7.0.e.w.t.w.7.5.-.7.t.7.w.t.3.3.7.8.2 3 3 0 3 0 1 , 5 1 1 0 5 G I K G I L G a 9 P L P H 9 F F P Y P I Y H 9 7 F K I U L 1 , 2 # < 4 * < , * O = 5 < 9 b 9 6 L ` ` P 8 i p 7 i 6 3 7 p 3 p p 7 p a p 7 f f 7 3 5 7 g g a F F K G 9 g 0 G G G 1 , # # # # # # , O o @ @ * * < 1 , @ , 1 3 1 1 0 1 0 0 , % P b b b b b b 8 7 7 7 7 7 i 7 i 6 6 6 6 6 b < 5 8 7 8 5 6 < < 1 1 1 1 < < < < < , , * * * * < 2 < < < < < < 6 6 6 6 1 1 < < , ",
"[ [ [ { [ [ { { { +.[ [ 1.1.{ { { { [ +.) { >.{ { { +.{ o./ ' / Q ' { +.' ' ' ) { { -.1.1.1.1.1.3.w.0.7.t.3.3.3.3.w.w.3.3.3.[ 2 i 0 3 3 7 1 1 5 1 1 g 0 g U H G L K F F G H P P 9 9 F F I Y I P P H 0 0 a G I ) P 3 < 2 * < , @ < < * O = 6 < 9 b 8 6 L ) ) H 8 y 7 r 7 3 < p 7 5 p p 5 a a i 7 p a 7 3 i 5 g a 9 G G F G 7 0 3 1 1 G , # # # # # @ # , @ o O O * & * < * @ , < 1 1 6 0 0 < 1 , % H 9 9 9 8 0 0 7 7 8 7 1 3 1 1 5 6 5 5 6 6 < < < < , , < < < , < , * * , < < < , , < * & * < < < < < 6 6 < 6 6 6 6 1 1 1 1 1 < ",
"{ ) { >.>.>.[ { { ,.3.3.t.7.3.3.3.3.>.` >.8.8.>.[ -.[ >.+.{ { { [ { { [ 1.[ { { { ' ' ' ~ / O.{ { *.[ { ' { { +.-.,.1.1.3.7.3.= w 7 1 g 1 1 1 5 1 1 G 1 F U Y F L H H H H J P G G G F 9 K K P Y H H 7 8 Y b U U H < < < = < , & < , = o < 0 1 a b 6 6 L &.U P 7 5 7 5 5 3 1 i 7 7 g i 8 a p 3 7 p F 7 3 0 0 a F 9 F H P G 0 7 0 , G 1 , , # # @ # # , , # o O O * & , , * & , < , < 0 9 9 1 1 , & a 7 7 6 1 7 6 1 1 1 6 6 6 , * < < < < - < < 6 < - - < 6 < 6 < , , , < < 1 1 1 < < 6 6 < < < * < - < < 6 < 6 6 6 6 6 6 6 6 < 6 ",
"[ { ` >.8.8.>.,.2.1.,.E _ 1.8.2.3.t.t.t.w.3.3.3.3.8.1.-.1.1.1.8.5.3.>.[ 3.1.%.{ [ >.) ' ' ) ) [ { { +.-.{ [ +.) ) -.{ _ ,.) ) - 5 0 0 g 0 3 1 5 < 1 0 0 I U Y K L G K H G H H F 7 F G 7 K H H Y P H 6 8 H Y U U H , < < , < , = , * * o , 1 < b a 5 6 K ` I P 8 r 6 5 3 < 3 7 7 3 g i 7 p p 7 i p F 7 3 7 7 8 F a F Y P 9 7 0 7 G 1 G , , O @ @ # # # , # o o O , & < < * & , 6 , < 0 0 9 < 1 < O 7 , 1 < < 1 6 < , , < 1 < 6 < - - < < < < < < 6 6 6 6 < < < < < < 1 1 1 , < 1 6 6 < < 6 < 6 < < < < < - < < < * * < * * < < * ",
"` { [ >.` ` ,.3.t.3.2.[ [ >.2.3.8.3.t.w.w.w.w.w.3.1.{ ,.3.1.1.3.7.8.` [ >.,.1.+.>.{ [ { -.-.[ { *.] [ *.*.{ [ { { { -.+.{ [ { = 5 3 g 0 1 0 1 0 , 1 9 1 H I Y Y P 9 P G G K H F 0 G F 0 J H H H P Y 7 8 H b U ` H , < < , , * * & * # o = 1 , b b 0 1 P ` U P 8 r 6 i 3 , 3 i 3 g g g 5 g i 7 i a F 0 0 i 7 8 F H 9 G P F 0 1 7 G 1 G 1 , O O # * # # , # o @ @ * * * * , @ & 6 , , 0 0 9 < < < ; 2 & < 1 1 < , < < < , * * * * % < - < < < < 6 6 6 < < < < < < 1 < 1 6 < < < 1 6 < < < * & & * - < < - < < < < * * < < * * & * ",
") { { ` { { { ~ ) [ 8.>.>.` { { ( ( ) >.8.1.,.8.3.>.>.1.3.7.3.3.w.7.3.w.t.2.1.2.1.,.1.1.%.[ +.1.%.+.+.] ) 1.+.*.) ' +.[ { -.' - 5 1 7 1 1 1 0 5 , 0 0 0 I Y F G H 9 G F 9 Y P 0 9 F F 0 H H H Y P Y 6 9 H 9 U U P = , 1 * * * * # # # o * 1 4 b b 6 1 P ` ) I 8 r 8 7 < , 6 i 1 0 5 7 5 i 0 7 i a g 1 1 8 7 g F 9 H a H 9 0 0 7 1 G 1 1 # # o # * # # , # o O O * * * * & * # 1 , , 0 9 0 < < < % 6 < , , , , * , , = * * * , < < < 6 < < < < < < < 6 < < < 6 < 1 1 < < * < 1 * < * < * * & & * - - < < - - - < < < < < < * * * ",
"L ( ` ) >.{ >.{ [ >.8.[ 8.1.>.-.{ ) ' ) E ( ( { { [ >.[ { { [ 1.3.3.1.-.,.1.1.>.1.3.3.3.%.{ ) ' ] 1.[ +.) { 1.%.+.1.[ ) 1.*.) - 3 1 0 1 1 1 1 0 1 0 0 0 P Y G F F 9 G G G Y P 0 9 F G 0 G K K Y Y Y 0 9 Y 9 I U H # < 6 * , * & @ # & . * < , b 9 5 1 P _ U I 8 i 5 0 < , 3 7 1 0 5 5 3 8 7 7 g a a 1 0 9 0 9 F G G G F 9 0 1 7 G 1 1 , , O o O # * # * * o O O # # , # # # @ < , < 0 0 0 < < , + 5 < , , 1 < , < 3 2 < < 1 1 6 6 : 6 6 6 6 - 6 < < < - - - - < < < * * < < < < < < * * * < * - - - * * - - * < < < < - < < < * ",
"8.1.,.>.` { { >.-.-.>.8.8.>.-.>.-.>.{ { { I ( ( { [ >.,.{ ) ( { 1.8.{ ' ) -.+.,.%.1.-.) Q Q { { ' [ ,.[ [ ,.1.1.1.[ { -.1.{ ) - 3 0 7 1 , , 0 1 < 0 0 0 I F G G H 9 G G 9 G Y 9 G G F G G Y G Y P Y 7 0 H Y I U Y # 1 1 & * * @ @ * * o * < * b 9 0 < P U U P 7 r 0 0 < , 0 3 < 5 3 0 0 8 8 7 g a g 1 1 7 0 g G a G F F G 7 1 7 1 1 G , , o o o # * # # , O o O # # # , # # # < < < 0 G 0 1 < , % 7 < < 6 i 7 6 2 6 6 5 6 1 6 5 6 < 6 - - 6 < < < - < < < - < < < < < < & * * * < < < < < * * - - * * * & < < < < < 6 b < < < < ",
"t.r.w.t.8.{ { -.8.8.8.8.8.-.>.>.8.>.,.>.` [ >.>.,.8.1.>.{ ' / / { { { 1.8.,.2.8.) ' { ' R { 1.[ ,.1.,.,.1.[ [ ] { ) { 1.{ +.) : 1 0 1 1 , , 1 1 , 9 3 g L G G G G 9 G G G Y Y G G G G G G G Y Y K K 7 0 Y Y U U H , < 1 * * @ @ O & * o , < * b 9 6 = P _ I F r i 5 1 1 4 0 0 3 0 1 0 1 g 7 7 g F g < 3 0 7 8 F F 7 G F G 0 1 0 G G G 1 , O o o # # # # , #   O # # # # # # # 1 1 , 0 G 1 < < , % 7 7 7 i 6 6 6 6 6 5 5 6 6 2 6 6 < - 6 - < < < < 6 6 6 < 6 < < < < * * * & * < < < * - * * * < < * * < < < - < < - - * < * * * ",
"` >.8.t.3.8.,.{ >.>.,.8.t.t.8.>.>.,.8.<.8.8.,.>.,.>.,.8.>.>.[ ~ ' ) [ ,.[ [ ,.,.[ { ) _ ' *.>.,.1.,.` >.%.] ) ) ) { +.) ) [ [ = 1 0 0 0 , 1 0 1 , 0 1 G H G G G G 9 G G Y P G G G G F G G G P Y Y G 0 0 Y Y U U H , , < , , @ # O * & o , < * b 0 < < U U L I 5 i 0 1 , < 0 3 1 3 1 7 0 9 8 0 7 9 7 1 1 7 8 G F G 9 G G G 0 1 1 1 G 1 1 , @ o o # # @ @ , # o o # * @ # # # # < 6 < 0 0 0 6 < * % 8 6 1 6 6 6 7 5 6 6 5 5 5 5 3 6 < 6 - < 6 : < 6 < < < < < < < < < 6 * < 6 < < < * * * < 6 < < 6 < < < * - - < - - * - * - - * "
};
