/* XPM */
static char *Wood_512[] = {
/* columns rows colors chars-per-pixel */
"512 512 256 2 ",
"   c #290800",
".  c #370D01",
"X  c #3C1203",
"o  c #3C1B10",
"O  c #1B0200",
"+  c #441402",
"@  c #4A1602",
"#  c #4C1A02",
"$  c #481B09",
"%  c #531D02",
"&  c #581F02",
"*  c #431A0D",
"=  c #562103",
"-  c #5C2403",
";  c #5C260A",
":  c #5A260B",
">  c #5C2B13",
",  c #572A16",
"<  c #512814",
"1  c #612603",
"2  c #642A05",
"3  c #6A2D06",
"4  c #642B0C",
"5  c #6A2E0A",
"6  c #61270A",
"7  c #6D310C",
"8  c #6B3107",
"9  c #72340D",
"0  c #7A3A0E",
"q  c #76370D",
"w  c #642D12",
"e  c #682F13",
"r  c #653115",
"t  c #6C3314",
"y  c #65321B",
"u  c #6C351B",
"i  c #6D391B",
"p  c #733612",
"a  c #753914",
"s  c #7B3C14",
"d  c #71371A",
"f  c #743B1C",
"g  c #7B3E1A",
"h  c #783712",
"j  c #702F0B",
"k  c #573324",
"l  c #6D3B23",
"z  c #683925",
"x  c #743D22",
"c  c #7A3E22",
"v  c #733E28",
"b  c #673E32",
"n  c #7D411C",
"m  c #7C4018",
"M  c #7C4323",
"N  c #75422B",
"B  c #7B452B",
"V  c #7D492B",
"C  c #774324",
"Z  c #7C4A33",
"A  c #774834",
"S  c #6F4634",
"D  c #5E4133",
"F  c #745042",
"G  c #813F16",
"H  c #813E0E",
"J  c #803F22",
"K  c #834215",
"L  c #83431C",
"P  c #89461C",
"I  c #8B4A1D",
"U  c #88481A",
"Y  c #914E1E",
"T  c #93511E",
"R  c #834210",
"E  c #834522",
"W  c #854A24",
"Q  c #8C4B23",
"!  c #844C2B",
"~  c #8B4D2A",
"^  c #854626",
"/  c #914E23",
"(  c #914F2A",
")  c #8C522C",
"_  c #8A5029",
"`  c #945224",
"'  c #9A5525",
"]  c #9B5926",
"[  c #93542C",
"{  c #9A562B",
"}  c #9C5A2C",
"|  c #96592D",
" . c #844D33",
".. c #884E34",
"X. c #8C5333",
"o. c #8C543B",
"O. c #885437",
"+. c #935632",
"@. c #945A34",
"#. c #9B5C33",
"$. c #945B3B",
"%. c #9B5E3A",
"&. c #955636",
"*. c #A25D2C",
"=. c #A25A28",
"-. c #A25E33",
";. c #A25F39",
":. c #9E6135",
">. c #9D623B",
",. c #976139",
"<. c #9E602E",
"1. c #A4612E",
"2. c #AA622E",
"3. c #AF682F",
"4. c #A46234",
"5. c #AA6534",
"6. c #AC6936",
"7. c #A4643B",
"8. c #AA663A",
"9. c #A6693D",
"0. c #AC6A3C",
"q. c #A66836",
"w. c #B26A35",
"e. c #B36D3B",
"r. c #B36A37",
"t. c #B4713D",
"y. c #BA733E",
"u. c #BB773D",
"i. c #AE703C",
"p. c #965D42",
"a. c #895A43",
"s. c #9A6446",
"d. c #926953",
"f. c #A46541",
"g. c #A56A43",
"h. c #AC6C43",
"j. c #AC6E4A",
"k. c #A66947",
"l. c #B26E42",
"z. c #B36F47",
"x. c #AE7144",
"c. c #AD724C",
"v. c #B47343",
"b. c #BA7543",
"n. c #BC7A45",
"m. c #B4744B",
"M. c #BA764A",
"N. c #BC7B4B",
"B. c #B67949",
"V. c #AB7556",
"C. c #B47652",
"Z. c #B57A54",
"A. c #BC7C53",
"S. c #B77C5A",
"D. c #A76E51",
"F. c #AE7D63",
"G. c #987467",
"H. c #C27C45",
"J. c #C27D4B",
"K. c #C47A45",
"L. c #C17E52",
"P. c #C1773E",
"I. c #BE814C",
"U. c #BE8047",
"Y. c #BE8154",
"T. c #BC835C",
"R. c #B7825C",
"E. c #AE815D",
"W. c #BC8563",
"Q. c #BC8A6C",
"!. c #B88667",
"~. c #BA8D73",
"^. c #BD9278",
"/. c #AD836A",
"(. c #9D8176",
"). c #C3834C",
"_. c #CA844C",
"`. c #C9874C",
"'. c #C48453",
"]. c #C98653",
"[. c #C68954",
"{. c #CB8B54",
"}. c #C3855B",
"|. c #C58A5C",
" X c #CB8C5B",
".X c #C9875A",
"XX c #D28D53",
"oX c #D18E5B",
"OX c #CD925B",
"+X c #CD9156",
"@X c #D39256",
"#X c #D3945C",
"$X c #D5995E",
"%X c #DA9A5E",
"&X c #D9965A",
"*X c #D18A4E",
"=X c #C48B64",
"-X c #CB8D62",
";X c #C38D6B",
":X c #C38863",
">X c #CD9263",
",X c #CB936C",
"<X c #C8936B",
"1X c #D39562",
"2X c #D59B63",
"3X c #DA9D63",
"4X c #D49C6B",
"5X c #DA9E6A",
"6X c #D39669",
"7X c #C28F71",
"8X c #C49274",
"9X c #CA9573",
"0X c #CD9A74",
"qX c #CB9B7B",
"wX c #C5967B",
"eX c #D29D73",
"rX c #D29D78",
"tX c #D18F60",
"yX c #DCA165",
"uX c #DCA36B",
"iX c #D9A36B",
"pX c #DBA572",
"aX c #DEA973",
"sX c #D4A37B",
"dX c #DDAA7C",
"fX c #D8A479",
"gX c #D1A37D",
"hX c #E1A56C",
"jX c #E2A66A",
"kX c #E3AB74",
"lX c #E2AE7A",
"zX c #E3A872",
"xX c #E5B27C",
"cX c #E8B37C",
"vX c #E09F64",
"bX c #C99D82",
"nX c #D09F81",
"mX c #CDA286",
"MX c #DCAC83",
"NX c #D5A888",
"BX c #DEB189",
"VX c #DCB394",
"CX c #D7AD91",
"ZX c #E4B383",
"AX c #EBBA85",
"SX c #E2B58B",
"DX c #EBBD8B",
"FX c #E8B785",
"GX c #E6BC94",
"HX c #E2AF82",
"JX c #E0BDA1",
"KX c #ECC497",
"LX c #F1C89A",
"PX c #EDC18D",
"IX c #EEC9A3",
"UX c #BD9680",
/* pixels */
"IXmXmXVXCXmXCXCXVXUXBXmXVXVXmXVXmXJXJXBXBX^.gXmXgXgX^.iXgXCXVXVXmXmXUXmXmXmXUXmXUX(.gXmXgX(.gX^.UXBXmXJXKXKXBXBXBXBXPXBXKXBXgXiXBXBXgXBXgXgXBXiXgXgXgXiXgXgXgXiXeXgXfXgXfXgXeX0X0X0X0X0X<X!.gX0X0X^.gX0X^.Q.E.Q.8X!./.Q.Q.^.bX8XQ.7XwX7X8XF.7X8X8X;X;X;XF.D.* O s.6X.X|..X-X.X-X}..X.X}.'.}.L.'.L.'.}.'.L.L.L.L.L.Y.N.'.J.L.'.N.L.N.M.l.z.l.v.M.b.z.M.v.M.J.'.J.J.].L.].J.J.].).J.J.J.K.N.b.v.b.l.b.l.e.b.l.b.b.e.5.;.&.-.l.l.8.8.l.K.l.K.K.l.K.l.l.K.r.r.r.5.;.8.e.0.0.r.8.0.e.r.e.e.r.8.r.r.e.e.8.e.r.r.r.5.2.2.5.*.*.*.*.2.j o.AX&X].+X{.+X$X$X+X$XOXyX`.I.yX$X[.`.+X$X$X$X+XI.[.+XI.U.t.I.I.I.I.I.U.U.t.t.U.U.`.[.[.n.U.U.x.I.$X{.U.U.+X{.`.{.I.U.%X@X`.`.u.i.U.U.`.U.+XU.`.`.U.+X`.U.`.u.u.i.u.U.U.+Xu.i.i.q.t.i.u.i.<.q.<.q.6.i.u.t.6.4._ _ } q.:.4.} :.q.q.,.u.U.q.U.I.+XI.U.U.I.U.q.q.q.o d.E.C V V V m i n n Q n _ | _ W i n C n V m U _ U Q W Q Q Q _ Q Q U _ [ ` Q n i W ] W > m m C m m m i > r m q.| m C T | T T m | q.<.<.] ] | W m n m n m C i 7 i i i m m i i _ m m _ T _ U _ m _ _ C m < 8 i r i m _ C m _ _ C C m C i r < 8 i m 8 m m C i m m ",
"JXmXmXVXCXCXmXCXVXUXgXmXmXmXBXCXmXJXJXmXKXE.^.BXgXUX^.UXCXVXVXVXCXmXmXUXmXmX(.UXUX(.mXUXUX^.^.UXUXgXBXKXJXPXBXgXBXBXBXBXKXBXgXiXBXgXBXaXgXgXiXgXBXgXiX<XUXiXgX^.eXeXgXfXfXgXgXeX0X0X<X0X0XR.<XwX0X<XwX0XqX^.Q.^.8X/.E.!.Q.8XqXqX7X;X7X8X7XS.7X8X7X7XF.7XF.V.o O d.6X}..XL.L.}.A.A.C.m.A.A.Y.S.L.L.A.A.L.L.A.M.M.M.j.m.m.M.N.l.j.h.9.l.j.h.g.h.g.7.7.h.b.v.M.M.H.M.v.8.8.e.b.M.v.b.m.m.v.M.b.l.l.b.l.b.M.b.J.K.K.J.M.z.l.8.b.l.z.b.e.r.8.8.5.8.r.l.r.e.l.r.;.-.;.-.4.q.7.} *.r.e.l.8.0.5.*.;.;.*.4.8.5.r.r.;.5.r.6.5.*.r.r.2.;.j O.DX@X{.+XI.+XOX+X{.yXOX2X{.U.$XOX`.I.+X$X2X$X+XI.I.{.[.I.i.I.U.I.I.I.U.I.t.i.i.n.[.).).U.U.U.x.I.@X`.n.[.+X`.[.+X`.`.$X@X+X`.u.q.U.U.`.U.`.`.U.U.U.`.+X`.`.u.u.3.i.`.`.U.U.u.i.i.i.q.u.u.<.:.<.1.q.q.v.t.i.q._ _ #.q.>.:.| | q.q.<.u.U.i.x.U.Y.I.U.U.I.U.q.i.,.o a.i.V m <.] m i n V _ m W @._ Q C i i m n m V W W _ U Q W Q Q _ I L W _ | _ M i U +.W m m y m m C m y > C C <.T m C V m _ V m ] q.<.] T ] ` U n n i m m n i 8 i 8 i m C m m C m m T V _ U U m U _ m i k k k r i U _ U U _ _ U _ D m i < > 8 i i m m C m m m m ",
"JXmXmXVXmXmXCXCXCXUXBXmXmXVXmXmXgXVXJXmXGX(.UXCXgXgX^.gXCXCXVXCXmXmXUXmXmXmX(.CX^.(.mXmXUX(.UXUXUXgXVXJXKXKXBXBXBXPXBXBXBXBXgX^.PXgXgXgXBXiXgX^.gXgXgX^.iXgXaX^.gXeXgXgXgXsXeX0X0X0X<X0X0X!.<X<X^.Q.0XwX0X^.Q.<X~./.F.Q./.Q.qX8X7X7X;X8X~.F.;X7X7X8XF.F.Q.V.o O d.>XY.Y.:XL.}.L.A.M.v.m.m.m.m.m.m.m.M.B.A.L.A.M.v.m.M.m.M.M.A.m.v.l.z.z.v.z.v.m.z.l.b.N.n.n.v.z.8.7.;.9.8.8.;.-.;.#.#.;.9.8.9.7.;.;.5.8.h.z.h.l.l.l.M.z.N.M.K.J.K.L.J.b.z.e.e.b.K.K.5.5.5.-.-.l.e.v.l.0.0.8.8.8.r.8.9.8.4.-.4.4.8.8.5.-.*.-.-.r.-.=.2.2.-.=.*.e o.DX2X{.+X`.+X+X+XI.iXOXyX[.I.$X+X[.+X+X$XyX$X`.[.`.+XI.I.i.i.U.U.[.U.U.I.x.i.U.N.U.U.I.I.U.B.B.{.OXU.U.I.+X{.`.[.[.`.$X@X+X[.u.i.i.U.U.+X+XU.U.U.U.`.`.U.`.u.u.i.i.U.U.U.U.u.i.:.t.i.i.i.<.q.<.<.6.6.n.t.0.q._ W @.:.q.:.| | :.<.<.x.U.q.U.i.Y.U.U.I.+X[.i.q.,.o a.d.V V m V m t W n V a W @.| ! n i i t C m n W Q W W Q n Q Q _ ~ P W Q ` W M t ! | L m C t i C r m m > C V <.V n m V V T m n ] q.<.<.] _ ] _ n U n n V m m 4 r 8 8 i m m i _ _ m m _ m _ _ m _ _ m i < r r r i C U U _ C _ C C m i i > r 8 i i m m m m m m i ",
"JXNXmXCXCXmXCXCXCXmXmXgXVXmXCXVXmXVXVXJXBX(.gXBXUXgX^.gXCXCXVXCXBXmXUXUXmXmXmXUX^.(.UXmXgX(.UX^.UXgXJXJXJXPXBXBXgXPXBXPXBXBXBXiXBXBXaXBXgXiXBXgXgXaXiXE.gXgXgXiXsXgXdXMXsXeXgX<XQ.gX<X<X0XR.^.<X0X~.0X0X8X<X^.^.^.F.V.Q.!.~.qX7X7X;X;X8XF.V.7X7X~.7X7XF.Q.d.o O D.eX=X-X-X-X:X-X}.}.Y.A.Y.'.Y.A.M.A.'.'.N.A.N.L.A.J.L.J.L.J.J.).'.'.L.J.'.J.N.n.b.N.N.M.N.N.N.b.v.v.b.v.h.9.7.9.;.7.7.7.;.4.7.7.4.9.;.#.{ { { &.#.} [ -.;.8.;.8.8.8.8.8.r.l.l.l.8.8.8.l.e.b.l.y.6.0.8.r.0.6.r.8.e.e.r.8.e.9.5.5.5.6.5.5.5.-.-.r.r.6.6.4.-.=.' 4 $.DX#X+X+X{.{.+X+X{.$X$XyX[.U.$X+XU.+X+XyX$X2X[.I.I.OXI.I.x.U.t.I.[.U.U.I.U.i.i.[.[.N.I.N.I.t.t.[.OXI.U.U.{.`.[.+X`.U.@X@X+XU.U.i.i.i.[.`.`.U.+XU.U.`.+X`.`.U.u.3.u.U.`.+XU.U.i.q.i.t.u.u.<.q.<.<.i.6.n.e.i.q.) Q | <.:.:._ | <.,.,.i.i.i.u.U.I.U.U.U.+X+Xi.i.q.o a.x.V ] m <.V i n V W n M | +.W M f i C C m W I W W m U n L _ Q _ Q Q [ | W M t n _ W m M t C C m C m > m m <.| m m T ] | m C | 3.1.<.T | | I U V m m W C m r r i 8 i m i i m m m m _ U _ T _ _ T m i 8 < 8 r m C C C _ U _ U C m C i r < r 8 m m i q m m m i ",
"JXmXVXmXmXmXCXCXBXmXJXmXCXmXgXCXVXVXJXBXmX^.UXBX^.gX^.mXmXCXVXCXmXmX(.mXUXmXUXUX(.E.mXmXUX(.UX^.UXmXVXKXJXVXgXBXBXBXKXBXPXBXBXgXgXBXgXBXgXaXBXiXgXBXiXE.gXgXgX^.0XgXdXgXgX0XgX0XOX0X0X0X<XR.<X^.wX8X^.qX^.8XwX8X~.F.V.~.!.Q.wX8X7X7X;X7XF.S.7X7X9X7X~.!.Q.k.< O D.0XT.=X-X-X|.}.}.'.|.|..X}.'.A.L.N.B.N.N.).J.J.J.'.].).'.'.'.J.N.J.J.n.v.l.e.v.B.b.J.N.b.J.N.N.b.M.N.N.b.e.0.z.0.0.l.v.v.b.v.0.l.l.0.8.;.-.#.7.7.7.;.;.-.-.#.[ ..( ( { -.-.-.{ [ { { -.8.8.5.8.;.5.h.6.8.e.e.0.8.6.5.;.-.6.4.4.5.-.;.r.r.l.5.5.r.w.r.w.r.5.5.t O.PXOX+XOX+X+X{.Y.OX$X2XyX`.U.+X+XI.{.$X$XyXyX`.I.I.+X`.I.B.U.i.U.I.I.I.I.I.x.U.[.Y.U.I.`.I.U.t.+XOXI.I.).{.[.[.+X`.U.`.+X+X`.U.i.i.U.[.+X+X[.U.U.U.`.+X+XU.U.U.q.u.U.U.U.U.U.U.q.v.i.i.U.q.q.<.4.i.q.n.6.i.q.| V @.| :.:._ _ ] <.q.i.U.,.U.x.U.U.U.I.OX+Xx.q.q.o F g.V | V T V i n m ! n ! | @.U V C i C n m n _ W W n n n M | ` _ _ Q _ | _ W i m W n m V n n C m C i > r C | | V m V V T V m I q.q.1.] <.| _ _ m m I W n n m 8 8 k i i m m m _ m _ U _ U _ U _ T C q i < i 8 C C U U C _ _ _ U C m i < k 8 i m m m m C m m m ",
"JXmXVX^.CXmXmXgXmXmXVXmXCXgXCXVXVXmXVXVXBX^.mXmX^.gXgXgXCXCXCXCXBXmXUXmXmXUXUXgX(.^.mXmXmXUXUX^.UXgXVXJXPXPXgXBXBXPXBXJXBXaXBXBXaXBXBXgXBXgXBXgXiXBXgX<XiXgXgXiX0XgXgXxXfXfXgX0XQ.0X<X0X0XQ.<X^.8X<XQ.0X<X^.wX8X7XF.V.^.!.Q.7X9X8X7X7X7XF.F.F.!.8X8X7X!./.s.* O D.6X-X>X:X|.|.}.}.-X|.|.}.'.}.L.}..X'.'..X[.'.'.[.].'.].).).J.N.N.N.N.N.b.l.l.v.v.v.v.v.b.v.b.l.h.0.l.v.l.v.v.v.v.e.v.0.e.v.e.v.v.e.l.v.l.l.e.8.4.8.5.7.7.;.;.;.;.;.-.;.;.;.-.;.{ #.#.#.-.-.-.{ { { #.;.#.#.{ &.} &.{ #.} ;.5.6.r.8.8.8.r.r.l.e.e.e.6.e.5.5.5.p O.LX$X+X2X+X+X{.+X$XiX2XyX+X[.U.+X{.[.$XyXOXyXI.I.U.OX[.I.i.U.B.Y.I.I.I.I.U.i.x.+XY.U.[.[.I.x.x.OX$X[.n.I.{.{.`.`.*XU.+X@X+X+Xu.q.i.i.+XU.U.[.U.`.U.`.`.+XU.U.u.i.U.U.U.U.U.U.i.q.B.i.u.x.q.q.<.:.t.i.n.t.0.q.) _ | | :.q._ _ _ | <.U.U.q.U.U.U.x.U.I.+XE.U.i.,.o F E.C V | V | i C n ! n _ @.| _ n n i n n n M U U _ L m n Q _ ) _ _ Q _ +.Q M y C W W m M n C m r m C r m C <.<.V m V _ | m m _ i.q.1.1.] ` _ _ V m V _ n C m i 8 i q i i i _ m _ m _ _ _ _ _ V V C i r > i 8 C C C C _ C _ _ _ m C C r k > i m C m m V m m m ",
"JXmXVXCXmXVXmXgXCXmXVXmXmXmXCXCXVXmXVXVXBXUXgXBXgXgXUXgXmXVXCXCXVXUXUXUXmXUX(.gX^.E.gXUXUX^.^.^.UXBXBXJXJXPXBXBXBXBXPXPXPXBXgXgXgXBXgXiXBXBXgXiXgXBXiX^.iXgXgXiXiX0XgXgXgX0XfX<X<X<X8X<X0X<X^.<X8X<XQ.0XQ.8XwX9X~./.F.Q.!.~.~.wXwX8X7X7X:XF.Q.;X8X~.Q.Q./.s.< O V.,XY.}.L.}.A.Y.Y.}.}..X.X'.}.'.'.'.[.'.'.J.J.).'.L.'.L.'.J.N.'.].L.J.J.J.N.n.N.n.M.v.b.b.v.v.b.l.m.v.v.b.M.b.b.b.v.v.l.v.0.t.v.t.b.v.v.e.v.v.e.h.8.5.8.5.7.q.;.;.;.r.;.;.8.5.;.8.;.5.7.;.*.;.#.#.#.#.#.&.{ [ { &.[ { { [ [ #.#.-.*.;.-.;.;.;.-.5.8.6.-.-.-.-.t O.KX$X$X$X+X+X{.+X2X2X$X2X+XU.+XOXI.{.OX2X$X2X{.`.i.OX[.[.U.U.B.I.I.U.U.I.I.x.i.[.[.U.+X+XI.v.U.OX$X[.n.`.{.{.[.+X+XU.@X+X+X`.U.i.i.U.U.+XU.U.[.`.`.U.`.`.U.U.U.u.u.U.+X[.U.u.i.x.i.i.i.v.i.i.<.1.t.t.n.t.i.q.| W | | q.:.) _ | | ,.U.U.i.U.U.U.i.U.U.[.+XU.i.i.o ,.E.m <.V T V i _ m V C ! @.| _ M m f C m M _ V U U V V m n _ _ ` _ U ` :.) E i n W W M V n n C m m i > y C <.<._ m V T _ m V _ i.q.1.1.1.] T T U m I m V V m i i i i i i m m _ m _ T m _ T U T m m m i 8 8 r U C C C _ C _ C C m C m < k < i C C m C _ m C m ",
"JXCXJXCXCXVXmXwXmXmXVXVXmXBXVXCXmXBXmXJXmX^.gXgXgXgXgXmXmXCXCXmXmXmXUXmXUXmXUXUX^.^.UXmXmX(.^.(.UXmXBXJXKXPXBXiXKXBXBXBXBXBXgXiXgXPXBXgXBXBXBXgXiXgXgXgXgXgXgXgXfXgXgXiXgXfXfX0X0XiX8XgX0X<X<X~.8XQ.!.qX^.wXqXwXQ.Q./.~.~.wX8XwXqXqX7X8X;XQ.Q.8X9X7X7X!.Q.D.* O V.-XT.}.}.}.}..X}.}.[.|.}..X'.L.A.L.[..X}.].'.N.N.N.b.M.N.b.b.M.b.B.v.v.v.B.J.J.).L.).L.N.J.B.M.b.M.M.N.n.B.n.M.v.b.v.b.t.v.v.0.i.v.e.l.e.e.8.g.8.0.h.l.l.8.8.0.8.8.;.e.l.y.e.e.8.5.0.r.8.8.;.#.#.;.{ { #.} *.;.*.#.#.{ ;.4.-.-.;.#.{ { { { *.*.{ { -.{ #.{ { j ,.LX>XyXOXOX+X{.+X2XyX2XyX{.U.+XOX+X`.$XOXyX%X[.[.t.OX+X[.U.I.B.U.[.Y.U.I.U.i.i.+X|.I.OX[.+Xv.U.$X$X XU.I.+X[.`.+X+X`.+X$X+X+XU.i.i.U.U.[.[.[.[.+X`.+XU.+XU.U.u.i.U.U.+XU.U.U.i.x.i.q.u.t.i.u.:.4.t.v.U.v.i.q.:._ ) ,.q.:.| ) W _ ,.U.R.i.U.U.U.U.i.i.[.[.U.x.x.$ F U.V V ] V | n _ n C m _ | ) ) V C C C f M | _ M L _ n m n _ _ ) _ W [ +.[ W t m _ _ V U C m C m m m > m V _ | T m C _ | T m ` q.<.<.<.] | W U V m V m m _ m i i i m i i m V _ m _ _ _ _ _ _ T V C m i k 8 i C C U _ C _ C _ _ i C C 8 r r q _ m m m C m m m ",
"JXmXJXCXVXVXmXmXmXmXVXVXUXBXJXVXCXNXVXCXNX~.gXmXmX^.gXmXCXmXCXCXCXUXUXmXUXUX(.gXUX(.UXmXgX(.(.(.mXmXBXJXKXVXBXBXPXBXKXBXBXaXgX^.gXBXBXgXBXBXBXgXgXgXgXgXgXiXgXgXsXsXfX0XgXfX0X0X0X0X0XqXgXqX8X~.<X<X!.qXQ.8XgXqX/.Q.!./.Q.Q.^.wXnXwX7XqX7XQ.!.8X8XQ.Q.!.!.D.< O V.eX=X-X-X|.-X X|.}.'.'.}.'.A.'.'.N.N.N.'.N.).M.J.'.A.N.z.m.M.l.B.M.M.b.v.v.b.b.N.J.).J.N.N.N.n.'.J.B.n.n.M.H.M.N.N.J.H.N.N.b.8.v.m.v.e.e.h.8.0.0.8.8.l.v.l.0.l.b.z.l.l.8.r.8.r.5.r.r.-.;.5.;.;.8.8.4.5.;.-.7.-.-.-.{ { { &.{ -.} ;.5.;.#.( +.{ #.-.#.#.{ ( *.e $.LXOXiX$X+X+X[.+XiX2XiX$X[.I.+XOXOX{.$XyX2XiX[.[.I.OX[.Y.B.I.I.I.{.[.U.U.N.q.v.+X+XY.+X[.OXN.U.OX$X+XI.U.+X+X[.+X+X+X+XOX+X{.I.U.i.U.U.I.[.[.[.+X+X+XU.+XU.U.U.U.u.U.U.I.[.U.U.i.i.i.U.B.i.t.:.q.v.B.B.v.x.i.<._ ) ,.q.>.X.| V V q.U.U.B.U.U.I.U.x.i.+X+X[.E.U.$ F U.V _ | W _ M n n V m n _ ) +.C m V M M Q ) W U W V n m W Q _ | Q Q [ | | W m n _ _ m V n i C V m m : C C _ | _ m C | _ V V ] 4.q.<.1.1.| _ U W n n n n _ M m i i i i i m m V ] T m V T ] V _ C m m i k i m C m _ _ U _ C C _ C m i > i 8 i C m m _ C C m m ",
"JXmXJXJXVXJXmXUXBXVXVXmXgXBXVXVXCXBXNXCXmX~.gXCXmXgX^.gXCXmXCXCXmXgXUXgXUXmXUXmX^.(.mXmXmX/.^.^.UXBXBXJXKXKXBXgXPXBXKXBXBXBXgXiXiXBXaXBXaXBXBXMXgXBXiXgXgXgX^.iXfXsXdX0XsXgXeX0XgX0X<X0XgX0XgX<XqX^.!.wX^.8XqXwXQ.~.~.!.^.!.8XqXnXqX8XwX7XQ.~.8XwXQ.Q.Q.W.D.< O S.eX,X4X6X4X6X6X6X6X-XoX X|.1X1X X|.OX.X.XA.N.L.N.N.L.L.L.].J.L.'.'.J.).'.N.N.J.J.J.N.[.).L.N.N.v.v.v.b.v.v.v.e.v.b.N.N.b.l.b.z.0.0.e.h.l.e.0.l.v.l.l.e.e.l.l.e.r.r.e.e.e.r.8.8.e.8.5.;.;.*.-.4.7.} #.#.{ ;.;.*.;.-.;.;.;.{ &.&.[ [ [ [ [ ( Q Q ^ ^ ^ ^ Q ^ ^ 6 d.LX1XyXOX+X2X+X+XiXiX2X$X+XI.OXOX{.OX$XOX$X$X[.+XI.OX+X[.t.U.Y.I.OX`.v.B.U.x.v.[.[.I.+X[.+XI.U.$X2X$XI.U.+X[.+X+X`.+X2X$X{.+XU.E.U.U.U.U.+X+XU.U.+XI.U.`.`.U.U.U.U.U.U.I.+XU.i.q.U.U.9.x.9.B.q.q.i.t.U.i.i.i.:._ ) <.:.9.| <._ | ,.U.U.U.U.U.+Xx.U.U.I.I.+XU.i.< F E._ _ ) n _ _ W n m C V | ) | n i V n M ! [ W W W Q W m M M ) ) _ _ ) | | _ n ! ` _ C n C i C V m C < m V | ,.I m m _ T _ m | q.6.<.] 4.} W U _ V n n n _ W m i i i 8 m V m V m V V ] T V m _ m m m i i m m _ m U C C _ C U ,.m m m 8 < 8 i C m C U U C C C ",
"JXCXJXJXVXCXUXgXmXCXVXmXmXVXVXVXCXVXgXVXgX~.gXmXBXgXgXgXCXgXmXVXmXmXUXmXmXmXUXUX^.^.UXmXmX(.^.^.UXBXVXJXKXVXBXBXBXBXVXBXBXBXgXiXgXBXaXgXBXBXBXaXgXBXgX<XiXgXgXgXfXgXMX0XgXdXgX0X0X0X8X0X0X0XqX8XqX8X!.8X^.wXqXwX~.~./.!.~.Q.9XqXbXwX8X8X7XQ.;X8X8X;XQ.Q.Q.S., O V.sX,X4X6X6X6X6X6X6X6X-X6X-X1X XOX X}. X.X'.M.'.}.L.L.L.].L.L.'.'.J.J.L.).'.'.).'.J.N.M.B.b.n.'.J.J.N.M.n.v.v.v.e.v.e.v.e.v.J.z.b.l.0.9.;.8.e.l.8.6.8.0.l.z.l.l.l.z.b.l.b.l.b.l.e.e.-.8.5.5.8.5.4.;.*.%.| } #.#.{ { { &.{ ( ( ( { &.&.{ ( [ +.( ( [ ` ~ / ^ / e ,.LX2X$X`.+XyXOX$XOXiXiX+X+X+X[.2X+X#X2X$X$X2XI.+XU.+X+X[.t.U.`.[.[.I.U.I.U.t.B.[.[.[.[.{.+XU.B.OXOXOXU.U.[.`.U.`.+X$XOX+X[.{.U.U.U.U.E.U.[.[.U.I.+XU.+X+XU.U.U.U.U.U.U.[.I.I.U.,.U.x.9.B.i.i.9.q.t.i.i.q.i.i.<._ _ ,.q.q.@.,.) ,.q.x.I.I.U.I.I.B.U.i.[.+X[.U.i.: F g.V _ | _ _ V M V n m n | _ _ C C n V m Q X._ ^ W Q W W m W ) [ ) _ ) ) | _ m V | | W V C m C m C C : C C _ ,.| m C U | | U ,.q.q.1.<.q.<.U V _ U n m m n V m i i i i i m m m V m ] V T T m _ C C m i i i _ U U _ _ U _ C _ _ m m i i > > i U C m C C C C U ",
"JXmXJXVXJXVXBXmXmXVXVXBXmXBXVXVXCXBXNXBXgX~.gXwXmXmX^.gXmXgXmXCXgX^.UXmXmXmX(.gX/.(.mXmXgX^.mX^.^.UXVXKXJXKXgXBXPXKXGXKXBXBXgXE.gXGXgXgXgXBXBXBXaXBXgX<XgXgXgXiXgXgXMX0X0XgXsXsX0XgX0XgX0XQ.0X0XqX8XR.wXwX^.gXwXQ.~.E./.~.Q.8X8XnXqX8X;X7XQ.8X9X8XQ.7X!.!.V., O V.6X.X-X-X.X-X-X-X X X'.}.].|..X X.X}.'.}.}.'.J.N.J.}.'.L.'.'.N.N.N.J.B.M.H.'.N.'.N.b.b.N.b.n.N.N.n.M.J.J.'.J.).J.J.N.v.v.b.b.K.M.n.N.l.l.e.l.l.v.v.v.l.e.e.e.8.r.;.;.r.-.-.r.l.l.e.8.r.8.8.9.6.4.6.0.0.4.-.4.;.;.;.-.*.&.{ ( ;.-.{ #.-.#.} *.*.*.-.*.*.{ ( { d d.LXiX$X`.OX>XOX$XOX2X2XI.$X[.[.OXOX+XiXiXOX$X+XOXU.+X$XI.t.I.[.[.OX[.B.U.v.x.B.[.[.+XOXI.+XB.U.2XOXOXU.U.+X[.[.+X+X$X2X[.`.{.U.U.U.U.U.E.[.U.U.I.$X+X+X+XU.I.I.U.U.U.U.I.[.I.I.i.U.U.x.U.i.B.q.i.i.U.i.i.i.i.q.) _ ,.<.9.| ,.| ,.,.,.U.I.U.R.+XE.U.U.E.+X[.E.q.< F x.V V ,.| _ n V C m m M ,._ V i n n V n E | Q Q ) _ W W n n [ | _ ) ` [ _ Q m V <._ _ n n n C m m V m C n _ q.X.m r V V | V | :.q.1.<.1.<._ U V W m C m n m m q r i i i m V V T V <.m V V m _ m m C i i C U _ _ _ C C _ m U _ U C C 8 > r i i C _ _ U C C U ",
"VXCXVXJXCXmXVXmXUXJXVXmXBXVXVXVXNXCXNXVXgX~.gX^.mXgXgXmXmXgXmXCXmXUXUXmXmXmXUXUX/.^.gXUXUX^.wX^.UXUXmXIXKXJXBXGXVXBXPXBXBXBXUXiXgXKXgXgXMXBXBXMXgXBXgXiXgXMXgXiXeXgXdX0X0XsX0XgXgXgX0X0XgXQ.0X0X0X^.R.wXwX8XqXwX8X~.!./.8XQ.wXwXwX9X7X!.Q.Q.8XwXQ.!.!.!.Q.V., O V.0X-X-X-X>X|.-X.X.X.XL.'.}.'.L.'.M.'.'.}.}.'.}.'.Y.N.N.}.'.J.M.B.M.v.N.M.J.'.J.J.N.M.M.b.N.n.B.v.v.B.H.H.B.N.'.N.b.B.n.L.J.K.L.K.L.J.M.b.z.b.z.l.e.v.b.M.K.N.M.l.e.h.9.-.{ ;.-.-.8.l.r.8.l.l.e.0.e.e.t.8.0.0.0.r.e.8.8.8.r.8.;.;.*.*.5.8.6.5.6.6.8.-.-.=.=.-.j a.LXiX$X+XOX$XOX$X2X2X2X[.$X`.[.+XOXOXuXiX+X2X#XOXI.+X+X[.t.I.Y.[.+X[.B.N.v.x.I.[.OX X{.).OXB.U.2X$X$XI.U.I.I.U.[.+X$X$X[.U.[.U.U.U.U.U.[.[.+XU.[.+X+X[.+XI.I.I.U.U.U.U.U.U.U.[.x.x.U.9.U.i.9.q.i.i.U.t.x.i.q.:.) ) ,.>.q.,.| ) <.<.i.I.U.B.[.[.i.U.U.U.+X[.[.i.< F E.C V <.X.V n _ n m m V ,._ n n n V W n Q @._ Q _ _ W U n n ) ) ) _ ) | | _ m n ) _ W V n m C m m C y C C | q.,.n C _ V | n _ 4.q.1.1.1.<.U n U V m m m C m i i 8 i m m V m m m V m m m <.| _ m m C i i i C _ _ C _ m _ C _ _ C C m 8 < < i i C _ C C C _ C ",
"CXCXVXCXJXCXCXgXgXVXCXBXmXVXBXVXBXCXCXBXgX^.gXwXmXmXgXmXmXgXCXCXBXUX^.gXmXgXUXUX^./.UXmXUX^.^.UX^.gXBXJXKXBXBXVXKXBXBXJXBXBXiXgXaXBXgXgXgXBXBXBXBXBXBX^.<XgXgXgXeXsXdX0X0XsXgXgXgXgX0XgX0X8XqXqX0X0X/.<XqX8XgX^.8X8X/.F.^.8XQ.wXqX9X7XS.;X!.;XwXQ.Q.W.Q.!.Z.k O V.4X=X-X-X-X X X-X.X'.L.A.A.A.A.A.B.m.B.m.A.Y.N.'.}.'.J.J.L.'.N.v.b.M.N.N.N.b.N.N.B.'.J.L.J.N.N.b.v.N.N.N.v.b.v.v.t.v.0.8.K.b.z.b.K.r.8.r.z.b.b.b.l.e.8.8.8.0.v.e.e.4.;.-.;.8.5.6.8.e.8.e.e.8.5.0.0.0.0.8.6.8.5.5.8.r.r.r.8.l.r.r.0.5.;.5.5.5.w.5.6.r.5.*.-.-.j a.LX2X$X$X2XOX$X2X2XiXyX[.2X[.`.{.OX#XaXuX@X2X{.+X`.[.+XI.t.`.[.[.OX).U.I.t.B.[.[. X{.+XI.{.U.U.yXOX$XI.U.`.U.U.`.$XOX$X+X[.`.U.+XU.I.U.I.U.U.U.[.$X[.+X+X+XI.I.U.U.U.+XU.U.[.[.B.B.i.q.U.x.U.9.9.x.U.v.U.i.i.:.| ) :.:.9.,.@.| V | i.I.I.U.[.+XU.U.U.U.+X[.U.i.o d.x.V _ _ | | m m V C C m _ _ n V V W _ V W ,._ Q _ _ W W n n _ X.~ Q | :.| _ m C | _ ! U n _ n n m C > m C | q.| n C | U <._ | <.<.1.<.1.<._ m U V m m m m C i i 8 i q m V V T V ] m m m ] V _ m i C m i C U _ _ _ m m _ _ _ _ _ m i 8 k > i C D _ _ C U _ _ ",
"CXJXJXJXVXVXmXUXgXVXBXBXmXVXVXgXVXNXNXBXwXwXgXwXgXmXwXmXmXmXmXCXUXUXUXmXmXmX^.gX/.^.mXUXUX^.UX^.gXmXBXJXKXKXgXKXBXBXPXBXPXBXiXgXBXBXgXaXgXBXMXBXaXBXBXgXgXgXgXgX0XsXgXiX0XeXqXdXgXgX0X0X0X0X0XgXqXqX!.^.qXqXqX^.8X~.!.E.8XqX~.wX9XwX~.D.;XQ.;X7X!.Q.Q.R.Q.V., O V.,X}.A.A.m.m.m.B.M.M.M.N.M.N.N.A.A.M.A.A.N.M.m.M.A.N.L.A.N.M.b.M.N.l.v.N.M.M.b.v.n.J.J.N.N.J.H.N.n.b.v.v.l.e.0.e.e.t.t.K.l.l.8.l.-.e.l.b.b.z.b.e.0.5.4.-.*.;.e.e.8.8.5.;.e.;.r.e.b.l.e.8.5.8.5.5.4.q.r.r.0.e.e.e.t.8.e.8.r.r.5.8.6.5.r.8.4.5.-.-.5.-.*.*.=.*.j d.LX2XOX2X$X+X$X4X2XiX+XI.2X+X`.{.$X$XaXuX%X2X{.{.+X+X[.U.v.I.`.{.OX).n.).v.v.I.[. X].+X[.[.n.U.yX$X2XI.U.U.U.U.`.$X+X2X+X`.{.`.[.[.E.U.I.U.I.E.[.$X+X[.+XI.+XI.U.i.U.U.[.U.[.[.i.U.q.q.E.i.x.g.t.x.I.v.u.q.q.:.@._ <.9.q.<.,.| _ <.E.U.I.I.+XI.U.U.x.U.+XE.U.i.< F E.T _ _ | _ C m V m V V T | _ n W _ ! Q _ @.[ Q _ _ V U C m W ) _ W +.| ) _ C m _ ` ) _ M W C n n m i C m ) :.| M n | I | n ) <.1.1.] q.<.U _ T V m m m m m m 8 8 i m m V ] m V V m V m T T _ m i m C i C C _ _ C m C _ m _ _ _ i i i i k i i m U C D _ T _ ",
"CXJXJXVXCXmXVXUXmXVXmXBXBXVXVXVXBXBXCXmXqXmXbXwXgXmXgXmXgXmXmXCXgXUXUXmXmXmXUXgX(.(.mXmXmX^.mX^.gXmXVXKXJXBXBXKXBXBXBXKXBXBXgXBXgXBXMXgXgXaXBXBXgXBXgXiX<XaXgXgXgXfXgX0X0X0X0XMXMXgX0XgX0X8X8XqXqXqX~.qXqX^.qX^.^.8X!.F.~.qXQ.wXqX9X7XV.~.Q.Q.8XQ.7X!.!.!.S.y O D.,X'.}.}.'.'.A.'.'.'.}.}.'.'.A.N.N.Y.'.'.A.'. X|.].L.L.L.J.N.N.N.v.l.m.B.b.M.n.N.N.N.N.n.N.N.b.v.v.v.l.v.v.N.N.N.N.B.).L.J.L.K.z.b.K.b.b.z.b.l.N.b.b.z.e.l.l.r.l.b.e.l.b.b.K.b.l.r.e.e.e.e.8.6.5.4.5.8.8.e.e.8.5.5.8.8.r.r.;.r.8.8.8.6.5.6.5.;.*.4.-.5.5.;.5.h d.LXiX2XOXOX+XOX2X>XiX$X{.2X$X+X+XOX$XuXiX$X2X{.+X+XOX+XU.U.I.[.[.OX).U.I.n.t.I.[.+X{.{.{.OXn.U.$X2X2XI.U.{.[.U.+X$X$X2X[.[.+XY.[.[.U.U.I.U.I.U.[.$X+X[.+XI.+XI.U.U.[.[.U.U.U.+XU.U.,.x.U.i.i.U.x.v.U.U.t.t.q.,.| O.q.9.9.,.,.| V ,.I.I.I.U.+XU.E.I.i.+X+XU.i.q.< F E.V | | | V C C V m n | <._ W C U _ ) Q ) #._ Q _ M m V _ m E ) _ Q +.} | _ m n _ U | _ ! W C m V C > C y ,.<.| V n ,._ ,._ ` <.1.q.q.q.<._ _ _ m C m m C C i r r i m C T V T V <.m T V V V m m m i m i U _ _ _ _ U _ m C _ C _ m i i i k i C i U _ U _ _ _ ",
"VXJXJXVXCXNXNXbXNXNXnXNXVXVXVXBXBXNXBXmXwXmXgXwXgXmXmXNXmXNXCXCXmX^.wXmXmXmXUXUX(.~.mXbXUXwXUXUXCXgXNXJXKXGXMXJXSXBXBXGXSXBXgXBXBXBXBXgXgXBXaXBXaXBXBX<X<XMXdX0X0XgXgX0X0XgXgXdXdXsX<XqXqXqX8X8XsXqXQ.wXmX8XwX9X8X~.~.F.7XwX7XwXwX8X7XS.;XF.7X8X7X8X;XS.7XS.,   G.4X|.tX X X].{..X.X.X{..X[.'.'.'..X].].'.J.[. XXX&XtXL.K.L.L.&X].'.].].'.].].]. X].'.].'.].'.'.'.].'.].L.J.).'.L.L.K.L.L.L.K.l.K.J.K.L.K.L.K.K.K.K.J.K.K.K.K.l.b.v.e.e.8.r.r.r.r.8.8.5.8.2.r.l.z.r.z.r.8.8.8.8.r.8.r.8.8.;.5.;.r.r.r.-.-.-.2.5.5.8.5.5.5.-.=.p ,.KXOXiXY.+X+X2XiXOXaX[.[.2X$X|.+XOXOXkXuX3X%X{.{.OXOX[.).n.).[.[.#X).N.).B.B.I.`.OX+X+XY.OXU.B.$X2XyXU.I.+X+XI.+X$X$XOX+X+X{.[.+X$XU.U.U.U.[.I.+X+X+X[.+XU.+XU.U.U.U.U.I.I.I.+XI.U.9.q.U.B.i.i.n.U.n.U.n.i.q.:.) @.q.9.9.q.,.<.| ,.I.Y.U.I.2XI.U.[.i.+XOXE.q.q.o a.D._ X.) | @.W M W V M ) :.| W _ n ) ) _ ) #.) Q ! Q n Q _ M M ) _ W +.@.} +.M a _ [ | W +.W n m V C r r C @.q.:.| n :.) @.U _ q.q.2.q.q.4.W T _ _ U m m C 8 m > > 8 C V V U T V T V T T T m C C C m C C C _ _ _ _ _ U _ _ _ C _ C i i i < i m i _ U C C _ T ",
"JXJXVXNXNXNXNXCXCXCXNXNXCXGXVXVXNXCXmXgXgXmXwXmXmXNXmXCXmXNXmXCXmX^.wXmXmXmXUX^.~./.bXUXUX^.wXmXVXgXNXIXKXBXBXKXSXSXBXBXSXBXdXBXaXBXBXiXgXBXBXgXMXgXdX^.gXMXBXgXiXgX0XgX0X0X0XdXNXqX0XgXqX0X0XQ.gXqX9XqXgXQ.wX^.8XwX~.F.7XwXQ.wX9X9X8XF.7XQ.8X7X7X7X7X!.F.S.k O V.6X}.|. X X.X.X X{.[.).).).).'.oXoXoX X.X).J.J.L.XXL.K.L.L.K.L.J.N.N.n.J.N.N.J.'.'.'._.'.L.J.J.N.H.H.N.N.n.b.v.L.z.J.K.K.K.M.K.b.b.b.z.l.z.8.l.l.l.l.z.z.8.l.l.8.r.e.l.K.5.8.8.8.r.l.r.r.l.l.l.r.r.r.M.r.r.r.8.8.r.r.z.z.r.r.5.;.5.-.;.-.*.-.-.r.r.8.8.2.*.*.p a.KXiX$XI.+X2X+XiXOXaX+XOX$XyXOX+X+X2XkXiXyX2X{.{.+X2X{.I.B.I.[.+X2X[.U.[.U.n.n.I.+XI.I.+XOXU.U.OX4X2XU.[.+X[.+X+XOXOX+X[.OX{.U.Y.+XU.U.U.x.I.I.+X$X$X[.+XU.+XU.U.U.I.+XU.I.I.I.I.U.q.>.I.c.i.i.v.B.B.U.v.t.q.9.,.O.9.i.q.x.,.q.| | I.+XI.U.OXY.U.+XI.+X[.[.i.,.$ d.V.) | | @.| _ W V n W _ @._ W ) C ) @.Q ) #.@.) Q Q W ! _ n n _ Q Q | #.| | ^ f _ _ @._ | n C V C C r C y | q.:.@.V | +.| _ | q.:.q.q.2.q.I | U n V C m m r m r r 8 m V _ _ V T V m | V V V U m C C D C _ _ _ _ _ _ C C _ _ U _ C C i 8 > i m m _ _ _ U _ _ ",
"JXJXCXCXNXNXNXCXVXCXNXNXBXVXVXVXCXBXBXqXqXmXwXbXmXNXgXNXmXCXmXCXmX^.UXmXCXmXUX^./.~.UX^.mX^.^.mXCXmXNXIXJXgXBXGXBXSXSXBXGXSXMXBXgXBXgXgXgXaXgXBXgXMXBX<XiXBXBXgX<XgXgXiX0X0X0XgXNXsX9XqXeX8X0X!.wXqX8XwXqX8X8XQ.bX7X~.~.8X9X7X8X9XqX7XQ.7X7X8X7XQ.8X;XF.!.S.>   V.eX.X.X-X XtX X{..X'.]. X X{..X X X X{..X).'.].L.L.L.L.L.L.K.K.J.'.J.N.N.N.).J.N.J.J.L.J.L.).[.J.'.).L.'.].'.J.K.z.K.K.J.K.J.J.J.b.M.b.K.K.z.l.l.8.;.8.8.8.8.r.r.5.5.8.2.8.r.l.K.l.8.l.l.r.r.r.r.y.z.z.r.r.r.z.r.l.r.r.r.r.z.8.e.r.8.5.r.r.8.r.8.-.=.*.*.=.*.G F LXiX2XI.+X2X<X>XOXiX2X$XOX$X+X@X+X2XaXyXyX%X+X{.$X$X[.I.U.I.+X X+X).N.).U.U.B.Y.$X[.U.+X+X+XU.OXiXOXU.[.OXOX+X2X$XOX+X+X+X{.{.I.$XI.U.U.i.I.+X+X2X$XI.+XU.+XI.I.I.U.I.I.I.I.+Xx.U.<.<.m.i.B.i.t.B.B.n.n.v.q.g.@.@.9.i.i.i.,.<.q.q.U.T.I.I.+XI.E.+X[.+X+XU.,.<.$ E.V._ ,.| | ) V n _ V W ) :.%._ _ n ) +.! _ #.@.~ ~ M L ) _ M n ! Q ~ +.:.| | _ f W ` | W | M m V n n y C C | q.9.,.U @.U | | | q.| 1.q.=.<.U | V U V n m m r 8 8 r r m V V T | V m m V m m C i C C C C U _ _ _ _ _ _ _ _ U C _ _ C m i i k i m i C _ C U <.U ",
"JXCXNXCXNXNXCXVXVXCXNXNXNXVXVXBXCXVXVXqXgXmXwXgXmXmXqXmXmXCXNXNXmXUXUXCXmXmXmXUX/.(.mXbXUX^.^.mXVXNXCXIXGXBXGXBXBXGXBXBXGXSXMXBXgXgXgXxXBXBXxXBXBXaXMX<XgXdXgXdX<XgXfXgX0X0X0XgXgXeX9XgX0X^.qX!.9X0X9XwXgX~.wXQ.bX8X!.Q.wXwXwX9X9X9X7XF.7X;X8XF.F.8XQ.S.!.V.y O V.,X'..X.X.X X1X#X X X].]..X]. XoX X{.{.].].L.H.L.XXoX&XL.&XL.L.).J.'.'.).J.N.'.J.J.N.H.n.b.b.L.'.J.J.J.J.J.J.'.K.L.L.K.b.M.J.J.M.J.K.M.K.z.K.K.K.K.K.z.K.l.r.8.-.8.e.e.l.l.r.e.z.K.l.r.r.l.l.K.z.r.r.r.l.z.z.r.r.r.8.r.r.r.;.r.r.8.e.l.r.r.5.5.8.5.5.-.2.*.-.a F PX$XiXI.OX2X+X1X+XaXOX2XOX+X{.$X+X$XaX3XiX$X{.+X2XOX{.I.I.I.[.+XOX[.).I.I.[.I.I.+XY.Y.+XOX+XI.$XOXOXU.+XOXOXOX$X$XOX+X+X+X+X[.+X+X+XI.I.U.R.+X+XOX+X+X+XU.$XI.+XU.U.+XI.`.I.+XU.I.,.,.U.B.v.v.U.B.U.t.n.t.:.0.,.@.q.<.9.i.,.,.9.,.U.R.I.Y.OXI.U.U.[.E.+XU.q.,.o d.V.Q ,.,._ _ V C C _ ! +.:.7.` _ V _ [ _ _ ,.#.) ~ Q E Q _ W n Q _ ) _ } | } _ f W ) _ X._ n m M m V > y n @.:.9.:.W ) V ) <.:.q.{ 4.1.` :._ _ T m m V m m m r C i m m V T _ V m T T V T m m i C C C C U C _ _ _ _ _ _ C _ _ U _ C C i i > i m i _ U _ _ _ _ ",
"VXCXCXCXqXNXSXJXVXCXVXMXCXVXVXVXVXVXNXqXqXgXwXmXNXmXbXmXNXCXmXCXUXUXmXCXCXUXbX^.(.^.mX^.^.^.UXmXVXNXVXIXGXBXGXVXBXBXBXGXVXBXMXdXiXgXBXgXgXaXBXBXBXdXBX<XgXdXBXMX0XfXgXfX0X0X0XgXsXqX9XsXwX<X0XQ.8XwX9XwXqX7X8XQ.wX8XF.~.^.wXwXwX8X9X7XF.9X7X8XQ.Q.8XQ.W.F.C.y   G.4X.X-X-X.X.X X X#X#X.X X X.X{. XoX X.X.X].].).J.oXoXoXvXL.L.L.].).).'.].].].'.].L.H.H.J.K.L.J.J.J.J.L.N.J.J.J.K.K.z.K.b.b.y.z.M.J.K.M.J.b.M.z.l.z.K.z.K.z.l.r.b.l.e.y.l.e.l.l.8.r.l.z.K.K.K.z.P.z.y.r.l.r.z.K.z.l.r.z.r.5.5.r.l.l.r.l.r.l.r.r.r.2.-.5.5.5.8.g F SX+XiX+XOX2X+XiXOXiXOX3X$XOX+X1X+X2XaXiXiXiX].OXyXOX[.`.I.Y.[. XOX[.I.I.`.{.I.[.OXI.[.+X$XY.I.$X$XOXU.+XOX$X+X$X2XOXOXOXOX+X{.+X+XI.I.I.I.I.+X[.2X+XR.`.`.+X+X`.I.U.`.I.U.+XI.U.U.@.,.B.x.U.B.B.B.N.n.n.i.:.9.| X.>.>.x.i.:.:.9.q.i.+XY.+X+XY.U.U.+XU.[.U.i.| $ E.E.V 9.:.,.| n V _ | M _ | q._ _ _ _ +._ _ +.@.+._ ! W _ ~ W L E ) X.) @.#.#.| E V U | @.X.C C C n V > C n _ q.7.7.W | Q @.:.} 0.q.0.} } 4.| _ V m m C C m y i i 8 i m T _ _ V m | V T V V m i i U C C C _ _ _ _ _ ,.U _ _ C _ _ m C k i i i C D C _ U _ _ _ ",
"CXCXmXCXqXNXVXGXNXVXVXnXVXVXVXVXVXVXNXqXqXmXwXmXNXNXbXbXCXNXmXCXmXmXmXmXCXmXmXUXE.~.mXbX^.UX^.mXCXBXVXIXVXSXGXGXSXBXBXBXPXBXBXMX^.gXBXBXgXBXBXBXdXgXBX~.gXdXgXBXgXfX0XgX0X0X<X0XsXqXqXsX<XQ.0X8X8X9XwXqXbX/.wXQ.qXQ.F.Q.8X8XwXqX8XwX8X7X;X7X7X7X/.8XQ.!.W.V.y O V.6X'.}..X.X'.'.L.L..X.X]. X X+X#X XtX&XtXoX.XoX].].oXL.L.vXL.vX]..X].).).L.'.]..XJ.N.b.J.].J.J.].J.N.J.J.L.L.L.L.K.L.K.K.K.z.M.K.z.K.l.l.J.K.M.K.z.b.K.z.r.l.K.l.y.l.e.K.l.r.b.l.K.K.K.z.z.z.r.b.r.y.z.l.5.5.r.r.r.r.r.y.z.z.r.r.l.l.r.r.l.r.l.r.l.l.r.r.8.6.a ,.PX<XiXOXOXOXOXOXOXOX+X4XOX#X X3X+X3XiXyXiXuX`.OX$XOXI.I.Y.`.I.+X{.).I.I.[.OXY.[.OX[.I.+X2X[.I.2X2XOX[.OXOXOX+XOXyX+XOXOXOX+X+XY.+X$XI.+XI.Y.+X+XOX[.+XU.U.+X+X+XI.U.+XI.I.+XI.B.U.:.g.B.i.B.x.n.B.U.n.n.B.q.:.X.X.:.q.i.q.>.:.i.,.U.+X$XT.OX+X+XU.[.[.E.[.i.,.$ d.E._ :.:.,.| V V | _ M M _ ,._ _ +.) _ _ W @.@.[ ) Q Q W ~ W W W ) [ ~ | :.| +.E M Q :.@._ n C C C M r y V | 8.:.:.V ,._ ) :.:.9.i.0.} 4.7.` | _ V U V m i m i m i i n V | | <.V V <.| T V m i i m _ _ C _ C _ _ _ _ D _ _ C _ _ C i k i k m m C C _ _ C _ _ ",
"CXmXCXCXnXNXVXBXnXCXVXVXVXVXVXCXCXVXmXmXgXbXwXmXCXbXbXCXCXCXCXmXmXmXmXmXmXmXmXUX/.^.mX^.UX^.^.mXCXCXVXIXGXBXSXGXSXSXBXSXPXVXBXMXiXBXaXgXgXBXBXgXdXBXdX0XgXgXMXaXeXsXgXfX0X0X0XgX0X0X0XmX0XQ.0XwX<X8X8XqXqXQ.8X7XmX~.V./.8X8X8XqXbX9X8X8X7X8X7XF.7X8X;X!.!.D.>   F.,X-X X-X-X XtX'.L..X X X X X{. X XoX XoXtXtXtX.X].oXJ.L.L.L.L..X].].'.L.'.J.'.].'..X].L.L.J.L.M.J.M.J.M.M.L.J.K.L.K.L.K.K.K.L.M.K.b.l.b.b.M.b.b.b.M.b.K.z.l.z.K.K.b.K.K.K.l.e.K.l.K.l.K.l.K.l.P.b.y.K.y.y.r.y.r.r.K.b.y.z.r.r.5.8.l.e.r.l.r.r.8.r.r.r.e.e.0.a F PXiXiXOX[.2X+XOX>X2X+XyXOX$XOX3X[.2XyXiXuXiX{.OX2X+X[.Y.I.[.U.[.[.I.[.[.[.+X[.+XOX[.I.OX2XI.+X2X2XOXI.OXOX>X[.OX$X+X$XOXOXOX{.+X$X$XI.I.I.I.+X+X$X[.+X+XU.$XU.+XI.I.I.+XI.T.Y.U.I.i.i.x.i.i.B.n.B.I.U.n.t.7.:.X.O.,.q.h.q.q.@.U.,.i.R.2X+XT.+XE.U.[.U.[.[.x.,.$ d.g._ ,.:.,.,.C V @.V M M _ ,.) _ | ) ) ) W ) @.[ Q ) W M ) Q W W ~ +.Q | #.| } W M ) :.+._ V m V M M y y W | 9.7.] W @.) ,.q.} 9.q.q.| ] 4._ _ m m V T m m r m i m m m V | V V ] V | | V V m i C C _ C C _ _ _ ,._ C C C _ C _ _ C i i i i C i m U _ _ U _ _ ",
"VXCXCXCXCXCXVXVXnXCXGXVXVXSXVXCXCXBXmXgXmXqXwXCXbXCXmXCXmXmXmXCXmXmXCXUXCXmXUXUX(.^.mX^.UXbXwXmXgXCXVXIXJXSXBXSXBXBXBXSXVXBXBXMXgXBXBXBXgXBXGXaXBXdXgX<XgXiXgXMXfXsX0XMXgXgX<X0XeX0X0XgXqX<X0XwX0X<X8XmXqXQ.wXwXbX~.F.~.8X8XwXqXwX8X7X7XF.8X7X~.7X7X~.!.S.D.z O V.6X-X-X-X.X-X.X}.-X1X-X X X]..X X XoXoXoXtXoX&XoXoXtXoXL.L.L.L.].'.'.].].].J.).].].L.J.J.J.J.J.J.J.J.L.J.J.J.J.K.L.L.K.K.L.M.K.L.K.J.K.J.J.L.b.K.b.l.l.l.z.K.K.K.b.b.z.e.b.b.b.K.l.r.l.K.l.K.K.z.y.y.b.b.z.y.r.l.z.l.l.r.r.r.8.l.K.e.r.l.r.r.r.l.r.8.r.r.5.5.s ,.PXiXiXOX+XOX<XOXOX3XOX3XOX{.#XiX{.$X3XuXaX3X{.OX$X+XI.[.I.[.I.'. X'.[.I.[.OX[.|.1X[.I.+X2X+XY.2X2XOXI.OXOX2X+XyX$X+X2XOXOX+X{.+X+X+X+XU.+X+XI.+X+X+X+XU.+X+X+X+X+XI.+XI.I.$XI.U.U.i.x.U.9.i.U.U.n.I.n.n.v.q.7.+.X.:.>.x.9.:.#.U.,.i.R.<XY.+XY.+X+XE.U.U.U.U.q.$ d.E.| <.,.,.<.m V _ | M M ) q.) _ +.[ [ ! E [ @.[ ) ) _ Q V W W W ^ ) Q | #.#.>.) m | :.) _ V m V V M i y ! ) q.7.+.W | _ | >.} 7.<.q.4.| 2.Q _ T m V _ C r m i m m m V V ,.<.] ] V | V ] T V i m C _ _ C C C _ _ _ _ C C C C _ _ C D k i i i m C C _ _ _ _ _ ",
"CXNXmXVXCXCXVXCXMXVXGXVXVXCXCXVXmXnXnXnXbXbXwXCXCXmXmXmXCXCXmXCXmXCXmXmXCXUXmX^.(.UXmXmXmX^.^.mXNXgXGXIXJXGXMXgXBXPXBXBXKXBXMXBXgXgXgXBXgXBXBXBXBXaXgX^.gX0XgXgXsXsXfXdXqXeX0XsXqXqX9XsX0X<XqXqX^.<X8XmXqX~.0XwXbX7XF.~.Q.7X9XbXbXwX7X7XQ.7X7X7X8XwX7XQ.!.D.y   V.eX-X6X-X-X.X.X-X1XtX-XtXoX1XtX1X1X1X1X6X XoX.XtXtXL.L.6XL.L.L.'. X{..X].'.L.].].'.].L.L.L.J.J.L.J.M.z.K.K.L.L.J.K.K.L.K.z.K.z.r.z.r.K.K.L.J.K.M.l.K.l.r.8.8.r.l.r.e.e.r.y.y.b.K.b.K.K.b.l.e.e.r.e.e.l.l.e.z.z.l.K.z.b.b.l.b.l.l.K.r.r.l.l.r.r.r.e.r.8.e.0.8.s ,.PX<X$X>X+XOX2XOX2X$X2X3X[.{.$XyX{.$XyXiXiX2X[.#XOX|.I.I.[.I.I. X X'.[.'.[.{.[.OXOXR.I.2X$XI.+X2X$X$XU.OX+X$XOXOX$X+X2XOXOXOX+X+X+X$X+XU.+X+X+XOXOX+XOXU.{.[.`.+XI.I.+XU.+X+X[.U.x.9.x.U.9.i.x.B.I.I.N.v.B.0.9.@.O.>.:.9.i.,.,.U.9.9.R.+XE.$X[.[.[.U.E.U.E.U.,.$ E.E.] | ,.:.,.V W _ _ ! _ @.:.[ ! +.[ ) _ E ) &.) ) _ Q _ n Q _ W n _ | | :.#.q.+.M ) :.| _ V m C V M m y n _ 8.7.+.n ) ) ,.q.| 9.:.7.4.[ 4.| _ m n Q _ n m C m m i m m <.<.<.<.<.V <.V ] ] V i m C _ _ C C U _ _ ,._ C C C _ ,._ m i < i i i C m C <._ _ _ _ ",
"NXVXgXVXCXBXBXNXCXCXVXVXBXCXCXNXnXnXNXnXnXwXbXmXmXCXCXmXmXCXmXmXCXCXCXUXUXCXmX(.^.(.mXUXmXbX^.gXCXBXVXIXGXGXBXBXBXBXGXVXBXBXMXBXiXgXgXgXgXPXBXaXgXBX^.iXgX0XaXMXgXfXsXsXsX9X0XqXsXsX9XNX0X^.0XqX0XQ.qXmXqXQ.wXwXbX8X!.~.wX7X8XbXbX7XbX;XF.Q.~.Q.8X7XQ.Q.Q.D., O F.rX}.}.:X-X-X-X X-X}..X}. X XtX XoX X{.oXoX.X_.L.L.tXtXL.L.L.L.].J.J.J.N.J.'.L.'.).J.J.J.J.J.L.J.J.J.J.L.K.K.z.L.J.K.z.K.K.K.z.l.l.z.K.K.z.z.L.K.l.z.K.K.l.l.z.K.r.e.l.e.l.r.r.e.r.l.K.l.K.K.K.l.K.K.K.l.K.y.z.r.r.8.r.r.e.l.e.8.5.8.r.r.r.e.e.e.r.e.e.8.6.6.h d.KX2X+X2X+XOX2X2XiXOXOX2X+XOX$X2X+X2XiXiXiXOX+XOX1X[.[.[.[.+XI..X|.'.|.Y.[. X[.OX2XI.I.OX$XU.I.2X2X[.[.OX+X2X2XOXOX+X2XOX$XOXOX+XY.2XT.I.+XI.+X+X$X[.+X[.+X+X[.+X+XU.+X+X[.+XI.U.U.9.U.U.i.9.x.n.I.I.).n.i.i.i.$.) ,.q.i.q.i.q.9.9.,.U.<XOX+X[.<X[.U.U.+X+XU.q.o d.E.,.| <.:.@.M ! V M ! ! %.q._ ) %.) +.| E ) %.[ +._ n _ W _ _ _ W _ X.| #.#.:.@.W | :.| _ V C C M V C r V W 8.:.) W _ _ | >.| q.7.1.7.| :.` W m V W _ V m m i C i C V V <.V V V m <.m V V | m C _ _ U _ _ _ _ _ _ C _ C C _ ,._ m i k i i m U C C <._ U _ _ ",
"NXVXCXVXVXBXmXVXCXCXCXCXNXVXVXNXCXnXmXCXnXbXbXmXmXbXmXCXmXCXbXmXmXmXmXmXmXmXUXUX/.^.mXmXCXUXUXmXgXgXGXJXKXVXGXGXVXdXVXVXKXMXdXBXiXgXgXaXgXBXBXBXgXBXiX^.gX0XMXgXsXsXsXsXfX<XqXgXsX0XqXsXqX<X9XqXqXQ.8XsXqXQ.qX^.8XwXF.~.7X8X8XbXbXwXwX;X!.;X~.7XwX~.~.Q.Q.V.k   F.7XS.S.A.S..X-X-X-XS.A.A.}.}.L.L.'.]..X.X X.X.XL.L..X.XL.L.L.L.'.L.J.L.L.L.N.N.N.N.J.].L.].L.].XXL.L.L.L.K.K.K.K.z.z.K.z.z.l.z.K.l.K.l.z.l.z.y.l.K.K.l.8.r.z.K.l.l.b.b.K.K.b.l.K.e.K.l.K.l.l.e.K.8.l.r.e.l.y.z.l.r.l.8.5.z.b.e.l.e.e.b.e.5.r.8.6.5.r.8.r.4.*.a F PX<X+XiX+X[.OX5XiXOX#X2X{.2X#X3X2X2XiXyXyXOXOXOXOX[.Y.OX+XY.+X[.[.[.[.).[.OXI.<X$XU.+XOX$XI.+X$X$X+XU.OX<X2XiX$X+X+X2X2X$X+X$XOX+XOX+X+X+XU.`.OX+X+X+X`.+X+XY.I.+XU.[.[.+X+XI.x.U.,.U.E.i.i.U.B.I.I.N.n.n.t.0.,.) ,.9.q.9.i.q.i.i.,.U.+X+XE.OXiXU.i.[.+XE.U.q.$ d.E.,.:.#.:.| M C M V X.! | :.@.Q +._ ) +.M _ X.[ ) W M Q ! Q W W Q V _ @.,.:.:.@.Q ) } @.X.! C _ V M C C n ) 8.:.| ) X.V } i.:.i.4.7.0.4.#.| _ m L _ V m m r m i m C V ] V <.] V V <.m ] V ] C _ _ _ _ _ ,._ _ _ _ _ _ C _ _ _ C m k k i k m C C C _ _ C T _ ",
"BXVXBXCXBXCXVXVXVXCXMXBXNXVXVXNXNXNXCXCXnXF.bXbXCXbXbXbXmXmXbXCXCXCXmXmXUXCXmXUX/.^.mXmXmX^.^.gXgXCXVXIXJXKXJXGXVXMXKXKXVXBXdXBXgXBXBXBXaXBXBXgXMXaX^.iXaX<XgXgXfXsXsXNXgX<XeXgXsXqXqXgXeX8XeXqXqXQ.qXmXqXQ.qXwX8XwX~.~.wX8XwXwXwX8X8X7X;XF.8X8X7X8X7XQ.Q.V., O S.9XL.S.L.W.S.L.S.L.L.}.}.L.A.L.A.L.A.L.'.A.J.N.L.L.z.C.L.L.L.K.h.v.h.m.M.M.A.L.L.J.J.'.*XL.L.L.J.L.L.L.L.L.L.J.K.K.L.L.K.M.K.K.K.z.l.l.e.K.r.l.z.K.l.z.K.l.K.r.l.K.b.b.J.b.K.K.e.l.r.r.5.5.r.r.r.r.l.8.r.r.r.r.8.8.5.8.5.K.e.l.l.e.l.e.e.5.;.;.-.} -.-.7.8.-.p ,.PXiXOXiXOXOX2XiX3X$X+X#X#X2X+X2XyX2XuXiXaXOX[.[.1X{.Y.T.+X+XY.I.).[.|.I.[. X'.OXOXU.+XOXOXU.T.iX+X+XE.+X2X$X2XOXOXOX>X2X$XW.$X+X+X2X+XI.+X`.I.+X+X+X+X+X+X[.`.+X+XU.+X+X+X+XI.U.I.9.9.U.q.9.U.n.N.U.).n.n.B.x.,.X.,.q.q.>.x.:.x.i.,.I.I.2X+XOXiXE.i.U.+XE.U.,.$ E.E.<.>.<.,.| V C n ! _ _ @.>.:.! ,.X.Q ) W _ +.) ) E V ! ! _ W _ W m _ | | :.>.%.W ) :.,.X.) C V V n r i C ) 6.7.@.) ) n @.:.| 0.<.<.q.4.4.| _ W M _ C C m C m m m V V V <.| V <.V V V V ] V U _ _ C _ _ _ _ _ _ C C ,._ _ _ _ _ i i k m i m _ m U ,._ _ _ T ",
"VXVXmXNXVXmXVXVXNXNXnXCXnXVXVXNXmXNXNXNXbX7XbXbXbXmXbXmXmXmXmXmXCXmXUXmXmXmX^.^.^.(.mXmXUX^.mXwXgXgXGXJXKXJXJXKXVXdXGXVXSXSXMXBX^.BXBXBXgXBXBXgXiXBX<XgXgXiXgXaXsX0XsXdXqX<XeX0XqXsXqXmX0X<XrXqXgXQ.qXqXqX~.qXqXbX8XF.!.8XwXwX9XqXwX7X;XQ.Q.Q.8X8XwXQ.Q.8XD.y O V.eX:X,X6X-X-X.X}.L.L.:XL.L.:X:XL.A.L.L.'.A.L.A.C.L.L.:X:X.XL.C.A.M.N.M.A.L.].].].]..XL.].].L.L.J.L.L.L.L.L.J.L.L.K.K.L.K.L.L.L.L.z.z.K.K.K.K.L.L.l.K.K.K.l.K.r.l.b.l.K.z.K.b.l.l.K.z.K.K.K.l.r.K.r.r.K.l.r.5.r.8.2.5.;.;.4.6.6.5.6.8.8.8.e.l.5.-.4.7.;.;.;.-.d F PXiX2XiX+X+X$XuXiX2X).@X+X$X$XiX3X#XaXaXiX2XOX|.OX[.[.|.OXOXY.U.N.[.[.N.|. X).OXR.I.R.+X<XU.+X$X<X[.I.2X$X$XiX<XOX+X2XiXOX+X2X+X+X2X+XU.+XI.`.+XOX+X+X[.+X{.`.+X+X{.[.[.OX+XI.U.U.,.x.I.x.i.B.v.n.n.).I.U.n.0.,._ ,.i.h.>.i.,.x.x.<.U.U.<X[.OXOXE.x.[.E.+XU.i.: d.E.7.7.:.#.| M C C M ) _ V | ,._ ,.+._ _ W Q +._ _ U n _ _ _ _ _ W n W _ #.:.7.:.M _ :.<._ _ V ) W C y > n ) q.7.| | | n +.4.} i.} :.q.{ :.| _ Q W W M n m C i C V m <.V ] V ] V T V ] V <.V C _ _ _ _ _ _ _ _ _ _ U _ _ _ _ _ _ m k i m k D C _ _ _ _ C <._ ",
"BXVXgXmXVXVXVXCXNXBXNXNXCXCXVXNXNXCXCXmXbXUXbXbXbXmXbXbXCXmXbXbXmXmXmXmXmXmXUX^.~.^.mXmX^.^.UXwXBXgXVXKXVXKXKXJXGXMXGXKXSXBXdXMXiXBXBXgXgXBXMXgXgXgXgXgXgXgXgXaXsX,XfXgXsXgXgXeXqX0XqXgX0X<XsXqX0XQ.qXgX^.Q.wXwX8XwXQ.!.7XnXwX8X9XnX7XF.Q.Q.8X7X8X~.Q.Q.Q.D.k O G.6XL.:XS.L.:X:X:X.X:XL.}..XL.:XL.}.:XL.}.L.L.}.L.L.L.L.L.L..XL.L.L.L.N.L.N.L.L.'.L.L.J.M.J.M.L.K.L.J.J.K.K.z.l.h.z.z.z.z.K.K.K.K.L.K.z.K.z.z.L.K.z.K.l.K.K.z.K.r.K.r.b.K.K.l.K.K.l.K.K.l.8.l.8.8.8.8.8.r.8.8.5.l.l.8.8.-.#.-.;.8.8.8.;.;.;.5.7.4.8.5.;.8.{ =.j F PXiX2X2X2XOXyXiX5X2X`.#X@X#X2XjX2X2XzXaXiX2XOX>XOXI.[.|.OXOXY.B.B.OX XB.[.OXI.OXOXI.+X+X+XU.+XOXOXE.[.OX2X<XiX+X+X[.2X$X$X+X$X+X+X2X+X+X+X`.[.{.+X+XOX+X+X+X+XOX[.+X[.OXOX+XI.U.U.q.U.I.9.i.x.B.v.t.B.N.I.B.0.>.X.,.9.9.q.q.:.x.x.,.I.I.OXE.+X2XU.i.[.U.+XI.q.= d.R.#.7.:.:.+.M C V M ) ) V @.%.! @.+.@.) ! ) +.) _ ! _ _ +._ _ _ ) V _ E +.>.7.:.! W :.>.X.! V _ ! n C r V n :.7.] %.@.W _ 7.:.0.7.:.q.} #.` Q _ Q _ _ n m C m m m V <.m <.V V <.V V V <.V | C _ _ _ _ _ ,._ C _ _ _ _ C ,.,._ _ m k D i i m C C _ _ _ _ _ _ ",
"VXBXBXgXNXVXCXNXVXCXNXNXNXCXVXNXNXNXbXbXbXbXbXUXbXbXmXmXmXmXmXmXmXCXmXUXmXmXwX^.^.^.mXmX^.UXmXgXVXgXSXJXJXGXJXKXKXVXGXVXGXBXSXMXgXBXBXgXaXBXBXgXgXMXgXiXgXiXgXgXsXeXeXgXsXeXgXgXfX0XqXsX0X0XsXbXqX~.wXmXwX!.wX8X7XwX~.~.7XbX9XwX8XqX7XQ.Q.8X8X8XQ.~.;X!.~.V., O G.:XS.L.L.:XS.C.S.L.A.S.S.:X}.:XS.C.}.A.m.A.C.A.:XL.:XL.L.C.L.L.A.A.L.A.L.N.J.A.L.L.L.M.z.z.C.z.L.L.z.M.L.z.M.z.z.z.z.L.L.K.z.z.z.z.K.z.8.8.8.r.J.K.z.z.h.l.l.l.l.8.8.8.r.z.8.K.l.r.r.8.;.5.-.;.&.{ ;.;.;.;.5.;.;.8.8.r.5.;.;.{ { ;.} #.( ( +.#.;.8.8.;.8.8.;.p d.KXiXiX2X2X2XiX3X2X#X[.2X#X$X3XzXyX3XaXkX4X2XOXOX>XI.[.Y.OXOXY.B.B.|.[.U.Y. XY.+X[.[.+X2X[.U.$X$X+X[.+X<X$XOX2X+X+X+X2XiXOXOX$X+X+X$X+X[.+X`.[.+X+X+X|.+X+X{.{.OX{.{.{.+XOX+XY.I.R.9.U.I.x.i.U.x.B.B.B.B.I.N.g.,.) ,.9.i.q.9.9.x.B.<.U.I.OX+X<X<XE.i.+X+X+X[.,.: d.R.:.:.7.:.| E M ! V ! X. .+.,.W %.+.) ) ! | X._ W ! V _ | ) _ Q _ ! ! M ) 4.q.>.! W >.q.| ) n ) C V C C V n :.0.| :.@.V W 9.#.9.9.q.q.} #.[ ` _ U ) _ m C m i m V V V m q.V m T V ] T <.V m U _ _ _ C _ _ _ C _ _ _ _ _ _ _ _ _ i k i C i D _ C _ <._ _ <._ ",
"VXVXNXmXgXNXNXBXVXVXBXNXCXBXCXCXCXNXnX8XbXUXbXbXUXbXmXmXCXmXmXmXmXCXmXmXmXUXwX/.^.(.mXmXUX^.^.gXBXNXSXJXKXVXKXJXVXKXJXKXKXSXBXSXiXBXgXBXBXBXBXiXaXBXgXgXgXgXgXgXeX0XsXsXsXsXqXsXsX<XqXsXqXqXsXqXqX8XwXmXqXQ.wXqXbXwX7X7X;XbXbX9XbXqX7X;X7X~.8X9X~.;X!.F.!.Z., O D.7X;XS.S.,X:X:XL.S.S.L.:XL.}.L.L.A.c.C.C.m.C.T..XC..XL.L..XL.C.C.M.M.A.M.A.L.L.N.M.C.c.j.z.z.j.z.l.z.z.z.j.h.z.f.8.8.z.k.z.z.z.z.z.k.z.8.z.z.z.f.8.8.;.;.;.;.;.;.;.;.;.;.;.;.5.;.;.;.{ -.&.-.;.;.&.&.&.&.;.-.;.;.;.;.;.-.;.5.;.-.;.7.;.;.;.5.;.;.*.;.#.-.#.-.p ,.KX2XiXiXOX2XaXiXOX1X[.#XOX$X3XzXiXiXaXkXiX4X|.OX2X[.|.[.[.OXY.B.I.OX[.N.[.OXY.OX[.+X+X<X+XE.+X<X+XI.+XiX2X$X2X+X+XOXOXiXOX+X$X+X+X2X$X+X`.[.+X{.+X{.OX+X+X+X+XOX{.+X{.OXOXOX[.I.I.x.9.U.i.x.i.B.U.U.B.v.).B.0.>.@.,.i.x.9.i.x.i.x.q.R.I.<X<XOX$XU.U.+X+XE.[.i.: d.R.%.:.q.7.| V ! X.C X.X._ +.>.V +.@.) ! _ @.) W V V n M | +.V _ _ W W V +.>.7.q.) ! 9.:.) X.C ) V n C n V V :.q.1.:.) W _ q.] q.h.6.4.] :.| +.) _ ) V m C C m C V V V ] <.| V V m V <.V ,.V C _ C _ ,._ ,.V C _ _ C _ _ _ U _ C m k i m D C C _ _ <._ _ ,.T ",
"BXBXNXmXCXqXgXCXGXCXmXCXSXCXBXCXmXCXbX7XbXbXbXUXF.bXbXbXCXmXbXbXmXCXmXbXbXmXUX~.~.~.mXmXbXUXUXbXNXsXGXGXJXGXGXIXVXGXVXKXGXSXVXMXgXVXMXMXgXBXFXgXgXgX0XgX<XgXgXgXsXeXsXsXNXsXsXsXqX<X0XsX0X0XmXqXsX;X9XqXqX~.qXwX8XqX^.8X!.qXqXwXqXqXwXQ.Q.8X8XwX9X~.Q.W.F.D.,   D.7XD.F.D.F.:X:XS.S.C.S.S.S.C.S.S.C.C.S.S.S.S.S.C.S.C.C.L.C.z.C.C.S.L.L.L.C.L.L.M.C.z.L.L.L.L.L.S.L.L.L.L.L.L.C.L.C.z.z.z.L.z.L.K.z.z.z.z.z.z.;.;.;.;.;.;.;.f.8.;.;.;.;.;.;.;.;.;.8.8.;.;.;.;.;.;.;.;.;.;.#.&.{ ;.#.&.#.-.&.( [ ( &.( [ { &.&.{ #.;.#.-.&.( { j a.PX4XiX2X$X2XaXiX2X+X+X$X$X+XiXiXiXiXaXaX2XiXOXOXiX+X+XI.T.>X+XB.U.|.{.I.I.OXY.$XY.OX2XOXY.+X$XT.OXR.$X2XOXOX$X+X+XOX2X2X$XOX$X+X+XiXiX+X+X+X+X+X+XU.+X+X+XU.+X$X+X+X+X+X+X$X+XU.[.i.i.U.,.i.U.N.N.U.B.v.).N.9.,.@.@.9.i.q.x.x.i.i.q.U.+X<X+XiX+XU.E.+X+X+XE.i.: d.R.:.>.0.>.[ ! ! X.V V X.V | 7.V | +.X.V _ @.) W V M n V _ @.V n _ _ W n | :.i.9.| ! :.>.) @.W @.) ) C C W W :.i.q.9._ Q ) 7.[ <.t.q.<.<.<.| ] ] | ] m C m V m m _ _ _ _ <.,._ C C U _ ,.| C _ _ C _ ,._ _ C _ _ _ C _ _ _ _ _ C C k i i k m C C _ <.,._ <._ ",
"BXNXBXNXNXsXqXCXVXVXNXMXVXNXBXNXCXCXbXbXbXbXUXbXbXbXbXmXmXmXmXbXmXCXmXCXbXmXUXF.~.UXUXmXbXUXUXnXCXsXGXGXGXGXVXIXVXKXVXIXGXBXBXMXgXSXMXMXaXMXMXgXaXgX<X0X<X0XgXgXfXsXqXdXsXqXsXfXsX0XsXeX0XrXsXrXmX8X8XmXwX^.wX8X8XwXwXQ.!.wXqXmXbXqXwX;XQ.Q.9XqXwXQ.7X/.W.V., O G.F.D.F.F.C.D.D.D.D.C.D.C.D.C.D.D.D.C.S.z.z.C.C.C.z.C.C.z.z.D.z.z.C.z.D.z.j.j.D.z.C.C.C.z.C.C.C.C.z.C.L.j.M.z.z.j.z.z.L.L.z.L.L.L.z.L.z.z.z.z.z.z.z.z.f.;.f.8.f.z.z.z.z.z.z.z.z.z.8.z.z.8.;.l.-.;.;.;.8.8.l.8.l.8.;.#.;.5.;.%.#.{ ;.{ &.&.#.#.{ &.{ ( ~ ~ ( ( e d.KXaXiX2XyXiXiXiX2X+XI.iX$X+X2XkXiXaXaXlX2XiXOX>XiXOXT.I.T.OX|.I.Y.Y.[.Y.[.OXU.$XW.2X+X2XI.Y.+X$XOXI.$XiX$X+XiXOX+XOXiX2X+XiX$X$X+X+X$X+X+X+X+X+XU.U.iX+X$X+X+X+X+X+XU.+XiXiXU.[.U.B.i.U.,.i.U.N.B.U.n.x.).U.i.,.,.O.9.9.,.x.x.E.U.q.+X^.iX+XE.U.E.U.+X+X+XU.q.: G.R.<.q.9.q.[ W V _ V W ) V +.7._ +.@.) W ) ,.[ _ V C M W | @._ V ! n _ V ) :.q.9.,.W :.:.) #.! _ ) V C n V _ i.i.:.@.%.Q Q >.:.:.x.:.i.q.<._ V V | V C m m C C m V _ _ _ _ ,.<._ _ C _ _ _ m U _ C _ _ _ _ _ C _ m m _ ,.,.C C _ i k i C i C m _ _ <.<.C <.<.",
"BXmXmXgXNXNXsXCXVXNXVXCXBXNXNXnXNXmXmXbXbXbXbXbXF.UXbXmXCXmXbXbXbXCXmXCXnXbXUXF.~.UXbXbXbX~.UXnXVXNXGXJXIXGXGXLXGXPXVXGXVXBXBXBXgXSXMXMXgXMXMXgXgXMX0X<X0XgXdXdXsXeXsXNXsXrXsXrXsXrXqX0X0XrXsXnXrX9XQ.qXqX8XwXwX8X8XwX8X^.^.0XqXmXqX9X7XQ.;X8XwXwX7XQ.Q.~.V., O D.7XD.D.D.D.D.D.D.D.D.D.C.F.C.D.D.D.C.D.D.D.z.D.D.z.z.D.D.D.D.k.k.k.p.k.p.p.p.p.p.p.p.p.p.k.p.f.;.f.f.f.k.k.k.p.;.f.f.f.&.;.f.k.k.f.;.&.;.;.8.j.;.;.f.p.f.;.;.p.&.f.z.;.;.;.;.;.;.;.;.&.;.;.&.&.&.&.&.;.;.f.;.;.&.%.%.;.-.;.4.#.-.;.;.;.;.-.{ ( ( ( ~ ~ ^ Q ( e a.KXaXiX4XiXiXaXiX$X+XR.$X+X+XiXaXyXaXaXaXiXiX+X2XiX2XI.I.OXOX+XY.I.[.[.+XI.T.U.2XY.2X$X+XI.Y.$XOXOXI.2X<X+X+X2XOX+X<X+X$X$X$X$X$X+X$X$XiX$X$X+X+X+XU.$X+X+X+X+X+X+X+X+X+XiX+X+XE.[.U.x.U.i.B.U.B.n.U.B.v.[.U.x.q.,.Z ,.q.,.x.U.i.U.q.U.$XiX+X+XU.E.+X+XE.+X[.i.= E.R.>.9.x.9.| ) V _ C V _ V ,.:.V +.X.! _ | @.) ) M M V V ! +._ _ W V V M _ 9.q.7.@.M :.7.) $.V V _ V C V _ _ 9.B.] [ #.) ) 9.:.| i.>.i.:.<._ T ] _ V m C m C m V m | _ _ ,._ _ _ _ i _ _ m m C _ C _ _ _ _ _ C _ _ C _ _ <._ _ _ i k i C k i m _ _ ,.<.C _ <.",
"BXNXNXNXNXNXNXCXVXMXBXVXCXCXNXnXCXmXbXmXbXUXbXF.bXbXUXbXCXmXnXmXUXmXCXbXUXnXUXF.~.UXmXmXbX~.UXnXCXNXGXGXJXVXVXGXVXGXVXGXKXBXBXMXgXSXMXgXgXMXBXMXgXaX<XR.<X0XgXgXgXgXsXMXrX0XsXrXsXNXsX0X0X0XrXrXgX9X8XgXbXwX8X8XwXwX8X8X8XwXqXmXqXqXwX7XQ.8X~.8X9X8X;XQ.~.V.k   G.7X7XF.7XC.:XS.S.S.C.S.C.C.C.C.C.D.D.D.D.D.C.C.z.z.D.D.D.z.z.D.k.D.D.k.k.p.p.p.p.k.z.D.f.k.D.k.k.j.j.k.f.f.k.;.p.;.;.p.;.;.;.&.;.;.f.f.p.;.;.;.;.f.k.;.&.&.&.&.&.&.&.&.&.( o.^ ( ( ( &.&.&.&.&.&.( ( ( ~ ( ..( ( ( ~ ( ( [ &.#.;.;.;.;.-.;.;.;.8.;.-.-.;.{ =.e a.KXaXiXiXiXaXiXiX$X+X$X$XI.+XiXiX$XiXaXaXiXxXY.4XiX$XI.Y.OX>XOX[.I.U.Y.T.Y.Y.I.2XY.2XOX2XI.Y.iXOXOXI.<XiX+X+X$X+X+XiX+X+X$XiX+X+X$X$X$X$X+XiX+X+XU.+XiX+X+X+X+XiXU.+XU.$XiX$XE.U.[.i.i.x.B.U.x.n.B.N.U.t.I.U.v.9.,.V ,.q.| x.U.i.i.q.E.E.iX$X+XU.U.E.<X+X+X[.E.< G.R.:.9.x.9.| @._ +.C C ! X.,.>.V X.) V W ,.| @.+.W C V V ! | _ | _ V _ _ M :.7.7.#.W @.:.) @._ V W _ C V ) _ 0.N.#.+.| @.| 0.7.| i.>.i.i.q.] V | _ C m m m V m C C _ _ _ _ <._ _ _ m _ _ V C C _ U _ _ _ _ _ C _ _ m _ _ _ _ _ C i i C i k m C _ _ ,.,.U _ <.",
"VXNXNXBXNXCXCXMXBXNXNXVXCXCXMXnXCXmXbXmXbXbXbX~.F.bXbXbXmXCXnXmXnXmXmXmXbXbXUXF.7XUXbXmXbX~.UXbXCXsXGXIXIXGXGXGXBXGXGXGXGXCXSXBXaXGXBXgX0XMXGXMXMXgX0X<XQ.0XgXaXsXfXMXMXrX<X0XeXsXmXfX<X,XrXrXqXsXqX8XqXqXwXQ.8XqXwX8X^.^.8XqXbXqXqXwXQ.8XwX8XQ.7X^.7X7X!.V.k   D.UXF.7X:X7XF.C.D.S.C.S.C.D.C.S.C.C.D.D.D.D.D.C.C.D.D.C.C.C.C.z.z.C.C.C.D.D.j.k.j.C.z.C.C.z.L.L.L.z.D.C.z.C.j.z.z.k.z.f.f.f.f.f.k.z.k.k.z.;.;.f.f.p.f.f.;.;.;.p.p.&.&.&.;.p.;.&.;.f.f.f.;.;.;.;.;.&.&.&.&.&.&.&.&.#.[ +.&.#.+.&.#.#.#.&.{ &.+.{ #.&.&.{ &.{ { e d.KXiXiXaXaXiXiXiX2X+XOX$X[.+XiXaX+XiXaXkXkXaXI.2XiX[.I.[.OXOX>XR.U.I.I.+XY.I.I.OXW.yXOX2XI.I.OXOXOXU.2XiX+X+X2XOX+X2X$X$XiX$X+X$X$X$X$X$X$X$X$X+X+X+X$X+X$X+X$X+X+X+XU.$X$X+X+XU.I.E.x.x.i.U.B.x.v.U.U.B.I.I.x.x.,.Z ,.,.<.i.U.i.i.q.[.U.iX+X+XE.U.+X+XE.[.$XU.: G.R.9.9.x.9.@.) _ ) V C C X.,.,.! ) ~ V W +.%.#.@.Q M V M _ _ _ @.W V _ _ V :.7.4.:.V _ 7.Q @._ V _ n C V V _ x.v.] _ | @.} 0.q.] 0.>.<.q.q._ <.<.V m m C m C C m _ _ _ _ _ _ _ _ _ _ V _ C m C _ C _ _ _ _ _ m _ _ _ _ _ ,._ _ C i m C i i C _ C _ ,.,._ <.,.",
"VXBXgXNXNXCXVXVXNXMXCXSXCXBXCXNXCXbXbXbXbXbXbXUXbXbXmXmXbXbXnXmXCXmXCXbXUXbX7XF.~.UXUXbXbXUXUXUXCXNXVXKXIXVXGXGXMXGXKXGXGXGXSXBXBXBXSXgX<XMXGXgXBXMX0X<X0XiXgXgXfXgXsXMXpX0X0XsXsXsXsX9X9XrXNXqXqXqX8XgXwX8XQ.Q.qXqXwXwX~.~.qXqXqXwX8X7X8X8X^.8X7X7X7X~.!.F.,   G.7XF.F.D.D.D.D.D.D.D.D.D.D.D.C.C.C.C.C.D.z.D.C.C.z.z.D.D.z.D.D.z.D.k.z.k.k.f.k.k.p.f.k.k.D.D.z.k.j.k.k.k.z.k.h.j.k.f.f.f.f.;.z.f.;.;.z.z.z.z.k.;.;.;.z.f.p.;.;.;.;.;.&.p.;.;.;.;.&.;.;.;.f.;.;.8.;.;.&.;.;.;.;.#.%.#.#.;.%.;.{ &.{ { [ [ [ [ +.{ -.;.{ { { &.j d.PXaXiXiXlXiXaXiX2X+X+X2X[.[.iXyX$XaXiXiXxXaX+X<XiXI.Y.|.|.1XOXU.U.I.I.+XI.I.I.OXOXiX+XyX[.Y.OXOXOXE.2X$X+X+X2X+X+X$X+X$X$X$X+X$X$X$XiX$X$XiX+X+X+X+X$X+X+X+XiX+X+X$X+X+XiX$XU.U.[.i.i.B.q.B.U.i.v.Y.U.U.[.I.B.i.,.V @.,.,.U.U.U.i.i.+XE.iXiXE.+XU.+XE.U.U.+XE.: V.E.9.>.9.>.@._ ) ) V  .V C +.,._ X.) W Q | #.[ [ ! ~ ) M V _ X.| ) V X.U n ) q.7.#.! _ @._ +.) V V V V _ X._ 9.v.7.W | :.:.q.4.#.9.7.<.,.q._ V T V m C m C C m C _ _ C _ ,._ C _ _ _ <.m m C C C _ _ _ C _ ,._ _ ,._ ,.,._ _ C m D C m D D m m C U <.<._ _ <.",
"VXVXNXNXBXCXVXVXVXCXVXVXCXBXVXNXCXbXbXmXbXbXbXF.~.bXmXmXbX7XbXCXnXnXmXmXUXUX7XG.F.UXbXbXnXUXnXnXNXNXVXIXVXVXVXGXBXSXGXVXGXSXVXSXVXSXBXSXiXgXSXgXBXaXgX<X<XgX0XfXsXdXgXMXrX0XrXrXnXrXsXeX,XnXnXrXsXqX8XsXqXwX~.~.qXqXQ.8XwXQ.qXqXwXwX8XQ.wXwX8XQ.bX7X8X7X!.F.,   G.F.D.F.D.F.F.D.C.C.F.D.D.D.D.D.D.C.D.C.D.D.C.D.p.D.z.D.C.z.z.D.D.D.k.p.p.D.k.k.p.D.p.k.k.f.;.k.k.k.k.f.p.k.f.f.f.f.;.f.j.f.f.p.&.p.f.f.k.h.f.;.f.f.f.f.f.p.f.;.;.&.&.&.&.;.&.;.;.&.&.&.;.;.;.;.&.&.;.&.;.;.;.;.;.;.;.;.;.-.-.-.-.{ #.#.&.{ { { { { &.*.;.&.-.e d.PXiXaXaXaXaXaXaX$XY.2X2X+X$XaXiX$XkXiXiXkXkXT.iX4XI.[.[.OXOX XI.U.U.R.OXI.U.I.[.OX2X2XyXI.I.iX2X+XE.2X2X+X+X+X+XOX$X$X$X$X$X+X+XiX$XiX$XiX$X$X+XU.+X$X+X$X+X$X$X+X+XU.+XiX+X+XU.I.i.i.i.x.E.B.x.m.U.I.i.I.U.U.i.9.Z ,.,.9.I.I.U.i.i.E.+XgX+X+X+XU.+XE.+XU.+XU.2 G.E.:.9.:.:.| ! ! O.V ) V V +.+.) +.) ) ! | | ) ) _ ) X.^ W ! _ ,.@.W | ! n X.7.:.:.! ! +.) ) _ V V V V _ _ n ,.x.9.E _ 7.4.6.q.} 9.4.<.i.<.<.] T m m C C m V m C _ C _ _ _ _ _ _ _ _ _ V C C _ C _ ,._ _ _ _ _ ,._ _ _ ,._ _ _ C k C C i i C C _ _ ,.,.<.<.<.",
"BXCXMXCXCXBXMXCXVXNXNXBXVXNXNXNXmXbXbXbXbXbXbX~.~.bXbXbXbXbXnXmXnXCXCXbXUX7XUX~.F.UXUXbXbXUXUXnXNXNXVXIXIXGXGXGXMXBXSXKXSXSXSXMXBXBXBXBX0XMXSXgXBXBXgXE.0XgX<XgXNXgXdXdXrX0XeXrXsXNXsXrX9XrXnXnXqXeX8XqXqXwXQ.Q.qXmX~.8XwXQ.qXbXwXwXwX!.8XwX8XQ.7X7X7XwXF.F., O G.F.F.F.F.D.D.C.F.D.D.D.D.D.D.D.D.D.C.D.z.C.C.D.D.D.p.D.D.D.D.D.k.k.k.D.k.D.k.k.k.p.p.k.f.k.D.k.p.f.f.;.k.f.f.p.p.p.p.p.&.p.;.&.p.;.%.&.p.&.&.&.&.&.&.;.&.&.&.&.&.&...o.&.&.&...&...&.&.&.&.( ..( o.( &.( &.&.&.&.+.+.[ &.&.+.&.+.+.( ( +.&.&.&.&.[ &.{ ( ( ( e a.LXiXaXaXaXaXiXaXiXT.2XiX+X2XaXiXyXaXiXyXiXaXOX2XiX[.OX|. X[.OXE.U.I.R.+XI.U.T.Y.OX2X2XiXI.Y.2XiX<XU.2X2X[.+X2X+X$X$XiX$X$X$X+X$X$XiXiX$X$XiX$X$X+X+X$X+X$X+X$X+X+X+XE.iX+X+X+XU.E.x.9.i.x.U.U.U.i.B.N.B.I.E.x.U.9.V @.,.i.I.I.U.i.U.+XE.iX+X+XiXE.U.+X+XE.E.E.4 E.E.9.9.9.9.X.! _ ) V X.X.V @.@.! +.%.@.) @.) [ [ | [ @.) ! W ! | ,.V | ! C _ :.4.<._ V %.@.+.| V C _ n V C V >.t.0._ ) :.:.i.x.:.0.7.q.i.<.q.V V V C m m C C C m _ _ m _ C _ _ _ _ _ m _ V _ C _ _ _ _ _ _ ,._ ,.| _ _ ,.,._ _ _ D m C i D U U C C <.,.,._ <.",
"NXGXCXCXCXBXBXCXVXHXnXBXNXCXBXNXbXbXbX7XbXbXmXbXbXbXnXbXwXmXbXbXnXnXCXmXwXUXwX(.(.7XmXUXnXUXUXnXCXsXGXIXJXVXGXVXdXSXSXVXBXMXBXMXgXMXBXBXgXMXDXgXBXdXgXQ.eXiX0XgXfXsXfXdXqX0X0XsXnXHX6XnXL.NXnX9XqXqXqXqXqXwX9X7XqXnX8XwXwX8XqXbX9XbXnXF.7XwX7XF.7XbXbXF.F.F.y   D.7XF.7XF.7X7XS.:X:XS.S.C.C.C.C.C.C.C.S.S.C.C.z.D.D.D.D.z.D.D.D.k.k.D.z.D.z.D.k.k.k.k.D.z.C.D.C.z.j.D.k.j.D.z.D.C.z.D.k.z.f.f.f.k.f.f.k.;.p.p.;.&.;.;.;.p.;.p.;.&.&.&.&.;.&.o.&.&.;.p.;.&.&.( ( !  .^ ! ! .. .^ ! ! ..~ ~ ! ! ! B ! ! !  .~ ~ c B ^ ..~ ~ ^ ^ ; s.PXiXaXaXaXfXiXxXOX[.OXiX2X2XaXyX2XxXiX$XiXaXOXiXiX.X|. X XI.[.U.U.U.R.W.I.U.I.Y.OXiX2XyXI.+XiXiX$XU.iX+X+X+XiXOXOXiX$X+X$X$X+X+XiXiX$XiXiXiX+X+X+X+X$XU.iX+X$X$X+X+X+X$X+X+X+X[.E.i.,.,.i.E.U.U.m.m.B.B.[.U.v.x.,.V ,.,.i.I.I.U.q.x.+X+XiXE.$X2XE.+X[.+XE.+Xi.2 G.!.>.g.q.>._ ! ) _ V _ X._ X.:.) +.%.) @.+.| +.] #.+.| ) _ V ! X.,.W @._ C _ :.4.7._ M :.:.,.@.C C X.N N V V ,.n.B.| _ ) 7.0.t.| i.7.:.t.| :._ m V m C m C m _ C m _ _ _ _ _ ,.V V ] V V _ ,._ C _ _ _ ,.C _ ,.,._ m ,._ ,._ _ V i m C i i C _ _ _ _ ,.<._ <.",
"BXCXBXHXHXNXCXCXVXVXBXCXNXNXVXNXnXbXbXbXmXbXbXF.wXbXbXwXbXmXnXnXnXCXnXmXUXUX7XF.F.UXmXbXbXUXUXCXNXmXKXKXKXCXGXGXMXBXVXGXGXMXBXMX0XMXBXDX0XgXBXBXBXBXgXQ.0X0X0XgXsXsXfXNXeXeX0X0X5XnXnX6X9XnXrXrX0XeX0XqXbXwXqX~.qXbXqXwXwXQ.wXqXnXbXnX7X7XbX7X7X7X^.nXF.8XF.k   G.7XF.7XF.C.S.7XC.S.C.S.:XS.S.:XS.:XC.C.S.C.S.C.C.D.D.C.C.C.C.z.D.D.C.z.z.D.z.D.z.C.D.z.z.k.j.z.L.C.z.z.z.L.z.L.C.C.z.z.z.k.k.f.f.j.f.f.k.z.z.k.k.j.f.p.&.;.;.f.;.&.;.p.;.f.;.;.;.f.f.f.;.p.;.&.&.&.&.&.&.&.X.X...( &.$.&.X.( ..) )  .~ ..) ) ) ~ ~ J x c c v ; a.KXiXxXaXaXiXiXgXOX+XOX2X2XiXxXiXiXaXiXiXiXiXiXaX4X.X+X X[.Y.[.U.9.I.Y.2XI.U.I.I.$X2X2XiXI.+XiX$XiXE.$X+XE.iX+X+XiX$X2X$X$X$X+X+XiXiXiXiX$X$X$X+X+X+X$X+XiX+XiX+X$X+XU.$XE.+X+X[.U.q.,.i.x.i.U.U.B.I.I.U.[.I.v.q.x.,.,.,.i.I.I.U.i.i.[.+XgXU.+X$X+X[.U.+X[.$Xi.- E.Q.q.9.7.>.| ) @.@.V O.X.X.,.>.+.X.,.+.7.+._ #.+.| | | [ | _ ! | %._ @._ V W >.7.#.+.W q.7.$.@.n C _ C N V V %.N.n.@.| W +.i.v.4.i.q.7.v.| :._ m m C C C C C C m m _ C _ _ _ | | V T _ T _ _ _ _ _ _ _ _ _ _ <.,.,._ ,.| _ _ _ _ i D i k i _ _ _ _ ,.<.,.T _ ",
"CXMXNXCXNXNXNXBXNXNXCXBXHXCXBXNXbXmXbXbXmXmXbXbXwXbXbX8XwXnXnXnXnXCXCXnXwXwXUXF./.UXmXbXbXUX7XCXNXsXVXIXIXBXGXSXBXMXVXPXBXBXMXdXgXBXgXBXgXMXBXBXBXdXgXQ.0XgX0XiXfXsXdXdXsXeX4X0XnXHXHXL.rX9XrXnXqX0X0XqXnX8XqX8XqXnX7XwX8XQ.9XqXbXbXbX7X9XwX7X7XbXF.bXF.F.F.,   G.7X:XF.F.S.S.C.C.C.S.S.C.S.C.C.C.C.C.S.C.C.C.C.C.C.C.C.C.C.C.L.z.C.z.D.z.D.z.C.z.C.j.L.D.k.z.j.f.z.C.z.D.z.j.z.z.z.C.z.k.k.f.f.;.p.p.%.;.j.f.f.;.;.k.f.f.k.k.k.k.z.k.f.;.p.;.;.;.p.;.;.;.;.;.&.;.;.;.f.;.;.#.&.&.( &.( +.&.( +.+.~ ( +.( +.&.&.( ~  .^ ^ c ^ w d.KXiXiXiXyX>X2XiXiX+X2XiXOXiXxXyXiXaXiXiXaXiXfXaX2X[. X X[.'.|.E.x.I.I.$XI.I.+XI.OXiXOXiXI.I.iXiXiXU.iXiX+XiXiX$X$X$X$X+X$X$X+X+XiXiXiXiXiX$X$XiX+X+X$X+XiX+X+X$X+X$X+X$X+X+X+X+XU.i.q.i.i.U.U.I.m.x.I.N.[.N.m.q.9.,.,.q.9.I.U.B.i.U.+X+XiX[.[.iXE.E.[.+X+X+XE.: E.Q.>.h.7.#.+._ +.@._ ! @.,.,.>.[ ) +.@.7.:.+.:.+.| [ :.+.+.) V | ,.| | W ! V :.9.9.>._ q.7.,.,.V C O.C D n _ @.I.x.) +.Q +.i.v.9.i.7.7.v.#.:.<.C i i m m C m m m _ _ m _ _ _ ] V <.V V V ] _ C _ _ _ _ ,._ <.,._ | | ,.<.| _ C _ D m C D i C C C _ ,._ ,.,._ ",
"VXnXHXCXBXNXBXnXNXSXSXCXCXNXCXCXbXbXmXbXbXmXbXbXbXbX8X8XwXNXqXnXnXNXnXnXwXUXUX/.F.UXmXmXbX~.UXnXNXNXGXJXJXSXSXCXBXBXBXKXBXdXMXdXaXVXgXgXgXaXBXBXBXBXdXQ.gX0XgXgXsXdXdXNXrXeXeX9XnXnXnXrX9X9X9XnXqXqX0XqXmXwXqX8XqXbX7XwX8XQ.~.bXbX9X8X8X8X8XF.7X7XbXbXF.F.F.k   G.UXS.F.:XS.:XS.:XC.S.S.S.S.S.S.C.C.S.S.C.S.C.C.z.:XC.C.C.C.C.C.z.D.C.z.z.D.z.C.D.C.z.j.k.z.j.z.z.D.z.j.z.;.k.j.k.z.D.z.z.p.f.k.j.f.;.p.f.;.f.k.k.z.;.f.k.j.j.;.k.;.z.f.f.;.;.p.;.&.&.;.&.&.&.;.;.&.&.&.;.&.&.&.[ &.&.+.&.&.+.&.+.+.) ) ( ) ~ ) ^ !  .^ ^ J J 6 a.LXiXiXiXiXOXOXiXiX[.OXiX2XiXaX4X2XiXiXiXaXiXaXpXiX XOX[.[.|.[.U.U.I.I.2XI.I.Y.I.OXiX2XiXI.OXyX+X2XE.$X$X+X+XiX$X2X+X2XiX$X$XiX$XiXiXiXyX$X$X+X+XiX+XiXU.iX$X+X+X$X+X+X+X+X+X<XU.U.U.d.i.i.E.U.I.I.U.I.U.{.N.x.,.9.,.,.x.i.I.R.U.x.E.+X<XiX[.I.OX2X+X+X+XE.E.U.- G.Q.q.8.9.>.X.Z ) @.O.V | :.,.>.@.) ) | >.>.#.:.| +.| :.:.,.+.V | :.| ,._ _ n ) i.8.>.X.>.k.#.,.V C ) V C C V ,.U.x.| @.! $.0.B.i.0.7.9.n.#.#.<.C i m C m m C C C C _ _ V _ _ V ] V m m V | _ _ _ _ _ _ _ _ ,.,._ | ,.,._ | V C _ i i m i k U _ _ _ ,.<.<._ <.",
"HXnXVXHXNXCXnXNXNXNXVXBXNXSXNXnX7XbXbXbXmXbXbXbXnXnXnX7XqXqXnXwXnXmXCXnXUXUX~./.F.UXmXbXbX~.UXnXNXMXIXIXKXBXBXMXBXxXGXKXBXxXMXgXgXxXgXMXgXBXBXBXBXgXfX<XgXgXqXsXsXfXMXfXeX4X0XrXrXnXL.nX9X9XtXnXqXeX0XqXmXmXqXqXqXwX7X8X8X!.Q.qXnXnXS.nXbX7XF.7X7X~.7X;XF.F.y   G.7XS.S.:XC.S.S.C.C.C.:XC.S.C.S.C.z.C.C.C.S.S.:X:XC.:XL.C.:XS.S.S.L.C.S.C.C.C.C.z.z.z.z.k.j.C.C.L.C.C.j.j.C.C.z.z.z.D.k.f.f.k.k.j.h.j.z.k.z.j.f.z.z.;.f.8.8.z.k.k.z.f.;.;.&.&.p.&.;.;.k.f.;.k.f.;.k.f.;.f.f.7.;.%.%.7.%.%.%.#.+.[ X.[ +.+...~ ! ) ..~ X.~ ^ B w s.KXiXdXiX2XOXyXiX2XR.+XiXiXaXaX2XyXiX2XiXlXiXaXpXiXoX+X|.[. X[.I.U.Y.I.2XY.Y.Y.I.iXiX2XiXI.T.iX2XiXE.$XiX+XiX$X$X$X+XiX$X$X$XiX$XiXiXiXiXiX+XiXiX$X+X$X+XiX$XiXiXiX+X+X+X+XOX+X+XU.U.,.i.U.U.E.U.B.B.Y.).[.N.0.,.i.,.,.E.i.U.I.I.B.U.+XiXiXU.E.+XiXE.U.+X+XU.E.2 V./.q.h.9.7.@.V  .| O.V @.,.%.>.%._ +.@.>.g.:.@.[ | @.>.:.:.| V Q | :.@.) _ V _ 9.g.q.! %.9.:.,.X.C V O.V N V X.Y.x.+.X._ ,.9.v.0.>.q.7.v.<.:.<.i i C _ C m C U C U C _ _ _ _ <.V V T V V <.V _ ,._ C _ ,._ q.<.,.,._ ,.| <.V C _ k C C D k _ C _ _ ,._ ,.<._ ",
"CXnXCXNXNXHXHXnXHXnXMXNXNXVXCXnXbXbXbXbXmXbXbXmXbXmXnXbXbXbXnXnXnXnXnXbX7XUXF.F./.UXbXnXbX~.UXnXqXMXKXGXJXBXBXBXBXBXBXBXSXdXMXgXgXBXgXgXgXMXxXBXPXMXgX0XsXsX0XeXMXfXNXdX0X0X0X0XrXnXnXHXnX7X7X7XqXqXwX<XqXsXqXqXqXqXQ.7X~.Q.Q.qX8XF.F.nX7X7XF.9X7XbX7X7XF.C.k O G.7X:X:X:XS.:XC.S.:XS.C.S.C.C.C.C.C.C.:XC.C.z.C.S.C.C.C.C.C.C.C.L.C.C.z.z.z.C.C.L.C.C.D.z.z.f.k.f.k.j.D.k.k.j.z.z.k.f.;.f.z.z.k.h.j.j.k.z.C.z.j.f.k.k.z.k.f.8.p.;.f.;.f.f.;.8.;.f.8.f.z.z.;.z.f.h.8.;.;.;.;.&.&.&.%.&.%.%.%.&.#.&.+.+.+.+.( +.~ ~ ( [ ! ^ !  .w a.KXyXpXiXyXOXiX$X2X+X+XaX2XaXfX$X2XiXyXiXdXiXaXuX2X#X X[.OX X|.I.U.I.Y.+XI.+X+XI.2X2X$XiXY.OXiXiX+XE.iXiX+X$XiX$XiX+X+X+XiX$XiX+XiXaXiXiX+XiX+X+XiX+XiXE.iX+X+X$X+X+X+XiX+X+X+XU.U.U.d.i.x.U.[.I.B.v.[.Y.[.N.0.,.9.,.x.i.x.I.U.I.i.x.iX2XiX[.U.<XiX+X+XU.+XE.U.: V.Q.9.x.0.:.+.V ) ! X.! ) :.+.:.@.) ) | #.q.:.:.| [ } q.@.&.%.W V ! :.:.+._ ! V :.7.7._ +.g.$.| ,.C V X.V C V @.x.q.@.) | :.q.v.v.7.9.q.0.9.:._ C i m _ C _ _ C i C _ C _ _ _ <.V V V m V V ] _ _ _ _ ,._ _ ,._ ,.<.| q.,.,.,._ _ k D m i k m _ _ _ ,._ ,.<._ ",
"HXCXBXBXNXNXBXNXNXnXNXNXCXCXnXnXbXbXmXmXmXbXbXmXmXNXbXbXnXmXnXnXnXnXnXbX~.UX~.F.~.bXbXnXUX7XUXnXqXCXKXKXKXVXMXSXBXdXBXBXBXBXMXMXBXBXgXMXiXBXBXBXBXMXgX0XsXfX,XfXMXsXfXfX0X4X,X,X6XrXrXnX9X9X7X7X0X0XwXQ.rXNXsXqXqX9XQ.Q.8X!.Q.qXnXS.nX8X9X7XF.7XbX7X7X7XF.V.y   G.7X:XS.S.:X:X:X:XC.S.S.C.C.C.C.C.C.C.C.C.C.z.C.C.C.z.C.z.z.z.C.D.k.D.z.k.k.D.z.k.z.f.f.j.j.z.k.f.f.;.;.f.f.f.f.k.k.k.j.k.f.k.f.f.f.&.;.;.k.f.z.p.;.&.f.f.f.f.f.f.f.f.f.f.;.;.;.;.p.&.&.p.p.p.p.o.&.&.f.;.f.;.f.k.f.;.%.%.&.+.&.&.+.+.+.[ ~ ) +.&.#.+.+.( ^ ^ e s.KXiXiXiX$X$XaX2XiXY.OXiXiXiX2XiXOXiX2XiXfX4XaXiX4X{.OX[.>XOX[.E.I.[.Y.OXI.T.I.R.iX2X2XiXI.OXiXiX$X+X+X+X+XiXiXiXiX+X+X+X$X+XiX$XiXiXiXiX+X$X$X+X$X+X+X+XiX+X$X+XiX+X+X+X+X+X+XE.U.U.i.d.i.U.+XN.B.v.'.N.[.n.9.,.,.,.i.i.i.[.U.I.x.E.$XiX2X+X[.+XiX2X+X+X[.+XU.: E.Q.q.h.7.:.) V ) _  .C +.>.%.+.) %.) +.@.>.7.| +.| ,.:.:.| ,.) M ! @.| | X.! M :.7.9.X.@.h.%.,.,.V V X.V C C ) ,.>.,.! :.,.i.B.v.9.7.#.t.9.:._ m i m C _ U C _ i _ C _ _ _ C T V V V T V | V _ _ _ _ _ _ _ ,.<.,.| ,.,.,.<._ m _ i C C D D _ C _ _ ,._ <._ _ ",
"CXSXVXCXNXHXNXnXBXNXNXBXNXCXmX7X7XmXbXbXbX7XbXNXNXmXmXnXnXnXNXnXnXnXnXbX~.~.F.G.UXmXUXbXbXwXUXnXNXmXIXVXKXBXVXGXBXMXBXSXBXBXMXBXBXMXgXgXgXBXBXBXBXBXeX<XgX0X9XsXfXNXsXsX0X0X;XeXrX9X6X9XnX9X7X:X9XqX9X8XqXmXmX0XqX8XQ.Q.Q.Q.wX0XnXnXF.nXwX8X7X7XwXF.8X8X!.D.k O G.7X7X:XS.:XC.L.:X:X:X:X:X:XC.S.C.S.S.C.C.C.C.C.C.C.L.C.C.C.C.C.C.L.S.L.C.L.C.z.D.L.C.L.C.C.C.z.C.z.j.C.z.z.C.C.z.z.z.z.C.z.z.z.j.z.j.k.j.z.f.f.k.f.k.z.f.k.;.;.;.;.;.k.k.;.p.&....... .v  .J J  . .........+.%.f.;.%.%.7.f.7.7.;.%.;.&.%.#.#.#.%.%.%.#.[ &...t d.KX4XaXiX2XiXiXiXiXY.iXiX2XiX+XiXOXiX2X2XaXiXiXiXpXOXOX[.OXOX|.I.[.[.+XOXY.+XY.I.iXiX2X2XI.+XiXOX+X+X$X$X+XiXiXiX+XiX+X$X$X$XiXiXiXiXiXiX+X$XiX+XiX+XiX+XiXiX+X$XiX2XE.+X+X$X$X+XU.U.U.i.U.E.U.B.I.v.[.'.[.n.x.,.g.g.x.U.x.E.+XU.B.U.iXE.2X$X[.+X<XiX+XU.[.+XE.2 d.Q.i.h.7.7.) V +.!  .C X.9.&.%.+.,.+.X.:.7.9.#.#.) ,.:.,.+.@.+.V ! ) ,.+.+.Q V %.9.>.+.X.9.@.,.,.O.V _ V C V V >.i.,.! ,.,.>.v.x.q.7.} i.0.-._ m i i _ _ _ C _ C C V _ _ _ _ V <.m V V ] V V _ _ _ ,.,.<._ <.,.<.| ,.q.,._ V C _ k C C i D D C _ _ ,._ _ ,.<.",
"NXSXHXVXCXHXnXnXnXnXSXCXCXNXnXF.bXbXbXbXbXbXbXNXCXbXbXnXnXnXNXNXnXmXnXbX~.~.G./.UXbXbXmXbXUXbXbXnXnXIXGXGXVXGXGXVXdXSXBXBXBXxXBXAXgXaXMX0XBXMXBXSXBXgXgXgX0X<XgXMXsXfXqX,X,X;X0X0X9X9X9X7X7X7X7X!.qX8X9XwXrXqXqXqX8XQ.Q.8X!.8XwXnXF.nXnXbXF.S.bX7XS.bX8XS.F.z   G.7XF.7X:XS.:X:XS.S.:X:XC.:XS.S.L.S.S.S.L.S.:XL.L.L.S.L.:XL.S.L.L.S.L.L.L.S.L.S.L.C.L.C.C.C.C.z.z.C.C.L.C.L.L.C.M.L.M.L.C.M.C.C.z.z.z.z.z.z.z.k.z.;.k.z.z.f.j.k.f.f.f.z.z.z.k.f.f.p.p.p.p.p.p.o.o.&.p.o.o.a...&.&.X.......~ ..~ +.+.+.X.( X.( +.&.$.&.#.&.) ..p a.KX2XaXOXOXiXiX2X2XY.iXiX$XiX$XiXOXaX2XOXaXiXiXaXiX2X[.'.[. X[.[.|.Y.[.OX[.|.[.|.2X2X1XiXI.[.iXiX+X+XiX2XiX2XiX2X2X2X+X+XiX+XiX$XiXiX$XiX+X$X$X$XiX+XiX+XiX+XiX$X$X$X+X$X+XOX$XI.I.I.x.9.9.U.[.B.B.B.[.I.[.v.x.,.9.9.x.U.9.Y.+XU.i.x.iXOXiX$XU.+X$XiX+XE.+X+XU.2 d.Q.i.i.i.:.) V +.) ! V X.q.+.@.@.9.@.X.:.g.9.#.@.+.:.@.,.+.@.,.) V _ ,.@.+.) M ,.:.9.X.X.>.) ,.,.) _ V V V C C >.B.,.V ,.@.9.B.B.:.h.#.0.x.7.W n i n V W ! W C V T V | | | V V | V V V T V | _ W _ @.,.| _ | ,.,.| q.q.q.| V U V k C C D C C _ _ _ ,._ <.,.,.",
"NXSXNXCXHXNXnXCXCXMXNXHXCXNXbXbXmXbXbXbXF.bXmXnXNXwX~.nXnXNXNXNXnXCXnXbXF.~.G.F.bXmXbXbXbXUXbXmXnXNXIXJXJXGXGXGXSXMXSXBXxXBXMXBXBXBXgXBXgXBXgXSXBXBXiXgXgX<X<XgXHXsXeXeX,X,XeXeX0X9X9X,X7XS.7X:XS.Q.7X8XqXNXqXqXqXQ.Q.!.8XW.8X0XS.nXS.9XnX9XF.9XnXF.S.bXF.S.k   G.7X:X:X:X7X:X7X:X:X:XS.:X:X:XS.:XL.L.:X:X:XL.S.S.S.L.L.S.L.L.L.L.L.L.L.L.L.L.L.L.L.C.L.L.L.L.L.C.z.M.C.z.L.C.L.L.C.M.M.M.L.M.z.z.z.z.j.z.z.z.z.8.z.k.f.f.f.f.;.f.f.;.p.;.p.;.;.;.;.&.&.;.&.;.;.;.;.;.;.;.;.;.;.&.%.;.%.;.&.%.&.%.%.&.&.X.)  .! ^ ~ ! ! ^ c v w s.GX2XiXOX$XiXaX<X2X+X+X$XiXiXiXOX+XaXyX2XaXiXiXdXiXOXOXI.I. XI.|.OX+X[.OX[.[.I.[.iX2X1XaXI.[.iX<XE.+X$XiX$XiXiX2X$X+X+X+X+XiXiX$XiXiXiXiX+X$XiX+XiX$X+XiXiXiX+X2XiX$XY.$XY.$XOX[.I.U.x.9.9.I.+XB.B.x.[.I.I.n.x.>.s.9.x.U.>.I.+XU.i.x.iX<XiX$XE.E.iX2X2XOX+X+XE.8 E.Q.x.m.9.>.X.V +.V ! V @.>.) +.@.,.+.) >.7.9.>.%.) :.,.+._ @.@.,.! M ) :.@.@.M _ :.>.@._ ,._ ,.X.X.X.) V N C C g.B.,.V | ) x.x.x.7.h.:.i.i.:.W n m C V n _ ) C m V m V ,.O.| ,._ | | _ V | V ) _ +.,.| _ T _ | | | ,.,.,.<.| C _ C C C C i m _ _ ,.,._ _ <._ ",
"NXCXHXHXnXNXHXCXnXCXNXNXNXnXF.7XmXbXbXbXwXUXmXbXbXbX8XqXqXNXNXNXnXNXnXUX~.~.F.F.bXmXmXbXbXbXbXbXNXNXGXKXGXGXSXSXSXMXBXSXMXgXBXPXBXBXgXgXiXBXgXBXBXMXgXgXgX<X<XgXMXsXeX0X;X,XrXeX8XbXQ.F.7XQ.Q.Q.F.!.Q.9XqXsX9XwX0X~.!.!.8X;XwX8XbX9XnXnXnXS.S.9XbX8XF.8XF.S.y   D.7XC.7XF.7XS.:X:XS.C.S.:XS.S.:X:XL.S.L.:XL.L.:XS.C.C.C.L.S.C.C.C.C.S.S.z.L.C.C.S.C.M.z.z.C.C.C.z.C.C.z.z.z.C.z.C.z.C.z.C.C.C.z.f.;.f.f.f.p.p.f.&.p.&.&.&.;.&.;.;.&.;.;.;.;.;.f.;.f.f.;.;.;.;.f.f.8.8.8.f.f.f.;.;.;.;.%.;.;.;.;.%.{ &.) ( ! ~  ......... .^ ^ e a.GX2X4X+X2XiXaX2X2XY.+X2XiXiXiXOXOXaXiXiXiX2XaXlXiXOX[.n.[.'.I.Y.OX[.OXOX|.[.B.|.iX2X3XaX`.U.2XiX+X+X$XiXiXiXiXiX+X$X$X+X+X+XiX$X$XiX$XiX$XiX$X$X$XiX$XiX+X+X$X$X2X$X+XOXY.$XOXU.[.U.i.9.x.U.T.x.B.B.[.B.I.B.x.,.,.9.x.B.i.Y.+Xi.U.i.iXiXiXOXU.U.iXiXOX+X+X+XU.8 E.~.i.v.h.:.+.V ,.V V V +.:.+.,.[ %.%._ >.>.7.>.:._ @.>.@.W ! @.@.X.C _ @.+.@.V ! :.>.@._ X._ ,.X.,.X.V V N C V h.x.,.C $.V x.0.9.:.7.:.0.v.@.E n n n V n V _ V m V V _ _ | ,.V | V | V | V | _ | | | | ,._ | _ | ,.<.,.i.,._ C V C C C C C C _ _ _ ,._ _ ,.,.",
"CXNXnXCXNXnXSXnXSXCXnXnXNXnXnXbXmXmXbXbX7XbXnX7XqXbX8XnXqXnXnXNXNXNXnXbX~.UXG.F.bXbXbXbXbX~.bXbXnXnXKXJXGXGXVXGXBXdXFXBXMXgXBXBXAXBXgXMXgXBXgXBXBXMXiXgXgX<X0XaXdXsX,X0X;XeXqX0X~.~.F.F.F.Q.F.~.F.!.;X;XqXNXqX7XQ.9X!.Q.9XQ.0X9XS.nXS.9X9XnXF.F.9XS.9X9X7XD.k   G.7XD.C.C.D.D.D.D.D.C.C.C.S.C.C.S.C.C.C.:X:XS.S.L.S.D.C.C.C.C.C.L.C.S.L.C.L.C.C.C.C.C.z.z.z.k.k.k.D.C.C.C.C.C.L.C.z.z.z.;.;.p.&.p.o.p.&.$.&.p.&.;.p.p.f.p.f.z.f.f.z.f.z.j.k.j.z.k.;.z.j.z.z.z.z.z.j.j.f.;.f.f.;.f.;.%.;.&.;.f.f.;.#.&.#.&.&.+.+.&.( ( ~ ) .. .e d.KX2XOXOXiXaXaXOX$XY.+XiXiXlXaX>X$XiXpXaXiX2XiXkXaX$X[.M.I.[.I.I.[.Y.|.OXOXY.I.[.2X2XOXaX+XI.iXiXiX+X+XiXiX2XiX$XiX+X$X+X+X$XiXiX$XiX$XiX$X$X$X+XiX$XiXiX+XiX$X$X$X$XI.$X+X2XOXU.I.E.U.,.U.I.T.v.B.v.[.U.n.I.c.,.,.,.x.B.i.[.OXi.E.i.2XiXiX<XU.+XiX<XiX+X+X[.U.8 d.Q.i.x.x.9.+.X.@.O.C V %.%._ $.@.| X.X.7.7.9.7.,._ %.7.$.) _ +.@.@.V V +.,.@.V ! :.g.@.V _ @.,._ O._ V C C N V s.x.,.C ) _ m.q.7.:.7.| 0.x.,.W M n V n n V _ _ T n I _ _ | X.V V | | _ | V V M ) X.| :.:._ @._ | <.| ,.q.<.| _ _ C C C D _ C _ V _ ,.,.,.<._ ",
"NXNXNXGXVXHXnXrXNXNXNXHXnXbX~.bXmXbXwXbXUXbXnXbXbXqXnXnXrXnXNXmXCXCXNXF.UX7XF.~.bXbXbXbXbX~.bXNXnXNXGXIXVXGXGXGXBXBXSXBXdXgXMXSXBXBXgXBXgXBXgXMXMXBX0XgXgX<X0XgXdXrX0X,X,X0XwX!.F.F.G.G.G.(.F.7XF.!.~.7XgXqXqX8XQ.8X!.Q.8X;X9X8XnX9X8X9X9XS.F.nX7X7X7X8X;XV.y   p.7X7X:X:XS.S.D.C.D.D.C.D.D.C.z.D.z.D.D.z.D.D.D.D.D.D.D.D.z.D.z.C.C.C.C.D.z.z.D.k.k.z.C.D.k.k.k.p.;.k.;.p.k.z.z.z.f.;.;.p.f.;.;.f.f.f.k.f.f.f.j.z.f.z.z.f.8.f.8.f.z.j.z.z.z.z.z.8.z.;.f.;.k.f.j.k.f.&.&.;.f.8.f.f.h.;.f.f.f.h.f.f.;.;.;.#.&.#.) ..^ .... .J  .e a.KX2XiX2XiXaXaX$X>X+X2XiXiXlXaX1XiXpXkXiX2XyXiXaXaX#XY.N.N.[.m.I.T.I.Y.OXOXY.[.[.OX4X1XuX$X[.iXiX<X+X+XiXiXiXiXiX$X$X$X+X+X$XiX$XiX$X$XiX$XiX$X+XiXiXiX$X$X+XiX2X2X+XI.+XY.$X+XU.Y.I.i.g.U.I.OXv.I.x.Y.I.I.B.i.,.,.,.x.B.x.Y.OXB.B.B.$XiXiXiXU.+X2XOXiX+X+X+XE.4 E.Q.i.0.x.h.%.X.@. .C V @.%.%.,.O.) @.%.7.9.>.>.>.) +.>.,.| ! @.:.+.X.V X.>.@._ ! @.9.,.C +.X.,.| ,.V O.V C V V s.x.,.C @.X.x.>.>.9.+.+.i.0.[ V V m _ M M V W W V I m _ _ _ +.V ] X.,.V ,.| V ) ) ) | @.<.| _ _ | <.| ,.q.| ,._ _ C C m C C V _ _ ,.q.,.<.,._ ",
"HXSXVXSXCXnXnXnXNXnXCXNXbX7XUXbXmXbXbXbXF.bXnXnXqXnXnXqXnXNXnXNXnXnXnXbX~.UX~.~.bXbXbXbXbX~.bXbXnXHXJXJXVXGXSXSXBXBXSXSXdX0XdXSXSXBXgXBXiXBXgXMXMXxX<XgXiX0XgXaXdXsX<X<X0XqX<XQ.F.(.G.G.G.G.G.~.!.;X;X8XqXqXqX8X7X<XW.7X8X8XqX9XnXS.9XnXnXnXS.nX9X7X7X8XF.C.y   G.7XS.7X:X:X:X:X:XS.S.C.S.S.S.C.C.D.z.z.C.C.C.z.z.D.D.z.D.D.D.z.k.z.k.k.p.p.p.f.f.k.k.k.;.k.f.f.z.z.D.z.z.z.z.z.z.z.z.z.f.z.z.z.z.z.z.l.z.z.h.h.z.f.f.;.z.z.z.8.z.j.8.f.k.z.z.8.f.f.f.;.;.;.;.&.&.&.&.;.;.f.f.8.;.f.;.;.&.[ [ &.&.[ ..&.+.~ ^ ! ^ J  .v v x J e ,.KXOXiXyXaXdXkXOX$X2X2XiXiXfXiX3XaXlXlXpXiXyXuXuXiX+X).I.I.[.N.U.I.I.U.[. X[.[.I.[.2XOXiX>XOX4XiXiXU.+X$XiXiXiX$X$X+X+X+X+X$XiXiXiXiX$XiX$XiX+X+XiX+XiXiX$XE.iXOX2X+XI.+X+X2X+XU.I.I.9.x.I.U.T.B.B.U.Y.[.[.U.x.,.O.,.I.B.i.I.{.i.B.B.iXiXiX+XU.OX2XOX2X+XE.+XU.4 V.8Xv.v.h.9.+.X.@.X.N V @.@.$.:.) V +.,.:.9.7.4.:.) +.>.,.@.! X.>.,.X.V ) :.,._ X.,.,.@.C @.@.O._ ,.X._ V S V _ >.x.,.C O.@.B.9.9.0.[ @.0.v.| m I V _ _ _ n _ V n V V ! W +.,.V _ | ,._ | | V @.X.) @._ @.| _ ] <.,.| ,.q.,.V _ _ D C C V V C V _ ,.q.,._ ,.,.",
"VXGXCXVXSXnXNXNXNXNXCXnXbXF.UXbXbXbXbXbX7XnXnXwXnXNXNXnXqXnXNXnXNXnXbXF.UX~.F.(.7XbXbX^.bXUXwXnXqXNXIXGXVXSXGXGXBXdXPXBXMXgXgXBXBXBXgXaXgXBXgXBXgXBX0XgX0X0XgXgXdX0X<X=X9XqX;XQ.UXF.(.(.G.G.(.~.;X7X;X8XqX9XqX8XQ.9XW.Q.8X7X0X8XnXnX9XS.S.9XS.S.9X8X7X9XF.V.y   D.7X:X:X:X:X:XS.:X:X:X:X:XC.S.C.C.C.S.S.L.S.L.S.C.C.z.C.C.z.D.z.j.z.z.j.z.z.C.C.z.D.z.z.C.z.z.z.C.z.z.C.z.z.C.z.z.z.z.z.z.z.z.z.z.z.z.z.m.z.z.m.z.k.;.;.f.z.z.z.8.f.;.;.;.&.&.&.&.&.&.p.%.%.%.%.p.;.;.f.;.&.&.p.;.$.&.;.;.&.&.&.( ..! ! .. . .~ .. .v J v c  .e d.PX<XiXiXiXaXaXOX$X2XiXiXiXaX2XiXkXaXlXuXiXiXkXuX2X XN.N.J.[.N.B.U.I.B.Y.[.'.[.I.B.OX2X4X2XOX2XiXiXE.+XiX$XiXiXiX+X+X$X$X+XiX+X$XiXiX$XyX$X$X+X+XiX$XiX+X+X+X+X$X$XI.I.+XT.2X+Xu.[.I.x.i.Y.Y.[.i.x.i.T.[.I.I.9.O.O.,.c.U.i.I.+Xi.U.U.2X2XiXOXR.2XOXiX<XiX[.+XU.8 V.<Xv.v.x.7.) _ @.X.V ! ,.+.@.>.) V %.>.>.,.7.9.:.X.[ :.,.@.V @.>.,.@.O.! %.@.+.,.,.,.O.V @.@.| X.@.V V V C V C >.x.,.C O.@.B.g.x.x.%.+.0.x.) T _ _ _ V _ _ _ W _ n _ _ _ | X.T _ _ X.| X._ | | ,.,.| | @.| | ,.<.| | ,.i.q.V _ _ D C C V _ C _ ,._ ,.,._ <.,.",
"VXGXSXCXMXNXMXNXNXCXnXnXwXbXbXbXbXwXnXbXF.nXnXnXnXBXnXNXNXnXnXNXNXnXbXUXUXbXF.~.bXbXbX^.bX^.wXmX;XNXJXIXSXVXGXGXBXMXBXBXdXgXdXSXSXBXBXMXBXBXgXaXgXdX0XiX0XgXgXaXNXeX<X<XgXeX8XQ.bX(.(.(.G.G.~.~.:X7XwXqXqXqX9X9XQ.<XQ.8X;X8XqX8XnXL.9X9XnX9XS.nX7X9X7X7X;XV.k   G.7XS.:XS.:X:X:XS.:X:XC.:XC.:XC.L.S.:XL.S.S.L.L.L.C.S.L.S.L.S.S.C.C.C.C.C.C.z.C.C.z.C.M.C.C.C.C.C.C.z.z.z.C.z.z.z.C.C.z.z.z.f.z.z.z.l.h.z.z.z.l.z.z.j.z.z.z.k.f.f.;.;.p.;.p.;.&.%.&.;.;.;.f.;.f.;.p.&.&.o.&.&.&.&...~  ...( ..( ! ..&.X.( ( .... . .^  . .J ^ e a.KXiXiXiXiXaXiXOX$X+XiXiXiXaX2XiXaXlXkXiXuXkXaXiX$X].[.J.[.].J.x.x.x.B.[.|.[.[.B.N.1XOXiX$X2XiX<X$X+X+XiXiXiXiXiX+X+X+X$X+XiX+X$XiXiXiX$X$XiX+X$XiX$X+XiX+X+X+X$XiXU.+XOX+X$XOXx.Y.I.9.i.Y.Y.+XB.B.U.Y.OXI.B.h.@.,.,.x.m.x.I.|.U.i.E.2X<XiXiX+X[.iX+XiX2X+X+XE.4 E.wXv.x.0.h.[ X.+.O.! V >.,.%.9.V ! >.f.>.@.g.9.>.) @.>.,.| n | >.,.@._ V :.@.+.q.7.s.@.n @.X.V ,.,.V V C C C V s.Z.,.V X.,.B.B.h.0.g.+.q.i.+.V _ m _ _ _ _ _ _ _ V W _ _ +._ V T _ | X._ | V +.>.:.,.| ,.>.<.q.<.,.,.q.q.q.V _ V k C C V C C _ _ ,.q.,.<.,.q.",
"CXSXHXNXnXNXHXCXHXHXnXbX7X7XbXbXbXnXwX~.F.NXNXnXnXnXnXHXNXnXnXqXnXnXbXbXbX~.G./.bXbXwX^.bXbX~.bX8XmXKXGXGXBXGXGXSXBXGXBXMXgXgXMXBXBXMXdXdXBXgXMXgXgX0XsX0X0XgXgXfX0X<X0XsXqX9XqXbX~.~.F./.~.9XQ.;X9XmXqX9X9X8X9X;X9XQ.8X8X8X0X9XqXwX9X9X9X8XW.wX9XqX8X<XW.V.z   G.F.F.:XF.S.S.S.S.7XS.:XS.C.S.S.:X:X:X:X.X:X.X:XL.L.L.9XL.L.L.L.C.L.L.L.C.C.C.C.L.C.M.L.L.C.L.L.L.C.C.z.C.z.z.z.z.M.z.z.z.z.z.z.z.j.z.j.f.z.f.8.f.;.p.&.&.p.&.p.&.;.&.;.p.;.;.;.;.k.f.f.f.f.;.%.&.o...&.o.o.&.o.!  . .c ^ ( X.X.&.( ..~  .^  . .^ ) ..~ ~ ^ ^ j a.KXiXiXaXiXiXiX2XOX$XiXiXlXiX2XuXxXxXxXyXuXkXaX2X+X[.[.J.{.{.).U.x.9.B.Y.[.|..XE.U.+XiXiXOX$X2XiXiX+X+XiXiXiXiX+X+X+X$X$X$XiX+X$XiXiXiXyX$X$X$X$XiX$X$X$X$XI.+X+X$XI.+X+X$X$XOXU.Y.I.i.9.R.+XY.m.Y.x.[.[.[.m.i.,.,.,.i.x.i.I.W.i.U.E.iXiXiXiXI.[.2XOXiXiX+X[.E.2 E.^.B.M.x.9.@. . .@.O.! ,.X.&.g.! V 9.f.,.@.g.9.,.+.%.g.>._ V X.>.>.,.O.V @.>.,.9.x.:.@.C +._ | ,.X.V C S C V C 9.E.,.V _ ,.c.v.x.9.0.| 9.0.| _ ` _ _ _ ) _ _ X._ | ) ) X.+._ ! _ ! _ | ,._ @.:.q.:.<.:.:.| :.,.q.q.,.q.q.<.V _ _ i C C V U D _ _ ,.q.,.,.,.q.",
"SXNXNXnXnXnXNXCXNXCXnX7XUXF.bXmXnXbXbX~.nXnXCXNXNXNXNXnXNXnXnXwXnXnXbX7XbX~.G.Q.bXbXwXwXbXUX8XnXqXrXJXIXSXNXSXGXGXCXGXSXMXdXsXBXBXBXMXBXMXMXgXMXiXgX0X0X0XiXfXgXfX,X<X<XsXqX0XsX8XbXUX~.8X;X7X;X9X9XqX9XwX8X8X9X7XwXQ.9X8X<X9X8XqX9X9X9X9X8X;X9X9X9XwX9XF.S.y   G.F.D.D.F.C.D.F.D.D.D.D.S.C.S.:X:X:X:XS.S.L..XL.S.L.S.S.L.L.S.L.L.S.L.L.L.L.L.L.L.L.C.L.L.L.S.L.L.C.L.z.z.z.z.z.z.z.C.C.z.z.z.;.f.f.;.;.;.;.;.p.;.&.&.;.;.p.&.;.f.f.f.f.;.;.;.f.p.;.;.&.;.;.p.&.&...o... . . ...o.) ..&.&.&.&.+.{ &...~ ^ c ^ ~ ..( ( ( ~ ^ ^ d a.KX4XfXiXaXiX2XiXOX2XiXaXxXaX2XiXuXuXkXuXkXkXuX2X#X).n.n..XXX).U.B.9.9.I.[..X[.U.U.OXOX2X$XI.2X+XiX+X$X$X$XiXiXiX+X+X$XiX$X$X$X$XaXiXiXiXiXiX$X2XiX2X$X+X$XI.+X2X+XI.+X+X+X$XOXU.+XY.x.i.I.Y.Y.B.B.B.[.[.I.x.x.,.$.,.g.x.x.U.+XB.U.+X2XiXiXiXI.U.2XiXiXiX+XU.[.7 E.<XB.v.0.7.+..._ @.O.X.,.$.,.x.V O.g.7.7.#.7.:.:.X.%.7.>.@.V @.>.:.,.+.V _ >.7.9.v.g.$.V $.| V ,.| X.C C C V V ,.U.q._ ) ,.I.h.7.:.x.:.7.h.@.W | _ n _ _ Q [ | _ ,._ ) X.) _ W | ,.| _ _ ,.>.:.,.#.<.@.>.| >.,.q.q.,.q.q.<.V _ U D C D V _ _ _ _ ,.,.,.q.,.,.",
"HXCXNXHXCXHXNXCXCXNXbXF.~.UXbXnXnXnXwX7XnXNXnXNXnXNXNXNXNXMXnXwXmXnX7XbX^.~.G.~.bXbXwXwXwX8X7XqXbXnXGXKXGXMXSXGXGXBXSXBXMXdXdXMXBXBXMXgXMXBXgXdX0XgX0X0X,XgXxX0XfX0X0X<X0XsXsXqXbX8X8X7X;X8X<X<XqX9XqX8X0XwX8X8X7X9XQ.8XQ.<X9X9XrX9X8X9X,X<X7X9X8X9X9X9X!.V.y   p.7XD.D.D.D.D.D.D.D.D.D.D.D.S.S.L.S.C.C.D.C.C.C.C.C.C.C.S.S.C.C.S.C.C.C.C.C.C.C.C.L.M.M.C.z.C.z.z.z.z.z.M.z.z.f.z.f.;.f.;.p.;.p.&.;.&.;.;.&.;.f.f.f.;.;.;.;.;.;.f.f.p.f.f.;.;.p.;.p.p... ...o.o... . . . ...&.&.&.#.#.&.&.&.&.&.&.~ ~ ! J  .....~ ( X.~ ~ ^ ( e d.KX2XiXaXaX2XI.$XOXiXiXaXaXaXiXaXaX3XuXuXkXuXyX$X1XB.v.N.].{.).B.i.9.9.B.[.[. XI.B.[.OX2X2XY.$X+XiXiX$XiX$XiXiX+X+X+X+X$X$X$X$X$XiXiXyXyX$XiX+X2XiXiX$X$X+XU.+XOXOXI.Y.OX+X2X$XI.I.I.i.x.I.I.I.U.I.B.Y.OX).v.x.,.$.,.,.x.x.I.T.U.i.[.2X2XiXiXI.U.+X2XiXaX+XU.U.8 G.<XI.m.0.9.) O.O.+.O._ s.@.s.h.V @.9.9.7.&.9.:.+.| ,.9.9.@._ %.,.:.,.+.V ! $.9.v.v.x.>.V &.$.V ,.V O.V S Z C C ,.E.,.O.O.,.B.x.#.h.B.| 4.i.#._ ,.| _ ) Q W @.@.X.@._ | _ _ X.| | ,._ X._ ,.| :.:.:.,.:.,.` >.q.q.,.<.,.q.,.C C _ C _ _ C _ C ,._ _ q.,.q.,.<.",
"NXSXCXCXNXNXNXNXHXnXF.bXwXwX7XnXbXbXwXbXnXHXNXnXCXHXNXNXBXnXnXwXmXmX~.7XbX~././.bXqXwXwXwX8XwXnX9XNXKXGXGXSXSXSXSXSXSXHXMXfXMXBXBXxXdXgXBXdXgXMX0XgX<XiX0XsXdX0X0X0X<X<X0XqXsXNXqX9X9X9X;X<X<X9XqX0XqX7XwXqX8X9X7X9XQ.<XQ.0X<XwXqX8X8X8X9X;X<X9X9XwX9XwXQ.V.y   G.7XF.F.F.C.F.F.D.D.D.D.D.D.D.C.C.C.C.C.C.C.C.D.z.D.D.D.C.D.C.C.z.z.D.z.C.z.z.C.C.C.C.C.L.M.C.z.z.z.z.z.z.;.;.k.f.;.;.k.;.f.f.f.8.k.k.f.f.8.k.;.f.f.k.;.;.p.f.;.;.&.;.;.;.p.&.&.o.......p....... . .....&.%.%.%.%.&.&.#.&.&.( &.(  .^ ! &.[ ( ( ~ ^ ..~ ^ ( ..j a.KXiXiXaXaXiXOXOX$XiXiXlXaXaXiXiXkX3XyXyXkXuX#X{.#X0.v.n.).].N.n.:.q.9.h.'.[.[.[.U.E.OX$X2XT.iXiXiX+X$XiXiX$XiXiX+X+X+X$X$X$X$X$XjXiXiXiXyXiX+XiXiX$X$X+X+XU.+X$XOX+X$XY.+XiX+XI.Y.I.i.x.R.I.Y.m.Z.x.[.[.I.v.x.,.,.,.s.9.i.I.+XE.U.U.2X2XgXiX+XI.[.iXiXaX$XU.U.3 E.<XB.N.7.7.) _ O.@.X._ s.+.>.h.X.$.9.,.7.,.q.,.) @.@.,.7.:.%.,.:.:.:.$.! V +.>.x.x.x.#.! #.,.,.| _ V V V V V C X.i.,.) X.>.c.x.0.0.m.:.:.9.:._ <.) ) X.Q ! @.| W +._ | X.,.| @._ | _ @._ ,.| :.:.,.} :.:.| 9.,.q.q._ ,.i.,.C C _ D _ C C V _ _ D _ q.q.,.,.<.",
"NXHXCXHXNXCXNXnXnXbXbXbX7XbXbXbXbXwX7XnXNXnXnXHXHXNXNXNXNXnXnXnXnXnX7X^.7X~.F.^.bXbXwXqXbX~.wXbX8XNXIXGXGXGXSXSXGXBXSXSXMXdXdXBXBXgXMXdXMXMXgXdX0XsX0X0X<XsXdXsX<X0X;X<X0XrXqXMXrXrX9X9X<X<X0X0X0X0XeXQ.9XqXwX8X8X8XQ.8X;X9X7X9XrX8X8X9X8X;X7X8X8X9X9X9XQ.V.z   D.F.D.S.F.F.C.S.F.F.C.D.C.C.C.C.D.C.C.C.C.C.D.D.D.D.D.z.D.D.D.z.D.D.z.k.k.D.z.z.z.C.C.L.L.C.z.L.z.z.;.f.;.z.k.k.k.k.k.z.z.f.f.;.j.j.f.f.h.z.k.z.z.f.8.f.;.p.p.&.&.p.p...&.&... . ...p.o...o... .o.&.%.&.;.;.;.;.#.%.&.#.&.+.[ X.~  .~ &.[ ( ( ~ ^ ~  .c ^ ~ ( e d.KXiXiXaXaXiXOX>XiX2XaXxXlXiX2XlXxX3X#XyXxXuX+X X.X0.v.n.[.].n.v.x.h.0.0.B.[.|.[.U.I.OX+X$X+XiX+XiX+XiXiXiX$X$XiX$X+X+X+X$X$XiXyX$XiXaXiXiXiX$XOXiXiX$X+X+XI.+X$X+X+X$X+X+XiX$XI.+XI.E.c.I.I.Y.I.V.x.Y.[.Y.U.B.,.9.,.,.g.i.I.OXU.B.[.2X<XiXiX+X[.+XiXiXaX<X+XU.8 V.<XY.B.i.:.) V O.,.O.,.g.X.g.k.O.%.9.>.%.#.7.%._ >.,.7.9.9.f.,.#.7.7.@.@.V X.>.g.h.v.g.) ,.>.V | O.V C V V V C ,.x.s.V ,.g.I.9.x.x.v.9.4.4.| _ ] [ @.) Q +.X._ _ _ _ ) ,.,.+.+._ ) | W W ,.<.:.9.>.| ] :.| 9.,.q.q._ ,.i.,._ C _ D _ C i V C _ _ _ q.,.,.,.,.",
"NXCXSXnXnXHXnXwXbXF.F.bXbXbXnXnXbXwX9XnXNXnXnXnXnXnXnXHXNXnXbXnXbXnX~.bXUXF.G.~.bXwXwXwXwXwXwX7X9XCXGXGXGXGXGXGXGXBXSXMXdXdXMXMXMXdXgXMXBXfX0XMXsXsX4X4X0XdXfXeX0X,X;X>X0XsX0XsXrX0X0X,X;X,X,X0XqXsXwX8X8X9X9X7X9X9XQ.;X7X9X7X9XqX9X8X9X8X;X8XqX8X9X8X9X;XV.y   G.F.F.F.D.C.F.D.D.D.D.D.D.D.D.D.C.C.D.C.C.C.C.C.C.C.C.C.C.C.D.C.D.D.D.k.k.k.k.p.k.f.k.k.k.z.z.k.k.k.k.k.z.f.k.k.;.;.;.f.;.z.f.f.f.h.k.z.z.f.f.k.f.f.f.;.;.;.&.;.;.p.&...o.o.&.p.p.&.&.p.&.....&.&.&.&.;.;.;.;.&.&.+.#.&.+.^ X.( ~  ...X.#.....~ ^  .^ J ~ ! ~ j s.KX4XaXxXaXiX2X2XiXiXxXxXaX$XiXaXkX2X2XiXjX2X].#XB.9.v.v.).).v.v.i.x.x.9.v.[. X+XE.I.+X+XiX+X$XiX+X+XiXiX$XiXiX$XyX$X+X+XiX+X$XyXiXiXiX$XiXiX$X2XiX2X+X$X$XI.$X$XOXOX+XI.+XiX$XI.I.I.U.9.I.[.I.I.U.U.I.OX[.B.x.,.s.,.@.9.i.I.T.E.U.I.iX<XiXiX+XI.2X+XiXaXOX+XE.; E.<XB.B.i.:.X.V O.O._ ,.x.) s.h.) ,.g.7.:.@.%.) ! >.>.>.h.9.g.:.,.>.9.>.@.! X.:.l.h.x.x.X.+.,.V O.V V V V V C V ,.U.s.,.,.,.c.7.9.v.B.9.7.7.:.) @.W | ) Q ) X._ ! _ ) +.+.@.+.X.| @.+.V ) @.| | q.>.| _ ,.:.| q.<.q._ ,.q.,._ U _ C V C C V C _ C ,.,.q.i.,.q.",
"HXNXNXHXnXnXnXwXbXF.bXbX7XbXnXbXbX7XwXnXNXnXrX5XnXrXnXnXNXNXnXnXnXbX7X^.UXF.F.~.qXwXwXwXqXwX~.8X8XBXGXGXGXGXGXSXGXSXSXSXMXfXMXMXBXgXgXdXMX0XsXMXsXeX0X,X9XfXdXqX,X,X<X,X0XrX9X0XeXeX6X9X,X,X9X0XsX0X8X7X8X0X8X!.9X8X;X7X8X9X8X9XqX9X,XqX9X;X8X9X9X8X9X8X~.S.y O G.7XW.F.S.D.C.F.C.D.D.D.D.D.D.D.D.C.C.C.C.z.C.C.L.C.C.C.z.D.D.D.k.p.p.p.p.p.p.p.p.p.p.p.p.f.k.k.D.z.z.;.;.;.;.;.p.;.;.;.f.;.f.z.f.f.z.z.8.j.f.;.;.z.f.z.f.;.&.&.;.p...p.&.&.&.&.&.&.o.o...&.&.&.;.p.;.;.;.;.;.;.{ &.&.[ ..~ X.X. .^ ( ( &.( .. .! ~ J ^ ..~ ( e d.KXiXfXaXaXaXY.iXiXiXdXxXaX$XaXxXuX2XhXyXyX+X].{.h.x.t.n.U.N.i.9.v.B.x.7.x.[.[.+XU.[.E.+XiXE.iXiX2X+XiXiXiX$X$X$X$X$X+X+X$X$XiXiX$XyXiXiXiXiX+X$XiXiX+X+X$XY.+X+X$X+X$XI.I.$X2XY.+XI.U.9.E.Y.I.I.B.c.I.[.Y.U.9.9.s.s.,.,.i.I.OXI.U.I.iXiXiXiXI.[.+X2XiXaX$X$XU.8 E.Q.U.B.0.:.) V O.@.O.,.j.+.>.g.X.,.9.g.9.,.&._ V >.>.q.g.0.9.>.#.8.9.9.,.) X.>.v.h.9.g.@.) g.V O.X.V V V O.C V ,.x.x.@.,.,.x.x.7.v.U.0.0.:.:.| #.V | ) Q _ _ W _ n _ _ X.| _ ) @.@.,.) | @.:.| q.| ) | <.>.:.q.,.,._ ,.q.<._ C _ C C C D _ C _ _ _ ,.i.,.,.q.",
"NXnXnXnXnXnXnXwXF.bXbX7XbX7XbXbX7XwXnXnXnXHXnXnXnXHXrXrXHXnXnXnXbX8X7X^.bXF.UX~.bX7X8XwXbX8X8XwXwXBXGXGXSXGXGXGXGXSXSXMXMXfXdXBXBXfXgXMXBXeXfXMXfX0XsX,X0XfXfXsX,X;X<X9X<XsXeXrXeX0X9X,X;X,XrXeXrXqX7X8X9X8X9X!.8X7XQ.;X7X9X9X9XqX9X9X9X;X;X8XwX9X9X7X8X;XV.k   G.7XS.S.S.F.F.C.F.D.F.D.D.D.D.z.D.C.C.z.C.C.C.C.C.C.C.C.C.C.C.D.C.j.D.D.D.D.D.k.D.k.k.k.j.f.z.k.;.z.k.z.z.z.z.f.z.k.;.k.f.f.z.f.z.f.8.f.f.8.z.8.f.f.f.f.f.;.;.p.o.&.;.;.&.p.p.&.;.f.&.&...&.&.;.;.;.;.;.f.;.&.;.&.) X...( &.+.~ ~ [ &.&.( &.! ^ ( ..!  .( ^ ~ 4 d.KXfXaXaXxXiX$XiXiXiXaXSXiXiXlXxX5XuXiXuX3X].#X).9.v.v.t.N.v.>.7.v.v.v.h.x.[..XU.[.[.+XiX+XiXiXiXiX$XiXiXiXiXyX$XiX$X+X+X+X+X$X$XyXiXyXiXiXaX$X$XiXiX+X+X$X+XI.$XOX$X$X+X+XiX2X+XT.I.x.,.i.Y.U.Y.B.U.I.Y.Y.U.i.9.9.,.,.9.i.I.+XU.x.[.$XiXaXiX+X+X+X<XiXgX+X2XU.8 E.<XB.B.9.7.+.O.) @._ ,.h.X.7.9.O.@.>.7.7.7.@.! _ i.9.9.h.9.g.:.@.9.h.>.>.X. .7.m.M.v.0.%.+.k._ ,.,.V C V ,.V V ,.q.i.@.,.,.i.x.x.B.B.7.0.#.>.] | Q #.) _ +.) _ @._ X._ _ ,.| ) +.%.,.:.) ,.q.:.,.,.| _ ,.i.:.,.<.q.<.,.i.,.,.m ,.m D m D V D _ _ ,.,.,.q.,.,.",
"nXnXbXUXbXbXbX~.8X^.wXwXwXqXqXwX9XrXnXMXMXnXNXMXnXnX6XnXNXnXnXnXbX~.F.bXbXF.~./.bX8XwXbXbX7X7XqXwXVXIXVXFXGXKXGXGXSXMXSXMXfXdXMXxXeXgXdXdX0XgXdXgX0XsX>X<XdXdX0X0X<X<X<X0XeX0X4XrX0XeX<XeXrXrXrXsX0X;XQ.8X7XwX;X7X8X;X7X;X8XqX9XqX9X9X9X;XW.9XwX9X9X;X8X8XV.y O d.Q.F.S.F.C.S.D.S.S.D.D.C.C.D.C.S.S.C.C.L.C.S.C.C.C.C.C.S.C.C.C.C.C.C.C.C.z.C.z.C.z.z.z.C.z.z.D.k.z.z.z.z.z.z.f.z.;.k.f.f.z.z.f.z.f.z.k.z.8.f.f.;.f.f.f.f.;.;.;.f.;.f.;.&.p.&...&.;.;.;.;.&.p.;.f.;.;.;.;.;.;.;.&.^  .( ( &.( ..( &.&.&.&.&.( J J ( ( ....( ^ 6 ,.KXaXdXiXdXiX$XiXaXaXxXxXiXaXAXaXiXiXaXiX+X X#Xb.0.h.l.v.B.7.7.0.v.x.B.B.v.|.{.). X[.OX2XyXiXiXiXiX$XiXiXaX$XyX$XyX$X+X+X+X@X$XyXyX$XiXyXyXiXyX$XiXiX+X$X$XU.+X$X$X+X+X+X+XiX$X+X+XU.x.,.i.I.I.Y.B.U.B.'.Y.B.x.h.j.,.@.>.i.[.OXU.v.[.iX2XaXpXiX+X+XiX<XiXE.OXE.2 E.<XB.v.0.q.+.$.! .._ >.g.+.7.>.+.o.:.>.g.7.+.! _ 7.g.9.h.9.9.9.| ,.9.9.9.@. .,.N.A.B.7.,.+.k.) O.@.Z C X.@.V V ,.s.g.,.,.,.i.B.q.B.v.:.0.7.#.:.:.@.#.) W +._ U X.! V _ _ ,.| ) | ,.| :.@.,.g.9.q.:.+.| 7.q.:.| | >.<.9.9.:.,.W @.V C V i V C V V | ,.,.,.<.,.",
"nXbX~.bXF.bXF.bXbXwX~.wXwXwXwX8X7XnXfXnXHXfXnXNXNXNXnX9XnXnXmXnX7XUX~.bXUXF.~.~.7XF.bX7XbX8XwXbX8XCXLXKXGXGXGXSXGXSXSXSXMXsXdXSXMXgXfXMXgX0XMXMXgXeXsX,X,XfXsXsX,X<X<X0X0X0X0XsXrX0XrX,X<XeXrX0XrXqX8X;X8X;X8X8X7X9X7X7X;X8XqX9X9X9X9X9X;XT.8X9XwX9X7X8X!.Z.y O G.Q.C.F.F.C.S.S.S.D.C.S.C.S.S.S.S.C.S.C.C.C.z.C.C.C.C.L.S.C.C.C.C.C.C.C.C.C.C.C.C.C.C.C.z.z.z.z.z.z.z.z.z.z.z.z.8.z.z.z.z.z.z.z.z.z.z.z.z.f.8.;.;.&.;.&.&.&.p.p.p.f.k.;.&.o.o.p.p.p.;.;.k.f.;.;.;.;.;.( ;.;.&.;.&. .( ..^ ^ .. .^ { &.&.&.&.^ ......( ( ( ( ( e a.KXiXaXiXaX2X$XaXiXaXBXaXiXaXAXaXiXiXiXyX#X#X).n.B.0.h.v.8.>.:.g.k.x.N.U.B..X[.I.#X+X|.2XaX1XOXiXaXiXiXiXiXOXyXyXyX$X+X+X*X+X$X$XyXiXiXiXyXiXiXiXiXyX+X$X+XU.+X$X$X+X$X[.$XiX$X+X[.I.B.,.E.I.I.[.B.B.I.Y.I.v.v.9.x.s.,.g.i.I.OXI.t.I.>X4XaXaXaXiX$XOXiXiX+X$X[.4 E.>Xv.B.x.x.+.@.O.V ! %.g.:.h.>.! %.>.@.9.7.&.W @.9.9.7.0.9.7.7.@.@.>.9.g.,.V @.m.N.B.7.%.,.f.,.,.V V C Z _ V V @.9.x.) ,.,.I.c.7.x.v.:.q.9.:.} 7.| [ +.) _ [ Q _ _ W W n _ @.| ,.,.) :.:.:.0.9.g.:.[ ,.:.q.>.) <.9.9.,.>.:.,.| | V C V k C C V V | ,.,.<.,.<.",
"mXbX~.bXbX~.~.F.^.8XQ.~.wXwXwX~.8XnXnXfXrX9XNXNXnXHXNXnXnXnXnXnX~.^.~.bXUXF.~.F.7X~.bX8XwX7XwXnXwXBXLXVXSXGXGXGXDXSXSXSXdXsXMXSXdXfXfXBXMXeXBXgXfXeX<X<X0XsXfXsX<X=X=X0X4X0XeXeXsXrXrX<X,X0XrXrXrX0X;X8X8XQ.;XwXwX9X7X7X8X8XqXqX9X9X;X9X8XT.;X9X9X8X;X9X;XF.> O D.Q.S.S.S.S.S.S.S.S.S.S.S.L.S.S.S.L.S.S.L.C.C.C.C.S.C.L.C.S.S.C.S.C.S.S.S.S.L.C.C.C.C.C.C.z.z.z.z.z.z.z.z.M.C.C.z.z.z.z.z.z.z.z.z.z.z.8.f.8.h.h.k.k.k.8.;.f.;.;.;.f.f.k.f.;.o.&.p.;.f.f.;.8.;.;.;.;.;.( ;.;.;.;.&.~ ..~ o.^ ( ^ ^ ( &.( &.&.( ( ( ( ( &.&.( ( e d.KXgXaXiXdXiX2XaXxXaXxXaXaXAXxXiXiXiXiX2X].[.I.N.8.g.g.g.>.>.>.,.q.v.v.[.N.+XI.'.#XOXOXyXiXOX$XiXaXiXiXiXiXOXyXiXyX$X`.`.+X+X$X$XyXyX$X$XiXjXiX$XiXiX$X$X+XU.`.$X$X$X$X[.+XiX$X+X+XE.B.,.E.+XI.T.I.B.U.I.I.B.x.i.g.,.>.x.x.). X).B.I.2XiXaXiXiX$X2X2X$XiX<X$XU.8 V.<XB.B.0.9.+.$.O.! ! ) >.>.k.>.! %.7.#.7.9.X._ ,.7.g.9.7.7.4.7.%.! +.7.9.,.! X.g.N.M.7.,.>.g.,.@.V Z k V _ Z V @.,.x.X.@.9.x.x.9.0.x.4.4.9.7.:.:.:.| [ [ _ ] _ V _ V _ W _ | ) | >._ @.:.,.q.q.x.q.| | #.:.,._ :.9.9.,.:.<.| | <.V C V C C C V T <.<.| ,.<.| ",
"bX~.UX~.UXF.^.bX^.~.7X~.~.wX8X~.8XnXfXnXnXfXHXNXnXHXnXNXnXnX9XnXwX~.~.bX~.F.~.~.~.7X7X8XbX~.bXwX8XBXIXSXGXSXGXSXSXGXGXMXMXdXMXSXMXgXfXBXdXgXdXMXgXiX0X<X0X4XsXrX0X=X<X<X0X<X0XsXeXrXrX,X0XrXrX0XsXeX8X8X9X;XQ.qX8X9X;X,X9X9XqX9X9X9X;X7X8XS.9X9X9X8XQ.<X7XV.>   G.7XW.S.S.:XS.S.L.:X:XL.L.:XL.L.:XL..XL.S.L.C.:XC.S.:XS.C.C.C.L.S.L.L.:X:XS.L.C.C.C.C.C.C.C.C.z.M.C.L.C.C.M.M.M.z.z.z.f.z.z.z.f.f.z.z.z.z.z.z.f.j.;.;.;.p.p.p.&.p.p.&.p.p.p.p.o.&.;.f.f.8.;.z.;.f.;.&.;.;.;.8.8.&.( ..( ( ....( ^ ..( ( &.{ &.&.( ....( ( ..( j ,.KXfXiXiXxX2XiXaXxXaXxXaXaXxXxXaXxXiX$X$XN.).U.v.9.>.%.%.7.9.x.x.h.M.b.).'.OXY.[.$XOXOXiXaXOXOXaXdXyXiXiXaXOXyXyXiX$X+X*X+X@X$X$XyXiX$X$XyXjXiXiXiXiX$X$X+XU.+X$X+X$X+X[.$XiXiX+X+X[.i.q.U.I.R.'.I.U.x.N.I.v.9.h.x.s.>.i.v.Y.{.).v.U.2X2XaXfXiXiX<X$XOX$XiX$XE.8 E.-Xx.I.0.q.+.,.O.V ..X.,.f.v.>.V ,.7.>.7.9.@.X.7.7.q.0.7.7.7.:.) ! X.,.,.,.Z ! 0.L.B.g.f.,.>.@.O.@.V C V ,.V V V q.c.X.@.>.B.m.0.x.9.7.7.4.:.} +.#.:.%._ _ %.| n V ) V W _ ,.,.,.,.| :.,.9.q.9.>.>.#.| | q.:._ ,.i.9.:.:.9.V V ,.O.C C C V V m V ,.,.@._ | <.",
"~.~.UXG.F.^.bXbX~./.~.7X^.8X~.9X0XrXNXnXnXnXnXMXNXHXnXNXnX9XqXnXwX~.7XbX~.F.~.F.~.bX~.bXbX~.bXwX^.VXKXGXGXBXFXGXGXPXGXMXdXMXMXMXBXfXgXBXdXgXMXgXfXrX>X,X6X,XsX,X<X=X=X<X,X<X0XeXsXrXeX<XeXrX0X0XeXeX9X8X9XQ.Q.qX9X7X;X;X9X9X9X9X9X7X;X7X,XS.9X8X8X8X;X8XQ.V.y   G.F.S.7XL.S.S.L.:XL.L.S.L.:XL.:X:XL.L.:X:XS.C.C.C.C.:XC.C.C.C.C.S.:XS.S.S.L.S.L.L.C.C.L.C.L.L.:XL.L.L.L.L.z.L.z.z.M.z.z.;.;.f.z.z.z.z.M.K.z.z.z.j.8.f.;.;.;.p.p.&.o.o...o.p.&.&.p.p.f.z.8.z.z.z.;.;.;.;.;.;.;.;.;.&.[ X.....( o...( &.( ( ( ;.;.&.( ( ..( ( ( e ,.KXiXiXiXdXiXaXxXaXxXxXaXxXcXxXxXxXyX$X+XU.I.i.9.9.>.,.%.$.&.7.x.B.U.B.).{. XI.OX3XOX1XaXuX|.$XaXxX2XiXiXiX$X$XiXiXyX$X`.$X$X$XyXyXyX$X$XiXaXjXiXiXiX$X$X+XU.+X$X$X+X$X[.iX$X$X+XY.I.x.9.x.I.U.'.Y.v.x.n.[.B.9.x.g.,.g.x.B.Y.[.U.t.I.2X1XiXpX4X$XiX2XiXiX0X0XI.r E.<Xx.N.h.:.%.@.O._ O.,.>.>.x.>.! >.7.f.9.7._ +.9.7.7.0.0.8.9.4.%._ ! >.>.,._ O.x.I.Z.k.9.g.%.@.O.@.Z z V ,._ V V q.B.| ,.,.9.x.x.v.9.7.7.8.7.] _ :.#.@.@.%.+.@.! W @.W _ _ | <.,.:.) :.q.:.:.:.:.:.:._ :.i.@.) >.q.:.:.:.>._ _ ,._ C V C V V _ V | ,.@._ ,.q.",
"~.~.~.~.UX^.~.F.F.~.~.~.8X~.Q.qX9XrXMXrXrXHXrXMXNXnXnXNXnXqXwX9XbX~.7X~.~.~.~.F.F.7X7XwX~./.nXbX8XBXKXGXSXBXGXKXGXSXGXMXdXsXMXSXMXfXdXBXdXeXdXMXfXeX<X0X0X=XfX,X,X=X=X<X<X,XeXsXrXsXeX0XrXrX0XsXqX9X8X9X0XQ.Q.qX9X9XF.7X9X9X9X9X9X,X;X7X;X;X8X9X;X-X7X9XQ.C., O D.7XF.S.7XS.S.S.:X:XS.:XS.:XS.L.S.:XC.C.z.z.C.C.C.L.C.C.C.C.S.C.S.C.S.S.C.L.C.C.C.L.S.C.L.C.C.C.L.C.C.L.L.L.L.L.C.M.M.z.C.z.z.z.z.z.z.z.z.z.z.h.l.8.f.f.f.f.f.;.%.p.&.&.p.p.p.&.&.&.&.;.f.f.;.8.;.k.8.8.;.;.;.;.;.;.;.&.&.( ^ ^ ^ ....&.&.&.&.( &.( ( ( &.( o.e a.KX<XiXiXMXiXgXBXxXBXxXaXaXAXaXaXaX$X$X`.U.u.B.v.h.,.O.N N N  .0.B.N.).[. X{.I.4X2X+X#XiXaX+X2XaXaX2X$X2XiX$XyXiXyX$X$X+X$X$X$X$XyX$X$X$XjXjXiXiXiXyX$X$X+XU.U.$X$X$X+X[.$X$X<X+X+XI.x.E.U.I.E.[.).x.i.v.I.N.x.x.g.,.>.x.U.U.[.I.B.I.iX4XiXiXiX<XiX2X<XiXOXOXI.8 E.<XB.I.0.:.>.X.) _ ) >.>.>.h.>._ >.g.9.9.%. .X.9.>.:.:.h.x.9.7.>.X.O.O.@.X.O.! h.B.B.9.x.>.,.,.@.@.O.C V O.V V _ 9.9.O.@.:.,.0.B.i.7.9.0.9.9.#.Q :.:.%.:.X.| | X.| ) X._ X._ <.>.,.| >.,.7.| :.7.:.@.| ,.9.:.X.| :.q.:.>.>.+.| | ) C C D V V V _ X.<.,.V | :.",
"~.UX~.~.~.^.~.~.F.~.^.F.8X~.8XrX9XeXMXrXrXnXnXNXnXHXNXNXnX9XwX9XbX~.~.7X^.F.^.!.~.~.7XbXF.~.bX8XqXVXKXVXMXfXGXGXKXGXGXMXfXfXMXSXdXdXBXBXMXgXeXdXsXeX,X,X0X-XrXeX0X=XT.=X=X<X0XfXrXsX0XrX0XeX9XrXrX0X<X8X0XQ.Q.<XrX7X;X7X9X9XrX7X,X;X;X7X;X:X7X8X7X-X;X8X;XD.>   D.7X7XS.S.S.S.S.C.C.S.S.C.C.C.C.C.C.C.C.z.C.L.:XC.C.C.C.C.L.C.L.C.L.C.C.C.C.z.z.z.D.z.z.z.D.z.z.C.L.C.L.z.L.L.L.L.L.M.C.C.M.C.M.z.z.z.z.z.l.z.z.z.z.z.z.z.j.z.h.f.f.8.f.;.;.;.;.&.&.o.&.&.&.;.f.;.z.k.8.;.8.;.;.;.l.l.;.;.;.;.( ..^ J ^ o.&.&.&.( &.&.&.( J ( e F LXiX0XiXxXiXaXxXAXxXxXaXaXAXaXcXaX$X+XU.U.u.I.m.>.V z N N ! @.0.v.N.'.[..X[.[.3X2X XOXyXuX+X3XaXaXyXiXyXiX$X2XjXiX$X$X+X+X$X$XiXyX$X$XyXiXjXaXiXiX$X$X$X+X+X+XOXOXOXiX[.$X$X$X+XI.Y.I.c.c.I.I.|.Y.v.x.B.I.B.x.x.9.,.9.g.U.I.[.I.B.I.iX2XiX>XiXiXiX+X<XiX[.OXU.4 E.2XB.x.q.>.9.) V O.@.g.>.%.9.>._ >.0.h.9.:. .@.0.>.9.#.:.9.0.9.7.X.@.$.,._ O.X.@.v.B.9.g.f.>.@.,.,._ S V @.V X.V 9.x.) ) ,.>.x.v.v.9.9.h.9.:.| | :.@.+.@.@.@.) | @.X._ _ @.W @.9.,.,.:.,.7.#.} >.:.#.) q.9.:.<.| :.:.<.:.:.| V _ _ C C i V V _ _ _ @.,.| | ,.",
"~.~.~.UX^.~.~.7X~.7XbX7X8XQ.qX0XqXrXNX9XrXnXnXnXnXnXnXHXnXnX9X7X8XF.bX7X7XF.~.~.!.~.7XbX!.!.wXwXqXVXKXKXBXMXSXGXGXSXSXSXpXsXdXSXfXfXMXBXMXgXgXfXdX0X=X0X<X<XeX,X0X=XW.<X=X<X9XfXrXsX9XrXeX0X0XrXqX0X8X9XqX;X8X~.bX9XS.S.7X9X9X7X,X;X;X;X-X!.8X;X7X;X7X8XQ.S.> O G.7XS.F.S.S.S.S.C.C.C.C.C.C.S.L.L.C.C.z.C.C.C.:X:XS.:XC.:XL.L.C.L.C.C.C.C.C.C.z.z.z.D.z.z.z.z.z.D.z.z.z.z.z.z.z.z.z.z.M.M.M.z.M.z.L.z.z.z.z.z.z.z.z.z.L.M.z.z.z.z.z.z.z.z.k.f.f.;.;.&.&.f.;.;.;.;.;.;.f.l.;.;.;.;.;.8.;.r.;.;.-.;.&...J ^ ( ( ( &.( ( &.p.( ( d ,.KXiXaX2XlXaXiXxXxXxXxXxXaXcXxXcXaX$X@X+X`.U.u.#.%.O.N N V %.>.7.0.v.I.'.{.I. X3X2X+X2XuXyXOXiXaXlX2XyXiXiX$XiXiXiXyXyXyX$XyXyX$XyX$XyX$XjXiXiXiXiX$X$X$X+XU.+X$X$XOX+X+X$X$XOX+XT.R.U.x.I.Y.U.'.[.x.v.N.).v.i.c.9.9.s.9.U.U.[.U.v.Y.iX4X0XOX2XiXiX<X+XiX+XOXU.4 E.4XB.B.7.:.>.X.V ) ,.h.>.&.,.,.X.>.c.k.7.@.! +.j.;.h.7.7.h.h.0.@.+.$.X.,.X. .! $.B.B.k.x.g.>.,.,.,.O.C V _ V ) V ,.9.X.X.>.9.v.B.x.:.4.9.0.4.] :.7.:.%.@.| @.,._ @.| W _ :.) @.q.:.+.>.:.:.:.@.| :.} _ 9.9.7.>.X.<.>.<.:.,.@.,._ | V C y V C V | | ,.@.X.<.:.",
"~.bX7XF.bXbXF.nXQ.8X0X8XqX9X9XsXqXNXNX<XqXqXMXrXnXnXnXHXnXnXwX9XwX7X^.7X7X~.~.~.~.Q.wXwX!./.bX~.qXVXKXVXBXGXVXKXGXGXSXSXdX0XdXSXrXMXMXBXMXeXrXMXfXrX,X,X,X<X4X<X0X-XQ.<X=X<X0XsXrXsXeX0X0X0XsXqX0X0X8X9X9X;X9X;XwX8XW.;X9X9X9X,XS.;X7X7X7X;X7X;X8X-X7X8X:XC.>   D.7XF.S.S.S.S.S.S.C.C.C.S.L.S.L.C.C.L.C.S.C.C.C.L.S.S.L.C.L.:XC.L.L.C.C.C.z.C.C.C.D.D.z.D.D.z.p.f.k.z.z.z.k.z.f.f.z.z.k.j.z.z.z.z.z.z.z.8.z.z.8.l.h.z.z.z.z.z.z.z.z.z.z.z.l.h.;.;.;.;.p.;.;.;.&.;.&.&.;.;.;.;.8.;.;.;.;.;.;.;.;.;.;.;.;.&.~ ..^ ^ J ( ( ^ ( &.j ,.PXiXiXOXaXaX2XFXFXxXaXkXaXkXAXcXkX3XyX+Xn.n.t.&.X.$.,.X.@.@.#.7.7.x.I.[.[.I.2X2XOXOX2XuX2X2XiXiXaXiXyXkXyXyXyXiXyXOXiXyXiXiXaXiXiX$X$X$XjXiXaXjXyXyX$X+X+X+X+X$X#X+XOXOX2X+X$XI.+X+XI.x.i.Y.I.'.[.m.B.N.U.t.0.x.k.,.g.x.I.U.{.I.U.I.4XOX0XOX<XiXiXiXOX2X+XOXU.5 E.iXB.B.9.#.,.X.X.X.%.h.>.#.>.9.X.%.v.g.7.&.! %.x.>.h.7.7.x.0.9.#._ X.,.:.$. .V ,.v.B.c.x.>.g.X.@.>.@.C V V O._ ) ,.:.) ) >.c.n.B.B.7.:.0.0.9.:.7.7.7.) +.%.+.,.| +.X.W _ :.,.| 9.:.@.:.,.:.:.| ) :.:.| >.q.0.,._ :.:.>.q.>.%.| X.] V y C V C V ,.@.<.@.@.| <.",
"~.7XbX8XbXF.F.9X7XQ.qXqXwX0XwXqXMXnXnXrXeXqXrXmXCXL.nXNXnXnX9X9X8X8X7X~.~./.~.8XwX~.wXwX~.!.wX!.qXVXLXVXBXPXBXSXKXGXBXBXaXsXdXMXzXMXsXSXMXeXdXMXMXrX,X,X0X,XrX,X0X<X>X<X=X<X,XsX0XrXrX0X8XrXrXrX0XrX8X9X,X8XwX;X9X;XW.8X9XqXrX7X9X,X;X,X,XS.,X7X;X;X;X9X:XD.> O G.9XS.7XS.S.S.S.S.S.C.C.S.S.S.S.C.S.S.S.C.C.C.C.C.z.z.C.C.C.C.C.C.C.C.C.C.C.C.C.C.C.z.z.z.z.z.z.k.z.k.k.k.f.f.f.f.k.j.z.j.f.j.8.f.z.f.z.f.k.k.;.f.f.8.f.h.z.f.z.z.z.z.z.z.z.l.z.8.;.;.;.;.;.8.f.;.;.&.p.;.;.;.;.8.;.&.;.;.{ ;.;.;.;.;.;.;.;.;.{ ( ( ( J J J J j d.KXaXgXiXiXaX2XxXaXZXxXaXjXaXcXkXkXhXjX$XN.b.n.0.%._ ) #.,.%.%.4.9.N.Y.[..X1X2X2X2XOXyXkX2X2XzXiXaXOXyXiXyXyXiXaX$X+XyXyXyXiXiXiX$X$X$XyXiXiXaXiX$XyX$X+X+X+X+XOX$XOX$X+X3X{.#X+XT.Y.Y.E.U.+XW.Y.[.v.B.).N.B.B.t.x.>.,.v.B.I.|.[.I.I.iX+XiXOX2XiXiXiX2X<X+XOXE.r E.<XU.U.9.#.| ) @.@.,.x.9.s.7.>.,.:.h.9.#.@.! $.x.7.0.h.9.0.h.7.,.X.V @.,.>.X.V ,.h.B.m.x.$.>.,.O.,.X.N V C @.V ! ,.:.) X.x.>.I.t.v.9.:.9.0.x.9.:.} :.) #.,.@.| +.@._ _ @.,.:.+.>.>.4.@.:.| 7.:.| ,.q.| :.q.x.:.) :.@.:.q.q.9.,.| | V l z Z C C <.,.@.| _ | ,.",
"bXbXS.8XnXS.F.nXwX9XsXqX9X8X0X0XrXrXqXqXqX0XMXrXnX9XnXnXnXrX9X9X9X8X~.~.F.~.7X~.7X~.^.8X~.!.bXF.0XVXKXGXBXKXBXBXPXGXSXSXfXsXdXMXrXMXrXBXMXrXMXsXsXeX,X,XeX,XrX0XeX<X<X>X=X=X<XsX0XeXeX9X=XsXsXrXrXeX9X<X<X8XqX;X8X;X!.9X9XqXqX7X,X,XF.,X;XF.,X7X;XS.8X;XQ.V.>   G.S.7XS.7XS.S.S.S.S.S.S.L.S.L.S.L.C.L.S.C.C.C.C.C.C.C.C.C.C.z.C.C.C.:XC.L.L.C.C.C.L.C.C.L.z.z.C.z.C.C.z.z.z.z.k.z.C.z.k.f.z.k.h.f.f.f.f.;.k.f.f.f.h.f.f.f.f.f.8.f.h.8.f.8.f.8.z.h.8.k.8.;.f.8.8.8.f.8.;.;.&.;.&.&.( &.&.&.;.&.&.-.-.{ { -.;.;.;.;.;.;.( ( J ^ j a.KXiXgXiXaXaX$XaXxXxXxXiXaXaXaXkXkXyX3X%X`.v.n.N.i.>.#.:.7.4.7.%.0.I.A.[..X2XiXOX+X1XiXaX2XuXaXkXiX2XiXiXyXyXiXiX+X$XyXiXiXxXiXiX$X$XyX$XyXjXiXyX$X$X$X+X+X+X$X+XOXOX$XOX3X X#XI.+XI.I.x.V.+XY.U.[.x.N.I.J.I.n.i.x.>.g.x.N.U.OXU.I.I.iXOX<XOXOXiX0XiX2X<X+X+X+X7 E.4Xv.I.8.@.[ _ ,.@.@.x.7.9.x.#.f.:.x.7.%.@.! 7.0.7.h.x.g.h.8.0.@.+.X.>.>.s.X.V ,.9.v.B.v.X.,.,.@.,.@.S V _ X.) ..%.9.O.| h.9.Y.v.x.7.4.9.0.x.7.[ [ :.} ,.@.| | _ @.) @.| @.,.) >.#.>.} :.#.>.:.+.:.7.) :.9.i.,.| #.) @.:.9.>.,.| ,.V i D V C n @.,.X._ X.,.<.",
"bX8XbX8XnX7X7XnXwXqXsX0X<X8XsXqXrXqXrXnXqX0XNXnXnXrXrXnXnXrXnX9X9X7X~.!.~.F.7XwX~.Q.~.~.~./.8XF.^.KXKXGXBXKXFXBXGXGXGXFXdXsXdXsXlXrXeXMXHXsXMXMXdXeX,X=X,X9X4X0X,X0X<X<X<X<X0XeX0XeXeX9X<X0XmXsXbX9X,X9X8X8XqX;X8X!.W.9X9XqX0X<X7X7X;X,X;X:X7X,X!.S.!.7X:XS.,   D.9X7X9XS.S.L.7XS.L.L.L.S.S.S.L.:X:X.X.XL.L.:XL.:XL.:X:XS.L.:X:XL.:XL.L.C.:X:XL.L.C.L.L.L.C.C.C.C.z.z.z.L.z.L.L.L.L.z.z.z.h.h.k.f.8.;.p.;.&.;.;.p.;.%.;.f.;.;.p.&.&.%.%.&.%.%.;.f.f.8.8.;.k.8.;.8.;.8.;.;.;.;.&.-.;.&.( ( &.-.;.;.&.;.&.&.&.{ &.;.{ ;.;.;.;.&.j d.PXiXaXiXxXaX<XiXxXBXxXiXaXiXiXkXjX3X%X$X@X).v.n.v.8.7.9.h.0.9.>.v.).[.'. X1XuX1X[.3XuXiXOXkXaXkXaXyXiXiXyXyXyXiX$XyX$XiXiXkXkXaXyX$XyXyXiXiXiXyX$XiXyX+X+X+X$X+X$X+X2XOX1XOXOXI.I.I.I.x.I.+X+XY.[.n.n.).N.N.v.i.i.,.9.x.U.I.{.T.c.U.iX+XiXR.OXiX2XiXOXOX2XOXI.7 R.<XU.'.0.+.+.) ,.@.%.j.| 9.k.+.>.:.j.7.&.@.) 7.8.:.7.v.8.8.9.#.#.%.) @.>.9.O.Z X.$.c.m.c.@.,.Z V @.O.C V ) ,.W ! >.9.X.,.h.,.I.v.i.7.4.0.v.h.:.:.) >.@.@.+.@.,.X._ _ @.X.X.>.| ,.:.#.>.,.@.g.>.:.:.:.+.| 9.9.q.%.q.| :.| q.:.,.| | V i C V C C | 9.@.) | >.| ",
"7X9XwXwXnX9X9XbX8XsXfXqXQ.9XsXqXqX8XsXsXqXmXrXqXnX7XnXnXnXnXnXnX8X7X~.!./.!.~.bX^.!.wX~.~.~.wX!.wXKXVXPXBXPXBXdXSXKXGXSXfXsXdXfXMXrXeXMXMXfXMXMXdX,X<X=X,X9XrXeX,X,X<X<X=X<X0XeX0X0XeX9X=XqXsXrXrXqX<X9X8X8XqX;X;XW.W.<X0XqX8X=X9X9X7X7X:XQ.;X7X;XS.:X7XF.V.y   G.S.S.S.7XL.9XL.L.9XL.L.L.-XL.L..XL..XL..X.X.XL.L.L.:X:XL.C.S.L.L.C.S.L.C.C.C.C.L.L.C.C.z.L.C.L.L.C.L.L.z.L.L.L.L.L.L.L.L.L.J.M.L.z.z.z.k.k.f.;.f.;.&.;.&.&.%.&.&.&.&.p.p.&.&.&.;.;.f.;.;.l.l.h.;.;.;.8.;.8.8.;.;.;.&.&.( ( &.{ { &.;.;.;.;.;.;.( ( { ;.;.;.&.j ,.KX0XiXiXgXxX+XiXBXBXxXiXaXiX+XkXaXyXyX2X@X`.b.0.0.0.0.0.b.n.x.:.v.[.'.[. X X5X1X[.1XhXyXOXkXlXxXiXyXyXiXiXiXyXyX$X2XyXyXiXkXkXaXyXyXyX$XyXyXiXiX$XiXyX+X$X$X+X{.$X+XOX#X2X+XOXY.B.U.Y.U.U.Y.OX'.J.v.N.I.U.U.v.v.g.,.g.x.n.I.+X[.B.I.iXT.OXOX+XOX2XiX+XOXiX+XI.r E.4XN..Xv.[ 7.@.+.+.%.k.X.g.g.+.>.7.h.7.@.&.+.7.7.%.7.0.h.7.7.#.7.@.X.@.7.7.$.Z @.,.x.x.x.,.,.X.Z X.) C n V | W V x.9.X.$.x.>.B.0.h.0.%.0.v.q.@.:.+.:.| :.) @.@.%._ W | +.) @._ @.:.:.:.,.:.q.:.>.:.@.+.:.9.:.7.7.:.,.| <.q.>._ <.,.V C D C V C @.9.| | @.>.1.",
"8XqX9XqXnXbX9X9X8XqXsXsX<X0XsXsXrX0XsX0XsXMX0X9XnXL.9XnX6XnXnX9X9X~.~.F./.~.~.~.8X~.8X~.~.!.8XQ.wXVXPXVXBXSXBXdXSXKXGXSXfXfXMXMXMXlXrXMXMXfXMXBXsXfX<X=X4X<XrXeX0X<X,X<X<X,X,XrXeXeX9X<X<XrXNXsXeXeX9X9X<X<X9X;X<XW.!.<X9X9XQ.;X9XS.S.,X;X;XF.;XF.S.7X7X;XC.,   D.7X7XL.S.S.S.L.S.L.L.S.S.L.L.;XL.:X.X:X:XL.C.:XL.C.z.z.C.C.z.z.C.z.z.z.z.z.z.z.C.C.C.z.z.L.L.C.L.L.z.L.L.L.z.L.8.z.z.k.m.z.z.L.L.L.z.L.z.z.z.k.h.;.h.f.k.f.%.;.;.&.;.&.&.;.&.;.&.;.&.&.;.;.;.j.z.z.8.8.8.8.8.;.&.&.{ { ;.;.;.&.&.&.( ;.{ &.{ &.;.;.;.;.{ ( ( j a.KXiXiXiXaXdX2X2XaXxXAXaXiXiX+XyXaXyXyX3X@X`.).v.0.9.i.v.n.U.n.8.B.I.'.[. X X4X2X+X2XzX2X+XaXxXkXyXiXiX$XiXiXyXyX$X$XyXiXaXkXaXaXiXjXiX$XyX$XyXiX$XiX$X$X$X$X+X+XOXOX%XOX2X+X{.Y.I.U.I.g.E.[.OX[.[.B.n.N.I.B.n.v.x.,.9.B.U.[.+X+XU.U.iXOX[.OXY.iXOX0XOXOX2X$X[.7 !.4XB.'.x.#.:.#.@.@.,.g.+.%.7.) #.9.0.#.%.+.+.9.8.7.7.h.h.7.7.7.>.,.@.X.s.>.$.O.! @.x.x.x.:.>.>.X.X.O.C D V X.@.) B.9.X.) B.>.B.x.9.x.4.q.v.7.:.q.) >.#.#.@.+._ %.) _ ) ) _ ,.) _ +.%.#.7.7.9.q.:.:.:._ :.q.| >.q.:.,.,.| 9.:.<.,.,._ C C C C V ,.>._ @.>.q.<.",
"9X9XqX9XrXqXnX9X<XgXsXgX0X0XsX0X0XsXsX9XNXsXqX0X9X7XnXnXrXnXrX9XqX7X~.F./.~.7X8XwX8X~.Q.Q.F.8X~.0XVXKXKXBXSXMXfXSXKXSXSXsXeXMXHXrXMXdXMXsXsXMXMXdX0X;X-X,X0XrXeX0X<X<X<X<X<X,X0XeX9X,X9X<XrXsXqX9X9X9X9X8X<X8X;X;XW.;X<X7X9X=X:X,X;X7X9XQ.!.!.;XS.;X7X;X!.C.y   G.S.S.F.L.S.S.S.S.S.S.S.C.C.L.L.C.C.C.C.z.C.C.L.C.C.C.D.z.D.z.D.D.z.D.C.C.D.z.z.z.z.z.z.z.z.z.z.z.z.L.z.z.z.z.z.z.z.z.z.j.l.z.b.K.L.K.z.z.L.L.M.M.M.m.b.b.z.h.h.k.h.8.f.8.;.;.;.;.;.;.;.;.;.8.8.;.;.8.8.8.8.8.;.;.;.&.{ ;.;.;.&.{ &.{ ( &.-.&.{ ( { -.;.&.( ;.j d.LXiXaXiXaXaXiX2XxXBXxXxXiXiX$X$XkXuXiX$X+X).[.v.v.v.v.J.).).N.v.).'.[.>X[.OX2X1X1X4XzX X{.aXaXxXyXyXyX$XiXuXyXiX2XyXyXyXjXaXaXjXiXaXjXiXyXyXiXyX$XyXyX$XiX$X+X+X$XOX2X2XOXOX+X[.I.I.I.c.B.[.OX'.[.N.n.N.I.B.v.v.x.,.g.v.B.I.{.[.I.I.4X+XI.2XI.2X2X2XOX+X$X+X+Xt E.pXN.I.8.%.#.#.%.%.>.g.+.f.%._ $.i.m.7.:.+.+.g.8.>.7.0.h.9.g.9.7.,.@.,.>.>.$.O.V ,.h.h.h.>.>.s.,.@.X.C N V ,.| ) B.x.! | m.9.m.x.7.v.7.9.h.9.7.:.) x.7.#.:.,._ %.| +.X.| | +.@.) ) :.@.#.9.q.g.>.#.@.+.@.,.,.,.,.q.:.| | 9.>.| ,.,.| C D C C V ,.s.| +.:.9.>.",
"qXqXqXqX9XrXrX7XgXeXsXeX0X0XsXqXsXsXsXrXrXrXwX9XnX:XnX9X6XnXnXrX9X7X~.~.~.F.~.wX8X8XwX~.Q.F.wX^.qXPXPXPXBXBXMXMXFXGXGXSXfX4XfXMXMXHXMXMXrXsXHXMXpXeX,X=X6X,XrXeX0X,X0X;X=X0X,X0XrX,X,XrX0XrXrXeXeX8X9X,X=X<X<X8XW.Q.;XQ.8X;X:X;X;X;X;X9X;X;X:X~.S.:X;X7X:XV., O D.S.D.C.C.C.C.C.S.L.S.S.C.C.S.S.C.L.L.C.C.C.C.C.C.C.D.z.D.z.D.z.z.z.D.z.z.z.D.D.z.z.D.z.D.z.z.z.k.j.z.k.z.z.z.k.f.k.f.8.z.m.C.z.z.z.z.z.M.M.z.z.z.z.z.h.h.h.h.l.z.z.l.z.z.8.l.l.8.l.j.j.8.8.8.;.8.8.;.;.;.8.;.;.8.;.;.;.;.;.;.{ -.&.;.;.;.-.;.;.-.;.-.&.( ( ( j O.LXaXiX2XaXdXiX$XaXxXxXxXiXaXiXOXxXxXuX$X@X+XOXt.n.I.n.n.).[.n.N.[.'.[.>X X X4X3X1XhXuXOX$XlXxXaXiXyXiX%XiXiXyXiXyX2XiXyXiXkXiXjXyXkXiXyXiXiXiXiX$XiX$X$XiX$X+X+X2XOXyX$X$XOXOX[.[.I.I.x.B.|.OX[.[.N.N.[.M.v.x.v.x.,.x.v.U.I. XOXY.I.4XW.+X+XU.OXOXiX[.E.iX+XI.a R.eX).N.8.4.#.+.%.%.>.f.&.g.s._ #.m.b.h.7.,.+.g.8.7.9.9.9.9.h.7.f.,.,.@.>.>.o. .X.%.x.h.x.>.@.>.,.,.X.N N _ @.@.O.c.B.X._ B.s.B.x.7.B.7.0.x.8.6.%._ 9.:.:.%.| W ,.+.,.@.X.+.@.,.@.| @.@.#.g.x.h.>.| ,.,.| ) :.+.:.9.>.q.,.q.9.| | ,._ C C k C V @.>.+.@.9.q.q.",
"qXqXqXqXqXqX0X0XMX0XeXsXqX0X0XgXnXnXrXrXrX9XwX9X9X7X9X9XrXnXnXnXrX7X8X7X~.F.~.wX7XbXbXF.7XF.7X7XsXGXKXGXSXSXdXMXSXGXGXdXdX,XlXdXlXMXHXHX0XeXHXMXrX0X,X=XeXeXrXeX0X,X<X=X<X9X9X0XeX,X<XeX9XeXeX;X0XqX0X<X;X;X<X<XW.:X;X9X7X;XW.;X;X,X7X,X;XW.Q.;XF.:X!.;XF.D.e   G.:XW.:XS.S.S.S.L.L.tX:X:X-X:XL.L.L.:XL.:X}.}..XS.L.L.S.C.C.C.C.C.C.L.C.C.L.L.C.M.z.C.z.z.z.z.C.z.c.j.z.j.j.8.;.;.s.f.;.k.z.j.h.z.L.k.z.j.z.8.8.z.8.k.8.f.f.;.f.f.h.h.h.f.h.h.h.z.l.;.l.l.l.;.l.z.z.z.8.8.;.8.;.;.;.&.&.{ ;.( { &.;.;.;.( ( { ;.;.;.;.-.;.( ( j F IXiXgXiXaXMXaX2XaXaXAXxXiXaXiX$XdXkXaXOX{.$X$XU.N.Y.U.N.).).n.[.+XOXY.2XOXOXiXiX>XiXiX+XuXlXaXiXiXyXyX$XiXiXiXyXyXiXiXyXiXjXiXiXyXjXaXyXiXiXaXiX$XiXiXiXiX2X+X[.$XOXyXOX2XOXOXI.[.[.).x.x.|.OX.X).B.'.[.n.B.x.n.B.,.>.q.n.I.+X$XI.E.$X+X+X+XU.OX+XiX+XI.+XiX[.4 R.eXI.B.;.4.%.) +.,.v.>.$.h.,.B [ b.v.0.7.&.[ 9.m.%.8.g.9.0.>.f.f.@.>.%.7.s.p.Z X.,.8.v.c.g.%.,.) ,.+.N N @.,.@.O.i.U.@._ B.9.N.Y.m.x.4.7.i.x.7.| @.:.:.@.#.#.) ,.) | X.@.| | #.,.) @.#.@.9.x.i.,.,.9.| C ,.:.| ,.9.9.9.9.9.i.,._ ,.| V D r C V ,.,.| ,.i.,.q.",
"NXnXrXrXrX9XqX0XsX0X0X0X0X<XeXgXnXnX9XrX9X7X7X7X9XnX9X9X6XnXnX6X9X7XwX7XF.F.!.7X7XbX9XF.7XF.~.;XsXKXKXGXSXSXMXfXSXGXSXdXeX4XfXHXrXlXrXHX,X0XMXMXzXeX-X=X6XrXrXeXeX,X0X=X<X<X,X0XeX,X,X0X9XeX<X<X0X0X<X=X=X<X9X8X:X=X8X8X<X<X;X;X:XS.;X;X:XQ.;X;XQ.;XQ.;X:XD.,   D.-X}.T.:XL.L.S.:X:X-XL.}..XL..XtXoX:X-X.X.X}.S.L.:XL.L.L.L.A.A.L.L.L.L.L.L.:XL.L.C.L.L.L.L.L.J.L.L.L.L.M.C.j.j.g.h.h.f.j.k.j.h.f.f.z.k.f.f.k.j.j.f.f.f.f.;.p.;.%.;.;.;.;.;.;.f.;.h.;.8.l.z.z.l.z.z.z.z.z.8.l.;.8.8.;.;.;.;.;.;.;.;.( ;.;.;.&.;.;.-.-.;.;.;.{ G ,.IXaXiXiXaXaXxXOXiXaXaXaXiXaXAX2XiXaXaXiX+X2X$X[.N.I.).N._.{.U.I.$X$X[.$XT.OXiXOX+XiXiX>XiXxXiXiXiXyXiXyXyXiXyXyXyXyXiXyXjXaXjXaXyXyXjXyXiXjXiXiXyXiXiXiXiX$X$XOX2X$X2X#XOX$X+XN.[.[.[.x.x. X#X).[.B.U.I.N.v.v.v.m.>.9.9.n.).OX+X[.U.2XU.E.2XU.OXI.$X$X[.+XiXI.r E.0XU.v.>.4.%.+.+.7.m.g.X.k.f.! +.B.v.v.f.%.#.g.v.g.9.7.h.m.>.$.,.X.>.>.>.:.,.V X.s.v.B.B.g.7.) @.,.,.V C Z @.| O.k.U.>.) c.q.x.B.B.v.7.7.h.0.0.#.| >.:.| %.,.#.) X.) _ _ @.,.:.>.#.,.:.#.>.x.i.,.g.9.,.V ,.,._ V i.9.9.,.9.,.,._ @._ V C r C V ,.,.V ,.i.q.q.",
"NXsXrXrXqXrXrX8X0X0XqX0XQ.0XgXsXnXnX7XUX7X7X7XnX9X7X9XnX6XnXnXrX9X7X7X7X7XF.F.wXbXwXF.F.~.V.~.S.sXSXKXGXFXMXlXpXZXGXGXlXfXrXsXlXdXlXrXHX,X9XSXMXrXeX;X}.eXrXrXeXeX<X<X-X<X<X0X0X0X;X,X9X9X0X,X<X<X9X0X=X=X8X7X<XQ.Q.<X;X;X=X-X;X;X;X;X:X;XQ.;X=X=X;X!.;XF.D.;   D.;XS.S.S.L.A.C.C.C.L.C.L.S.L.L.S.L.A.A.A.C.C.c.C.C.C.Z.Z.A.A.A.L.C.L.L.L.L.L.C.L.M.K.L.L.L.L.L.M.m.M.L.L.L.L.L.N.A.A.A.M.J.L.M.z.z.z.z.f.f.f.f.f.f.f.f.f.;.f.;.;.%.#.%.;.;.;.;.;.&.;.f.f.;.;.;.8.;.8.8.8.l.z.r.z.l.l.r.8.z.8.8.8.8.;.;.{ &.;.{ { &.{ ;.8.;.;.G d.KXiXaXiXgXaXaXiXiXaXaXaXiXxXSXaXyXaXaXiXOXyX$X XN.n.`.U.[.{..X+XT.+X+XI.T.2XaXOXOXiX2X2XiXxXiXiXiXyXyXyXiXyX$XyXyXiXjXiXyXjXaXaXyXyXjXiXiXiXiXiX$XiX$XiXyX$X2X#X2XOX#X#X#X2XOXU.|.[.+Xx.x.OX+X[..XB.'.).N.B.x.i.c.>.i.q.B.U.OX+XU.[.iX[.U.+XU.OX+XiX+X+X+XiXU.2 Q.4XU.v.#.4.#.X.%.>.m.g.X.9.>.! %.v.v.z.g.#.9.g.0.9.8.h.v.h.>.O.>.O.$.%.$.,.,.Z ! g.v.v.m.x.7.,.,.,.,.V C O.@.,.O.x.U.>.) m.,.x.x.x.v.7.9.0.h.h.#.@.0.%.:.7.#.%.+.W ) V W @.>.@.9.>.:.%.,.:.i.x.>.:.i.,.V @.,.V V 9.q.9.9.i.9.| ,.@.V V V k C V ,.,.,.,.q.<.q.",
"fXNXwX0X0XqXsX0XrX0X9XsX0X<XgXfXnX7X7X7X7X7X~.wX9X7XnXrXrXrXrXrX9X;X7X7XF.F.F.8X7XbXbX7XF.F.F.;XsXKXGXDXFXMXMXdXZXGXGXBXpXeXMXMXrXHXlXMX;XeXSXMXdXeX,X:X0XdXrXeXeX,X;X;X<X0XrX4XeX,X9X,X,XeXeX9X<X0X0XW.=X0X7X=X;X=X9X7X=X;X8X;X:XS.9XS.:X;XQ.Q.!.;X:X~.W.D.,   D.L.:XL.A.S.L.S.C.L.S.L.C.S.L.C.C.C.c.C.D.C.j.D.D.C.C.j.j.C.c.m.C.C.C.C.C.C.L.z.M.z.C.L.L.L.K.L.L.L.z.j.j.z.z.M.b.M.M.b.z.M.M.M.L.z.L.K.M.J.J.C.L.M.M.M.z.l.h.k.g.f.;.%.%.&.%.&.;.;.;.;.&.#.&.&.;.&.;.&.&.;.;.5.;.;.;.;.8.;.8.8.8.8.8.r.;.8.8.;.;.{ &.{ ( ( { j ,.PXiXiXiXaXBXaXiX2XaXaXiX$XaXDXaXiXaXiXaXOX2X$XOX).n.I.I.{.{.).OXR.OX+XI.+XiXiX[.|.yXfX2XiXlXiXiXyXiXyXyXiXiX+XyX$XiXiXyXyXiXiXkXiXiXaXaXiXyXiXiXiXiXiXiX$X$X2X$X2X+XOXOXOX#X+XI.[.+XOXg.h.|.OX'.[.M.).'.N.B.v.i.I.>.9.0.N.U.+X+XU.E.iX+X+XiXE.+X2X<X2X+X2X2X[.: ~.0XB.z.#.%.+.~ #.7.v.g.&.>.$.~ 9.v.l.v.8.>.g.9.8.j.g.g.h.8.s.@.>.X.O.,.$.%.>.O.Z >.h.v.B.m.%.9.,.,.,.O.N V X.) _ k.V.s.@.x.:.x.c.B.j.:.9.0.x.i.7.h.0.:.#.7.) [ >.! ) W C | :.:.7.9.@.#.| | >.x.g.9.i.,._ @.,.V | ,.q.,.,.q.,.X.,.X.| ,.C y C V ,.,.V g.q.,.9.",
"NXsX;XqXsXqX0XrXgXeXeXgX0X0XsXsXnX7X~.7X~.7X~.7X7X7X7XnXrXrXnXrXrXF.9XS.7XF.F.bXwXwX7X7XF.V.7XW.fXKXGXSXSXdXlXfXBXGXSXSXsXpXMXfXMXZXMXdX-X0XSXdXfXrX6X,XeXrX,X0XsX<X<X<X=X0XsX,XeX,XeX,X,X,XrX9X0X<X9X=X;X<X;X=X<XQ.<X;X:X;X;X;XF.;X;XW.;X:X!.;XW.Q.Q.;XS.D.r   V.6X-X-X.X}..X.X-XL.L.-X-XoXoX-X-X:XL.:X-X.X.XL.L.L.L.L.L.L.A.L.L.L.z.z.C.C.C.z.J.z.z.z.h.j.z.J.L.L.z.J.z.j.z.L.M.L.J.J.J.J.L.J.K.K.z.K.z.K.b.K.J.N.J.L.J.J.b.z.l.h.z.z.l.l.h.l.j.h.;.;.#.&.#.&.( &.( &.;.&.&.&.{ ;.-.&.;.;.;.;.;.;.;.;.8.8.8.r.r.8.l.8.8.;.( j d.KX+XgXgXaXBXaXaXiXiXiXiXiXxXAXBXiXaXaXaXiX$XOXOX).n.).).).{.[.[.[.+XI.E.OXiXiX[.>XiXiX2XiXlXiX$XiXyXyXiXiXyX$XiX$XiXiXyXyXiXjXaXjXaXjXiXjXyXiXiXiXyXiX2XiX+X2X2X2X+XOXOX2X2X+XU.OXOX+Xx.g.[.OX{.[.B.I.[.I.B.x.x.B.>.x.x.n.).+X+XU.[.iX+X+XiX+XOX<X2X2XOX2XOX[.: ^.iXU.>.X.#.f.[ +.&.B.j.@.7.$.X.h.x.8.M.9.%.c.9.h.h.h.8.7.7.g.@.,.o.,.,.O.,.>.X.N $.B.g.v.A.%.,.| ,.,.V C V X.O.V >.I.g.| B.>.c.q.h.0.:.9.v.x.x.0.h.7.9.:.9._ +.>._ ) | V _ ,.@.:.9.| :.:.+.g.c.g.9.x.q.V ,.| | _ ,.,.q.,.9.,.V ,.| V ,.C i S V ,.@.O.,.x.q.i.",
"rXqX9XqXrXrXeX0X0X0XgXqX0XgXfXgX7X~.7X~.~.UX~.~.7XQ.F.nXrXnXnXrX9X;XF.;XF.F.F.;X7XqX8XQ.F.F.Q.:XfXGXKXSXSXdXHXrXFXSXSXlXeXpXlXdXlXHXrXMX=XrXSXMXeX6X,X,XeXeXeXeXeX,XW.<X;X,XsX,X9XeX9X,X=XeXrX;X,XeX<XW.=X,XW.W.<X:X<X;XQ.:X;X<X;XS.7X:X;XW.W.;XW.W.W.;XS.D.r   V.tX.XtX-X}..X-XtX-X.XoX X.XtX XtXtXoX.X.X X.X.X-X.X.X-XoX.X.X.XL.L.L.L.L..X.X.XL.L.L.L.J.J.z.K.M.z.M.L.z.z.z.M.M.l.z.l.z.l.M.N.z.z.K.K.z.z.M.M.J.M.N.b.M.M.M.M.b.b.b.M.b.l.l.z.M.z.b.M.z.b.l.l.z.8.8.;.;.;.;.;.&.&.( &.&.;.;.;.;.;.;.;.;.8.;.;.8.8.8.;.8.8.;.G ,.KX+XiXaXaXxXiXaXiXiXiX2XiXaXBXSX2XaXlXaXiX+X[.$XY.U.[.[.[.].).[.[.OXE.+XOXiXiXOXOXfX4X3XyXaXiX$XyXyXiXyXyXyX$XyX$XiXiXyXyXiXiXjXaXjXaXaXaXiXiXaXyX$XyXiX$X+XiX2X2X+XOXOX2X>X+X[.OXOX|.g.9.[.1X.XN.).N.[.[.N.q.i.x.9.x.i.n.I.OX+XE.+XiX<XOXiX<XOX0XOXiX$X2X+XI.2 Q.^.U.i.@.7.>.#.#.[ m.h.@.7...@.v.h.q.l.9.4.z.g.z.%.7.g.g.7.f.o.$.$.$.+.X.X.>.X.V X.c.g.0.B.+.,.,.V ,.V C O._ ,._ ,.B.h.,.B.g.c.i.9.x.:.0.7.v.i.7.9.9.7.:.>.+.,.,.X.) +.) W @.+.:.q.%.@.@.| g.i.9.9.9.,.@.| O.,.V V <.q.,.q.,.V | X._ ,.C i D V ,.@._ ,.,.,.i.",
"rXrXrX<X9X9XrX0XsX0XeX0X0XNXgXgX7X~.~.UX~.F.~.~.~.~.7XwX9XnXnX9X9XS.7X9X7XF.nX7X8XwX9XQ.F.F.7XW.sXDXKXSXFXHXHXfXFXSXFXdX4XfXdXdXlXMXlXdX=XeXSXlXrXeX,X9XrX6XeXrXsX,X-X=X,X,X0X>X,XeX0X<X-XeXeX:X,X0X,XW.<X8X=XW.;X;X<X;X;X:X;X<X:X:X7X;XQ.:XQ.;XQ.S.W.W.S.D.y   V.tXtX-XoXtXoXtXtXtXtX3XtX1XtXtXoX XoXtXoXtX1XtXoXoXoXtXoX.X.X.X.X.XL.L.L.L.L.L.L.oXL.L.L.L.L.L.L.M.J.L.L.L.L.L.J.L.M.M.M.M.b.M.K.z.8.z.z.z.z.l.z.z.v.z.v.l.l.m.b.z.b.b.l.l.l.l.8.8.h.8.l.b.M.b.r.z.y.z.z.r.l.8.8.;.{ &.( &.&.( ( ( ( &.;.;.;.;.;.;.-.-.;.&.-.G d.KX+XiXiXaXBXiXMXiXiXiXiXiXxXBXAXiXaXxXiXiX+X+X$X[.n.`.+X{.].).+X+XOXI.[.<XiXiXOX4XaX2X1XiXaXiXyX$X$XiXyXiXyX$XyXiXyXiXjXiXjXjXjXaXaXiXaXaXiXiXiXiX$X$X2X$X+X2X2XOXOX$X+X$X2X[.I.OXOX{.9.g.|.OX|.I.N.J.'.'.N.x.B.B.i.m.t.v.I.+X+XU.[.iX+XOXaXOX2X<X+XiXiXiX+X+X2 ~.iXU.g.+.#.#.,.+.>.v.>.%.>.X.) m.z.h.z.9.9.v.h.m.;.7.m.9.%.f.,.@.,.X.,.$.O.$.,. ._ g.v.x.g.+.O.V V X.V C O.| ,._ ,.c.9.+.c.0.x.B.7.9.:.h.:.h.x.7.7.7.<.#.%.@.:.:.+.@.@.@.X.| @.| ,.:.:.@.+.q.9.9.q.9.q.,.| _ ,.V | | ,.q.,.| C ,._ V ,.C D l V ,.,.) ,.,.9.i.",
"rX0XNX9X<X,XrXNXgXgXgXeX<XsXgXqX~.~.~.F.~.~.~.F.F.7X7X7X9XnXnX6XrX7X7X7XF.F.9X7XqX8X7XQ.F.F.Q.=XfXDXKXSXSXSXHXdXSXVXZXfXeXpXMXdXrXlXMXsX=XrXSXdXeXeX,X:XeX,X4XrX4X0X;X<X,X<X0X0X9XeX0X,X<X9XeX,X0X,X,X=X<X<XW.:X;X;X<X;X:X;X:X<X;X:X:X;XW.W.R.;X=XQ.W.W.!.V.y O S.3XtXtXoX.XtXtX-X6XtXtXtX-X X.X.X.X.XL..X}.].].L..X].].].{.].]..XL..X.X.X.XL.L.L.XXJ.L.L.K.L.L.L.L.L.J.J.L.J.L.L.J.J.N.J.N.L.L.L.L.K.L.L.K.L.M.M.M.M.M.b.l.l.9.h.z.z.z.z.l.l.l.b.z.l.l.8.8.l.b.M.M.r.M.r.z.z.b.K.K.l.8.;.8.;.;.;.;.{ ;.{ ;.;.{ ;.;.;.;.;.( -.G ,.KX<XiXiXiXMXaXaXiXiXiXiXiXaXxXSXiXaXxXaXiX+X+X#X[.I.].OXOX{.[.E.+X2X+X[.2XiXOX[.iXaX2XyXiXiXaX$X$XyXiXiXiXiX$XyXyXaXjXiXiXaXaXiXjXaXiXaXiXiXiXiXiX$XiXiX$X+X$XiXOX{.OXOXOX2X+X[.OX|.+Xg.x.[.|.N.[.I.[.[.'.N.v.B.m.9.U.x.u.I.+X+XU.$XgXgXiXiX<XiXiX$XOXiXiX+XE.r !.0XU.x.) %.%.+.&.7.m.&.,.7...&.v.M.m.v.7.h.m.h.9.h.9.9.>.&.;.>.g.,.,.,.@...O.,.X. .,.v.9.x.X.,.V ,.| V S O._ _ V >.I.q.@.x.v.B.m.:.h.:.0.#.9.B.q.:.7.| +.+.>.,.+.:.| ,.,._ X.:.@.+.@.#.:.#.g.x.,.9.,.,.,.| V ,._ _ ,.,.q.,.,.C <.,.| V C l C C @.O.,.,.,.9.g.",
"rX8XnXrX9X;X9XnXgXsXsX0X9XmXrXwX7X~.F.F.F.~.~.F.F.UX9XF.nXnXnXnXrX;X7X7X7XS.8X7X9X9X;XF.F.F.7X<XsXSXLXGXSXHXMXfXFXSXMXfX4XfXdXfXMXHXrXMX,XrXHXrXrXeX-X6XeX-X,XrX0X9X=X,X9X,XeX9XeXeXeX-X9X9X6XeX,X0X0X=X<X;XW.=XW.=X<X<XW.W.=X8XQ.:X;X;XW.Q.W.;X8X;X!.W.S.c.y   S.oXoX.X.X.X-X-X X.X|.]..X.X}.'.L.N.L.N.L.'.|.]..X.X].].]._.]..XL.L..X.XL.L.L.L.L.L.L.L.L.L.L.L.L.L.L.L.].'.L.'.H.J.L.J.J.J.L._.J.J.J.J.J.J.L.J.J.).'.J.J.L.M.h.h.m.z.z.b.z.h.8.l.8.l.8.8.b.z.l.l.8.8.8.r.z.r.r.l.K.K.r.8.8.z.l.K.z.b.r.z.8.;.=.;.&.-.-.&.{ ( G ,.KXiXiX<XaXBXaXaXaXaXiXiXiXaXMXxXaXaXxXaXiXOX{.2XOX[.{.$X$XOX[.+X+X$X+XOXiX$XiX+XiXiX$XiXiXaXaXiX$XiXaXiXiXiXyXyXiXiXaXiXjXjXcXxXiXaXaXaXiXiXiXaXiX$XyXiX+X+X$XiX$X[.$XOXOX2X[.[.+X X'.x.x.'.[.B.[.Y.|.'.'.N.n.B.B.0.B.v.n.I.+X+XU.+XaXiXiXiXiX<X2X2XE.aXiX+XU.r R.,XN.h.+.%.#.) &.9.v.@.>.,. .s.v.v.N.v.7.8.B.8.j.x.7.>.%.#.s.>.>.@.,.>.%.O.X.@.@. .X.B.h.h.) ,._ O.O._ C ,.O.! V @.B.9.:.m.m.B.B.v.A.:.7.@.q.B.:.7.:._ _ :.9.#.) @.| ,.:.) _ >.+.,.,._ :.q.9.9.,.i.,.,.,.) _ ,.V | ,.,.<.| ,.C ,.,.,.,.V D C C ,.) ,.,.,.i.>.",
"rX<XrX0X9X9X0X9XgXeXsX0XwXsXqXQ.~.!.UX~.~.F.~.~.~.F.7X7X9XL.nXnX9X7X9X9X;X;X7XF.9X8X;XF.W.W.;X<XdXSXGXGXSXZXlXrXSXSXdXpX4XfXfXfXfXHXlXrXrXrXZXlXeXeX,X9XeX<X9XfX0X6X=X,X-X9X9X6X9XeX9X9X,XrX9XrX6X0X9X=X<X;X=X;X=XQ.<X9X:X:XW.,XW.:XW.;XW.:X!.;X;X;X:X:XW.V.>   S.tX6XvX5X5X5X5X X}.]..XOX X X.X X X.XL.'.A.A.L.]..X.X.X].L.].L.L.L.L.L.L.L.L.L.L.L.L.L.z.L.K.C.L.L.L.J.L.)._.J.'.].'.L.N.J.J.'.J.L.L.J.J.N.b.N.J.'.'.J.J.J.H.n.J.K.J.J.K.J.M.J.J.n.l.l.b.z.8.l.z.K.z.r.8.r.8.z.r.8.z.r.l.r.r.r.r.r.z.y.b.r.z.z.r.r.r.r.r.5.;.G d.KXOXiXiXiXaXaXxXiXiXiXiXiXaXZXxXfXaXxXaXaXOX`.#X#X{.+X1XOXOX).E.+XiX+X$X<XiX<X+XiXaX+XiXiXxXiXiX$XiXiXiXiXiXyXyXiXaXaXiXaXaXaXaXaXjXaXaXiXiXiXaXiX$X$X$X+X+X2XiX2XOX>X$XOXOXOX+X>X|.'.B.x.I.Z.I.Y.[.[.}.[.Y.N.B.x.i.B.n.v.I.[.+XU.$XgXgXiXiX<X+XiX2XOXiXiX+XU.t E.=XB.h.+.%.@.%.&.@.h.$.7.,.@.7.M.8.M.m.7.j.v.v.v.j.>.%.#.@.,.>.>.%.+.>.,.X...X.@.O._ x.h.h.9.s.V V O.O.N Z @.V V @.v.:.+.9.m.M.'.m.m.9.7.#.7.B.h.#.>.! n :.q.:.W @.,.@.%.@._ ,.@.%.:.,.| g.g.x.9.:.,.| ,.) _ ,._ | <.,.,.,.,.C | ,.<.| C i S C O.,.,.,.@.x.i.",
"nX9X8XrX;X0X9XqX9XqXwXwX0XqXwX8X~.~.~.Q.~.~.~.~.UXF.F.7X7XrXL.NXnX9X7X9X;XF.7X:X9X-X7X!.S.W.;X;XMXSXLXSXSXSXlXdXZXHXfXdXsXpXdXfXdXlXeXeX6XfXSXzXeX6X,X:XeX<X,XeX6X,X=X<X,X,X,XeXeX6XeX-X,X6XtXrX9X0X=X;X8X<X:X=XQ.|.,X<XQ.=XW.8X:X:XW.=XW.Q.;X7X;X;X;XQ.W.V.>   S.3XtXoXoX1X3XtX1X1X1X3X3X5X5X1X1X1X#X#X6X6X#XtXoXoXoXoX1XoXoXoXL..XL..XL.L.L.L.L.L.L.L.K.L.z.L.L.K.K.J.M.M.M.H.L.J._.'.L.n.N.b.l.b.m.v.v.b.l.v.n.N.L.J.J.L.J.J.J.XXL.J.J.J.J.M.K.N.M.M.l.v.8.l.l.l.K.l.K.z.z.r.8.r.8.5.5.;.-.;.2.;.r.r.r.r.8.8.r.r.r.r.r.;.-.G a.KXiXiX$XaXxXaXFXiXiXaX2XiXgXaXMXeXaXdXaXiX1X{.#X#XOX$X2X1XOX[.U.+XiX2X+X<XiX+XU.iXiX$XiXiXaXaXiX$XiXiXyXyXiXyX$XiXcXaXjXjXaXjXiXjXaXjXiXiX$XiXaXiX$X$XiX+X+X$XiXOXOXOX2XOXOXOXOXOX X'.B.x.m.v.B.A.[. X.X).[.I.n.i.i.I.B.u.`.+XI.U.iXaXiXiXaXiX[.iXiX2XiXiX<X[.t E.,XB.7.%.#.+.,.%.#.g.,.%.+.X.7.v.h.B.m.7.m.x.h.h.g.&.+.@.| ,.f.7.>.@.+.%.%.! O.$.@.! g.v.m.9.>.V O.,.O.V O.V O.! ,.m.h.%.9.v.N.'.0.x.g.7.9.x.v.h.#.:.! M :.:.%._ +.,.,.%.,.) _ +.>.>.,.,.>.i.g.,.,.,.,.,.| ) ,._ | ,.<.,.,.V V ,.,.V V V i V C X.,.,.,.,.9.9.",
"nXrX9X9X;XrX9X9XqX9X;X<X8XqX7X~.7X7X!.~.UX7X~.~.wX7X7XF.F.9XnXnX9XnX9X7X7X;X7X:X7X;X7X!.!.F.;X<XlXGXGXHXZXDXlXrXHXHX4XdX,XfXpXfXeXfXrX6XeXMXHXeXeX0X,X-XrX-X,XrX9X,X;X<X,X9X,XrXeX9XqX6X,X9X,XrX,X0X-X:X=X=XQ.:X=X:X;X;X:X;X:X;XW.Q.W.;X:XW.;X;XQ.W.W.;XW.V.>   S.3X1X3X6X1XtX5X6X3X3X6X1X-X1X X X X X XoXoX1XoX1XoXoX#XoXoX#XoXL.L..X.XL.L.L.L.vXL.L.L.L.L.L.L.L.L.J.L.A.H.N.J.L.J.J.J.N.H.N.J.J.J.J.H.N.b.b.b.v.b.b.n.b.b.l.N.K.J.J.J.M.K.b.J.M.l.M.b.b.J.K.l.l.l.l.l.l.K.y.r.8.5.;.8.;.-.5.5.-.;.8.5.;.2.r.r.5.;.;.5.;.{ { G ,.IXiXiX+XgXaXxXMXiXiXiXiXiXiXiXlXiXiXlXpXaX2X+XOX2X#X>X2XOX#XI.E.OXOXOXOXiXiX+X+XiXiX+XiXiXaXaXiX$XiXiXiXyXiXyXyXiXaXjXiXaXiXaXiXaXaXaXiXiXiXiXiXiX+XyX$X+X+X$XiXOXOX2X2XOX2X2XOX X|.[.B.x.x.x.B.M.[..X[.).'.[.B.x.q.v.n.v.I.+X[.U.2XiXgXiXiX0X<XiXiXiXiXiXiXU.m E.,Xm.7.>.@.&.,.+.k.f.%.+.$.+.7.v.N.M.9.7.m.h.h.9.9.@.@.,.| ,.k.%.,.%.) ,.$.X.V X.X.$.k.B.v.>.>.V O.,.@.V O.@.Z X._ h.B.%.>.x.Y.Y.h.x.h.>.x.B.x.9.@.:.X.) &.@.@.%.:.:.+.+.@.) | +.7.>._ ,.>.:.9.g.,.,.@.,.@.,.,.V ,.,._ ,.,.| V V ,.V ,.V k V z V ,.,.,.X.g.x.",
"rXnXqX0X9X9X9X9XqXqX9XqX7X9X~.Q.7X7XF.~.~.7XQ.~.7X7X~.F.F.nXnXnX9X9X9XS.;X;X9X!.8X:XQ.!.F.!.;X;XdXSXLXMXDXFXdXdXFXHXrXfX,XeXfXsXeXeXrX0XeXpXHXeX,XeX<X-X0X=X,XeX6X,X,X;X,X0X6XeXeX,X,X6X9X,X,XrXeX,X<X;X=X:X:X;XW.:X;X=X;X:X;X<X:XQ.T.:X;X;X;X7X;XS.W.W.T.D.,   S.vX6X6X3X1X1X#X.X.XoX X.X#X#X#X X#XOX XoX XoX XoX{.].'.]..X].].L..XL.L.L.L.L.L.L.L.L.L.L.K.K.L.L.L.].'.].]..X.X].].'.].'.].L.].].*X_.J.'.J.H.b.N.v.v.b.b.b.b.b.b.b.b.z.b.b.b.l.l.l.e.l.l.K.l.K.K.l.l.K.y.z.K.K.P.y.r.z.K.z.y.z.r.r.8.;.5.r.r.r.8.8.;.=.-.{ 8.G d.KXiX$XiXiXiXaXlXiXiXgXiXiXiXiXiXiXiXZXaXiXiX$XOX$X2X2X2X+X1X[.[.$XiX2X+X+XiX+X+XaXiX+XiXjXiXiX$XyXaXiXiXyXiXiXyXiXaXaXaXjXjXaXiXiXaXaXaXiXiXiXiXiX$XiX$X+X+X2XiX2XOX2XiXOXOXOX+X|.'.[.B.x.g.x.B.B.Y.|.).[.).[.B.0.9.t.U.t.I.+XR.U.$XgXaX<XaXiX+XiXiXiXaXaXiXI.8 E.Q.u.>.%.[ +.>.@.g.g.$.&.$.&.g.J.J.b.%.7.v.>.9.g.7.X.@.@.X.,.g.>.%.,.X.#.@.X.V Z ..+.9.m.v.%.>.O.,.,.,._ ) O.O.! V 9.M.>.,.9.B.'.8.9.h.>.x.h.x.7.@.#.%.) %.@.:.%.%.@.@.,.,.%.X._ ,.>.+.,.>.,.:.,.#.,.| @.,.,.,.,.q.,.,.9.i.V | <.<.V _ S i V l ! ,.>.,.) 9.x.",
"rXrX9X0X,X9X9X9X9X9X9X7X7X7XQ.7X7XF.7X7X7X7XQ.7X7X7XF.~.S.nXnXL.9X9X9X9X7X<X7X:X;X;X;XQ.!.S.=X,XlXGXGXHXSXSXdXdXMXdXeXfX>XeXeX4XeXeXeXeXrXdXHXrX6X,X=X-X,X:X6X0X9X-X-X:X=X6X,XeXeX9X,X9X,X,X,XfX,X0X>X=X;X=X=XW.:X:X;X;XW.:X;X;XW.:XW.;X;X:X;X;X;XR.W.;XW.c.,   S.6X6X3XoX.X X+XoX#XoXoX#X{.'..X X.X X X{..X.X.X}.'.}.N.L.'.}.L.L.L.L.L.L.L.L.L.K.L.K.L.K.L.C.K.J.J.J.J.L.L.J.L.J.J.J.H.N.J.N.H.J.J.H.b.b.n.J.M.N.M.b.l.v.N.J.J.J.N.M.K.b.b.M.v.b.b.l.b.K.l.K.l.l.K.l.r.b.r.r.y.r.b.r.l.r.r.r.r.r.z.r.z.r.y.z.r.r.r.r.;.-.=.-.G ,.IXiXiXiX+XiXMXaXiX2XiX2XiXgXiXiX2XaXxXpXiXiXOXOX2X>X2X3XOX$X[.U.+X+X2X+XiXiX+X+XiXiX+XiXaXaXaXyXyXiXjXiXyXiXiXiXjXaXaXjXaXaXaXyXjXaXaXaXiXiXiXiXiX2XiX$X[.$X2X2X2X$X2XOX+XOXOX|.[.'.'.N.x.9.x.v.N.[.[.N.I.).).B.q.q.n.U.t.I.+X+XU.OXiXiX2XaXiXE.2XiXaXaXiXOX+Xr E.0XU.4.7.&.) s.@.g.h.>.>.X.%.m.H.v.m.7.7.k.#.7.>.&.O.O.V O.X.,.>.s.%.%.%.,.$. .V X.%.9.v.v.%.>.O.s.O.O.O.O._ _ O.! ,.v.>.%.9.v.B.9.x.9.7.h.h.h.>.:.#.&.+.#.,.,.>.+.) %.>.,.>.,.X.+.,.X.:.:.,.+.%.%.>.+.@.) ,.,.<.,.q.d.i.,.,.V V ,.,.,.C l S C ! %.>.@.) g.h.",
"9XqX9X9X8X9X;X9XqX9XqXQ.Q.Q.Q.Q.~.7X7XQ.7X7XS.7X7X7XF.7XF.F.nXS.L.9X9XS.9X8X;XQ.;X8X;XQ.!.S.;XeXHXGXGXfXZXSXdXdXHXfX4XeX,XsXeX0XeX0XeX<XeXlXlXeX,X;X:X;X,X=X4XeX0X-X:X:X=X9X,X,X,X6X9X6X,X6X9X9XeX,X,X;X=XQ.=X=XT.:X;X:X:XW.:X=X:XW.R.=X;XW.<X,XQ.W.F.=XS.D.,   S.3X6X1X1XoX X X#X X.X[.].]. X{. X#X X X+X.X'..X}.}.'.A.N.A.M.L.K.L.M.z.L.M.M.M.L.M.M.L.L.L.z.z.b.M.L.M.L.A.M.M.M.N.J.N.N.n.J.N.M.H.M.M.b.l.e.e.K.b.b.b.v.l.v.v.l.b.n.J.J.N.N.b.b.b.b.b.l.K.l.l.z.K.K.l.y.z.z.r.z.b.r.r.y.r.r.r.r.r.r.r.r.z.z.r.r.r.r.r.5.;.-.G d.LXiXaX2X+XiXaXxXiXiXiXiXiXiXiXiX$XiXxXaXiXyXyX+X$X2X2X4X$X#X.XU.+XiX2X+XiXiXE.+XaX$X+XiXjXiXiX$X$XiXiXiXiXiXyXiXjXcXjXaXaXjXaX$XiXiXiXiXiXaXaXiXiX$XyX$XI.OX2X2X2XOXiXOXOXOX>X X[.[.[.B.v.x.B.x.N.N.[.).).).'.B.q.i.B.B.u.I.+XI.U.+XiXiX<XiXiXI.2XiXaXiXiXOX+Xm E.OXI.7.:.@.@.>.+.g.g.f.,.X.>.m.B.e.l.7.f.7.$.,.@.o.Z A N N X.@.%.7.7.@.>.g.,.O.V $.,.7.m.j.>.,.$.$.,.O.O.,.O.X.X.V ,.x.,.X.9.v.x.9.x.x.:.x.x.q.>.:.>.) ,.:.#.7.>.#.%.#.$._ @.,._ X.,._ s.>.,.+.,.,.,.@.) _ :.,.V ,.q.q.,.q.q.<.V V ,._ C z C y V ,.,.,.+.>.9.",
"qX0XqX-XqX9X:XrX9X9X7XQ.Q.Q.Q.~.F.7X7XS.7XwX7X7X7XS.7X7XF.S.nXnXnXnXnX9X9X7X7XW.;X9XQ.!.!.S.W.0XHXDXGXHXDXFXfXdXHXdX6XfX,XsXpX<X-XeXeX6XeXdXdXeX,X,X}.-X,X=X9X,XeX:X:X:X=X6X,X0X,X,XrX,X9X,X,X9X,X9X0X;X,X=X;X=XR.;X;X;X:X:X;X=XW.W.W.;X;XW.=X8X=XF.S.;X:Xk.>   S.3XoXoX X1X#X.X X.X{. X{..X.X.X'.'.'.[. X.X.X'.L.L.}.'.'.L.L.L.L.L.L.L.L.M.M.M.L.M.z.z.z.z.L.L.A.A.M.m.M.M.M.A.N.m.v.m.z.l.b.M.b.b.m.b.M.M.l.l.l.z.l.v.l.l.0.l.8.e.l.l.b.8.0.e.l.e.l.e.l.8.r.r.l.r.K.l.r.z.r.r.y.b.y.b.z.r.z.r.r.8.r.5.r.r.8.r.r.r.;.8.r.;.-.G d.LXgXaXiXiXaXaXaX2XiXaXiXiXaXaXiX2XaXSXdXyX2XiXOXOX4X3XyX$X2X{.E.OXOX+X+X<XiX+XiXaXiX+XyXaXaXiXyXyXjXyXiXiXjXiXiXaXaXaXaXaXiXiXiXaXaXaXiXiXaXiXiX$X$XyX$X+X+X$XiX2XOXiXOXOXOXOXOX[.Y.[.I.B.x.B.v.A.[.'.).Y.[.).B.q.x.v.U.U.`.I.I.U.+XiXaXiXiX2XI.+XMXaX0XiXiXI.m E.Q.I.>.>.) X.,.>.k.%.7.$.O.#.m.b.m.g.%.%.:.%.$...Z Z N N Z N o.$.7.>.,.%.g.>.+.Z @.f.>.m.x.#.s.,.,.,._ X.O.X.! ,.V @.v.,.| h.v.h.x.v.c.4.x.x.#.g.7.7.+.:.,.@.,.>.#.,.,.) W @.:._ ) ,.| >.>.>.X.@.,.@.,.@.) >.q.F 9.i.,.,.V U.V V q.V X.C z N C O.$.,.,.+.:.7.",
"9X9X9X9XnX9X9X9XnX9XF.9X7XF.S.qXwX7XF.F.;X9X9XS.nX7X9X7XS.S.9XbX7X9X9XnX9X8XS.F.8XS.bXS.bXS.S.9XMXDXGXFXFXFXHXnXHXdX,XeX4XsXeX4X,X4XpX,XeXfXfXsX,X;X:X=X9X=X,X,X6X;X:X:XS.6X9X6X6XeXeX,X,X,X,X,X,X,X4X=X<X=X=X=XW.;X=XW.=XW.=X;X=XR.R.=X:XR.;X<X;XR.W.Q.R.c.,   S.zXL.L.6XtXL.6XL.L.tXtXL.L.tXL.tXL.L.tXoXoXL..X.XoX.X.X.X].L.L.}.]..XL.].L.J.L.A.N.N.M.N.A.N.J.L.M.M.N.z.z.M.M.M.M.b.J.K.z.K.K.m.8.g.M.v.z.v.l.h.l.8.9.8.9.l.v.h.8.0.v.b.b.e.e.l.e.0.8.0.0.e.e.l.l.b.l.r.0.0.8.6.l.b.l.e.e.r.l.r.K.r.r.r.r.r.l.r.r.8.5.8.=.=.G x.KXaXaXiXiXiXaXaXiXiXiXiXiXiXiXiX$XiXAXaX2XjXiX+X2X2X2XiX2XOXOXI.2X4XOXW.2XiX$XiXiX2X2XyXiXkXkXyXiXiXyX$XiXiXyXyXiXaXiXjXaXiXaXiXaXaXaXiXyXiXiXiX$X$XiX$X+X+X$XiX$X$X2X2XOXOXOX+XOXI.Y.N.B.0.B.x.'.[.[.[.).'.).v.9.0.n.U.B.).].[.t.OXiXiX4XiXOX[.OXaXaX2XiXOX+Xm E.2XY.,.>.| ,.@.>.c.+.,.O.@.>.h.N.v.g.g.%.#.$.$.Z N A  .Z ..C N ,.@.>.g.>.j.x.%.O.@.g.>.g.h.>.>.>.O.,.) _ O.O.V O.V ,.x.,.| x.x.x.g.v.B.9.B.x.:.0.9.9.,.| ,.,.,.>.,.>.,.! ) ,.,.X.| g.+.>.:.,._ ,.,.,.@.X.,.,.X.X.x.i.>.,.,.9.,._ ,.X.,.C z C C V X.,.q.,.| ,.",
"bXwX7X9XS.bXS.9XS.9XnXF.F.wXF.9XS.wXL.nX,X;XL.9X;X9XS.9X7XF.S.7X9XrXrXL.nXS.8XS.S.nX9XS.S.F.S.9XrXGXGXSXFXHXnX5XdXHX4XrX4XeX4XeX<XfXsX<XeXfXfXeX,X-X:X;X,X-X6X,X6X,X:X:X9X9X6XeX9XeX9X,X;X,X=X0X,X9X0X;X<X;X=X<XT.;X=XW.<XT.=X;XW.W.W.:XW.R.:X8X;XR.R.W.T.D.r   L.HXL.zXzXvXvXzXzXzXvXvX6X6XvXL.tXvXtXtXtXtXoXoXtX3X6X&XoX XoX]. XoXoXoXoXtXoXoXoX{..X]..X.X]._.].].].L.L.L.L.J.M.L.L.L.C.L.L.K.M.N.b.N.n.H.b.H.J.n.b.J.M.b.v.v.l.l.t.e.y.l.l.v.l.l.8.%.;.-.7.9.8.8.8.h.8.7.7.4.5.5.8.e.l.b.l.r.l.r.K.r.r.l.l.K.K.l.l.r.8.5.{ H E.KXiXxXiXiXiXgXxXiXiXiXiXiXBXiXiXyXaXcXaXiXiXiX+X$X2X2XiX$XiXOX{.2X4X2XOX2XiX$XiXaXyXyXiXkXuXkXyXiXiX$XyXiXiXyXyXiXjXiXiXcXjXaXiXaXaXaXyXiXiXiXiX$X$XyX$X+X+X+X2X2X$X2X2X2XOXOXT.+X+XY.I.N.x.Y.B.I.[.I.).J.).N.v.q.x.).N.n.).{.[.u.{.yXaX<XiXOXY.$XfXaXOXiX+XR.r E.Q.U.,.| @.@.:.k.j.%.$.X.@.9.h.b.M.#.7.%.&.+. .l B  . ...X. .N X.,.,.,.7.k.m.>.$...9.7.9.m.h.7.f.Z O.@.O.V _ _ ! X.9.v.| @.9.7.x.x.x.x.x.h.x.>.h.h.9.q.,.:.,.,.>.| ,.| ! X.,.,.X.@.,.,.,.@.%.) ,.,.) X.@.,.>.X.| 9.>.>.>.,.:.,._ _ @.,.C k C C ,.V ,.,.V ,.9.",
"F.bX7XbXF.9XF.bX9XF.nXS.S.F.nXF.7X9X9X9X9X,XnXS.,XrX-X;X9XS.7X8X7XnX9X9X6XL.8X8XS.nXF.S.S.F.S.9XHXDXGXDXFXHXzXHXlXfX4XpX0XeX,XsX0XpXrX;X4XeXeX4X,X,XW.,X,X=X6X,X,X,X:XL.tX9X9XrX-XrX9X,X,X;X=X0X,X,X0X=XQ.=X;X=XT.<X;XW.W.R.=X=XW.W.W.W.W.R.:X;X=XW.R.W.W.D.,   S.5XvXL.L.L.vXL.vXL.5X5X5X5X5X5XvX5X6X6X6XtX1XvX3X6X1X3X3X6X6X3X&X6X1X&X#XtXoX1XoX1X#XoXoX].]..X.X.X.XXXoXoXoXoXoXtXXXL.L.L.L.L.N.H.M.v.b.n.M.v.n.B.b.e.l.0.v.b.N.).J.J.K.J.J.J.H.e.l.l.e.0.e.h.8.l.8.l.e.h.6.8.8.;.5.8.;.5.5.5.-.5.5.5.8.r.r.r.l.r.r.r.5.*.=.H d.IXiXaXiX2XiXiXaXiXiXiX$XaXaXiXiX$XiXAXaXiXiXiX+X$X$X2XiX2X2X$X[.2X2X$XOX2XaX$XyXiXiXiXiXkXkXiXyXiXyX$X$XjXiXyXyXjXjXaXiXaXiXjXiXcXjXaXyXiXiXiXiX$X$XiX$X+X+X+X2X+X$X2X2X2XW.OXY.+XY.I.Y.B.x.I.B.N.J.J.'.J._.N.v.q.x.N.U.t.).`.[.n.[.2XiXiXiX>XY.2XiXaX$XiX$XI.r E.2Xx.7.7.+.,.>.v.g.+.$...,.x.g.H.m.&.%.%.&.X.V z O.X.X.+.#.$.C O.>.7.%.7.f.M.x.>.O.,.#.j.M.0.7.s.V $.O.@.O.O.V O.,.>.q.+.@.7.:.x.v.B.x.q.v.x.9.0.x.g.,.+.@.@.,.9._ O.+.! X.>.:.) >.,.9.>.,.:.>.9.,.) _ X.@.>.@.) 9.7.,.>.,.>.,.V _ @._ C i D D V ,.,.| ) ,.,.",
"F.7XbX7XbXF.7X8XnXF.F.bXF.F.F.9XS.F.9XS.9X9X6XS.,X9X9X7X8XF.F.9XS.9X9X-X9X9XF.S.F.S.S.nXF.F.S.6XHXGXGXDXDXHXHXHXHXsXeXeX4XeX,XiX,XdXpX-XeXeXeX4X,X,X}.;X,X-X,X,X-X,X:X-X;X,XrX6X6XrX6X,X=X,X:X,X,X,X9X=X=X;XQ.<XY.<X;XW.=XR.W.;XW.:XW.R.W.W.;X;X;XW.W.W.S.V., . S.5X6X6XzXvX5XzXzX5XzXzX5XzX5X6X5X5X6X6X3X3X1XtX3X1XtXoXoXoXoXoX.XoX.XoX&XtXoXoXoXXXoXoXoX].XX.X{..X.X.X].XXXX].oXoXtX&XoXoXL.vXoX{..X_.L.J.N.N.N.J.J.b.b.l.h.8.e.v.v.b.b.l.b.M.N.b.b.b.N.b.b.l.e.l.e.b.l.e.t.e.e.l.e.l.l.l.8.;.-.5.8.-.5.;.5.-.8.8.8.;.5.-.;.G E.IXiXaXiX+XiXiXaXiXiXiXiXiXxXiXiXiXaXxXxXiXaXiX+X2X2X2XiX2XiX$X[.2X2XOXOX2XiX2X2XyXiXiXjXkXjXuXiXjXyX$X$XiXiXyXyXiXiXiXjXaXjXiXiXcXaXiXyXiXiXiXyXyXiXiX+X+X+X+X$X$XOXiX2X2X+X$XI.Y.+X+X[.B.B.I.B.Y.'.)._.'.[.).v.9.i.U.N.n.].[.[.v.+XiXaXOXiXOXY.2XiXiXiXiX2XI.m E.<XU.h.>.%.:.$.v.9.%.$...%.h.b.N.b.;.#.&.X.! V N ..+.X.&.,.@... .X.7.f.g.g.M.v.g.o.X.%.m.N.j.%.k.V @.,.X.O.O.V O.,.9.c.%.@.9.0.B.B.Y.v.>.x.0.h.x.9.9.@.) @.X.%.9.$._ _ _ +.9.>.,.>.,.@.g.:.%.>.>.,.@._ | @.>.@.) g.9.| >.@.,.,.V @.@.V C C i C | | ,.,.) 9.:.",
"F.wXwXwXS.bXbXS.9X7XF.F.F.F.7X7X7XF.nXL.nXnX9X6X6X,XrX9X7X8XS.7X7X,X9X;X7X;X;X;XS.F.S.nXF.F.F.rXHXGXGXDXGXHXHXFXHXfXrXeXiX<X<XeX4XpXrX=X,XpX0X,X<X;XT.=X6X=X,X,X,X-XS.,X,X,X6X9X9XeX9X:X,X:X:X,X<X<X0X=X=XQ.T.<X:X;X;XW.T.S.}.;X:X;XW.S.W.W.;X;XW.Q.W.:XS.c.y   S.HXzXzX6XvX6XfX6X5XnXvXvX5XHXvX6X6X6X1XoXtXoXoX X$XoXoX{. X.X'.XX].'.].]..XoX.XoXoXoX X.XoX.X.X.X.X].].XX].oX&XoXXX.XXXL.L.&XL.oX XoXoX.X_..XoX].].oX].].).).J.N.N.b.b.M.n.K.J.b.b.l.l.e.e.8.l.8.8.8.8.r.8.r.l.l.b.b.e.r.8.r.8.r.r.l.r.r.8.8.r.5.5.-.=.{ ( { G d.LXiXiXiX$XiXiXaXiX$XiXiXiXxX$XjXiXaXAXaXkXaXiX+X2X$X2XiX2XiXOX+X>X2XOXOXaXiX$XiXiXjXiXaXjXkXiXiXiXjX+XyXiXjX$X$XyXiXiXiXiXiXjXaXaXjXaXyXiXiXyX$X$XyXyX+X+X+X+X$X$X$X2X2X>XOXOXY.+X[.Y.[.I.v.i.B.I.L.).).{.).N.B.q.9.U.n.B.{.{.{.n.{.yXaX<XaX1X+XiX2XiXiXiXOXI.t !.>Xx.x.7.>.%.&.j.#.$.@.O.$.v.b.v.g.8.#.+.X.l V ! X.X.+.%.%.&.>. .! X.k.h.7.m.B.f.$.o.%.9.N.v.9.>.V ,.>.O.O._ C V >.>.x.9.%.9.v.U.B.Y.B.,.0.7.q.x.9.#.,.) @._ +.g.,.X.! _ @.>.>.g.g.,.) >.9.:.,.,.O.O.) O.| ,.,.>.0.h.:.,.@.:.| O.O.| V C C z C @.) @.,.,.| >.",
"7XF.F.wXbXS.F.nXF.nXS.9X7XF.S.7XS.nXL.9X6X9XtXnX9XrX6X9XS.F.F.S.7X6X,X,X,X;X;X;XF.S.F.S.9XS.wXL.HXIXGXGXHXGXHXGXZXfXsX4XsXiX<XiXeXdXsX=X4XsX4X,X|.-XW.=X;X-X6X,X-X,X,X,X,X9X9X-X6XrXeX-X,X:X:X9X<X<X,XT.Q.>X|.W.;X:X;XW.=XR.W.;XW.;XQ.S.T.W.=X;X=XW.W.Q.W.D.> . S.6XL.6XtX6XL.L.6XL.6XL.L.L.L.L. X].]..XL.L.L.A.m.Z.A.A.L.'.'.'.J.L.].]..XL.].L.L.M.M.N.M.L.N.J.H.J.'.J.L.L.J.L.L.XX].].L.L.L.K.H.J.H.L.).).).J.J._.).).].J.J.L.].).J.b.J.).J.J.J._.J.J.H.J.K.b.r.l.h.;.;.;.;.-.;.;.;.-.;.-.;.8.8.r.8.e.K.r.r.K.K.l.K.-.{ { { j d.LXaXaXiXiXiXaXaXiXiXiXiXiXxX$XjXkXaXcXaXiXaX2X+X2X$X2X2XiXiXOXI.yX>X+XOXaXeXOXuXiXuXiXiXkXkXyXjXjXiX+X$XjXiX$XyXyXiX$XiXiXiXiXcXjXiXiXyXiXiXiXyXyXyXyX$X$XU.+X$X2X$X$XyXyXOX+XI.I.OX[.Y.I.B.x.v.Y.[.).J.].].N.x.x.0.N.N.n.[.[.{.U.[.iXiX2XyX2XT.iXOX0X2XiX+X+Xt E.4Xx.v.9.7._ X.x.9.7.$._ >.v.v.z.&.f.%.X. .v  .) +.+.@.7.#.+.>.X.! X.7.g.%.g.m.9.,.V ,.h.n.v.9.g.C O.,.@.O.Z V Z ,.>.j.h.,.9.m.N.I.I.v.9.h.:.9.g.>.%.| X.O.X.@.>.,._ X.) >.g.7.>.>.9.| :.g.,.,.| _ ,.O._ _ ,.>.q.9.9.9.,.V ,.,.) @.@._ C y C V O.V @.>.,.| 9.",
"7X~.F.nXS.nXS.wX9XF.S.nXF.9X9XS.S.L.nX9X9X9XL.S.6XnX9X9X9XF.F.7X;X9X;X;X,X,X;XF.S.S.9XnXF.F.S.6XHXIXGXDXFXDXHXHXZXfXpX4X0X4X0X<XrXdX4X=XeXrX,X<X|.-XW.=X-X:XeX-X-X,X:X:X,X6X,X-X6XrX;X,X,X:XS.6X,X<X,XR.W.=XQ.|.<X;X=XW.W.R.=X;X:X;XS.S.T.W.8X=XQ.T.W.W.W.D.k   S.rXL.L.L.tXL.L.L.L.L.L.L.S.S.S.A.A.T.S.S.C.c.z.j.k.j.c.j.m.j.m.m.m.z.m.m.m.z.h.f.h.f.f.h.k.j.z.z.z.m.m.M.M.M.M.L.L.L.J.L.C.M.L.L.L.J.J.].{.].oX{.].]._.J.'.J.H.N.N.K.n.H.n.J.J.K.J.K.b.J.n.J.K.K.l.l.l.8.z.z.l.y.e.e.8.5.;.8.;.8.8.;.;.5.8.8.r.l.r.r.8.8.;.{ t ,.IXaXaXiXiX$XiXaXiX$XiXiXiXxX$XiXyXiXcXkXiXiX$XI.$X$XiXW.$XiX$X[.OXyXOX2XaXaX+XiXuXiXjXkXaXkX$XyXiXiX+XyXiXyX$XyXiXyXyXiXjXiXjXjXaXiXjX$XiXiXiX$XyXyXyX+X+X+X+X+X$X2X+X$XOX2X|.I.I.$X[.[.U.B.9.x.Y.).'.N.)..XJ.v.i.q.B.n.n.).[.[.I.+XiXyXiXiXyX$X2X2XiX2XiX2X+Xm E.>Xx.0.7.#.) X.v.h.%.O.X.9.v.l.g.+.#.>.O.V B ~ [ @.+.%.,.+.+.#.$.! ! %.g.>.>.h.g.&.V ,.j.v.v.9.g._ O.,.@.X.Z N ! $.$.v.m.9.7.x.i.N.[.n.:.B.>.>.>.:.+.X.O.X.) ,.>.9.@.X.) ,.g.9.>.q.k.%.>.9.:.,.,.V @.O.V @.@.,.>.h.q.:.,.V q.,.) | @._ C z C C $._ $.>.@.:.7.",
"7XF.F.7XwXF.bXS.7X9XF.F.nXS.F.F.7XnXS.nXL.nXnX6XL.6XrXnXS.S.7XS.;X9X,X:X,X7XS.;XF.9XwXS.S.S.nX9XHXKXGXHXDXHXHXHXdXpXsXsX4X0X4X0XeXdX4X=X4XpX,X>X;X=XQ.=X,X-X,X,X,X-X:X,X9XtX9X;X9X6X,X:X,X:X:X9X;X;X0XR.W.<XT.Q.;X;X=XT.:XW.W.=X;X:XS.:XW.W.<X;XW.W.W.W.S.D.> . S.L.S.C.C.S.L.S.L.S.S.S.L.S.L.S.Z.S.c.c.m.C.C.D.c.k.j.D.j.c.C.m.C.z.c.c.z.C.m.j.j.f.k.f.f.f.f.f.j.f.8.g.k.h.z.k.h.h.z.z.z.8.z.z.z.j.;.g.h.z.z.l.h.h.l.l.l.l.z.b.b.M.N.J.J.J.K.J.K.J.J.J.K.H.K.J.K.K.K.r.K.K.K.r.b.y.b.l.y.K.K.b.K.l.K.8.r.r.l.l.l.r.5.5.;.*.-.j ,.IXaXaXiXiX+XaXaXxX$XiXiXaXaXiXyXiXiXxXxXjXaX$X+X$XOX2X+XiXiX+X{.$X$X+XOXaXiXOXiXkXiXiXaXkXkX$XiXjXjX$XiXjXyX$XyXyXyXyXiXiXyXiXaXiXiXjX$X$XyXyXyX$XyX$X+X+X+X+X$X$X2XOX2XOXOX{.+XI.OXT.I.I.t.>.c.N.[.N.n.[.XX[.i.x.i.t.B.B.).].[.I.[.iX2XiXfX3X$XiXOXiXiXiXiXY.i E.-Xx.v.>.%.@.:.h.8.,.X.7.8.v.l.7.+.&.&.! V O.) X.+.+.&.,.@.@.%.$.$.! X.g.f.#.x.g.%.! $.f.v.v.4.g.X.O.,.,.O.V V ! %.+.v.B.>.9.B.t.m.N.B.h.x.9.>.>.@.) @.O._ ! @.>.>.@.@.) %.q.>.g.h.x.>.q.9.,.,.| C ,._ _ X.@._ s.h.9.9.,.Z g.| O.,.@.O.C C k V X.! ,.9.%.:.>.",
"wX7XF.F.~.7X7X7X7XS.7XF.S.9X7XS.,XeX7X9X;X:X9X:X9X9X6X9XS.9XS.F.;X9X;X:XeX,XS.Q.S.;X7X;X!.V.W.,XHXLXGXHXDXHXHXfXHX6XMXfX0X<X4X4XeXlX,X<X4XsX-X:X<X-XW.:X,X:X6X,X:X-X-X,X;X;X-X,X,X6X9X,X-XS.:X7X=X;X<XR.;X;XW.;X=X:X:XW.T.T.W.=X:X:XS.S.S.;X;X7X:XR.S.W.W.D.,   F.L.S.L.C.C.L.S.C.C.M.C.A.A.C.C.A.}.}.L.S.C.S.A.m.m.C.S.M.C.m.m.m.C.M.m.A.L.'.}.L.L.A.J.A.M.J.J.M.M.K.L.M.J.M.z.z.z.z.z.8.z.z.z.h.h.f.f.;.h.h.f.8.f.;.;.;.;.h.l.8.{ ;.;.8.r.l.l.b.M.z.b.b.b.z.l.z.K.K.K.M.K.K.b.b.K.b.K.K.K.K.K.K.K.K.K.K.K.K.K.K.K.r.K.5.8.;.j ,.IXxXiXiX$X$XaXiXaXiX+XiXaXxXiXiXyXyXxXkXiXiX2X$X2XOX2X[.OXiX+XI.$XiXT.OXaX2X+XiXiXaXiXkXkXcXyX$XiXiX$XiXiXyXyX$XyXyX$XyXyXiXiXjXiXiXiX$XyXyXiXyXyXyX$X+X+X+X+XOX$XyX+X$X+X2X[.OX[.|.[.[.N.B.,.g.I.[.'.U.].+X|.v.x.t.i.B.B.U.].[.U.`.yX3X2XuXiXOX2XOX$X2X2XyX#Xi E.T.i.N.>.) %.q.8.9.>.&.$.h.h.8.>.X.@.X.v V +.) &.%.+.) $.X.+.@.,.$. .! 9.7.%.7.x.7...O.>.l.v.>.7.@.O.@.$.O.V Z ! ,.,.x.m.7.,.v.x.B.'.m.8.h.7.@.%.@.X.%.X.V  .,.@.>._ @.@.@.>.:.x.h.g.7.9.7.:.,.O.V ,.V V <.,.V i.i.,.i.) V 9.@.@.,.| _ C y y V ,.W ,.9.| @.>.",
"7XF.7X7X/.7X7X7X7X7X7XF.F.7XS.wX7X9X6XeX,X;X6X6XL.9X9X9X9XS.S.F.:X9X:X7X,X,XQ.S.F.;X;X:XS.E.=X,XHXIXDXrXHXzXfXHXzXHXrX5X4X<X<X4XeXlXeXeXeXpX,X-X;X=XT.,X=X:X,X=X:X,X:X,X-X,X-X=X,XeX,X,X9X-XL.;X:X;X=XR.:X;XR.:X;X:X;X:XW.T.W.=XS.:X:X;X;XS.:X7X;XS.S.W.S.k.,   S.tXL.S.S.L.tXL..X.X}..X.X.X.X-X.X-X.X}.'.L.'..X'..XL.].L.'.L.L.L.M.L.J.N.A.L.'.]..X.X.X].].L.L.L.].L.L.L.L.L.L.M.M.L.L.L.M.M.M.J.N.J.J.L.J.J.K.M.M.J.z.l.b.l.l.z.z.8.;.8.;.;.&.;.;.5.8.8.8.8.e.r.z.l.r.r.z.b.z.y.b.b.l.r.l.r.z.e.K.K.e.K.r.K.r.r.r.r.r.K.8.r.h d.LXxXaX$XiXiXxXaXaXiX+XiXaXaXiXiXyXyXcXxXiXaX$XOX2X$X2X+XyXiX[.+X2X$X+X2XaX2X+XiXyXaXuXkXaXcXiX$XiXiX$XiXjXyXyXiXyXyXyXyXiXiXyXjXjXiXiXyXyXiXiX$X$XiX$X$X+XU.+X$X$X$XOX$X+XOXOXOXOXOX[.[.).v.q.g.v.'.'.).N. X+XU.B.x.q.B.n.n.[.I.I.[.iX2XiXiXpXT.OX2X4X2X2X4X+Xt E.<XU.v.7.) %.,.g.>.$.@.%.8.8.>.#.$.&. .M O.) +.&.+.+.X.X.$.X.&.,.%.X.$.7.h.7.>.k.>.@.X.7.j.l.7.&.! X.@.,.O.O.V V O.>.h.v.9.@.v.0.L.'.B.9.7.>.@.>.,.@.,._ V X.,.,.,.) $.X.,.9.>.9.9.0.7.g.,.@.| ) V @._ V X.V V q.g.9.9.,.O.:.@.) ,.O.) V k y C | ! ,.,.@.:.:.",
"7XF.F.F.F.7X7X7XwXS.F.F.F.S.F.9X,X;X;X9X;X;X9X9XnX9X9X9X7X;X8XF.!.,X;X;X7X9X:X;X!.!.;X;XF.S.;X0XHXLXSXHXFXfXMXHXHXzXpX6X0X>X<X,XeXdXeX4XfXeX>X-X;X:XW.>X=X-X>X-X-X,X-X,X,X=X<X;X:X,X,X,X,X-XS.;XT.Q.W.R.Q.:XW.:X=XT.<XW.:XW.W.T.!.S.F.L.S.;X;X;XW.W.F.W.F.D.>   S.zXtX6XL.6XL.6X.X.X.X.X.X.X.X.XL..X.X|.|.oXtXoX].].]. X].[.'.].L..X]..XoX{.oX.XoXoXXXoX].].L.J.J.J.L.L.L.L.K.K.K.M.L.K.L.L.K.L.M.J.K.J.z.b.z.K.M.z.b.z.z.z.l.l.l.l.l.K.l.K.K.l.l.l.5.8.l.8.l.8.8.r.z.8.;.;.z.l.r.r.r.z.z.r.r.r.r.r.r.l.K.l.K.K.y.l.K.r.r.r.5.h ,.LXxXiXiXiXiXAXxXaXiX+XiXaXaXiXjX$X$XxXxXiXkXiX2X2X$X2X+XyXiX+X+X2XiX+X2XaX2XI.yXiXiXiXaXaXxXuX$XiXiX$XiXjXiXyXiXyXyXyXyXyXiXiXiXiXyXiX$XiXyXyXyX$XyXyX$X$X+X+X$X$XyX$X2X+X+X+X$XOXOXI.n.n.B.0.v.B.[.N.I.N.{.{.I.U.x.9.n.i.t.).I.U.[.iXyXiXpXiXOXOX2XiX1XiXaX+Xm E.OXI.v.7.+.,.#.x.%.O.&.f.8.g.%.+.&...B ! X.@.+.&.) X.@.!  .@.,.@.%.&.,.&.8.>.,.g.>.X.! X.k.v.7.@.O.! ,.,.O._ V Z V >.x.0.>.+.x.v.N.[.B.>.%.%.+.x.>.) >.! N @.@.,.@._ @.@.| s.#.9.g.4.7.9.:.@.,.O.! ,.O.X.O.V V 9.9.9.>.$.O.g.@.@.,.| ) C y C V ,.) +.,.| | ,.",
"7X7X7X7XF.F.F.~.7XF.F.F.F.F.9XS.,X7X9X;X:X9X9X,X9XS.S.6X,X;X7XS.S.7X,X:X6X9X:XS.F.:X7X;XW.F.<X0XSXLXSXMXFXrXMXzXfXHXfX6X>X>X,X>XeXlX6X,XeX4X<X,X-XW.R.;X=X<X=X=X-X-X;X,X<X-X6X,X,X;X6X,X,XS.,X:XT.:XT.R.:X:XW.;X;XT.:X=X=XW.|.=XS.S.,XS.,XS.:X:X;XW.T.S.S.k., . S.6XL.L.L.L.L.L..XL.L.M.M.A.L.L.}..X.X X.X].].{..X].].L.'.N.'.J.n.J.J.].L.]..XoX.X].L.L.J.L.J.J.J.J.J.J.K.K.l.z.M.z.z.M.M.M.L.M.b.b.M.z.M.K.l.z.b.b.K.M.b.b.K.K.K.K.z.K.K.l.l.K.y.K.b.M.K.b.b.b.P.z.y.r.8.r.r.z.r.z.8.r.;.;.;.;.8.;.;.-.;.5.8.l.r.r.r.8.8.5.8.G ,.IXaXiXiXiXiXxXaXiXiX$XiXaXxXiXaX$XiXxXxXiXkX2X$X2XOX2X[.OXiXI.[.2XOX+X2XaXOXI.iX2XiXiXaXaXxXkX$XyXyXiXiXiXiXiXiXyXyXyXiXyXyXyXjXiXiXiXiXyXiXyX$XyXiXyX$X$X+X+X@XOXyXOXOXOX+XI.2X|.|.I.).J.B.x.x.n.'.I.N.I.)..X`.n.x.7.B.B.e.[.`.U.[.jXiXiXaXiXOXOXiX4XOX4XaX+Xr !.Q.U.v.#.) :.0.k.&.o.;.g.8.7.+.&.+. .B X.[ &.@.#.X.) ) ! B ..X.+.@.>.,.O.%.f.&.>.,.O.V O.g.h.>.,.>.Z O.@.O.O.O.O.V k.B.B.g.+.v.N.B.'.M.#.| ,.@.g.>.@.,.X.) ,.@.,.@.O.@.X.+.i.@.9.h.>.7.g.@.,.,.,.! ,.@.V _ V _ 9.,.,.i.,.X.g.,.,.,.O._ C k N _ ,.X.) @.| +.>.",
"S.qX7X7XS.~.F./.F.F.F.Q.F.F.9X9X,X,X,X;X:X8X9X9X9X7XS.,X;X,XF.S.V.7X9X,X,X9X;XS.S.;X7X;XF.!.,X4XSXLXDXHXHXnXpXHXHXfXrX6XtX6X4X,XsXfX>X>XpXpX,X-X,XW.R.-X-X-X:X:X:X6X;X,X-X;X;X,X<X:X;X,X<X:X-X=XT.=XR.S.W.:XW.=X<XR.W.:X=XT.T.:XS.S.W.R.7X;X;X;X;XW.S.S.S.D.,   S.tX.XL.L.L.M.L.L.L..XL.'.L.}.L..X.XoX X.X_.J.N.J.J.b.N.J.'.J.N.J.b.n.J.J.J.L.J.N.J.J.J.J.J.J.J.L.M.M.z.M.M.M.b.M.z.K.M.M.z.K.z.l.b.b.z.l.l.z.h.l.8.8.b.M.b.l.e.l.z.z.K.K.l.K.K.K.K.M.K.K.K.K.J.K.K.P.K.K.z.l.r.r.b.z.K.r.z.r.r.8.8.8.l.8.8.8.8.r.-.5.8.r.5.5.h ,.LXaXiXaX$XaXxXaXaXiX+XiXaXaXaXaX$XiXxXxXlXaX2X$X2X+X2X[.$XiX+X+X2X$XI.2XaX+XOXiX2XuXuXkXaXkXkX$X$XiXiXjXiXjXiXyXyXyXyXiXiXyXyXiXiXiXiXiXiXjXyX$XyXyXyX$X$X$X+X@X$XyXOX%XOXOX[.2X+X[.Y.I.N.n.n.n.B.U.U.B.N.I.[.).N.0.<.U.I.v.n.[.u.Y.aXiXiXaXiX$XOXiXiXOXiXiXOXm E.2XI.9.O.| >.g.7.O.O.&.0.l.;.&.$.O.B ~ +.&.&.&.+.~ ! ! B B B ! X.@.,.>...O.>.$.$.@.o.Z O.7.8.7.7.,.V ..$.X.O.V X.O.,.N.B.m.,.B.v.v.I.v.>.#.@.7.f.7.$.X.,.,.| @.,.X.| O.X.9.>.$.g.x.,.>.g.@.:.:.| O.,.V _ O._ O.9.,.,.>.| ) >.9.>.,._ _ N k C ) ) @.W @.>.| :.",
"7X9X7XS.F.F.~./.Q.F.F.F.F.F.S.9X9X7X9X;X:X9X,X9X,X7X:X7X;XS.;X;XV.;X;X;X,X9X-XF.F.;X;X;XS.!.,X0XSXGXFXHXHX5XeXHXHX5X6X6X,X,X,X-XiXpX>X;XeXeX,X,X,XT.}.;X-X:X=X}.-X9X-X,X;X-X:X,X-X:X-X9X;X=X=X:XW.W.Z.R.S.W.:X;X=X:X:XT.:X=XR.W.W.S.W.S.S.!.:X;X7XW.S.:XF.k.w   ;X5XtXtXtX.X.X.XtXoXoXoXoX{.oXoXoX X{..X].].].'.N.n.n.J.'.].].].L.J.J.J.K.L.L.J.N.H.M.J.J.L.].L.L.K.J.J.J.J.M.J.L.K.M.L.L.K.K.K.L.M.L.K.L.K.K.z.l.l.z.l.8.l.l.h.8.8.;.;.l.l.8.8.h.8.e.r.8.l.e.l.z.P.z.K.P.P.K.K.z.K.y.K.K.y.z.z.l.r.8.r.8.r.5.2.5.r.5.5.;.5.;.h d.LXaXiXaX$XiXAXaXiXiXiXiXiXxXiXaX$XyXxXxXaXaX2X$X2XY.$X[.2X$X+X[.$X2X[.$XaXOXOXiX$XiXaXaXaXaXkXyX$X$XiXiXiXiXiXiXiXyXyXiXiX$XyXjXiXjXiXjXjXyXyXyX$X$XyX$X$X+X+XOX$XiX+X$XOXOX{.2X{.[.+XN.N.N.).B.t.I.B.m.N.Y.).].B.i.7.B.).t.B.I.U.[.aXiXiXaXiX2XOXOX2X>XiX2X+Xm R.R.U.9.| >.c.g.$.O.X.%.9.h.#.@.+.B ^ ..+.&.@.&.X...! B B B C V ..X.,.>.+...$.s.&.X.$.O.O.7.m.v.>.$. . .,.O.O.O.O.Z ,.x.q.B.:.v.0.x.v.B.>.@.+.g.7.7.%.X.+.,.,.,.,.X.O._ | >.,.#.>.9.%.:.9.:.9.,.X._ O.X.O.V @.@.,.X.,.,.) ,.,.,.,.| X._ C y C V ) ,.V +.>.@.:.",
"S.7XL.7XS.F.F.F.F.7XF.7XS.S.7X9X9X,XS.,X7X,X;X,X7X;XS.7X;X;X;XF.V.!.;X-X=X,X;XS.F.;X;X;XS.!.;XeXHXKXSXHXHXpX6XHXMXfX6X6XeX=X6X<XpXfX,X:XeXeX=X>X;X:XR.}.=X-X:X}.-X-X,X-X-X,X:X,X,X-X=X,X-X:X<XT.;X!.E.R.R.:XQ.;X:XW.:X}.}.T.W.:XR.S.T.W.S.:XQ.;X;XS.S.F.S.p.,   S.5XtX&XoX.X.XoX XoXoX.X.XoXoXoX.X]._.].'.).).J.'.].].'.).].]._.J.].J.L.J.J.J.J.J.].L.].L.J.L.*XL.L.L.J.K.L.L.J.K.L.L.K.L.K.K.L.J.J.K.J.K.L.l.8.l.z.l.h.z.z.z.l.8.;.8.;.8.l.8.8.;.l.8.l.l.8.8.8.8.;.8.8.8.8.8.z.r.r.r.K.z.P.z.r.l.l.r.z.r.l.l.K.l.r.r.l.-.-.;.H ,.IXaXiXaXiXiXxXxXiXiXiXaXaXaXiXxX$XyXZXxXlXaX2X2X$X+X2X+X2X2X+X+X$X$X[.$XaXOX|.uX$XiXuXaXiXaXkX$X+X$XjXjXiXiXiXyXiXyXiXiXiX$X$XyXiXiXjXiXiXyX$X$X$X$XyXyX$X+X+X$X$X2XOXyXOXOX2X2X+XI.[.U.).).N.U.v.B.B.v.B.N.).[.B.i.x.n.I.v.v.[.U.I.aXOXgXaXaX2X2XiX2X2XiX3X`.m Q.R.x.9.@.,.x.v.,.O.@.9.0.;.X.&. .V ..&.&.+.X...! B ! .. .! C C V ! @.,.$. .@.7.$.,.,.$.! $.v.m.7.+.B O.s.O.V V $._ ,.q.9.m.#.v.g.v.0.x.%.) ,.9.g.,.,.+.,.@.X.,.,.,._ X.@.,.,.[ ,.g.) @.>.9.s.,.@._ ) V V V V ,.,.X.@.,.) ,.h.,.,.X.) X.C z i V ,.+._ +.>.#.#.",
"9XnXnX7X7XF.F.D.F.F.F.S.7X9XS.9X9X9X;X;X;X;X:X,X9X:X:X:X;X7XS.,XS.F.:X:X,XeX;XS.S.-X8X;X/.S.=XrXHXLXGXHXHX5XeXzXfX5X5XrX-X:X6X,XfXpX>X-X4X4X>X>X-XW.R.=X-X=X:X}.:X<X;X-X;X;X-X-X;X=X=X<X:X=X;X=X-XT.Z.R.R.;X:XW.:XW.:X:X:XR.}.:XW.S.T.S.:X:XF.:X;X:X:XS.F.k.w   :XvX1X1X1X1XoXoXoX{..X].].'._.]._.oX].'..X.X].].{.oX XoX].].).].].oXoXoX{..X].].].J.J.J.J.].L.J.J.J.K.J.L.K.J.K.L.L.K.L.K.L.K.z.b.M.b.z.M.J.K.K.J.b.b.K.K.M.l.h.;.5.;.;.;.8.l.;.r.l.8.e.8.8.e.l.8.;.z.8.8.r.;.z.r.8.;.8.8.8.r.r.8.r.l.r.r.l.r.r.r.r.l.5.5.-.;.H ,.IXaXiXaXiXiXxXxXiXiXiXxXAXaXiXaX$XiXAXZXlXaX2X2X$X$X2XOXiX2X+X+X$X$XI.+XaXOX+XiXOXuXjXiXiXkXkXyX+XyXiXjXiXyXiX$XyXyXiXiXiX$XyXyXjXjXiXiXyXyX$X$X$XyX$X$X$X+X+XOX$X%XOXyXOX$X2X2X+XI.[.N.).[.[.Y.B.v.B.x.v.N.[.[.N.v.x.B.I.v.i.+XI.Y.iX$XiXaXaX2X2XgX2XiXiXyX+Xm !.+Xx.,.@.) x.v.o. .%.8.l.#...X.V  .&.+.X.X. .! c ^ ....! ! V V V  .+.+.%.X.X.k.%.%.k.,.Z X.h.8.g.%.O._ ,.+.Z V X.O.) >.g.x.>.8.h.B.N.v.%.X.,.>.k.,.X.) ,.,.X.+.| ,._ ! X.) ,.,.$.>.@.:.>.7.>.,.+.O.X._ V V ,.9.>.,.X.@.) g.c.,.,.) O.X.C z l B ,.+.) _ #.:.#.",
"7X7X;X;X:X!.V.F.!.!.:X;X:X,X;X,X;X,X;X,X9X;XS.:X9X;X;X7X;X:XS.9XD.!.W.=X<X0X,XS.F.-X8X;XW.F.=XfXMXGXGXZXHXeX6XlXaXsXiX0X2XW.4X|.eXzX,X=X6X5X,X,XL.S.S.-X-X-X:X:X:X,X-X:X,X-X;X,X-X:X=X,X=X=X<X:X<XR.Z.W.!.:XW.=X:X:X:X-X:X:XS.!.R.Z.W.W.7XS.S.S.9XS.S.S.7XD.y . S.5X-X.X].L.].].]..XoXoXoXoXoXoXoXoX{. XoX&X1X1XoX{..X{. XXXoX#XoXXXXXoX{..X]._.].].].XX].].].J.L.L.L.L.L.L.K.L.M.K.z.z.z.K.r.z.r.r.z.K.z.z.K.z.z.z.z.K.K.z.z.z.l.8.l.l.z.r.;.;.8.2.r.r.r.z.r.z.z.K.r.z.r.;.r.z.;.;.8.8.;.r.;.;.-.-.;.8.8.r.r.r.r.r.r.r.;.=.{ G d.LXaXiXaXiXiXaXxX$XiX$XaXAXaXaXxXiXiXAXxXaXiXiX$X$XOXiXOXyX$X+X+X2X$X[.+XiX{.+XiXOXiXuXuXiXiXkXyX`.iXiXjXjXaXjXyXiXiXiXyXyX$XyXyXyXjXjXiXjXjXyXyX$XyX$X+X$X+X+X+X$X$X+X$X$X+XyX2X[.).U.).[.{.[.).N.v.N.v.x.B.I.).N.v.x.t.).B.v.[.I.{.iX2X2XiXiXiXOXaXiXiXiXiX$XU Q.|.9.,.@.+.m.8...o.7.h.8.&.&. .B  .X.+.X. .B  .^ V  . .^ V  ...! B X.+.&.@.! k.%.s.8.>. .! 7.v.m.9.$.V ,.X.O.V O.X.$.>.@.9.x.h.6.B.B.N.+.| >.>.9.>.X.X.@.,.$.) +.s.@.V ) _ X.,.>.>.>.@.,.#.,.,.,.,._ X.V V V g.,.,.@.@.) ,.x.:.@._ O.@.C y C C | @._ V | >.,.",
":X;X;X!.;X;XF.Q.!.F.W.;X;X9X7X,XtX;X;X,X,X9XF.:X,X;XS.,X;X;XS.,X!.V.W.;X9X,X7XS.F.;X;X;XS.F.=XeXSXKXDXHXlX6X4XlXpX4XpXeX|.Y.<X|.pXpX6X-X6XeX6X,X9XS.S.:X-X-X:XL.-X;X:X-X;X=X=X=X;X:X-X;X=X=X=X=X;XR.R.W.W.;XT.T.:X:X:X:XS.W.:X:XR.S.W.W.S.S.S.9X7XS.S.7XS.D.y   L.6XoXL.].K.J.J.L.'..X.X.X.X].].].].oXoXoXoXoXoXoXoXXX{..X].oXoXoXoXXXL.].].{..X*XJ.J.J.L.L.L.J.M.K.K.K.K.K.K.K.K.M.K.K.z.z.z.K.z.K.z.z.z.r.z.r.z.r.z.z.z.z.z.z.z.8.l.z.b.z.z.r.r.z.r.z.z.z.K.r.r.r.r.r.8.;.;.z.r.8.8.8.r.;.r.;.r.;.r.r.5.5.5.;.8.5.-.-.-.;.;.H ,.LXxXaXiXaXxXaXaX$XaX$XaXaXaXaXxXiXaXxXaXxXiX$XyX2X2X2XOX2X2X+X+X2X2XI.2XiX+X[.iX1XiXaXiXyXyXkXyX{.jXiXiXiXaXjXyXiXiXyXyXiX$XyXyXiXiXjXjXiXyXyXyX$XyX$X$X$X$X+X+X$X+X+X$XyX+XyX3X[.[.B.).[.{.[.).[.B.Y.c.x.x.n.[.U.v.v.t.N.U.i.U.U..XuX$X2XpX2XiX$XiXaXaX1XuX$XU Q.,X>.%.$.#.0.h.O.X.8.0.%.X.$. .Z X.X.....B V B B V B ! Z ! O...X.! ..X.+.$.@.9.>.>.f.,.O.V f.x.N.g.,.V $.X.O.V _ O.,.>.#.k.9.8.9.v.U.N.[ X.>.>.g.@.X.@.,.,.@._ %.,.@.X.+._ @.,.7.q.k.%.,.@.) X.V ,._ X.V V X.9.,.@._ ) O.>.g.9.,.,.X.| V N D C _ ) _ _ <.i.:.",
"7X,X:X;X;X:X:X;X;XS.S.!.,X7X9X:X9X;XS.9X;XS.S.9X;X,X,X9X;XS.;X7XF.S.V.;X,XtX,XS.F.:X:XW.S.F.;XeXSXKXDXHXlXeXeXlXdX4X4X4X|.W.>XW.fXpX6X=X6XzX,XtX,X:XS.tX-X-X-X:X}.-X=X-X-X:X:X=X;X=X=X;X=X:X<X=X;XS.Z.W.:X:XT.:X:XT.,X,X:XS.:X:XF.S.W.S.S.7XS.S.S.F.;XS.S.D., . S.5XtXoXtXtX&XtX X].].oXXX].XXoX XoX.X].J.J.J.'..XoX#X{.XX#XXXoXXXoXoX].].].).].L.J.J.J.L.J.K.K.K.K.K.M.z.z.P.z.z.M.z.K.z.K.z.z.K.z.z.z.K.r.z.z.r.K.z.K.z.r.;.;.;.l.l.l.z.l.r.r.z.K.z.b.r.z.z.P.z.z.r.r.z.z.;.r.r.z.r.r.;.r.r.;.;.-.;.5.5.5.5.r.;.5.-.-.=.;.-.G E.LXAXaXiXaXAXaXaXyXiX$XiXaXiXkXxXaXaXxXcXaXiXiXiXyX2XiXOXyXOXY.$X2X2X+X$XiXOX[.iXOXiXuXyX2XyXuXiX@XiXyXjXyXaXjX$XiXjXjXiXiXyXyX$XiXjXjXjXiXiXyXyX$XyX$X$X$X+X+X+X$X+X+X$XyX$X$X2X[.[.n.[.{.{.).).).U.I.c.9.0.B.I.B.B.v.v.n.n.t.).).[.iX$X2XiX|.iXOXiXaXiXOXiX$Xn W.>X>.) X.>.g.>...X.g.h.%.X.o.Z O.+.o. .B N N v b N l v B O...~ X. . .O.@.@.$.>.f.7.>.%.X.! %.j.m.@.g.V O.@.V V O. .X.g.:.0.>.h.0.8.I.B.%.$.,.,.7.) _ ,.>.,.#.+.>.,...,.@.) @.,.g.9.g.:.q.,.V ,.V ,.V | V V ,.,.s.,._ _ _ ,.9.,.:.,._ ) V C i C @.) ) ) @.,.,.",
":X:X:X;X!.:X8X-X;XF.S.:X,X:X7X-X6XS.;X,X7XS.S.S.,X9X,XF.;X;X:X:X;XV.V.W.9XeX:XV.:X;XW.W.F.S.<X4XMXKXGXlXdX4XpXdXfXeX2X2XOXW.,X>XrXpX6X-X6XeX6X;XL.F.L.9X,X=X:XS.:X=X:X;X=X:X-X=X=X-X=X-X=X=X=X=X;XZ.R.W.W.:XW.:X:X:X;X-X:XW.L.:XW.S.:XS.S.F.S.7XS.S.S.S.F.D., . L.oX.X.XoX1XtX3X1X].].).L.XX.XoX.XL.'.J.H.B.M.H.J.).].].].].].].oX.X].XX.X].]._.J._.L.L.K.M.K.J.z.z.r.z.K.z.z.r.r.z.r.r.z.K.K.K.K.K.L.K.K.K.z.z.r.z.z.z.r.r.r.z.l.8.r.r.8.r.8.r.r.r.r.r.r.z.K.K.K.K.K.K.r.r.r.r.;.r.r.r.z.r.r.r.r.2.5.=.;.8.5.;.-.=.-.-.{ { ( G ,.LXxXaXiXiXAXxXaXyXyX$XiXiX$XaXaXaXxXxXxXaXiXiXiX2XyXyX$XiXOX+X+XyXOX[.$XaXOX+X3X$X#XiX2X3X2XyXuX@XyXiXiX$XcXaXyXiXiXiXyXjXjXyXyXyXjXiXiXyXyXyXyX$XyX$X$X$X$X$X$X$X+X+X$X$X$XyXyX[.).U..X{.{.[.I.{.Y.B.v.9.9.B.I.v.v.x.x.B.B.x.I.[.[.3X2X1XiX+XiX$XiXaXaX$XiX&XU W.=X9.&.+.f.7.+.X.#.l.9.X.o. . .&.&.)  .B z b z z k z z v ! X...X.X.! ! o.@.>.%.h.g.%.:.$...$.8.h.,.,.V Z O.V V Z O._ g.x.h.%.9.h.k.J.I.9.#.+.#.f.X.! X.f.,.,.,.g.g.V ,.,.$.,.>.7.q.x.:.,.| ) ,.V ,.<.F V V ,.>.>.| O.O.,.9.g.$.,.>._ _ C C D N X.@.O.) ,.7.>.",
":X:X;X;X:X=X,X:X:XW.W.:X:X;X,X;X9X,X9X,XS.S.S.9X9X,X9X7X:X;X7X,X:XD.V.W.;X9X;XS.;XS.W.W.W.F.,XeXSXKXSXSXdX4XpXpXpXpX4X6X-XT.<X>XzX5X6XtX6X6X6X-X}.S.S.6X6X-X:XA.}.=X=X=X:X}.=X:X=X=X=X=X:X=X,XW.W.V.R.W.W.;XW.W.W.=X=X,X:X:X;X;X:XC.:XS.S.S.S.S.F.S.F.S.S.D.w . :X6XtXtXtXoXtXoXoX&XoXtX1XvX3XtX&XXXXXL.].].].oX_.].{.].{..X].].L.J.'.'.]..X.X.X&X&XL.L.L.L.L.L.L.K.L.L.K.L.K.L.K.z.M.K.K.M.K.L.L.K.L.L.K.K.L.K.z.z.r.r.r.r.z.r.;.5.r.l.z.z.K.z.z.r.z.z.r.z.r.r.r.z.r.K.z.K.K.K.r.r.r.z.P.r.K.r.l.l.r.r.r.8.r.5.r.8.8.5.;.=.-.G d.LXAXaXiXaXPXxXiXyXiXyXaXyX$XxXkXiXxXxXxXiXiXiXaXyXiXiX+XiX+X+XOXyXOX`.$XiX$X+XiXOX2XiXyXyXuXjXyX$XiXjXjXyXkXkXyXjXyXjXyXjXiXyXyXjXjXiXjXiXjX$X$X$XyXyX$X+X+X$X$X$X+X+X$X$XyXyXyX[.[.N.{.OX{.[.U.[.[.B.B.x.h.B.I.v.B.v.t.n.B.x.U.Y.I.yX2X|.aXOXiXOXiXiXaX$XyX+Xm T.$Xq.%.$.7.%.) ,.7.g.#.X.&.B Z ......^ N z z N z z k k B  . .X.X.X.O.V ! %.>.7.h.m.%.+.$.o.@.g.g.%.@.,.V O.O.O.O.) ) x.x.9.7.v.v.l.N.n.9.:.%.,.,.+.O.X.>.>.>.>.k.>.! ,.>.,.,.f.9.g.9.7.) X.X._ _ ,.,.@.V V O.,.>.X._ ) ,.9.g.:.>.g.| ! V V N C _ @.) X.| ,.:.",
";X;X:X;X=X;X<X;X:XW.W.;X;X,X:X;X;X;XS.;XS.;XS.9X9X;X,X;X:X7X;X:XQ.D.d.W.:X,X;X:X;XW.S.W.S.V.,XeXBXKXSXHXfX6XsXpXpXfXeX6X|.|.2X<XeXpX6X-X5XeX6X-X:XS.:X,X=X-X.XS.T.:X=X=X:XY.:X=X=X:X=X;X:X;X;XW.:XZ.R.:X:XW.=XT.=XW.-X;XS.:X;XS.W.S.S.F.F.F.S.;XF.S.S.F.F.D., . L.3XoXoXoXoXtXtX1X6XtXtXtXtX1XtX1X1XoXoX.XoXoX{. X]._.].).].).N.].J.'.J.J.).J.N.K.K.L.K.L.L.L.L.L.K.K.M.M.M.M.K.M.K.M.K.K.M.M.L.L.K.K.K.L.K.K.K.z.K.K.z.z.r.z.r.z.r.z.z.y.P.P.r.z.r.r.r.r.r.r.r.r.r.z.r.r.z.r.z.r.K.r.K.r.r.r.r.r.5.r.r.r.r.r.l.y.r.r.y.l.8.r.G ,.LXBXaXiXaXaXAXaXyXaXyXiXyXiXcXxXiXaXxXxXiXiXkXiXiXiX$X$XiX+XI.OXyXOX{.2XiX2X[.yXyX3X3X$XuXuXuXyX$XjXyXyXjXkXaXyXjXiXjXyXiXjXiXyXiXjXjXjXiXyX$X$XyXyX$X$X$X$X+X$X+X$X+X+X+X$XyXyX+X).I. X X+X[.[.[.[.B.x.g.x.B.B.x.N.v.i.N.v.i.v.U.I.iX$X+XaX$XiXOXOXaXiXiXiX+XV Q.<X,.+.,.7.%.,.$.7.8.X. .o.S  ... .^ V b z b S l k k z v B ..o.X.o.X. .V X.>.>.8.v.7.@.%.+.! >.h.g.X.X.O.O.X.O.V V O.>.x.x.:.v.B.B.N.v.#.,.%.>.,.! @.) >.>.>.,.,.,.! X.>.,.@.>.k.9.8.:.) X.O.,.V ,.,.O.C V V ,.,.O._ ) >.,.9.>.,.,.@.X.! C N N O._ V X.X.+.,.",
",X:X:X,X,X,X;X;X:X;X:XW.-X9X,X9X;XS.F.S.;X;X;XS.S.,X,XS.S.;X;X;X:XV.D.S.:X,X;X;X=X:XS.W.W.V.<XpXSXKXFXHXpX4XdXdXfXeX5X4X>XT.,X6XpXpX6X:X6X5X6X;XS.S.S.,X=X}.}.S.}.=X:X:X:X:XW.:X=X:X=X=X}.,X:XW.W.R.Q.=X:X:X:X=X;X:X=X;X:XS.;X;XS.S.S.S.S.S.7XS.S.F.S.F.F.D., + :XtX.X.XoXoXoXoX&XtX&XtXtX1XtXtX1XoXoXtX#XoXoXoXoX].).N.N.N.J.'.].L.].].].).L.J.K.K.K.L.L.L.L.L.L.L.K.K.L.L.K.K.K.L.K.K.K.L.K.K.K.L.L.K.K.z.K.z.z.z.z.K.z.z.K.z.K.K.K.K.K.K.K.z.z.r.r.r.r.r.r.z.r.z.K.r.r.z.r.r.r.r.r.r.r.r.r.z.r.z.z.l.r.r.r.z.r.r.r.5.5.r.;.h d.LXxXxXaXiXxXAXiXyXiXyXjXyXjXAXaXiXaXcXkXjXyXaXkXiXiX2XOXiX+XU.$XyXOX{.$XiX2XOX2XyXyX$XyXuXuXyXiX$XjXyXyXjXjXkXjXiXkXiXiXjXyXyXyXjXyXyXjXyXyX$X$XyXyX$X$X+X$X+X+X$X$X+X+X+XiX$XyX|.[.I..X{.+X{.N.`.[.I.c.h.x.B.A.x.I.v.m.B.x.0.m.B.I.aX3X+XiXiXiXiX2XiXyX2XiX+Xm Q.<X9.&.#.h.&.%.#.f.7... . .S B  .Z Z N z z z z k z z z N c  .O.X.X.O.O.V O.&.>.7.m.0.&.X.>.X.&.7.h.,.) Z O.) O._ O._ %.9.v.:.N.n.B.).B.#.7.%.>.+.! X.) ,.>.,.,.%.+.V +.,.,.@.>.g.q.x.>.+.+._ O.V V V @.C V V @.,.@.V ,.s.9.,.g.X.,.@.X.V C V y V X._ O.! ) ,.",
";X;X:X,X,X;X,X=X:X=X;XR.=X9X9X;XS.,X;X,X;XS.;X9XS.S.9XS.:XS.;X:X;XS.F.V.S.;X:X;X7X!.F.:XW.S.9XfXSXKXSXlXlX4XeXlX4X4X6X4X>XT.>X,XpX5X6XtXeXzX6XL.}.S.}.,X-X-X}.T.-X:X=X=X=XT.:X:X=X:XT.=X=X,X:XW.R.R.W.=X=XS.:X;X:X-X-X=XS.L.;X;X!.S.S.S.S.F.S.F.F.S.S.F.C.D., . :X5XoX.XtXtXtX1XtXoXtXoXoXoXoXoXoXoXtX1X1XoXoX#X#X X].].'.J.J.J.J.J.J.'.'.J.N.J.J.L.K.XXL.L.L.K.K.L.L.L.L.K.L.L.L.L.L.K.L.L.L.L.L.K.L.K.K.K.K.K.z.K.K.z.K.K.z.M.l.K.K.z.z.r.z.P.r.K.z.r.r.z.r.r.z.r.r.z.r.r.r.z.z.r.r.z.z.K.K.r.K.P.b.r.b.r.r.r.l.r.2.5.2.-.5.G ,.LXxXAXaXaXaXAXaXyXiXjXaXiXyXcXaXjXxXcXkXiXiXaXiXiXaXiX$X2X+XU.OX2XOX+X$XyXOX+XiXaXyXyXyXyXuXyXjX$XaXiXjXyXjXkXaXjXjXjXiXjX$XyXyXjXyXyXjXyX$X+X+XyXyX$X$X+X$X+X$XyX$X+X$X$X$XiXyXOX{.).[.{.|.+X`.I.`.I.x.h.x.B.N.B.Y.v.B.B.x.q.i.B.Y.iX1X|.aXaXpXyX2XiXiX2XyX`.U Q.0X,.#.:.j.%.%.&.>.f. .O.A B Z O.Z A v z z z z l v N B Z B B ..$.o.$.o. ...$.>.>.c.h.7.@.s.! >.7.v.k.X.V O.O.O.V ) O.$.f.x.7.N.B.N.Y.B.7.>.%.>.) ! o.X.,.%.$.%.,.X.V $.,.,.,.:.h.g.x.9.,.@.O.V V V ,.,.V V Z @.,.,.) ,.9.,.E.,.>.@.,.+._ V S y V X.! ) ) ! | ",
":X,X;X;X-X-X;X:X;X;X,X:X-X0X<XS.S.L.S.9X8XS.:X-X;XS.F.:XS.;X;XS.T.R.R.Z.F.=X;XS.;XW.F.:XS.S.,XsXSXGXSXZX5X1XfXlXpX4XeXpX-X|.>X4XzXeX6X.X4X4X-X}.T.S.=X=X-X,XL.L.T.:X:X=X:X:X:X=X:X}.T.:X,X,X:XT.R.S.=X;X:XS.:X-X;X;X:X;XL.S.;X;XS.S.S.S.S.S.F.S.:XS.;XS.F.k., * ,X6X.XL.tXL.L..X X|. XtX-XtX.X'..X.X.X.XL. X].].oXoXoX.XoXoX XoXoX XoX.X.X{.oX.XL.L..X].L.L.XXoXL.vXL.&XL.K.L.K.L.L.K.K.L.L.L.L.K.L.K.L.K.K.K.K.M.K.L.K.L.K.K.K.M.K.M.K.K.K.K.K.K.K.z.z.r.r.K.z.r.z.r.z.r.r.r.r.y.z.y.r.z.r.z.r.r.z.r.r.r.r.r.r.2.-.5.-.2.-.=.j d.LXPXxXaXaXkXAXyXiXyXiXyXyXaXcXaXjXxXcXcXyXyXaXiXyXjXyX$X$X+X+X#X$X+X#X2XiX@X{.yXiX$XiXyXiXuXyXyX$XjXjXjXkXjXjXaXjXaXjXiXjX$XyX$XyXyXyXyXyX$X$X+XyXyX$X$X+X+X$XyXyX$X+X$X$X$XiXiX+X+XU.+XI.+X+X[.N.].U.m.>.i.B.U.I.Y.B.x.B.v.t.x.B.+XiX4XOXiXdXiXiXyXiXyX2XyX).T <X<X,.,.>.h.,.7.&.7.%. .O.A N Z  .Z N D z C N N B B  .Z  .V v V O.X.o.&.O.! o.%.,.h.k.>.+.$.! ,.c.j.g. ._ o.O.) V O._ ,.>.x.@.v.B.B.[.B.9.@.#.7.O.! X.) $._ X.| O.X.V ,.,.,.| ,.i.x.x.q.,.q.V Z ,.F | V V V ,.,.X.,.V ,.,.,.c.,.,.X.,.,.V C V k C _ _ V V V ,.",
";X:X-X,X;X;X<X-X-X,X;X;X;X,X<XW.F.;X9X9X,X:XW.;XS.S.S.;X:X,X,X;XW.S.S.V.F.;X;XS.;XF.S.:XW.S.,X4XMXKXSXHXeX5XfXpXpX0X>X5X-X>X>X4XrXzX6X6X5X4X-X:X}.T.}.=X}.=XS.:X:X}.=X=X:X}.:X:X:XW.:X}.=X<XQ.T.R.W.-X=X:X:X:X-XL.:X:X-XL.S.L.;XS.S.S.S.F.S.F.S.F.S.F.S.S.D., + ;X6XtX6X-XL..XL.}.L.'.'..X|..X X}..X.X}.}.L.L.'.L.oX.X.X]..X].].).'.].].]..X.X].L.L.K.L.]..XJ.L.L.vXL.K.vXL.L.L.L.L.L.L.K.L.L.L.L.M.z.z.z.z.z.z.K.K.z.K.K.L.L.K.L.K.K.K.K.z.K.K.K.K.K.K.K.K.K.K.y.z.y.r.r.r.K.K.P.r.y.P.P.K.P.r.r.r.r.r.8.;.=.;.-.5.r.r.5.2.-.j ,.LXAXxXaXaXkXAX$XyXyXkX$X%XkXcXaXcXxXAXcXjXyXaXiXiXaXyX$XyX+X+X+X2X{.#XyXuX$X{.iX3X$XuXyXuXuXyXjXyXkXaXiXaXjXaXcXjXjXaXyXjX$X$XyXyXyXiXyXyX$X$X@XyXyX$X$X+X+X+XyXyX$X+X+X$XiX$X$X+X+X+X+XU.`.OX[.U..XU.B.g.>.i.Z.U.[.v.0.v.B.B.B.x.|.aX2XOXiXkXiXuXiX3X3X2X2X[.n <X0X9.,.>.7.,.>.%.g.%.X. .N N Z  .N b l z z y v v B Z ! B B B v V O.X.o.o. .O.@.7.h.v.7.%.&.! $.h.v.g.! O.O.X.O.O.V ) s.9.v.:.x.v.v.).N.>.X.%.>.X...O.$.X.V @.,.,.O.V @.,.,.| 9.q.E.x.i.q.,.,.V V ,.V V V V ,.,.V | ,.,.,.,.9.,.V ,.,.| V C S D N O.O.@.V V | ",
",X;X:X;X-X;X;X;X,X,X<X;X;X:XW.;XS.rX,XS.,XS.:X-X;XS.S.S.S.;X,X;XQ.=XV.D.S.;X:X!.:XS.S.W.W.S.6X4XfXKXSXHX4XpXpXfXpX4X6X6X>X|.1X6X5X5X6X6XeX5X-X:X:XT.=X:X:X,X:X}.:X:X:X:XS.:X:X:X:XR.T.:X<X<X=XR.S.R.=X;X;X:XS.,X:X,X-X:XS.S.L.;XF.S.S.F.;XS.F.F.S.F.F.F.F.s.< + ;X6X-XtX.X.X6X-X-X.X.X}.L.}.}.}.L.A.m.L.S.A.}.}.L.L.oXL..X X]. XoX.X.X'.J.'.L.L.L.J.K.J.L.L.L.J.L.L.L.L.K.K.z.M.L.K.K.z.K.L.K.L.K.L.K.M.K.z.z.r.r.z.z.z.z.r.r.r.r.r.z.M.M.K.K.z.z.r.r.K.r.K.r.z.P.r.r.r.K.K.M.K.r.P.y.y.y.y.K.b.y.r.r.r.r.r.r.;.5.2.2.-.2.2.5.j ,.LXxXxXkXjXiXcXyXiXyXyX$XyXkXkXaXxXcXcXcXjXyXjXyXjXaXyX$X$X+X+X`.$X{.$X3XjX2X[.yXuX$XiXiXuXuXyXjX$XaXjXaXkXjXaXjXcXjXjXjXjXyX$X$XyX$XyXyXyX$X$X$XyXyX$X$X$X+X$X$XiX+X+X+X$X$X$X$X[.+X[.[.U.+X+X{.).{.U.x.h.g.0.Y.Y.Y.B.7.i.U.B.n.x.|.aX2X XuXaXiXiXOXiXyX#X3X`.m <X<X,.%.#.9.>.+.f.f.&.&...N B V Z N z b l N z z z l v N B B B N N Z ..+.....! X.g.j.0.>.&.X.V ,.j.l.f.V O.+.! ! ! V X.,.h.x.:.x.9.0.N.N.>.X.>.,.) ..@.X.X.X.,.,.O.,.V ) ,.| <.9.x.x.x.,.9.,.V F V V V V V V ,.O.X.,.,.X.,.,.9.,._ ,.| V C C V C S _ @.O.V _ _ ",
":X:X:X:X:X:X9X-X;X;X,XW.-XS.W.=XS.,X,X;X,X;X;X<XS.S.;XS.S.S.7X:X=X:XE.k.R.;X;XS.:XW.R.F.S.S.0XrXMXKXFXlXsX4XeX5X4X,X4X>X>X-X6X6X6X6X6X6X6X5X|.:XT.S.=X}.:X9X:XL.:X}.:XW.}.:X:X:X=XT.:X=X;X=X=XT.C.W.-X;X:XL.:X:X:X;XL.:X;XS.:X;XS.S.S.F.S.S.S.S.F.S.S.S.F.s., + S.6X6X-X6X6X-XL..X-X}.}.}.}.}.}.}.}.L.S.'.L.A.A.A.A.L.A.J.L.L.L.J.J.L.L.L.H.J.J.L.J.L.L.L.K.J.L.L.L.L.L.K.K.r.K.L.L.L.K.K.K.z.K.L.M.K.L.K.L.K.K.K.z.r.z.r.z.z.K.r.K.r.K.z.r.r.r.r.z.K.r.r.z.K.r.z.r.r.z.z.r.r.r.r.z.z.r.r.r.r.r.r.y.r.r.z.b.b.r.r.l.r.8.-.' =.j d.LXxXaXaXaXkXcXyXjXyXyX%XjXkXcXjXkXcXAXcXjXyXyXyXjXaXyX$X$X$X+X+X+X+XOX2XiXOX[.3XuX3XiXuXyXyX2XjXyXiXjXiXjXjXaXkXjXaXiXiXiX$X$XyXyX$XyXyXyX$XyX$XyX%X%XyX$X$X+XyXiX+X+X+X$X$X+X$X+X[.+X`.U.+X+X[.[. XU.v.9.g.x.'.N.[.N.0.B.I.n.N.B.OXiXiX{.iXzX3X3X2XyX3X$XuX+Xm 0X<Xq.+.#.k.>.&.7.7.&.+. .N Z  .Z l b z N N N N N B l l B Z B N B C ..o... . .+.f.h.g.,.+.$._ &.k.9.h.V _ O.X.X.V C ! @.9.9.,.9.h.h.N.B.#.$.%.s.X.X.%.X.O.,.X.,.V V V @.O.O.,.9.9.x.x.q.,.,.,.V | V V V V V ,.| V O.X.O.V _ | ,.X.,.,.| C C S y V V V V _ Z V ",
":X;XQ.W.W.:X;X=X;X<X<X:X7XS.:X;XS.;X9XL.;X;X;X<XS.W.:XR.S.:X;XS.T.W.R.V.Z.;X<XW.;XS.S.!.S.S.<X6XMXPXdXpX4XiXsX4X2X4X,XOX|.<X<X>X6X6X6X6X6X6X-X}.T.S.;X-X-X:X:X:X}.W.:X}.S.=X=X:X:XS.|.:X=XW.:XT.C.S.:X:X:XL.7X,X:X:X:X:XS.L.S.S.S.S.S.S.F.S.S.S.S.V.S.F.S.k., * :X6X,X6XtX,X-X6X-X-X-X-X}.'.}.}..XL.}.A.A.L.L.S.A.M.m.A.M.A.M.A.A.J.L.L.L.L.L.L.]..X.X.X.XL..XoXL.L.L.L.L.K.M.M.K.L.L.L.z.r.r.z.z.z.K.M.z.z.K.K.M.z.z.r.z.r.r.z.z.K.K.K.y.K.z.K.P.z.z.y.K.K.K.r.K.r.r.r.r.r.r.r.r.z.r.P.r.r.y.P.z.r.r.r.r.l.y.r.l.y.r.r.l.r.-.p ,.KXxXaXjXxXcXkXaXaXjXiXyXjXkXcXjXaXjXAXcXcXjXyXyXjXjXjXyX$X$X+X@X$X@XOX%XiX+X+XiXpXiXiXyXuXyXyXjXiXkXjXyXjXaXjXkXjXiXjXyXjX$X$XyX$X$X$XyXyXyX$X%X%X$XyX$X$X$X+X$XyX$X+X+X$X$X+X$X+X+X+XU.+X+XI.)..X.X).t.9.g.0.Y.N.Y.v.i.B.Y.N.B.B. XaXiX[.yXpX2XiXyXyXiXOXuXOXL 7X0X,.,.>.g.%.%.7.7.&.+.V N Z  .N z k y N N V  .V  .V B !  .B B B N Z  .V O.O.o.>.9.7.,.+.@. .$.#.7.g.! V @._ +.! C V X.:.q.:.9.0.B.n.N.,._ %.9.! X.@.X.X.$.X.| V V ,.V | V <.,.9.,.,.q.,.,.,.V F V C V V V ,.| V ,.X._ V _ ,.,.| ,.| V C V V C Z Z V O.V V V ",
";X=XW.R.W.;X;X=X;X;X;X:X:XS.S.;X7X;X7XS.:X;X=X;XW.W.S.R.S.S.;XS.R.R.R.D.Z.W.;X!.;XF.S.S.S.E.0X4XMXSXdXiX=X4XpXeX4X4X,X|.|.|.}.|.6X,X,X-X>X6X-XW.S.C.:X=X:X:XL.:X:X}.T.Z.S.T.=X=XR.S.W.:XW.W.Q.W.V.S.:XW.S.S.:X:X:X:XS.S.S.S.;XS.S.F.S.S.S.S.V.V.D.C.F.S.S.D.y + ;X-X-X:XL.L.}.}.L.:XS.L.S.'.S.A.S.S.A.A.A.C.C.A.m.m.C.L.L.A.A.L.M.C.M.A.L.K.J.J.K.L.J.L.K.L..XL.L.L.L.L.L.L.L.M.L.K.M.M.K.z.M.z.b.z.z.r.z.z.z.z.z.r.r.K.K.K.y.z.z.z.z.r.P.z.y.r.r.P.r.r.z.z.z.K.r.z.K.M.K.z.K.y.K.r.r.r.r.r.z.r.r.r.r.r.r.r.r.r.8.;.5.5.;.-.5.j d.KXaXkXaXaXcXcXaXjXjXiXyXkXjXcXjXyXcXcXcXcXjXyXyXyXyXyX$X$X+X+XOX+X$XOXOXiX{.[.uXiXyXuXiXyX%XyXjXyXiXiX$XiXiXaXaXjXjXyXyXiXyXyXyX$X$X$XyX$X$XyX@X@X$XyXyX$X+X+X$XyX$X`.+X+X$X+X+X+XU.+XI.I.+XI.`.`.[.).x.>.g.q.N.N.U.i.0.n.U.n.n.n.OXiXiX#X5XuX2X3X2XyXiXyXyXOXU ;X<Xq.>.>.7.[ ,.7.%.) ..N N V N z z k y D V S N N C N v .. .B V B l B ..V O.V O.%.&.#.@.+.+._ ) %.7.,.! V V O.$. .N C ) 9.9.:.h.B.B.t.x.+._ ,.s.X.V @.! X.X.X.,.V | V O.V | ,.,.q.| | ,.,.V V V V V V V V V V V V Z ,.O.V ,.,.X.X.,.Z V i S C S F V V V V S C ",
"W.W.R.C.S.S.S.S.S.S.S.S.S.C.S.S.L.S.S.S.T.W.S.:XS.S.Z.R.C.S.S.S.R.Y.Z.s.D.S.!.S.!.Z.D.S.Z.Z.,X-XdXSXfX<XOX,X,X4X4X,X,X}.Y.|.Z.Y.,X:X:X.X}.|.S.Z.m.j.S.T.S.S.S.L.T.S.S.c.m.Z.S.Z.C.Z.Z.Z.Z.V.V.S.V.Z.S.V.S.V.S.S.S.D.D.D.D.C.C.C.D.D.D.D.D.D.D.k.D.D.D.D.D.s.y + :X}.Z.m.c.j.z.j.z.j.z.z.m.j.z.z.z.z.z.z.z.z.z.h.8.8.;.#.;.;.7.7.;.7.7.;.;.8.;.h.l.h.;.r.8.;.;.;.( ( { ( ;.-.;.=.;.;.;.;.-.-.;.=.;.;.;.;.=.&.;.=.-.=.&.{ { =.;.=.{ ;.;.=.;.-.;.;.r.r.8.;.-.{ =.;.=.=.;.=.-.=.;.2.2.;.;.=.-.-.2.;.-.=.;.-.=.{ { ;.=.*.=.{ *.=.*.2 d.LXaXjXkXcXcXkXaXjXjXyXiXjXcXkXyXjXcXcXjXkXjXjXyXyXyX$X$X$X+X+X$X#X#XOXOXyX+XOXiXuX2XuXiX2X3XyXjXyXiXiXyX$XiXiXjXaXiXjXyXiXyX$XyX$X+X+XyX+X$X+X@X+X+X$X$X$X+X+X+XyX+X+X$X$X+X+X$X+XU.`.U.U.+XU.{.I.{.U.t.q.9.6.I.B.I.0.0.U.B.B.n.v.+XiXyX3XiXyX3XiX2XiXiXyXyXOXn <X<Xs.,.$.%.) ,.7.,. .C l N N N z k y N N V N l l N Z B !  . .N V C C .. ...V X.X.X.$.@.$.$.! ! s.,.,.M V  ._ _ V V i _ ,.9.@.0.B.v.v.x.) O.,.,.! Z O.V ! O.) V V | V V V V | X.,.V V ,.,.F C C V C S V V V F V V X.V V V V O.,.V V V C C S C C S V C C C C C ",
"e 5 w 4 4 6 6 w e t u j 5 d d g d g G J g a g a a p a f t t t t t t t r r i m f n i d d i n n L @.@._ W n W L L n Q U n n s g G L J G G s g s s s a s g g h h d a a p p p s p p 9 9 7 t 7 t t t t r e p e j t t j e t 4 4 4 6 6 w w 6 > w 4 w w 6 6 6 w ; ; @ y ) n C l y y > w : ; ; w 4 > 4 5 e 4 t t e t j e e e 4 e w u 5 e t e t e t t p p t p d p p j j j j 6 j j 6 j 6 j 6 j & H 6 6 6 6 & j 6 6 6 6 6 G 6 6 6 6 6 6 & 6 6 6 6 j 6 6 j 6 6 6 6 6 6 6 6 j 6 6 6 6 6 6 6 6 6 6 & G 6 j 6 6 j j 6 6 j j 6 j 6 6 6 6 6 6 - % i.yXU.U.U.`.`.`.`.`.`.U.U.`.`.U.U.U.U.`.`.`.U.U.U.U.U.u.U.u.u.u.u.n.t.n.n.B.n.n.N.N.n.n.B.n.n.n.U.u.u.u.U.u.U.u.U.U.U.U.U.U.u.u.U.u.u.i.U.u.u.u.U.U.u.3.3.3.q.3.i.i.3.3.i.i.q.q.q.q.q.q.i.<.3.q.:.1.<.<.| _ | _ | | | [ | } ` <.} :.q.t.i.t.v.v.x.t.t.B.v.v.x.i.X.R.O.i k y y > > > > : : < < < = $ * * * < * < $ * , < < , < < $ < < < , , , > , > > y y r > > r t y > : < < < : < < < : > t > r y i y r > > : : < $ $ < < $ < o < < < < < < < < < < < < < < < < < < o < < < r < < < < < < < < < < < < < < $ $ o o o o o o o o ",
"x M B V ^  . . .! B ^ B B V V V !  .V  . .Z Z O.V Z Z O.V  .O.Z V Z V Z V V V Z ..^ ....^ ! ! ..~ ! Q ! ~ ) X.X.X.) ) ) .._ _ _ ~ ~ ) ) ) X.X.+.) ) ) ) ~ Q ! ! W M E ^ E W W Q Q ! V ! ! W W ! ! ! W W ! W ! ! V W V V V V ! ! ! V ! ! V V ! W V V V V V Z O.g.C < < < o < * * * < $ $ $ $ $ = $ : $ < $ : # $ $ # $ $ $ $ : $ = $ $ : = : = < : : % : & : : : : > ; ; : : : : : : < : $ : < : : : < = $ $ # = $ $ = $ = < $ : = < < : : : : , : : : : : % = < = : : < : , : > > > , : : < : : : : : : : : ; ; ; : % : < = $ y ;.f G g c c J J E g E n L L G E L G n g n c g g C g f f f f f a n L g L g g n L n g n g c s g s a g s s s s s g L n g g g a h p a a a a d g p p p p t j t p p j p a p s s p s p d h h p t p p t e e e p e w 4 w 4 4 4 4 6 w e e e 4 e 6 4 e e 5 4 3 e 6 6 w 6 6 X.V $ o o $ X X . X . . . .   . . .                 O   O           .     .     .           .                     .             .   X     .         O O O O                       O         O     O O   O   O O O O O O O O     O     O O O o O O O O O O O O O ",
"IXIXIXIXIXLXIXGXIXGXLXGXGXKXGXGXGXGXGXGXKXKXGXGXPXKXKXKXKXGXPXGXKXKXKXKXPXKXPXKXDXHXGXSXSXSXFXSXHXFXZXMXFXSXFXDXFXZXFXHXdXZXMXMXHXlXHXHXdXZXlXHXxXZXZXSXZXFXFXHXFXFXAXZXSXAXFXDXFXFXxXkXxXdXlXdXdXdXaXdXdXdXdXZXdXaXaXdXaXdXpXdXpXfXpXiX4XiXsXpXpXpXfXiXfXdXU.7 E.mX~./.!.Q.^.Q.Q.!.!.!.!.!.!.!.!./.W.V.V.Z.!.S.R.R.R.W.R.R.;XW.R.T.T.=X<X=X=X<XT.}.;XT.:X;X-X=X=XW.0X,XR.<X=XQ.R.E.T.T.T.R.T.R.R.Y.R.Z.Z.c.V.E.E.Z.c.R.|.T.R.Y.Z.Y.|.>X,X>X1X XOX1X,X<XOXA.[.Y.Y.|.'.}.>X1X'. X}.L.Z.Y.|.Z.L.S.c.c.,.,.,.D.Z.V.c.k.s.k.>.c.Z.C , s.a. . .^ !  .! ! ! B B B B v B ! ! ! ^ ^ B ! M M M ^ ^ V ^ M ^ ! ! ! ! ! Q ^ Q ^ ^ ~ Q ! ^ ^ ~ ~ ~ ! ~ [ ~ ~ ~ ~ ^ W M J c c C c M M a c c g c M E E L c E E E E g g M g c c E J c c g c x d f d c d f x d d i i d d u h d h a a g g a g h a a d p p e e u 6 $ F V.Z Z F V S N V C N D C i N N C C V V B C N N y C i C i D C i N C C C C C C C C m D N C C N C C C C D m C y y y C y C C C C V C V V V V C D C C C C C i C D i m S C C l r i D C D C i C D C D z z C C k i z i C z i z z y r D > r D 8 m k < k D k 8 D k k D ",
"GXGXGXDXGXGXGXSXSXSXBXSXBXBXSXSXBXMXHXMXNXlXdXdXMXfXgXBXMXdXMXMXdXBXMXdXMXBXBXMXHXnXzXnXlXrXzXrXpXsXpXsXfXpXdXlXdXdXpXpXfXfXpXpXpXeXfXsXpXfXpXsXiXfXiX4XiX4X4XiXiX4X4XeXpXpX4XpX>X1XOX|.|. X<X>X>X<X,X<X0X4X4X4X4X4XiX>X0XiX<X2X0X4X1X,X>X=X>X|.|.<X X|.OX|.<.4 Q.dX~.<X;X=X,X,X=X0X,X:XR.T.Q.;XF.V./.V.!.Z.!.!.R.T.W.R.T.|.eX,XW.=XT.0XpX4X>XfX-X6X5X6X4X4X4X,X<X>X>X<XY.0X0X,X|.T.T.=X;XR.R.T.R.R.I.E.R.Y.R.I.R.c.c.Y.<X[.OXT.Y. X2X2XaX>X2X>XOXuX5X5X4XOX X XOXOX X|.2X4X1X1XL.M.g.Y.|.c.}.A.Y.V.>.g.$.c.R.B.c.D.j.j.k.A.C.y < F...Z B !  .J v B B ^ M M ^ ^ ^ M M M M c c J M M c E M M J M c g g d g g c E M E L n M g J c g c C g d a f d d d d d t d g c d t u e u t t t e d p d a g h g a d u w w w w w e e e e e t e t t t p u e e u t d r 7 t t t t e e w 4 5 6 w e 6 e 5 4 e 5 4 e 6   S ~.s.,.s.,.,.$.X.o.V ) o.o.X.O.$.O.O.o.X.&.@.$.N !  ._ V V ! C ! +.$.O.@.O.+.) @.V M ! X. ._ _ _ ) ) V ! V C  .V )  .X.V _ ,.| ,.| ,.#.:.| ! @.X.) X._ V V | V V ,.X.V V C V | V | _ _ ) _ V _ V | | | _ V V ) _ | ) _ V V m V m V V V V m V V V V | V V V V ",
"GXDXGXGXSXMXHXSXGXSXSXSXSXSXSXSXSXSXBXHXMXMXBXBXMXxXSXBXSXSXSXSXBXxXdXMXdXdXdXdXHXHXSXHXMXHXMXzXdXMXlXaXpXeXeXdXdXaXlXHXZXHXFXZXZXHXlXlXdXaXpXaXaXdXdXaX4XpXsX4X2X1XiXiX4XiX4XpXpX4X4XpXaXpXiXfXfXiXiXiX4X>XOX>X4X,X,X,X4X,XiX>X2X4X>X2XpXpXiXpXiX4XiXeX<X+X<.8 W.dXQ.Q.W.-X0X,X=X<X,XT.R.R.-X<XS.V.F.F.!.R.!.Z.S.W.S.R.T.;X5X<X=X>XT.4XdXfX4XiX6X4XeX4XeXpXeX,X>X|.>X>XT.0X2X,X<X=XR.>X;XT.R.T.|.T.E.c.T.T.R.Y.Y.Z.R.|.>X<X|.Y.T.OXsXiXlXiX3X>X4XzX5XiXiX>X2XOX2X>XOXOX4XpXiX3X X[.k.Y.|.m.|.T.I.R.k.V.s.B.Y.R.c.c.c.D.B.T.m.u < F.o.B ^ c v c c M B ^ ! ^ ^ ..! ! ^ M ^ ! ! v B c M ^ Q ~ [ +.~ ^ E E E ^ ( ( ~ Q Q ^ E c G J E M f d d i d r 5 d g g g g d h t d f g M g g d t t a d d g c s d t e e e e t e w e e 6 4 e t d a g d 5 e p t j p h p d s s a e e t e e 5 e t d p e 5 p j j e w   D /.,.d.s.,.d.,.s.$.V @.,.$.O.O.s.O.,.o.X.k.7.,.V O.X.O.V V ) B ! s.,.X.X.,.%.%.,.X.V O.,.! X.$.,.,.O._ V ) V _ ! X.X.O.V <.x.9.:.,.,.,.,.@.X.,.@.@.,.X._ | ,._ _ ,.,.| V V | ,.| _ _ @.| _ V _ _ ,.,.,.,.| _ ,.,.,.,.,._ T V m V V | V V V V _ V V <.V V | <.",
"GXGXGXGXGXSXSXFXHXMXHXHXMXHXHXMXHXHXHXHXMXlXHXHXBXFXSXZXSXxXZXlXHXHXHXlXxXZXdXdXHXHXHXHXnXHXzXHXlXeX4XeX0XiXfXlXHXzXeX5XfXzXdXlXzXrXzXzXlXlXfXzXfXdXpXeXiXdXpXpXfXpXpXiX4XiXaXxXlXfXpXaXdXpXiXfXiXiX4XfXeX1X>X1X1X>X>X1X>X1X2X>X4X2X4X5XpXiXiXeX4X0X0X2XOXY.<.8 Q.lXQ.<X|.<X4X,X:X;X,XW.E.R.,X=XV.F.E.E.!.R.T.E.V.Q.R.R.=X>XeX;XT.<XT.4XfXpXrXhX6X4XpXeX4XsXiX>XOXT.|.>X|.0X<X>X2XT.R.2X XT.E.T.|.R.R.m.OXY.W.T.|.E.E.Y.iXOX<XY.A.>XpXpXlX5X2X1XuXlXuXaXuX>X2X4X5X5X X X4XuXeX1X+X|.k.Y.|.m.}.'.Y.B.,.D.c.Z.T.Y.x.k.V.c.R.I.A.y < V.O. ... .^ ^ ^ J J ^ E ^ ^ ^ Q ! ^ Q ~ ! ^ ^ M c M ^ ! ^ ^ ~ ( ~ ^ E G J ^ ^ Q ( ( ~ ^ Q J ^ ^ ^ g c c c g d f g L L P J P J Q Q ~ ~ Q E G c g g g g s s h p p e d g g g h c s g g h d g g h h s h h h h h a s s a a h g g J s g G G G G h h s s G G G G h j   D /.s.g.D.,.,.$.$.p.! X.p.$.o.,.s.$.$.o.$.k.9.>.O.$.O.O.O. .O.V @.g.>.&.$.%.7.%.@...! @.$.X.@.%.%.&.@._ V _ _ ) O.X.+.+.) >.k.g.>.#.>.g.7.#.@.,.:.,.@._ | ,.,.O._ 9.:.,.) V | V | V | ,.,.@.V @.@.>.q.,.,.| | >.:.,.,.<.X.) _ V ] ,.V V V m V <.V V V ] <.,.V ",
"LXIXLXGXGXGXGXGXSXGXSXGXSXSXSXGXSXDXGXGXSXGXGXGXBXxXdXxXxXdXZXxXHXlXHXZXSXSXDXDXHXSXHXHXFXHXHXHXZXZXZXHXHXZXHXHXHXHXFXAXZXZXHXFXHXHXHXHXSXHXHXHXdX4XpXpXpXdXdXpXlXdXpXpXdXdXlXdXlXlXaXdXpXpXiXpXeXiXlXpXzXpX5X1X4X4X1X4X4XiXpXlXpXlXaXdXfXdXzXzXdXaXaXaXiX>Xq.8 Q.dX=X=X-X<XrX,X|.,X-X}.T.|.;X,XF.V./.V.W.R.W.!.E.T.R.T.T.<XiX|.W.-XT.4XpXpXrXzX1XiXfX4X5XpX4X<X2X|.[.Q.Y.<X4X>X2XT.R.Q.=XT.Y.T.T.Z.c.E.W.W.[.W.|.I.I.T.4X,XOX|.'.OXpXpXzX4X4X2XpXzXpXzXuX.X2X2XiX5XOX{.5XaXuX2XOX|.q.[.-Xc.|.'.Y.c.,.c.c.A.}.T.R.c.k.x.R.c.B.y < G... .^ Q ~ ^ ! ~ ~ ! Q ..[ ~ ^ E ^ c c c c v x x x c c x J E E L L g J J J G E E G E J G J J g x g M G G J E E ^ P ^ ^ ^ ^ Q Q ! ^ G L J J G L G g g J G J f h g c G E J J G J s g g s f h p g a a f h g h d s g s h h p h h s G g G G h h p h h g G h g p 4 O D F.s.s.D.d.,.$.X.o.V o.$.s.X.,.g.p.,.s.>.c.g.>.O.O.X.X.V  .@. .+.g.s.@.&.>.f.%.,.~ ! +.,.@.+.%.%.,.) V ! X.X.X.X.! ) ,.&.9.9.g.q.#.f.k.9.#.| | :.,.,.X.,.,.9.X.@.9.,.,.@.W X.| _ | _ ) ,.@._ @.@.9.9.<.,.@.@.>.9.>.<.,.| ) _ V V <.V V <.V <.<.V <.| ] V ,.<.",
"IXGXGXLXGXGXGXGXGXGXGXGXGXGXGXGXGXGXGXGXDXGXDXSXPXGXBXSXSXMXFXGXDXSXZXFXSXSXSXSXDXDXDXGXDXDXGXHXfXdXZXHXFXFXHXFXSXZXZXZXHXHXHXSXFXSXSXFXHXHXHXHXdXlXdXlXdXdXpX4X4XdXZXxXdXlXlXdXdXlXdXaXpXaXaXiXpXaXaXpX5X5X5X4XiXpXpXpXpXlXlXlXlXlXpXdXlXzXlXlXxXxXxXdXiX4Xi.9 Q.MX=X-X,X>XsX,X:X-X,X:X:X-X=X,XV.E.F.E.R.E.=XT.R.R.E.|.T.>X4X=XOXW.|.4XrXzXhXpX4XfXpX1X4XiX2X>X4X X|.>XY.<XiX1X<XW.R.>X>XT.R.T.|.E.E.E.Y.W.|.|.|.Y.I.T.>X<X|.R.|. X5XpXzX2X1X2XpXkXuXuX5X[.#X1XpX5X X X5XpX3X1X1X.Xc. X>Xx.|.A.|.I.>.g.c.|.|.}.|.V.9.D.Y.x.x.y , F.X..... .B ^ ^ c c J ^ ~ ( ~ ~ ..^ ~ ! ! J J v c v c c c J ~ ^ Q ^ ^ Q ( Q Q ( Q ~ Q ^ ( ( ^ L L E Q Q ^ ^ E Q ^ G J J G P J J G G E G J G J Q Q E J J J Q G s s s s h h h a a d p p h h s s p j j p j g s s g G G G g s G G G G g s G G G G s h s s h s a 5   D /.s.s.V.,.$.$.o.$. .o.,.p.$.X.s.,.>.x.g.k.8.>.$.$.O.,.V O.O.! o.f.7.%.>.7.k.@.$.X.@.@.X.,.%.+.@.>.+.! ..~ X.@.X.! _ @.$.f.g.9.>.>.h.9.7.#.| ] %.,.,.,.,.,.,._ ) >.>.@._ _ X.| _ | _ | ,.| V @.,.>.9.:.,.@.| >.9.:.,.,._ _ ) V V <.,.<.<.V V V ,.,.,.| V V <.",
"HXGXGXGXDXGXGXGXGXGXGXLXGXGXSXSXSXGXGXGXSXSXGXGXVXPXPXVXSXSXSXSXKXGXGXDXDXDXDXDXGXSXDXDXFXHXHXFXHXfXdXHXMXSXFXDXFXSXAXHXFXSXFXZXFXHXHXHXFXSXHXHXZXZXZXxXZXFXFXFXxXZXFXSXSXFXHXFXZXZXlXZXdXaXpXiXdXlXdXlXlXdXlXdXpXpXaXzXdXlXZXlXaXuXpXlXlXHXHXlXaXaXfXaXaXsXi.8 =XfX<X;X<X,XsX6X:XT.>X;XT.=X,X=XD.!.E.V.W.Z.T.Q.S.Z.W.=XY.<X,X=XOXT.:X4XhXzXrXzXfX5XeX>X>XpX4X4X4X|.=XOXI.T.2X<X2XOXW.OX<XT.E.T.<XE.U.U.R.Y.T.>X>XR.E.Y.-X>XY.I.|.[.5XpXaX5X1X4XpXzX5X5X1X[.1XOXpX1X].+XiXzX5X1X$X XN..X'.x.}.|.[.Y.k.k.g.R.}.}.>XV.,.g.T.h.c.i , G.~ !  .^ ^ ^ B ^ B ^ B ! ^ J ^ ^ ^ ( [ ( ~ ..( ~ ^ ^ ! J J J J J Q Q J Q J ^ J Q ^ ^ Q P J J E ^ J Q ^ ( G G ^ Q Q ^ ( P J ^ Q Q ( ( Q ( ( Q ( Q ^ L G J G J E J J g s c G J G J G h h j d a h g g G g g g g g s s s G g G s g J G G G G J J G G a s G a h e O F /.s.>.s.,.,.@.X.o.$.$.,.,.O.X.g.,.f.g.k.g.g.,.O.o.o.$.O.O.,.O.X.>.>.%.>.7.f.+.@.X.X.$.! %.%.) %.,.) _ +.) ! %.X.X.X.#.,.7.h.q.,.9.h.q.7.%.%.[ %.,.@.@.O.,.9._ @.>.:.,._ W ) X._ _ V ,.:.@.V @.:.9.i.9.<.,.| 9.>.:.,.,.| | _ V ] <.V V V V <.<.V V q.V <.V <.",
"SXSXGXGXGXGXGXGXGXIXGXGXGXGXGXGXVXSXSXSXSXSXSXSXGXGXGXGXSXSXSXSXDXBXHXHXHXHXFXDXGXFXDXDXDXDXFXFXHXHXSXFXDXSXGXSXGXDXDXGXDXSXHXHXSXFXFXSXGXSXGXDXDXSXFXHXMXFXSXFXSXZXZXSXSXSXZXSXZXMXxXMXdXdXxXBXZXZXFXDXDXFXFXFXFXxXlXlXlXlXlXlXlXlXcXcXcXHXZXlXdXlXxXMXdXiXi.9 =XfX:X-XT.=XpX,X-X}.|.-XT.-X<X=Xd.E.E.E.R.E.W.W.Z.E.>XQ.R.>X>XQ.W.T.OX2XeXzXpXfXrX5X6X<X>XpX2X>XgX>X|.>XI.R.4X>X0XQ.W.2XQ.R.E.Y.<XW.R.V.E.I.W.OXOXR.R.OXQ.>XR.I.|.[.iXpXpX3X1XpXiXzXiX1X3X.XOX>XuX1X[.[.6XhXuX1X3X.XY. XI.h.|.'.|.Y.h.c.c.R.|.'. XT.s.c.Z.k.m.u < G.&.&.X...( ~ ~ ( ^ ~ ..^ ^ ^ J E ^ ( ( ^ Q Q ( { &.( &.( ( ( { ( { ;.{ &.{ ( ( { [ { ( ( { { { { { &.{ ( { { ( { ( ( ( ( Q / ( ( ( ( / ( { ( Q ( Q J G J G f s s g G J J G s g G J J P ^ G E J J G J G G s s h g s h h J ^ G s s G J G ^ G G G g s g g s p e   D !.D.s.k.>.,.%.O.X.$.$.,.7.O.O.>.,.>.g.g.9.g.g.X.X.O.X.Z V ,. .@.>.,.>.7.%.%.~ X.X.@.,.V @.@.) &.,.@.X.@.X.~ @.&.) X.%.7.,.h.g.>.7.h.9.9.#.;.+.+.,.%.) X.@.,.O.@.>.,.,.) _ X.%.) ) ) +.,.O._ @.4.7.0.9.>.@.@.:.9.>.,.@._ _ _ V V | O.@.X._ _ V ,.V <.| | | ,.",
"GXSXGXSXGXSXSXHXMXBXBXMXSXSXBXCXSXGXSXSXGXSXSXSXSXSXSXSXSXSXSXSXHXdXsXdXHXHXDXHXFXSXGXFXDXFXDXDXGXDXDXFXDXDXFXDXDXGXGXGXDXFXHXHXSXGXDXDXSXFXDXSXSXGXDXDXDXDXSXGXDXGXGXDXPXGXGXDXDXDXDXDXDXPXPXPXDXDXDXDXDXDXDXFXDXFXAXSXcXcXFXHXcXFXZXAXcXZXcXAXZXxXxXxXaXiX0.8 ;XfXQ.,XR.=X4X<X-X-X:X=X}.=X=X<XV.V.E./.R.R.W.W.c.E.<XOXT.>X<X|.W.OXR.0X5XpXzXlXuX5X>X6XeX4X6X,XaX|.OX>XB.T.pX>X4X$XR.OX>XR.E.OXOXT.E.I.E.I.T.I.OXOXT.T.+XOXT.Y.=X>X4XiXzX1X1XzX4XzX5X5X3X'. X#X5X1X).].6XzX5X3X2X XN..X}.c. XY.}.I.x.x.Z.x.Y.1X|.R.k.C.x.k.x.i < V.7.#.{ &.X.( ( ..( ~ Q ^ ~ ~ ( [ &.[ &.( ( ( ( &.( [ ( { { &.;.-.{ ( ( { { { { -.{ &.{ { &.{ { { { { { *.{ -.{ { { { ' ( ( / ( { &.( ( ( Q Q Q P ^ P Q J J G G s h p d G J g g G G J G G G ^ G ^ L G E G G J G G G G s s G s g h s G G G G G s G s G s s h 5   D F.D.7.k.k.9.%.X.! X.s.$.>.$.$.k.,.#.g.k.7.s.g.$.O.S $.O.V O. .$.s.>.>.9.f.%.X.$.X.X.$.! @.@.@.,.#.$.X.) ) ! X.&._ X.%.7.>.k.h.7.7.:.q.8.@.%.@.[ %.%.| @.@.,.) @.>.>.,.| V @.&.) ) ) @.,.) ) @.:.:.9.9.4.| #.#.>.:.,.,.| ! V n X.X.) @.O._ _ V | | ,.| V V | ",
"rXrXqXsXMXrXrX9XrXrXfXMXfXrXeXeX6XrXrXrX6XrXrXrXeXrXeXeXeXeXrXfXrXdXfXrXnXfXfXpXrX6XrXzXfXfXzXfXpXHXfXzXpXpXzXfXpXpXpXzXrXlXlXdXlXlXdXlXlXzXfX5XzXdXlXdXlXdXlXaXlXdXaXpXpXpXpXpXpXpXiXpXfXpXfXpXzXzXpXpXpXpXzXpXhXhXeX5X4X1XeXhXpXpXpXpX5X4XiXiXpXaXaXaXiX>X4.3 Q.sX=X=X:X|.<X>X,X=X6X:X}.-X=X:XV.E./.R.W.R.W.W.V.E.OXW.|.0X<XT.Y.W.Y.iXeXpX4XdXuXeX|.>X4X2X>X2XaXOX2X>XB.T.sX>X<XOXW.<XOXR.R.W.<XT.I.E.W.E.+XY.Q.OXW.OXR.OXOXR.<X>XiXuXzX1X4XpX4XzX5X1X1X[.[.+XuX1XJ.'.hXzX5XtX3X{.I.[.}.c.>X'.|.I.,.g.Z.g.Y.OX>XR.k.Z.Z.k.j.i < V.p.;.%.;.&.&.( ( ~ ..( &.&.( ..( ! ^ ^ ~ ^ ..( ^ ^ ( ~ Q Q ( ( ( &.( &.( &.( ( ( ( ( ( ( ( ( Q Q ( ( ( ( ( ( ( / ( / ( ( ^ Q ^ Q Q ^ Q ^ ^ Q Q ^ ^ J G J s s f g h t j e j t a s s h h p h p h j p p p h h s h h s a h h j j 4 4 5 t t j d t 5 j 5 p t e e e O F F.k.7.j.k.f.,.$.C X.,.,.7.o.X.g.s.$.7.s.,.f.>.X.O.Z ,.O.Z O. .,.,.>.f.7.f.7.+.$.X.! X.X.+.! +.%.%.X.! ) +. ._ X._ X.>.9.>.8.8.0.9.#.7.9.| #.:.) +.X.X.@.@.,.X.| 9.>.| +._ +.%.) ) ) ,.:._ _ @.#.:.0.9.:.| @.#.,.:.%.@._ M V V _ @.@.@._ @._ <.V <.| X.| ,.| ",
"GXGXSXBXHXMXMXMXMXrXsXfXsXfXrXrXrX9X6XeXrXfXrXfXrXlXrXdXrXMXfXsXMXMXlXdXzXMXMXfX5XrXrXrXnX5XrXrXeX6XrXzXfXpXrXzXpXrXpXrXeX6X5X6XeXpXeXpXpXfXeXpXpXeXeX4X4X6X6X1X>X>X>X>X>X>X>X,X>X,X>X-X-X X|.|.}.-X X|..X.X|.-X|.-X-X.X-X-X=X-X-X-X X|.-X}.}.|.=X|. X|.Y.T.<.7 T.4X=X-X;X=X=X,X-X>X6X=X:X6X;X=XV.V.E.E.T.W.R.R.V.R.W.T.Q.+X2XT.Y.OXR.4XpXpX5XzX5XiX X>X>XOX>X4XiX>X2X<XY.|.iX<XOX<XOXQ.Q.R.R.Y.T.T.R.E.OXT.|.R.OX|.W.OXW.OX2XY. X>X5X5XkX1X1XzX2XzXyX2X#X[.). X5X3XL.L.vXzX6X3X1X.Xv.|.|.v.>XI.#XT.>.g.c.B.T.[.|.Z.j.A.Y.m.h.l < G.X.X...&.[ ( ..^ J J J J ^ ^ ( ~ ( ~ ( Q ^ ^ ~ ! c c J ! ~ ^ Q ~ Q ( ( ( ( ( ( ( ( ~ ~ ^ Q ( ( ( ( ( / ( ^ J ^ ( Q ^ ^ P Q ^ ^ J G G G g g g d g G J g h g c f g d d d d d p d d p e p d p p p p p d d h p d p a d h f p e e e e j e t 4 w w 4 e e e e j e 6   S V.k.7.k.j.9.7.$.V _ $.,.>.@.$.>.>.s.>.7.k.7.,.$.O.V ,.,.Z Z O.,.>.>.7.7.g.9.X.&.X. .O.@.,.) X.:.%.X.! +.X.!  .+.X.X.>.g.,.g.x.g.9.#.9.7.#.%.#.%.| _ @.@.@.+.| | >.>.@.| _ @.%.+.) | +.,.V ! +.:.7.9.7.%.[ @.@.@.:.@.,._ V C C | @.O.@._ | X.,.V | ,.,._ _ | ",
"KXJXGXLXGXSXGXSXSXSXBXHXHXSXHXdXHXMXfXMXfXHXfXrXHXMXrXeXeX6XeXeXrXrX5XfXrXMXzXrXnXzX5X5XrXrXnXzXdXfXzXHXMXzXdXlXlXdXlXdXpXeXfXfXfXfXdXdXfXfXfXdXfXfX4X4X6X4X6X-X>X>X;X4X6X6X6X6X>X,X4X4X4XeX4X1X-X X-X>X-X1X6X6X>X>X6X-X-X-X|.}.}.|.}.|.|.}.|.|.|.Z.Y.Z.C.B.| 8 =X<X=X,X>X<X|.>X>X>X,X-X>X-X6X;XV.V.V.E.R.W.W.R.V.R.=XT.W.|.OXOXR.OX[.iXiXaXdXlXpXpXOX>X1X|.OX4XiXOX4X>XI.W.iX>XT.OXOXOXY.E.R.E.Y.T.E.x.OXW.OXT.W.OXT.OXOX<X>XT.>X>X2XiXpXOX2XzX1XpX5X6X3X).[.3X6X1X).].hXuX3XvX1X{.M.'.'.B.1X X+XY.g.B.x.c.'.A.I.m.Z.B.Z.c.h.l , d.v c x c v ^ c c v x d x J ^ ^ ~ ~ ~ ....( ( ( ..^ ^ ^ ! ! c v J J J J c c v c c c c c J c g c J J J J d J h c c d d d d f f f J G f d x d e x d e e e e e e w w w w ; w > w w w ; w 6 6 6 w 6 6 6 6 e e 6 6 6 4 6 6 6 w ; w ; : 6 4 6 6 6 6 4 ; ; ; ; ; ; 6 O F V.c.s.h.B.g.%.&.! _ $.@.s.&.$.>.>.s.9.,.f.>.,.$.O.V o.$.Z O.O.>.,.>.>.9.8.x.&.+.X.X...@.>.X.#.>.,.! V @.+. .V | X.) ,.g.#.7.h.0.7.7.h.q.#.:.%.+.| ! X.,.,.+.X.@.>.>.@.@._ +.@.@.) ) @.,.V _ +.>.:.q.>.:.[ %.%.| #.:.@.) C C C _ ,._ _ ) | X.) ) ) | _ _ _ | ",
"SXSXSXSXSXHXHXHXHXHXSXHXSXMXHXrXfXfXMXHXHXHXHXHXlXdXHXMXHXeXfXfXMXlXfXrXfXfXnXHXrXHXnX5X5XpXzXfXfXpXzXMXdX5XeXrXeX6X,X6X6X6X6X6X1X,X6X,X6X6X-X6X6X-X6X-X-X=X-X,X-X6X6X4XeX,X-X6X>X>X X>X>X>X-XoX|.}.6X6X6X1X6X4X4X2X1X-X X-X-X-X-X|.|.}.Y.}.}..XOXOX|.|.'.Y.<.8 W.6X=X=X;X-X=X=X,X<X|.|.<X<X6X>XE.V.V./.W.W.W.R.Z.R.<XT.T.|.|.W.Y.Q.W.>XiXiXpXlXeXiX>X2X>XOX2XiX4X>X4X>XR.OXiX>XOX2XQ.Q.R.U.R.I.E.Y.U.R.Q.|.|.Y.|.T.T.OX<X>XOXT.2X>X>XiXpXOX6XzX2XzX5X3X3XJ. X3X3X#X)..XzXuX5X5X$X.XB.[.|.N.1X|.Y.R.c.C.k.A.}.[.}.Z.c.Z.M.g.v.i < d. .v v v l z x y y y y y z u l l x v c d v v l v c c v c c c J x v c x x d x x l x u c x c J d c c d j u d u i i u u u u e e t d u d e e w w e e e w w > ; , % % , ; , & < ; ; 6 w e e e e e w w w e 6 4 e e w 6 w w w 6 & & : : : 4 e e e e 4 e 6 6 ; & 6 ;   S E.D.k.h.Z.g.g.$.X.X.X.,.g.X.@.,.>.>.s.:.>.,.,.,.O.Z O.,.,.O.O.,.@.>.>.g.h.9.$.$.X.O.! +.,.+.&.>.+._ ! ) @.~ ! @.) X.>.7.,.g.0.x.:.7.8.7.,.:.#.@.) W X.@.:.,.+.@.g.>.@.+._ +.#.@.) _ +.:._ V +.:.7.:.4.+.[ @.#.%.@.@.@.) n C V V | | @.X.,.@.| ) ) ) _ ,.) ) ",
"MXHXMXrXrXrXeXfXrXrXHXMXMXMXMXHXMXMXHXfXHXMXHXHXrXlXMXHXHXHXHXdXlXMXfXfXfXnXHXHXHXHXzXrXHXnX5XrXrXrXrX6XeXeXeXpXfXfXrX6X-X6XtX-X6X>X,X6X6X0X,X-X>X6X6X6X6X4X6X4X4X6X,X6X4XeX6XeXiX4X4X1X>X4X1X6X6X6X1X6X6X6X6X6X6X>X-X6XtX6X4X6X4X1X4X1X2X6X6X5X5X4X4X#X|. X1.8 =X,X:X|.=X>X<X:X=X>X;XT.-X=X-X<XR.V.D.E.Q.R.T.R.E.T.T.Y.|.>XW.T.$XOXT.>X0X4XpXaXzX5X>X4X>X1XiX4X4X4XpX<X[.>X2X<X<X>XW.OXY.T.T.R.E.B.E.R.OXY.<XR.[.T.OX<X>X>X+XT.>X>XOXyXuX1X2XhX4XhX4X4X5X). X$X5X XU.+XzXvX5XhX[.].[.].|.B. X[.T.I.c.c.g.R..X.X[.Z.c.B.Z.9.x.u < d.v v x x l v l u l l v z d x l u u v v v u y z y w y l z i l l d u u d l x x x u y z x d c x c d d d c c u d i d d d t u d x c d d e e e e u e e e u e u e u y w e e e e w w e w 6 w e t p 5 4 e e 4 6 e 6 6 ; 6 e e 6 6 e e e e e e e e 5 j j p e j w 6 4 w O F V.j.g.x.c.>.f.%._ X.,.,.f.@.+.%.#.>.s.>.,.@.,.O.Z O.O.,.,.$.O.@.&.%.7.g.7.h.,.X.$..._ X.,.X.&.#.X...! X.~ ) X.@._ X.>.7.%.0.x.0.7.:.0.7.:.7.@.@._ V +.+.>.,.@._ >.,.+.+.X.+.,.+.+._ _ ,.) _ +.%.:.7.:.| _ &.,.@.%.@.) _ V C V V | V @.) ) @.X.) _ _ _ @.@.) ",
"fXrXrXdXlXpXfXeXeXrXeXfXfXHXHXHXHXBXHXHXdXrXfXfXMXlXrXrXrXfXsXlXMXMXHXHXHX5XpXfXzXnXHXHXHXHXHXHXHXzXzXrX5XeX5XfX4X6X6X6X6XrXdX5XeXfXfXdXrX5X5XeXeXpXeXeXfX5XrXpXsX4XeX4X6X4X4X4XpXeXpXpXeX4X4X6X6XpX5X5X3X3X6X6X5X3X5XpX5X5X5X5X5X3X6X5X5X5X5X4X5X5X2XOXOX X4.7 =X,X<XT.=X6X>X|.-X=X=XT.=X}.,X,XR.V.V.E.=XT.T.R.Z.E.T. X<X>X[.|.>X<XOX4X2XiXiXaXpXpXOX4XiX>XiX0X4XeX5X2XW.<X+X>X2XQ.W.[.E.T.[.E.Y.E.U.OXOXW.+XY.Y.Y.OXiX4X<X+X+X>XOX|.aXpX2X2XpXuXhX5X5XuX[.2X X3X#XI.#XkXhX5X5X[.#X'..XoXv.|..XY.I.Z.Y.B.Y..X[.Y.Z.g.m.Y.h.x.y o G.N v v v v x x v x d d l l l z u x c v J v c c v l l x x l u d x d l z l x x x l d u u u d x d d c d u y > y i u d d d d d d d e d d d x d x d d u d u e t d g d g d p p p 6 6 e w e j e e 5 5 j j 5 e j e t j t t e j t p a h p 9 e j j 5 5 j j 9 j 5 e 4 6   F F.s.s.x.x.>.s.#.o.@.,.>.>.$.+.:.@.s.>.,.,.,.>.O.$.O.O.O.,.$.! ) %.#.>.g.7.g.%.$.+.! O.+.) +.+.>.+._ X.X.! o.+.,...) 7.7.:.9.0.x.7.} 0.q.7.:.:.| ! V | :.9.@.+.+.#.:.[ | ) @.#.%.) ) ,.,.V V @.:.:.7.:.+._ +.%.&.+.@.+._ V C V V ,._ | @.) ,.) _ _ _ V ) @._ ",
"MXMXMXMXMXsXfX0X0XfXdXpXfX4XiX0XsX0XfXsX0XeXeXeX4X0X0X,X<X0XeXeXeXrXrXrXeX,X>XsXfXpXpXdXdXdXdXdXzXHXpXHXzXMXMXfXpXeX6X6XeXrXzXlXfXfXdXfXeX,X>X-X6X4XeX4XeXeXeXeXeXeXeX4X4X,X6X4X4X2X4X4X4X6X4X4X5X6X5X5X5X5X5X5X5XuX5XuX5X6X1X XOX X>X1X1X1X4X1X2X1X1X2X>XOX4.8 W.,X-XT.T.4X>XT.=X,X=XT.=XT.=X<XE.c.E.R.R.W.=XW.Z.c.W.OX,X>XB. X>X>X>X>X1X5XpXiXiXiX1X5XpX4X0XiX1X5XpX,X|. X|.<X2XR.T.|.Y.T.+XR.T.R.Y.>XT.[.Y.B.Y.|.[.4X2XOXT.W.,XOX|.dXzX1X4XhX5XzX1XzXzX'.#X+X5X3X).1XzXzXhX3X].3XN.[.1X8. X XY.A.c.|.Z.Y.[.'.N.Z.:.B.Y.k.v.z * d.S v z z y l l x v v x v l x x x x c x c x u u v x l l x l x J J ^ J M M M M c c x c M M M c c c M d d x x x c d d c c c d d d d c c d d d d d d d u d t d f f d a d d p p e t e e p j e p j p h j j 5 6 6 6 w e e t e p p e j p a a a a a s a h a h j p e 4   F !.s.h.k.c.c.,.$.,.&.>.>.,.$.+.$.@.>.>.%.%.>.%.X.o.O.O._ O.,.O.X.[ +.,.#.9.k.+.@.X.! X.%.) ) @.9.@.! X.X.! O.X.>.+.%.f.#.7.0.h.0.7.7.0.7.:.q.| @.! ! X.,.7.,.+.@.7.>.@.+._ +.,.| ) ) @.@._ V _ %.9.7.:.) _ +.,.X.@.@.| _ V C V _ ,._ @.) _ %.! ! +.X.W | X.W ",
"MXBXBXMXMXMXsXdXgXdXgXdXfXsXsXfXfXdXMXMXMXHXMXdXfXsXeX4X0XrXrXfXdXrXzXrXeX0XeX9X6XeXeXpXdXpXfXgXfXfXpXHXHXlXfXlXeX6XeX5X-X-X,XeX4X4XeX4X4X1X}.}.T.:X-X-X>X6X4X,X1X1X6X,X,X6X,X>X-X-X<X,X6X1X4X5X5X-X-X-X-X6X-X X X-X}.}.'..X.X.X|. X X X X X X#XoXOX X-X X}.{ 7 =X,X<XT.-X<XeX-X=X-X=X|.=XT.|.W.T.V.V.E.W.T.=XW.C.E.R.<X<X>XR.>X X<X2X1X5XrXpXpX2XuX2XpXpX2X2X2X2X5XiX>XOX[.|.4X>XR.R.T.I.R.<X|.|.R.|.OX=XY.R.I.|.|.Y.>X0X>XI.OXOXOXOXlXpX2XiXpXuXhX5XhXpX'.1X[.5X2X[.1XjXuX5X3XoX1XB.'.1Xc.>X[.A.A.B.Y.B.g.'. XA.C.f.m.Y.x.m.i * G.B B v v l l l u u l u u u u z y z l x l x l l l l x u l i x v l x v x x x c c x c x x f d d d d x x x d d x d u u e u u u d x g f f x d u e r u u u w w w ; w w w w w w w w 4 w 6 4 e w e e e 6 4 w 4 5 e j 6 6 4 6 6 4 4 e 5 5 5 p p 5 j e 4 5 4 6 w 6 6 ;   S V.g.k.h.j.g.7.@.X.,.,.s.#.,.@.,.$.,.,.%.%.>.:.s.O.V X.O.O.$.@.X.%.%.>.#.h.k.%.@... .X.,.$.+.%.,.X.O.+.+..._ X.>.X.o.>.:.9.h.0.x.#.7.0.7.4.7.7.| ~ ! _ #.>.%.+.+.:.s.#.X.! ) @.,.| X.,.O.! ! +.#.9.7.:.) W _ @.+.) | X.X.V C V T _ ,.%.+.) +.W W _ _ _ _ | ! ",
"MXNXMXsXMXBXMXMXxXgXgXdXdXxXBXBXSXFXSXMXSXSXSXHXSXdXlXMXlXSXHXSXHXHXMXlXfXeXeX6X,X,X<X>XiXsXaXaXfXrXpXfXHXHXlXHXfXfXpXeXrX5X5XeX>X,X0X>X-X>X:X}.-X-X6X|.|.=X,X>X<X|.|.|.}.|.-X:X}.:X6X6X6X-X X>X|.|.|..X}.|. X-X|.}.|.|.|. X-X1X6X>X1X4X2X4X>X1X>X|.T.'.N.B.' 3 ;X0X|.=X<X<X4X=X=X,X>XR.T.=X=X=XR.V.V.!.T.W.=XR.Z.Z.Y.<XOX;X|. XR.2X>X>X4X5XzXpX1XpX2XeX4X>X>XOX1XpXpX-X-XT.>X2X2XY.E.Y.Y.I.|.OX|.|.|.>X|.'.|.'.OX|.+X<X2X+XY.W.1X|.OXlX4X1XzXaXpXzX5XzXuX'.2X[.2X#X[.3XhX5X1X5X{.OXB.Y.#XB.'.A.Y.T.B.Y.B.9.'..XA.x.k.m.A.c.v.i * d. .B v ^ J c c c c v x c v x x x l y y l l l u x l x c M c x B v l x x x c x x d x x d d x d d u u u e u r e u y u r r r r u r u u u i e w w , > > ; : w ; w 4 ; w ; : ; w 4 e e t e e j e e 5 e p t 5 e j p p p j e p p p 9 d p j j j 5 e 4 4 w 4 4 6 6 6 &   F V.>.g.x.h.>.,.,.X.X.>.7.@.,.&.%.>.,.%.#.%.;.%.,.o.V V O.+.,.$.X.@.>.,.&.k.f.@.%.! V X.@.%.+.$.>.| ) +.X.X.X.%.>._ X.>.%.g.h.h.0.| 4.0.7.:.4.9.@._ V ! %.,.%.@.) ,.>.,.X.! X.@.@._ _ X.) V V +.>.7.7.:._ M _ +.) X.@.@._ V C V _ <.,.$.,.) X.! W _ _ _ _ ! n ",
"MXBXMXSXHXMXSXMXSXSXSXSXBXMXBXlXMXMXMXdXfXfXMXMXMXHXMXdXdXdXdXfXrXfXfXdXlXeXeX6X0X4XpXeXiXsXeXsXeX6X6X6X5XrXrXfXfXpX5XrXrXeXeX0X0XeX4XeXsXeXpXfXfXfXeX6X4X,X4X,X6X6X>X;X-X<X>X,X6X>X1X>X>X X X|.|.6X4X5XeX5XiX1XtX6X4X3X5X5X2X6X1X4X2X5X1X2X1XOXOX>X X|.|.|.4.7 ;X4XT.<X-X X<X>X-X>X6XT.T.|.,XT.R.V.V.R.R.Q.-XR.B.Z.E.=X=X-XT.|.Y.,X>X>X6XpXdXaXpXzXiXiX1XOXyXOX XpXiX1X|.|.4X2X>XT.B.|.|.R.|.<X|.OX>X<X>X[.-XT.|.[.|.2XiXOXY.OX4XOX1XdXiX1XpXaX5XhX5XzXiX[.>X X3X1X.X$XhX5XhXhX X#XB.B.|.j.Y.Y.N.'.A.}.c.S.|.'.v.Z.m.m.B.C.M.l < G...! ^  .^ J J J ^ ^ J ^ ^ ^ E J E J c x c d x c c c M ^ ^ E E c c J M ^ c x x f d i i l x i c J c f g x d x c d d d d i u u r e e d f f d d a d d d e u d d d t w e t e e e 5 j a s a a p j j j j j j e j t p p p p j p p p j p d p p j 9 j j j j j j j e 6   F !.,.g.c.k.g.f.,.X.) $.f.@.%.@.%.>.,.s.&.>.f.#.$.O.V Z X.@.$.+.&.>.>.#.%.g.9.+.%.! V X.@.@.! %.>.X.+.X._ X. .,.>.! @.%.:.q.8.h.9.[ 7.0.7.:.7.9.:.) ) ) %.7.+.@._ >.>.| ! ! +.@._ X.O.) ! V ! #.:.:.7.| _ M ! | ) @.O._ _ V n C V ,.| @.>.| ) C _ ) _ _ ,._ n ",
"MXSXSXSXSXSXBXSXSXSXdXSXBXBXBXMXMXMXMXZXSXSXMXSXZXMXdXHXdXfXfXiXlXdXMXMXHXHXMXfX4XiXpXfXxXdXdXfXzXMXHXHXlXlXlXdXpXfX4XdXzX5XrXlXpXsXeX4XeXeXsXpXpXpXpXfXfX4XpXpXfXpXpXfXeXpXpXpXiXiX4X4XyX2X4X4X>X>X=X-X1X>X2X4X4X5XiX5X4X2X2X1X X X1X5X5XuXiX5X4X4XiX4XiXOXq.8 ;X0X=X,X|.>X,X-X=X4X6XT.R. X,XT.E.V.D.R.=X=X=XE.c.R.R.>X=X>XT.|.B.>X2X0X4XpXpXzXzXpXuXiXOX>XiX|.OXpX4X4X.X|.iX>X2XY.E.>XT.Y. X<X|.OX>X2X4X>X|.Y.|.>X|.2X>XT.T.OXOXOXfXaX4X1XaXaXuXzX5XlXiX'.2X X2X1X>X3X5XyXzX5X#X1XM.B.|.q.T.Y.[.|.m.Y.k.N.1XY.Y.m.c.m.B.m.A.x < G.&.&.( ~ ~ ~ ~ ^ J ^ ^ ^ ^ Q ^ ~ ^ ^ ~ ~ ^ ^ ^ E ^ E J E ^ ^ E c c M c M c d f x c g c x f f J ^ Q Q J P P J g g g J g c G g d d g g g E G E J s s g c g g d a a p p h g g d s G J G g g s g h j p p h g s h s a g s g g g g g g p j j g h h p p j j j t e 6   F E.s.c.B.g.x.%.&.$.X.>.f.%.%.%.>.%.%.%.&.>.7.7.,.Z V O.X.$.,.X.@.s.>.+.%.g.>.@.@.X. .X.) ,.) %.,.) %.+.) O._ $.%.! X.%.%.:.q.0.9.| :.h.9.:.7.7.7.@.| _ &.>.@.@._ >.>.| ! ! X.| X.) ) ..V V ! @.#.:.7.+.W M Q +.X.X._ _ ! V N V | ,.| ,.>.@._ V ! ) _ _ @._ M ",
"0XrXsXsXeXeXeXdXgXBXdXgXgXaXgXaXdXsXpX0X0X4X4X0X0XrXrXeXsXsX0XfXrXlXlXHXfXHXdXeX,X,X,X4X0XiXfXiX,X6XrXrXeXeX6XtX>X,X6XeXeXeX5X,X4XeX4XfX4X4X4X,X4X1X4X,X,X1X>X>X4X>X,XiXpXpX4X1X>X1X-XOXOXOX>X>XOX1XOX X X|.-X|.-X|.-X|. X X|.|.[.Y.Y.}.}..X>X2X>X-X>X|.|.+Xq.8 <X>X<X,XT. X4X>X-X4X,X}.T.>X<XT.R.V.s.E.T.W.=XR.C.R.R.-X<X|.>XT.C.>X<X2X4XpXuXpXlXpXpX5XOX>X2X|.>XpX5X4X XOXiX>X>XR.U.|.R.I.|.2X[.>XOX<X4X>X|.Y.[.>XOX2X$XY.+XOX|.>XfXaX4X1XaXjXuXzXhXkX5X[.1X+X5X1X+X#X5X5XuX5X#X1XY.m.>X9.A.Y.A.|.B.Y.h.Z.>X X}.'.B.Z.m.}.N.i * d.....~ ~ ~ ! Q ( ( ^ ~ ^ ^ ^ ^ Q ( ~ ^ ^ Q Q ^ ( Q ! ( ~ ~ Q Q ^ ^ ^ E E ^ ^ E E ^ ^ E E E E E ^ E J Q ^ ^ Q G E P Q ^ ^ ^ ^ ^ g E E E E E g G f p p a s s G G L J g g G G G G c g s g h h h h h h s h h f h a h a a p p p 5 j j 5 5 j h j j j p j j j j j 6   F /.g.c.j.j.8.%.X.@.+.s.>.@.%.@.>.>.%.>.%.>.%.7.,.! V O.X.O.@.@.@.,.>.%.#.>.%.>.@.!  .O.) ,.) +.>.%.&.X._ ! O.,.@._ O.+.4.#.7.h.8.@.#.x.7.:.0.q.:.@.W ) +.#.#.X.! >.,.X.V _ | @.X.) O.! C ! _ %.+.7.:.+.W M V _ | ) ! W _ V C V @.| | ,.,.@.! M ) +.) _ +._ V ",
"fXfXfXMXsXfXfXsXgXaXgXBXaXaXMXgXdXMXdXHXdXfXMXdXfXdXdXdXdXdXlXdXfXlXrXMXdXdXsXfXsXeXeXeXiX0XiX<X:X-XeXeX5XeXeXeXeXpXeX6X6X4XeX6X4XpXpXpXpX4XiXiX4X5XpXpXpXpX4XpXpXpXpX4X4X4X4X6X2X1X2X>XOX<X2XOX2X>X1X1X X<X>X2X>X2X1X2X2X1X>X1X>X>X|.|.|.OX>XiXiXiXiX2X1XOXq.m =X>X<X,X|.T.,X>X|.eX4XT.|.;X,XT.Y.V.D.E.T.W.T.R.Z.Z.R.T.<X|.>X|.B.,X2X1X5X5X4XpXlXpXpX2X X>X4XOXOXpXiX5XOX>X1X2X1XR.R.[.T.Y.<X>XY.1X>X>X4X-X|.'.Y.>XOX<XOXY.OXT.Y.>XaXpX2X1XzXpX5XzXzXkX4X'.OX XyX1X#X1X3X5XhX1X{.2XB.B.'.k.Y.T.Y.[.x.}.j.'.+X X'.}.A.B.B.}.A.x < d. ...^  .J c J ^ ^ ^ J ^ ^ ~ ~ ! E ^ J c ^ ..( ~ ~ ~ ~ ^ ^ ! ^ ^ ^ ^ c E ^ E E ! ~ E ^ E J E J Q ^ Q J J J J E E E ^ Q ^ L E E c G E J J E L J J g g s c E E ^ L L J J G J h d a p t j e a c g h h a d h h p j e 4 e 4 7 t p p e j j t h G h g j h d p p p t   F E.s.x.x.c.x.>.@.O.@.>.>.+.#.%.,.>.>.%.@.>.&.7.$. .O.! O.X.@.@.X.+.%.+.,.>.+.,.@. .X.,.@.X.! +.>.) +.%.X.! O.,.X. ...) >.@.:.8.g.@.#.h.8.7.7.:.:.+.! ) ,.%.#.X.! >.:.| M V ,.,.X.) X.! V _ X.#.@.>.:.+.W n W _ ) | _ W ! V C V _ | ) ,.%._ V W ) [ ) X.[ _ W ",
"SXSXSXSXSXSXSXGXSXdXdXdXdXdXaXMXFXSXSXMXZXSXMXdXSXHXFXSXMXZXBXMXHXHXHXFXHXHXlXpXpXpXeXpXgXaXgXaXlXMXlXlXHXlXzXMXlXlXlXpXdXfXpXfXdXdXfXpXlXdXfXiX5XeXpXpXpXpXdXlXHXdXaXpXpXpXpXpXpX4X5X3X4X2XiXiXiXiXiXiXiXpXaXpXlXpXaXaXpXiXiX2X3X2X>X1X1X4X2XiXaXiXfXfXiXiXq.m <X4X<X0X>X X>X<X:X4X4XT.Y.>X,XZ.R.V.V.T.T.T.R.Z.Z.Y.R.T.4X|.T.|.Y.>X1X>X5X5X4XlXpX4X5X5X2X3X5X>X>XiX4X5X>X4X1X1X1XY.T.>X XT.|. XY.>X>X>X3X>X|.Y.|.1XOX2X XT.OX|.Y.-XpXaX1X1XuXzXiXlXkXkXiX[.{.OXzXuX1X#X5X5XzX3X{.2XY.m.I.x.Y.}.A.'.M.A.m.}.oX1X}.A.A.A.M.T.N.i k d. .J J ^ ^ ^ c x x v c c c c M v c ^ B c v ^ ~ ! ^ ^ ^ B ^ c M c M M c c x d g c c c M B c c x c g J J J d g f c g c s g J g f g c x x d d c c f c d c g g G L ^ E P J J G g s g g h g g s G g g p p p j h p j p p a s g G g g G h h h J G G G G G g G h j j . F E.g.g.m.c.c.>.X.$.+.>.,.@.>.,.#.>.>.%.%.g.@.>.X.O.X.! X...o.O.) +.%.+.,.>.%.+.X.X.@.@.>.+.Q ) ,.#.@.@.X.V ..>._ O.X.+.%.#.7.0.7.+.:.h.9.q.9.7.7.+.W +.%.>.&.) ! >.@.! C O.:.@.+.X.) V V ) +.#.#.9.:.[ M C V _ | X.) V V C C V | ,.,.%.&.) _ ! +.@.) +.+._ U ",
"GXGXSXSXBXSXGXGXGXDXBXSXBXaXMXMXMXZXMXSXSXBXFXBXPXBXPXSXPXBXBXxXZXZXFXDXHXlXHXFXBXxXZXZXMXZXMXBXSXZXSXBXBXxXBXxXHXdXHXZXHXZXHXHXMXxXdXxXxXxXxXxXdXlXdXdXBXMXxXxXZXZXlXZXZXFXHXlXxXlXiXaXiXiXiXaXpXdXpXiXiXiXiX0XiXaXaXaXaXiXiXiXiX5X5XpXiXiXkXkXxXkXdXdXlXxXu.r <XiX9X,X>XT.<X>X>XeX,XT.|.,X,XZ.Y.S.D.R.W.R.Z.c.R.E.Z.Y.>XOX=X>XY. X>X2XiX5XpXzXiX4XiXiX2X2X4X2X1X4X4XpX>X2X1X>X2XY.T. XT.|.|.|.[.>X|.>X2X>X|.'.Y.2XOX>X|.OXOXT.[.4XfXaX2X1XpXaXpXkXlXkX5X[.1X>XzXpXOX2X3XuXkX X X5X|.Y.[.>.}.'.N.}.B.A.B.|.1X1X XL.A.}.}.A.m.u , G.&.&.( J J c ^ c c ^ c J v c J J v J J v c c x J ^ J c c c ^  .^  .J c ^ J c x c x c ^ c c c h d d c J J G J J G G J J J J J c c u d d e d d d d d d g d d g s J G G g h h p d h d s h h h g h h h h s h G h a h s s s G J G G G G G J G P J G G h G G G h h . F V.s.x.v.x.g.s.@.X.,.@.,.@.s.%.,.$.>.$.%.s.#.&.! O.X.V ! X.$.$.@.+.@.,.>.%.,.) X.X.+.>.>.+.! ) &.@.+.) @.! V ,._ o. .+.,.#.9.9.7.@.#.0.7.9.q.7.7.| W X.[ &.#._ ! >.#.X.C ! %.) +.+.X.C V ) [ | #.9.7.[ M C ^ W ) | ) V V n C V @.@.@.,.@.O.! ! +.+.+.+._ _ ! ",
"KXKXKXKXKXGXPXGXKXGXKXKXKXPXKXPXFXGXSXFXFXBXBXPXxXFXPXSXSXGXPXPXGXDXDXSXSXDXSXGXDXPXSXDXSXPXPXDXPXSXPXPXPXBXPXBXFXHXHXHXZXlXlXlXxXxXdXdXaXgXgXaXBXxXxXxXcXxXdXlXZXxXZXxXlXlXZXcXdXlXxXdXkXaXkXdXpXzXzXaXaXiXiXiXaXxXxXxXxXkXxXaXaXlXkXkXcXxXZXDXFXDXxXcXxXlXi.m <X0X0X>X|.Y.2X0X-X4X4X|.-X=X<XZ.R.R.D.R.T.R.Z.V.W.Z.E.Y.0X|.|.|.R.|.>X4XpX4X2XpX4X>X2X4X4X4X3X2X4XpX4X5X4XOXOX1X>XY.|.=X|.Y.<X|.T.OX X>X>X|.OXN.[.>XY.2XOX+XOXY.T.OXiXiX2X1XiXiXuXaXkXkX4X XOX>XpXiX|.3XuXuXkXtX X3X|.Y.T.,.Y.|.|.OXm.Y.B.'. X X Xm.B.'.A.B.z.r k D.;.&.&.&.^ ( Q ~ ^ ~ ~ ~ ~ ~ ( ^ ..~ ..( ~ ~ ! ~  .! ~ J ^ ^ ^ c J ^ ^ ^ ^ ( ~ ( ( ( ..( ^ c J J J d d J J J G J J J J / J J G J J c c x J J g c c J g g g g g G g g g d h g h g G G G J ^ G G g c G G G J J g G G J G J J G J G J h j G G J G G G G s G h j   F /.9.k.m.g.,.g.X.@.X.$.>.@.>.+.%.%.,.:.#.7.%.@...X.O.O.X.o.@.X.,.@.X.@.,.,.>.O.! V X.%.,.,.Q ) %.+.X.+.+.X.! @.+.O._ ) ,.#.7.7.7.@.:.h.:.#.:.>.7.,.Q +.+.@.@...! g.>.X.C ! +.+.,.! X.C ! +.@.@.>.9.:.+.M C M W | +.) ! V V C _ X.| @.| X.@.! V +.+.) +._ _ _ ",
"IXIXLXKXKXKXKXGXPXGXGXKXKXKXKXKXKXPXPXSXxXBXxXxXaXfXiXsXdXxXxXcXlXlXHXHXdXlXZXZXxXSXAXSXBXBXSXSXZXFXSXDXFXBXxXxXdXlXlXlXMXlXHXlXaXaXgXiX2X2XiX4XiXpXfXaXaXfX4XiXpXdXxXlXcXlXcXxXaXPXAXAXPXxXFXxXZXcXZXxXkXxXPXxXAXZXFXFXxXFXxXxXxXkXcXxXcXPXPXFXPXFXxXxXaXxXt.4 Q.4X<X-X<XR.,X,X=X6X,X=X<X X|.C.=XR.D.E.R.W.V.D.R.x.x.R.2X|.>X|.T.|.OXiXuX4X4XiXOX2X>X4XOX5XuX4X1X5X4X5X2X1X>X2X>XI.T.>X|.Y.OX|.Y.|.[.>X>X|.>XY.T.2XOX2X4X|.[.Y.[.>XiXaX2X1XiXiX5XzXlXzX3X>X#XOXuXiX+XOXuXhXhX>X X5X[.Y.Y.@.Y. XY.>Xm.B.v.Y. X X1XM.m.-Xm.M.M.e , G.&.( ( ( ( ( ( (  .( ( ^ Q ~ ( ( ( ( ^ ^ Q ^ Q ( ( Q ~ ! ~ ^ ^ ^ Q ( ..Q ( ( ( ~ ( Q / ( Q ^ J ( ( ( ^ ^ ( ( ( ^ ' / / P ( P Q ^ J G g g J G G G E G h s f s G J G ^ G J P G J ^ G Q Q ^ G G g g G G g G J G ^ G G G h h a h G h G G h G G G G G G h h h a a . F F.k.x.m.7.7.7.@.X.@.>.>.,.,.@.,.>.%.%.,.s.:.X.! o.X.! X.X.,.) ,.,.X.@.@.$.>.%.) X.! ) %.%.W ) +.) ) ) +.O.! @.@.O.! ) @.>.7.7.>.@.7.x.7.#.4.7.7.%.Q ) ) #.@._ ! 7.>.) M ! +.+.@.! _ C _ &.&.#.>.:.#.+.n M ^ V ) +.) ! ! V C ! _ ) @.@.X.X._ W +.+.) @.X.Q ~ ",
"KXKXIXKXKXKXGXKXGXKXKXPXBXBXKXKXKXKXKXKXKXLXKXLXPXFXDXDXPXPXPXLXSXAXZXlXdXdXlXlXBXSXZXBXAXPXSXPXPXSXBXPXPXPXGXPXDXSXSXDXSXSXFXFXZXZXZXSXBXBXxXFXZXDXFXPXFXFXDXPXFXFXFXFXFXFXFXDXcXPXPXPXPXPXPXKXKXKXDXPXPXPXPXKXPXPXDXPXPXPXPXPXAXAXFXPXFXPXxXPXxXxXxXxXlXlXu.8 <X4X<XT.>XT.>X4X}.4X4X|.>X=X=XZ.=XR.V.E.I.R.E.D.E.V.c.R.>XT.<X|.Y.|.>XiX5XzXuXeX2X$X>X2X|.iXpX4X>X3X4XiX2X>X>X2X>XY.[.-XT.|.>X|.T.OX|.>XOXY.>XY.[.>XOX<X2X|.[.I.OXOXiXfX>X1X5XuX2XpXzXzX4XOX1XOXuXiX{.OX4XzXzX1X#X4X[.Y.Y.,.T. XY.OXh.B.m.M..XoX XA.m.|.A.A.M.i , V.&.{ ( ( ( &.( ( ( ( ( ( ( Q ( ^ ( ( &.Q ( Q Q ^ ~ ( Q Q Q Q ~ ( ( ( ( ( ( ( ( { { ( ( ( ( ( ( ( ( ( ( Q ( ^ P J G J J J P ( Q Q ^ Q Q J P ^ ^ J J G ^ ^ ^ ^ ^ Q Q G P ^ G Q G I P P P G G Q Q J P J G J P P Q J G J P J G G J G G G G J G G P ^ E G G G G s . F (.$.k.m.v.j.g.,.$.&.k.>.$.:.$.@.,.,.%.>.f.%.@...X.! O.o.! @.X.@.@.@.@.@.+.>.>.@.O.! ..+.%.+.%.%.,.%.) $.@.V O.X.! V +.,.7.7.9.4.@.0.8.:.#.%.>.7.,.) ) ) #.%. .! g.:.) C ) @.@.,. ._ C X.:.#.%.4.%.#.) M M V V | X.) W ! V n V _ X.| X.| ,._ ! ) | X.[ [ ) ) ",
"KXKXKXKXKXKXKXKXGXKXKXKXKXIXKXKXLXIXLXIXIXLXLXLXKXKXLXLXLXLXLXLXLXLXLXPXPXAXFXFXFXAXPXKXKXKXKXLXKXKXKXLXKXKXKXKXKXKXKXKXKXPXGXPXGXKXGXPXPXKXPXPXPXKXKXLXKXKXKXKXKXKXPXPXKXKXKXPXPXPXKXPXKXPXPXAXAXFXxXxXBXxXxXxXZXDXPXDXAXZXxXxXAXAXAXcXcXxXxXxXcXxXlXaXaXaXu.2 W.iXQ.T.+XT.<X2X>X,X,X-X:X<X=XR.:XR.V.V.E.T.V.c.B.V.R.I.=X|.>XT.T.-X1X5XiXzXpX4XiX1X>X>X|.4XiX4X1X>X2XfX4X X>X>X>XI.T.|.I.[.1XY.Y.<X{.>X|.Y.OXY.|.>XOX4X<X+XI.Y.OX|.iXaX2X1XiXyX2XiXkXzXiXOX1XOX5X5X{.+X5XzXzX1X1X3X|.B.Z.>.Y.OXB.'.x.x.c.B.|.#XtXA.v.>X'.Y.m.l k F.&.&.( ( ( { &.{ &.&.&.( ( ^ Q ( ^ ( ( ( ~ ( ( ( &.&.*.&.( &.( ( ( ( ( ( { ( { &.( Q L L Q ^ J P ( P P ( ^ ( ( / ( / J ( { { *.{ ( ( Q ( / / / ^ J J G J G J J P J G P / / ( Q Q Q I P P P Q G G P P Q Q Q Q / ( Q ( Q Q Q J G ^ G J ( P P J G G p p p j e 5   F /.,.k.Z.m.v.x.>.k.#.s.>.@.@.+.,.,.>.@.f.f.#.+.! X.X.O.%._ X.@.@.@.@.X.@.+.7.>.@._ V _ &.%.+.+.@.@.+.X.@.X.V @.! Z X.%.%.#.7.9.7.&.9.v.7.#.:.:.7.#._ _ W &.:.! ! 9.#.! B X.+.@.%._ X.V X.>.#.#.4.| @._ M W V V +.) | W V V C V ) +.X._ @.,.) W ,.X.X.+.) ) [ ",
"xXBXZXSXFXFXDXSXDXPXKXKXKXLXLXKXLXLXLXKXLXIXLXLXKXLXLXLXLXLXLXLXLXLXLXLXKXKXKXKXKXLXKXKXKXKXLXKXLXLXLXLXLXIXLXLXLXLXLXLXKXKXKXKXKXKXPXGXGXPXKXKXKXKXKXKXKXKXKXKXKXKXKXPXPXPXKXPXPXKXLXKXPXPXPXPXDXAXPXcXxXPXxXFXAXcXcXPXcXPXxXPXAXPXPXAXFXFXcXAXxXFXxXPXcXxXi.2 Q.4X>XT.W.T.>X|.4X6X>X-X|.>XT.Z.}.T.V.V.R.T.V.V.V.c.R.Y.<X X4XT.}.>X4XiX5XpXpXuX5XyXOXOX X4XiXiX XiXOXiXiX X>X|.-XI.Y.<XE.Y.|.|.T.>X|.OX|.Y.|.Y.Y.OX1X1X2X[.I.[.OX|.iXaX>X>X4X2X#XiXzXaXiXOX1X>XpX5X X+XiXpXzX1XOX4X|.N.C.>.|.>XN.}.B.x.g.m..X1X1XA.m. XS.B.B.u , G.;.;.;.&.( ( ;.&.-.-.{ { { { { &.{ ( &.{ &.{ &.{ { { ( ( ( ( { { #.#.{ &.-.=.{ { { { ( { { { { ( ( ( ( ( { ( ( / ( P / ( / / Q Q P / / ( ( / / / / ( / Q Q Q ( / / / / / ` / { / / Q Q G P G Q P / / I G G G G J G G G s G G J J G G d p e e e e 6 4 e e e e   F /.,.h.v.v.k.h.>.s.9.>.@.$.) X.,.$.,.>.g.>.%.) O.O.! X.,.O.$.X.~ $.+.X.&.,.7.$.) O.V X.%.%.X.) %.@.+._ X.X.V @.X.! $.%.>.&.>.7.>.#.9.x.#.4.%.} :.#.) _ W @.#..._ %.#.! M ~ +.@.+._ O.C | #.#.#.%.| | W C ! W _ +.) ) _ V V V V _ _ _ X.| @.V ! @._ _ +._ ) [ ",
"PXPXPXPXPXKXPXPXPXPXGXKXKXKXKXKXPXPXGXPXKXKXKXLXKXLXLXLXLXLXLXLXLXLXLXLXLXLXKXLXLXKXKXKXKXKXLXLXLXKXLXIXIXIXLXIXIXIXKXKXKXKXKXKXLXKXKXPXKXKXPXPXPXPXPXPXFXFXPXBXPXPXPXPXPXPXAXPXPXAXPXAXSXPXBXAXxXFXxXcXcXxXxXxXxXcXcXcXcXZXxXAXFXFXFXAXAXFXcXAXPXxXFXxXlXxXi.2 <X4XR.W.OXR.+X[.-X,X>X6X=X-XR.Z.T.R.Z.V.|.R.V.V.E.c.R.T.|.=X|. X|.OX5XuX5XiXuXuX4XiXOX>X|.3XiX4X[.iX1XpX4XT.>X|. XZ.T. XB.R.>XT.|.>X|.>X}.N.|.[.|.OX1X>XOXOXI.Y.1X[.iXaX>X>XiX2X{.iXaXiX3XOXOX[.hXpX X1X3XhXkX3XOX4X.XA.Y.>.>XOXY.A.B.B.x.A.|.'.#XM.B.}.M.x.v.u , D.%.&.( &.&.{ &.( ( ( ( &.&.;.&.{ &.;.{ &.{ &.{ ;.*.( ( / ( ( { -.-.{ { -.{ { ' { { / { &.{ { { =.{ =.-.( =.=.=.{ ' ( { { { { { { *.{ { { ( ( / ( ' ' ( / ( / / / / / / Q / / ( / / / / Q Q Q G J J P E ^ E G J G h f d d u w w 6 > ; 6 6 6 w t e e e w 6 6 ;   F /.:.g.g.h.8.h.%.>.g.>.,.$.O.X.$.@.,.>.k.>.%.~ O.$. .%.,.X.$.) X.,.X.X.>.7.s.@._ ..V X.,.@.@.@.%.%._ ! X.) V @.O.! @.@.:.%.>.7.%.4.8.x.%.#.7.,.#.| ) ! W +.>._ ! 9.#.! B ~ [ @.+.! O.V @.:.,.:.#.@.@.M V ! Q ! [ ) ) _ C C _ C ! _ X.X._ | V ) +.+.) ) ! ) +.",
"IXLXIXLXKXKXKXKXKXKXKXIXIXKXKXLXLXLXLXIXLXIXLXLXLXIXIXLXLXIXLXIXIXLXLXIXIXIXIXIXIXIXLXIXLXIXIXIXLXIXLXLXKXKXGXPXKXPXPXBXxXFXGXSXBXxXxXBXPXBXPXBXFXPXZXDXPXPXxXPXxXxXFXcXAXcXcXxXxXxXxXxXxXaXxXlXaXaXaXaXcXxXcXxXxXaXaXxXkXkXxXAXZXcXcXcXcXcXxXFXcXxXxXxXxXkXq.8 <X4XR.>XOXR.Q.T.-X,X6X>X>X:XT.Z.T.S.D.V.S.R.V.c.I.V.Y.R.-X>X>XT.|. X4XiX4XuX5X5XiXiX2XOX|.iXiXiXOX2X>XdXiX|.2X[.T.B.R.|.B.B.>X|.|.>X.X=X|.B.[.T.-X-X1XOXOXOXY.|.2XY.iXaX1X2X2X2X.XuXzXaX3XOX>XOXzXuX#X1XyXpXkX5X>X1X'.Y.Y.>.OX XY.N.m.c.c.[. X'..XM.S.Y.A.c.x.i k G.( ^ ( ^ ^ ^ ^ ^ ( ^ ( ~ ( ( ( ( ( &.( ( ( ( &.&.-.;.( &.-.*.&.&.{ { ( -.;.;.{ { &.{ { ( Q Q ( ( ( ( { ( ( &.{ { =.=.-.=.-.{ { -.{ { =.( / / / / ' / / Q P / ( / ( Q Q P Q G G G Q G J G s G h s h d p d d e w w w w w e w & > > 6 ; 6 6 6 6 e 4 6 6 6 6 ; :   F /.>.g.k.9.x.j.7.>.f.g.7.@.O.X.X.X.$.s.f.7.#.X. .X.! ,.>.) @.X.X.:.) ) >.>.>.X.! ! V X.$.@.X.| +.,.) ! X.O.! X.X.O.$.>.9.%.9.9.%.7.g.k.:.4.:.| #.@.) ! ! %.>.! X.g.%.^ V _ [ %.| _ ) n ,.,.#.#.#.@.+.M V _ W _ +.) +._ C C _ n V _ _ @.+.X.V V @.+.| X.W ) &.",
"IXIXIXIXIXKXKXKXKXKXPXPXBXPXBXBXPXKXLXLXKXKXPXPXPXPXPXPXKXKXIXIXLXLXLXLXIXLXLXLXLXIXLXKXKXKXPXPXPXPXPXPXKXPXPXPXPXAXPXPXPXPXBXPXPXxXPXPXPXxXPXPXFXPXGXPXAXPXPXPXAXAXAXAXAXAXAXxXcXxXxXPXcXxXxXxXxXxXAXcXxXcXkXxXxXcXcXcXxXcXFXcXcXcXAXcXcXcXcXcXxXxXkXkXkXaXq.8 W.iXT.<XOXT.W.<X-X-X5X,X>X>XZ.Z.E.V.V.V.R.E.D.V.Z.Z.R.T.|.<X>X|.|.>X4X1XiXiX5X4X3X4X1X2XOX4XiXiX,X4X>XaX4X|.>X X|.m.Y.Y.I.I.|.T.-X>X>X|.Y.Y.|.|. X-X>X1XOX|.Y.|.1XOXiXiX>X2X3X1X{.hXzXkX2X|.>XOX5XzX1X#XvXzXcX5X XOXY.I.}.x.>X.XB.A.B.B.A. X X X|.Y.Y.Y.A.B.j.i < d.........^  . .J J  .J ^ J J J J J J v J J ^ ^  .^ ~ Q ~ ^ ( ~ ~ ( ( ( ( ~ ( ~ ( ~ ^ Q ^ ^ E ! Q Q ( ( Q ^ Q J ( { ( ( ( J / J / J J J J J G g J J J J G c g g d g g p p p j t t t e e e e e t e e e e 6 6 w ; > w > e 6 w w 6 6 4 e 6 6 e e w 6 e e 4 j 4 w   S /.s.k.9.x.m.m.7.>.%.7.,.X.$.$.! o.@.>.g.>.%._ _ O...%.%._ $.X.X.,.X.) ,.7.f.X.! ..! X.,.@.@.+.,.,.X._  .! V X.,.X.$.7.h.:.9.7.>.q.h.0.:.7.4.| | #.+.! ! #.>.) @.g.#.W V ) @.,.) ) _ M &.>.:.@.:.[ ) V _ ) _ Q ) ) +.) C C ! n ! ) ) X.@.X.C V ,.@.X.| C | @.",
"IXIXIXIXIXIXIXKXIXKXIXKXIXIXLXKXKXKXPXPXLXLXLXLXKXKXKXKXKXKXPXPXPXLXPXKXLXLXLXLXKXKXKXKXKXKXPXPXBXPXPXBXBXaXBXPXPXPXPXPXxXPXxXPXBXxXxXBXAXBXxXxXlXxXZXxXcXaXaXxXAXAXAXAXPXAXAXAXcXAXPXFXAXcXxXcXxXxXxXkXxXkXxXcXAXxXxXxXxXkXkXkXaXkXxXxXxXiXkXaXaXaXxXkXxXkX3.9 Q.iXQ.OXR.W.OX+X}.-X,X6X-X=XZ.R.Z.D.V.Z.Y.R.g.V.Z.c.A.}.|.OX>XOX|.OX2X2X2X5XhXuX1X4XiX|.OXiXiX4XiX4X4XiX>X[.2X>X|.Z.Z.B.Z.R. XT.T.|.>X>XN.Y.}.|.>X>XOX>X[.OX|.+X2X>XiXfX|.2X3X2X.XzXaXxX1X[.1XOX5XzX1X3X5XzXlX3X[.OXY.Y.[.9.>X XN.T.B.Y.L.'..X.XY.A.Y.B.Y.A.h.i k d...Z J J J J J v J J c c c v x J  .v J J x J J J ^ ^ ^ ^ ^ ^ ^ ^ ^ J E J E E J E M g c c x a c g s J J h g g J d h d h G d d d e e e d u e d e t e e w w 6 w w e e e e w e w 6 4 4 e 4 4 e e 4 e e 6 e e w e e e e e t e t t t t e d p t t t p p p d d e w 6   A F.f.x.g.c.v.c.7.>.%.7.%.X.X.@.X.@.X.$.>.,.%.X.! O.X.,.@.V $.! ) >.@._ +.7.>.&.) .._ ) +.X.+.) ,.@.) .._ M V X.>...+.7.g.#.9.9.7.>.0.0.7.:.:.} :.#.@.[ ) ) >.) +.h.#.M ! [ &.%.) _ ! V @.4.:.>.#.) ! M ) +.) ~ ) +.X.) C C M B ! | +.@.@._ C _ :.+.X.) V @.+.",
"LXLXLXKXIXKXKXKXKXKXKXKXKXKXKXKXPXPXPXKXKXKXLXLXKXPXKXKXKXPXPXPXPXPXxXPXFXFXFXAXPXBXPXPXPXKXPXKXPXPXPXBXPXPXPXBXBXAXBXPXxXBXxXxXBXxXAXSXAXPXxXAXxXAXPXZXAXxXkXxXaXxXAXAXAXxXxXaXxXcXcXcXcXcXcXlXxXkXkXjXiXiXaXaXaXkXkXxXZXxXxXxXxXaXaXaXkXkXkXkXxXxXxXaXiXiX3.8 OX<XQ.>XY.>XT.W.}.|.|.|.|.|.Y.Z.Z.D.Z.Z.Z.R.k.D.V.c.R.'.|.-X|.OXOX|.2X|.2XpXpX5X>X#X4XOXOX2XiXiX4X2X>XpX2X[.>XOX|.m.x.B.I.T.-XT.}.|.-X-X'.Y.|.|.-X<X-X1X[.1X[.[.1X>XaXiX[.2X4X2X#XuXzXkX#X[.OX1X5XzX3X6X6XzXkX5X[..XB.Y.|.g.}. X[.A.M.}.M.Y. X'.m.N.A.'.|.B.c.i < a.b v v J J J J J J J  .J c c c J c x v x x x c c ^ v x c x c c c J c c c J c M B M c c c c M c x c c g f c d d J d d d d d e e e u u e d d e d d u d e e d d u d t p d p p d d e e e t e j j e j e j j t h p d d d p d p p h d g p e 4 e e j 5 e e 6 6 w 6 6   F E.k.c.h.m.m.m.k.>.7.7.>.X.X.@.X.X.O.,.%.@.+._ _ X.X.$.%.! &.X.X.9.+.@.%.#.7.>.%.X...X.@.@.@.X.,.@.+.! X.) B X.,.X.) 7.h.#.9.q.7.7.g.k.4.:.7.| #.#.@.X.| X.>._ $.8.#.! ! ) ,.%.[ W V W @.#.:.7.#._ W W _ +.) ) ) ) +.) C x C V W ) | X.| _ C ! >.@._ ! V | +.",
"LXIXIXIXLXKXKXKXKXKXKXKXPXKXPXPXKXPXKXPXPXKXKXKXKXLXLXLXLXLXLXLXLXLXKXKXKXKXPXDXPXBXPXPXPXxXAXxXxXxXxXxXxXxXPXPXAXxXxXxXxXxXBXaXaXaXlXlXaXaXdXxXxXxXxXZXAXcXAXxXaXaXxXAXxXAXAXAXxXPXPXcXcXFXxXPXAXAXcXAXcXPXAXAXAXPXAXAXFXDXZXcXcXFXAXxXxXAXcXcXaXxXcXxXkXkXq.m Q.W.4X0XT.<X<XOXT.Y.-XY.Y.-XT.Z.R.D.V.E.Z.Y.d.D.R.D.Z.'.|.6X X|.|.|.>X|. XzX5X5X3X|.5XOX<X2XiXiXiX2XOXuX>X|. X XOXZ.x.E.I.T. XY.|.|.1X>X|.|.|.|. X X[. X|.OX|.Y.OXOXlX4X).>X2X2X1XpXzXzX Xn.#XOX6XhX6X3X5XzXlXvX'.+XB.B. Xc.|..XN.Y.A.}.Y.m.1X.XA.B.A.:XY.m.m.x , a.b v b z v z v v b J x v v x v v J v J v J J v x v c x x c x d c f x x c c c c g f c g d d c d g c f c d d d d d d d J d d J c d d g x d d d c d d t u d d p j p p e a g g p h h g h h d h g g g G G h s J g p h d p p e e e t t w 6 e e e w e e e w e e e w   S E.s.c.g.m.B.M.7.%.7.7.+.&.! ,.,._ ) ,.%.@.X. ...O.! &.+.! $.! X.7.&.$.&.#.f.7.$.X.X.X.X.$.,.,.@.+.O.! X.X.! X.,.X.X.%.g.%.9.g.7.7.0.8.7.4.:.} %.,.@.) ) [ %.~ ,.0.@.V ~ | @.#._ _ M _ :.%.%.>.#.W V _ %.+.) ) ) ) [ ) C x C V V X.X.X.) V V _ >.@.V _ ! | +.",
"IXLXLXLXKXKXKXKXKXPXKXKXKXPXKXKXKXKXKXKXLXPXPXPXKXLXKXLXKXKXLXKXKXKXKXKXKXKXKXIXKXIXLXKXKXGXPXDXPXPXPXKXKXKXKXKXKXPXPXPXPXPXPXPXDXAXFXDXFXxXcXFXPXDXFXAXPXAXAXAXAXAXAXAXAXxXcXAXPXcXAXPXcXkXcXcXxXAXAXAXAXcXcXxXxXcXcXxXcXcXAXcXFXxXxXkXkXcXcXcXcXAXAXAXcXcXu.9 OX<XiX<XT.<X<XY.}.T.'.S.Y.=XT.A.Y.Z.V.Z.Z.R.V.c.S.V.Z.Y.}.>X>X-X|.Y.>XOXY.zXiX1X4X|.2X1X X4XuX5X4XiX>XiX4XOX>X+X|.R.x.R.E.|.T.Y.>X-X>X>X|. X|.|.-X-XN.|.OX>X[.'.+X>XlX4X'.#X2X3X1X5XzXzX[.N.>XN..XuX3X2X5XhXcXzX.X1Xm.Y.|.m.'. XN.Y.Y.|.Y.x.#X-X|.B.S.|.T.x.m.d * d.A A J J b u u u z y z u y y y y y z u v v x c c x x c c v x x c c c c c ^ c c c x x c f c c J J J J c c c c c d d c d c c J d d J d g g d c c g h g J G g g g G G c J G G J J g G g g G g g g G d g h h d e j u t e e e e t d d d p p d e t e e j t t t e w . S E.s.m.>.8.m.m.g.#.%.9.+.@.X.$.,.) @.@.&.[ V ! .. .! X.X. .) ! X.>.,.$.%.%.>.9.%.X._ _ X.+.>.$.| X.X._ @.X.! X.#...X.>.9.,.8.9.9.7.8.h.7.7.7.} %.:.+.) | ) ,.) %.7.@.V ~ &.%.#.~ ! V X.@.#.#.>.,.E V X.X.@.) [ ) X.) ) C x C W ! ,.X.X.M _ C _ >.| V ! @.+.+.",
"LXLXKXLXKXKXPXKXPXPXPXBXPXAXPXPXPXAXAXAXxXxXPXPXPXLXKXKXPXPXPXDXBXPXPXPXPXPXKXKXKXKXKXKXKXKXKXKXPXKXKXKXKXKXKXPXPXPXxXaXxXaXaXAXDXZXxXFXPXPXDXDXPXPXPXPXPXPXAXPXPXPXAXAXxXxXxXAXcXcXcXcXAXAXAXAXAXAXAXxXcXkXkXcXxXxXxXxXkXcXxXcXxXxXxXcXcXxXcXAXAXcXAXcXxXcXi.m Q.2X>X0X<X-XY.T.}.T.T.N.:X|.|.Z.R.V.V.V.Z.Z.V.D.V.c.E.Y.Y.>XOXOX|.Y.>X>X[.pX4X X3X1XOX X1X2XpXpX3X4X|.3X3X.X|.6X{.B.R.Y.Y.|.|.|.|. X2X>X X|.Y.'.OX.XN.'. X>X|.[.1X>XaXiX[.>X5X5X2X5XuXuX[.N.#Xm.#XhX3X5XvXhXcXuX#X+Xx.N.[.Z.|.#X'.A.N.Y.x.k. X X}.A.A. XY.8.j.x k d...o. .v v J v x v u c c v v u u u u v u u u u x l x x u u x i x x x x x x x d f d u u d d d x d d l d t t u d d c d d d d d d c c c d d d d d x d c c c c g d d G d h d h d p e p e j d d p h p j g d j h p p h p a d j d d d h t t e e 6 e 4 e d d u e e r   F F.s.c.7.>.m.j.7.#.%.f.7.%.! +.,.+.@.+.,.X.V ! O. .! X.X.! X.! X.#.$.%.7.7.,.%.>.O...O.$.) @.#.X.@._ ..X.X...X.%.) X.%.9.@.q.g.8.7.h.v.7.4.7.#.7.#.+.+.) X.>.) ,.#.) ! ) %.%.| W Q M @.#.%.@.:.) W ! _ +.@.+.) ) ) ) ) M C C C _ @.| X.C V V ! ,.@.V V +.%.+.",
"PXPXKXKXKXKXKXKXKXPXPXPXPXPXPXPXAXAXAXPXPXPXPXPXPXPXPXAXPXDXAXAXAXAXDXPXPXKXPXKXKXPXKXPXKXPXPXPXPXPXGXBXPXPXPXBXPXPXPXPXPXPXKXKXKXPXPXPXPXDXDXDXAXDXPXPXPXAXPXAXAXPXAXPXPXAXAXxXcXcXcXcXcXxXcXcXxXxXkXkXkXxXxXcXxXxXcXxXcXcXAXcXxXcXxXcXkXkXcXcXcXcXxXxXxXkX6.9 W.4X<X0X=X|.|.Y.T.T.T.Y.=X|.T.Y.T.V.V.Z.c.Z.V.c.E.c.x.Y.N.>X>XOX[.Y.1X1X1X4X4X[.2XuX2X[.#X5X5X5X5X4X X1XiX|.1X1XOXY.I.Y.Y.-X|.|.-X6X>X X|.|.Y.Y.OX}.B.[. XOX X'. X>XaX4X'.2XiX5X2X5XyXiX{.Y.OX'.6XhX5X3XhXzXlXuX#X1Xx.M.'.B.'.OX'.Z.B.}.v.g.-X'.}.'.Y. XY.j.8.l , d.J J J J J v c v v J J J v J v v J v d c c J c c c c x x l y u u x d x f f d d x u i d u d u e e e e e y w w e u u d d e e e d e e e e u u e e e e e e e e t e t e e e e e t d p d s a d h h h g G d G G g g h h d d p t d p d e e e e e t e w w w ; : & $ %   A F.s.c.g.g.v.7.h.>.+.>.9.&.+.X.%.+.%.@.:.,...! O.! ! ~ X...! V ..@.) +.f.f.:.$.>.) ! ) $.) X.@.X.@.X.X.) _ ! +.+.X.) %.8.%.7.h.7.4.x.x.8.9.4.:.4.@.) @.X.) %.) %.X._ ! ) @.%.| ! V M +.:.@.%.:.~ W W _ ) +.| ) ~ _ ) ~ W C C n _ X._ _ _ V C ! %.+.C ! @.+.+.",
"PXPXPXPXPXPXKXPXPXKXKXKXLXKXLXLXKXKXKXPXKXLXLXLXLXLXKXPXKXKXKXKXKXKXKXKXKXKXKXPXKXPXSXPXKXKXKXKXPXPXPXKXPXPXPXKXPXPXPXKXKXKXKXKXKXPXPXPXGXFXFXFXAXPXDXAXPXAXPXAXPXPXPXAXAXAXAXAXPXAXcXcXcXAXcXcXkXcXcXcXcXkXxXcXcXkXcXkXkXcXkXkXkXkXkXaXjXkXkXkXkXkXkXaXkXuXq.0 >X0XfX4X|.R.T.:X|.T.}.|.=XT.Y.T.|.g.c.E.c.R.E.d.c.c.B.T.Y.-XOX XY.I.OX1X>XpX2X[.1X4X4X X1X2X2X1X1X5X1XOXpX}.1X2X XY.Y.Y.T.>X|.OX-X>X4X XOX}.M.|.-X XI.|.[.OX X}.>X#XpX2X[.2XyX5X3X2XyXiX+X).1X[.1XhX5X3XkXkXcX3X#X2Xx.Y.'.A.Y. X[.B.A.'.g.k.|.N.N.}.N.<XY.Z.m.i , F v v v v v z x v v v  .v  .J J J  .J J J  .J ! J J J c c c c c M M M c c c x c c x g x d d u u x u u x d d c d d d d c c d J c d d d d d d d d d d d g x d g c d c x c d d f g g g g g g d g h d g g g g G d d t e e e d e e e e e u u e e 6 ; w ; < % : : &   F F.p.g.9.7.j.7.h.7.+.g.7.%.+.@.@.@.@.$.>.,.X..._ !  .X.O. . .V ..$.) @.g.s.>.%.,.X.X.@.,.%.X.) $.@.X._ ..) V +.,.) X.%.7.%.7.9.0.9.h.h.h.g.7.| 7.@.&.@.[ +.%.! $.@.X.V X.,.@.) V W M #.%.| 7.$._ V V _ +.) ) ) ~ [ ) ) ! C f C ! @.X._ X.V V ! | X.V _ @.+.[ ",
"PXPXPXPXPXPXPXKXKXPXPXPXPXPXKXLXKXKXKXLXPXPXKXPXKXLXLXPXPXKXKXKXKXLXKXLXLXLXLXIXLXLXLXIXLXKXKXLXLXLXIXKXLXKXLXLXKXKXKXKXPXKXPXPXFXDXFXAXDXAXAXFXcXDXDXDXPXDXAXAXAXPXAXcXcXcXcXaXkXkXkXkXjXjXjXkXkXkXkXaXjXjXjXaXjXjX5X3X3XjX5XvX$X$X$X&X$XyXyXyXyX3X3X2X$X@XT 0 Q.iXeX,XY.I.<X-X=X:X|.:X}.T.Z.|.T.s.D.Z.c.Z.Z.p.c.c.c.|.|.OX1X|.|.Y.OX2X>XuX2X X1X2X4X#X2X2X5X1X5X1X1X1XuX|.1X1X|.'.B.Z.|.|.-X|. X X4XOX>X}.N.-X-X|.I.|.|.[..X'.OX>XaX1X.X2XyX3XOX2X5XuX).[.2X'.3XzX5X2XcXzXcX3X#X1Xj.B.J.A.v..X'.B.A.A.7.x.|.}.'.}.Y.>XY.m.S.i < d.A A J A J J v J v v x v J v v c v c v J J c c  . .J J ..J J ^ ^ ^ J ^ J c c c c E J c g f x d d d c c x d J c J c g J d c d d c d J J d d J d d J J d J J J J c f d d h h G g g s f s s d G G J h s h d d d u e w w > & > ; w > > ; ; ; > ; w w w w e e e w   F /.,.#.&.%.7.7.h.%.&.9.g.7.+.&.#.&.) %.>.@.@.X... .) +.O.! ! V O.X.) $.>.>.,.+.V X.) X.,.,.) X.&.$.@._ X...C +.&.X.) :.7.#.7.7.x.8.8.x.8.h.7.| %.@.+.X.) +.,.W %.@.) V X.@.@.X.^ V V :.#.@.%.#._ V M _ +.) X._ ) +.) ) ! C l C _ @.@.) X.C B _ @.) C X.@.) ) ",
"LXLXIXLXLXLXIXKXLXLXLXLXKXKXLXLXLXLXLXLXLXLXLXLXLXLXLXLXLXLXLXLXLXLXIXKXKXPXKXLXLXLXIXKXLXKXKXLXIXKXLXKXLXLXKXKXKXKXKXPXPXPXPXAXAXZXAXcXlXzXyXjXjXjXzXzXzXzXhXhXjXjXyXyXaXjXjXkXkXkXkXjXzXjXjXvX$X$XyX%XyX%XyX$X3XjXjX5X3X5X5XjXjXjXjXuXyXyX%X$X&X@X#X#X#X{.] s W.<X4X<XZ.R.<X-X|.-X6X:XT.}.A.T.}.s.j.Z.V.Z.E.a.V.C.Z.T.}.[.>X|. X}.|.1X1X4X4X XOX4X4X1X1X X5X5X5X2X2X5X5X>X X>X|.}.B.Z.|.[.>X|.-X X6X1X X}.Y.-X X'.'. X|. X.X[.#X1XaX1X X4XyXiX2X3XhX5X[.[.#X).3XzX3X1XkXzXzX1X3XOXk.Y.N.A.|.).'.N.B.A.>.x. X|.'.}.Z.-XZ.B.'.l * G.Z ..........Z J A J J  .J J J v u v v x v v u u u x v J J J J c  . ...~ ^ ^ ^ E J J E J J J J J J c c c c d f c c c c d d d d J c c J x d J d J J d J d d d h h d d f f c d g g g g g g J d d d u e e w ; ; & % , 6 ; w w e w 6 w w e e e p t p t p d p j e   F /.,.%.#.>.%.9.k.>.+.%.8.7.&.,.&.%.@.,.,.) +...! X.X.) X.V Z ! O.$.| +.>.,.+.@.M !  .) +.@...! +.@.X.V +.)  .%.@.) ~ >.7.%.:.4.9.9.h.m.9.9.7.#.#.+.[ ) ) %.%.W %.$.X.V X.@.+.) C M W %.#.#.>.+.W V W ) +.+.+._ ) +.+.+._ C x i V @.X.+.X.C C ) O._ V ) @.) [ ",
"LXLXIXLXIXLXLXLXLXLXLXLXKXLXLXLXLXLXLXLXLXLXLXLXLXLXLXLXLXKXPXPXPXPXPXPXPXAXAXAXDXAXDXAXAXAXAXAXAXAXAXxXAXAXxXxXaXxXaXxXaXaXiXiXvX5X3X3X&X6XvX5X3X$X@X3XyX5XvXvXyXjXjXyXyXjXjXyXjXjXkXjXkXkXkXkXkXjXkXkXjXjXuXjXhXzXhXhXjXjXyX3XyXyXyXyXyXhXyXjX5X5XvX3X$X&X1.a |.<XeXT.T.|.R.|.:X-X-X:XA.T.A.Z.}.s.c.Z.Z.V.Z.s.D.V.A.}.A.N.>XOX|.[.|.OXOX5X3X X1X1X6X3X1X[.5X5X4X1X5X4X4X1X XOX|.Y.Z.B.|.Y.1X[.-X#X6XOXOX}.'. X[.[.).>X{.|.[.[. X2XaXOX{.yX5X5X3X5XhX3X[.[.1X).#XhX1X3XzXzXkX1X3X+Xh.Z.N.B.OX'.|.B.x.'.g.m. X|.A.Y.m.-XM.k.'.C * G.A J J J ......J ..J  .J ..^ J J ^ ^  .J J J c J c x x l l v d x x x x x x J ^ E E c J c E c J J J c J c c c c c c c x d x c d l c d x d x d d d e d d u u u u e y e e e w > > w u e e e e e 6 w w 6 6 6 > w w y e u u e e e t e e d e p j j p a p p p a q e   F /.@.+.,.;.7.g.9.7.+.#.7.>.&.,.%.@.%.$.,.+.O.X.! O.+.) O.B V V X.@.$.@.&.#.%.+.! ! ! _ X.X.) X.#.) X.! ) ) _ @.%.X.! >.9.@.9.7.9.9.l.h.9.q.9.:.@.) ) +.) #.%.! %.&.) V ..@.| _ Z C _ :.#.#.>.+._ n M ) ) [ @.) +.+.@.+._ C f C V @.) ) X.C C _ X.V ! X.+.+.#.",
"IXLXLXIXLXLXIXLXIXLXLXLXLXLXLXLXLXLXKXPXPXxXPXPXAXAXxXFXxXxXxXBXBXxXxXaXaXaXaXxXxXxXxXxXxXxXxXcXxXaXaXxXaXxXAXxXaXaXaXaXjXiXaXaXzXuXvXvX5XvXhXzXhXhXjXjXkXcXcXjXkXaXjXcXcXkXkXkXjXjXcXcXjXkXkXkXcXjXjXjXkXuXjXyX5XjXjX5X5XjX5XjXyXyXjXkXhXhXzXhXjX5X5X6X3X2X1.q <X4X>X|.|.>XT.[.Y.-X,X}.S.}.Z.m.T.D.Z.S.E.c.V.s.D.Z.M.|.'.A.1XOX'.|. X#XOX4X4X>X2X1XoX6X1X6X5XyX4X1X5X2X2X X'.1X'.B.Z.x.|.'.>XN.|. X6X X X'.'.>X X[.Y.[. X[..X}.OX4XaXOX XuXpXuX3XhXkX5X[.[.1X).oXhX5X3XzXzXcX1X2XOXh.M.Y.Z. X[.Y.Y.B.'.h.z. X'.'.A.Y.|.B.x.S.x , a.A J b J J J J ....J ^  .J  . .....( ^ ^ ^ ^ ....^ ^ J J J x x x u x l u d c x i x f d d d d d d u d u e l u u u d l u w y y y w y y e y y y u u e u y w w w e w w w ; > ; w w w e e p t d t d t u d u d t t t d p p p h p p p p j t a d h a a s p h g s s a   S /.$.&.>.9.%.9.9.7.&.) 7.>.%.,.@.X.+.%.%.X.X.O.! X.) +.O.N V V ..@.%.:.>.,.&.+.V _ ! ..+._ ! ) $.X.) _ X.) B +.@.+.~ #.9.:.7.g.9.g.g.0.h.8.9.@.+._ X.) X.,.#.V :.+.) V ! | @._ B C +.,.%.>.4.) ! C W ) ) +.) ) | ) +.+._ V C C ! @.X._ ) x C V @.V V _ +.+.7.",
"BXxXBXaXAXxXPXPXPXPXPXPXPXPXPXPXPXAXAXPXAXAXAXxXAXAXcXAXFXFXPXDXPXAXPXAXAXAXcXcXxXxXxXcXAXcXcXcXaXxXaXaXxXcXAXAXxXxXkXxXcXkXaXcXkXcXkXkXlXcXkXcXcXcXkXjXzXcXzXzXkXkXkXcXkXkXjXkXcXjXkXcXcXcXcXcXkXkXzXyXjXhX3X%X3X3X3XvX5X5X5XvXvXhXhXzXzXkXkXzXzXhX5X3X$X+X1.q ;X4X-X:XT.>X=X|.S.>X-X}.'.T.Z.m.Z.D.S.S.R.j.V.s.D.V.A.|.}.}.1X1X.X X>X1XOX4X5X X1X3XOX4X5X1X X5X1X1XtX2X2X X>X#XY.A.c.Z.|.'.6X'.OX X1X X X[.). X X X'.|.[.|.'.].OX4XzX1X1XpXpXzX5XuXzXyX.X[.1XU.3XjX5X6XzXzXcX&X3X Xm.M.Y.N.[.Y.Y.'.B.S.x.m. X'.S.N.A.-XN.Z.Z.l * d.Z A J J A J J J x v J J J  .....( ..( ..^ ( ( J ^ ^ ^ ^ ^ J J J c x c c c c c c f d x u d d d u d u u u e y e y y w y y u e w y e y w y e e e u d d d d d d u u e u u d d d p d d d p h d G d h p p h f a a s h h p a g s s s h a p p p p p a h a s h h p d . D F.o.@.g.j.&.>.h.7.&.&.9.>.&.>.%.) ) @.o.X. . ...O.X.O...C V V ! %.$.,.,.%.+.) W X._ _ @.) V _ X.+.O.) X._ C X.#.+.+.#.7.:.9.9.9.8.9.h.x.0.g.| @._ ) _ ) :.%.Q ,.+...C _ $.@.! C M &.%.>.%.#.) ! V _ _ _ +.) +.+.+.@.+._ M C i W | X.) ! x V _ ) V V ! $.&.:.",
"xXxXAXAXPXAXPXxXAXAXDXAXAXAXPXPXAXAXAXPXPXPXPXPXFXAXAXDXFXFXxXxXaXiXxXcXcXcXxXcXxXxXxXxXkXxXxXaXaXxXaXAXAXcXxXxXxXxXjXjXiXkXjXkXlXlXcXcXlXcXcXcXxXkXcXkXzXzXcXjXjXkXcXkXkXcXcXkXkXjXjXjXjXjXjXzXjX5X3X#X$X$X&X#X@XoX#X#X3XvXhXuXzXhXzXzXzXkXzXzXhX5X5X3X$X%Xq.q ,X1X<X}.|.:X XT.A.,X}.}.S.S.C.k.c.j.Z.T.T.C.D.s.k.S.T.|..X}.1X2X1X|. X#X X5X5X X1X1X1X1X3X1X|.5X1X'.1X1X2X1X1X|.B.Y.B.x.-X|.6X'.-X X>X.X X'.N.1X X X|. XI..X[.'.1XiXzX1X2XuXzXuX2XyXzX3X.X+X X[.5XhX&X3XjXzXcX&X$X#XA.L.A.m.'.B.B.Y.M.'.h.x.>X'.B.M.'.|.A.B.m.i , d.v J v J J A Z A v v v v z J J ^ ^ ^  .^ ^ ( ^ ( ......^ Q ^ ^ ^ ^ ^ c c J J E J J E E c f c g c c f x d d d d u d d u d d d d d d d u e d d d d e j d d d e u d d d s f h h h h h d d j h d h p p h s g G c G c h s g g g a s g s a a a g g g G s a a p p p . F V.p.$.c.h.9.7.k.7.%.@.7.f.%.#.@.) O.O._ X.X.! ! ..! ! V N V V ! @.,.>.%.+.@.X.! X.V X.+.X._ X.@.) _ @._  .N ) +.+.+.%.7.#.9.g.9.7.9.g.x.0.9.:.%.) ) _ _ %.+._ >.+.! C ) ,._ ! C C +.&.7.#.#._ n n V _ _ [ ) +.+.+.+.) _ W C C V _ _ ) ! C V ! ) V V _ X.@.>.",
"KXPXPXPXPXBXAXPXBXAXxXFXPXPXPXPXPXPXPXAXAXxXxXxXxXxXxXFXFXAXcXxXxXaXxXcXxXcXcXcXxXxXxXkXaXaXjXjXxXaXxXxXaXjXiXyXiXkXaXxXkXaXcXxXcXcXcXcXcXcXcXcXkXcXcXkXcXcXcXlXkXkXkXaXjXaXjXyXjX%X%XyXjX5X%X@X&X$X&X3X@X3X3X3X&X3X3X3X3X3XvX5XvXvXvXpXzXzXhXhXhXhX5X3X3X5Xi.9 -X1X|.-X,X}.Y.}.}.>X}.A.'.S.Z.g.m.D.m.}.W.Z.Z.s.s.R.A.}..X|.1X5X1X X{.OX X3X5X1X1X6X1X].1X1X1X5X1X'.4X6X1X1XOX'.B.Y.B.x.=X X>X'. XOX6X|. X}.L. X XOX#X.X'.I.[..X1XuXkX2X#XzXzXhX5XyXkX5XU.OX+X{.vXyX&X#XhXzXzX&X$X X'.A.B.'.M.m.B.'.Y.N.v.x..XY.c.x.Y.|.Z.m.m.u * d.A A A J J J J J b v v v v b v J J v J  .J ^ ^ ^ ^ ( ^ ^ ~ ^ ~ ^ ~ ^ ^ ^ E ^ Q ^ ^ L E G J G c ^ E E J c c x c d d g d d d d d d d d u e u e e d e d e d d d u p h h h h h f s g h h h h h j a s g h h g s s s c c s h s s a p p h p h s G G s h h h p j 5 5   S G.,.>.c.v.k.g.g.7.#.+.;.g.#.&.&.~ X.X.!  .! ! ! ! ..V N N B V V %.,.>.%.) @.+.) X._ _ @.$.X.) X.X.X._ ) ! C ) ) | ) #.7.| 9.9.9.:.7.x.x.9.9.:.&._ X.! X.#.) _ >.@.! C X.&.O.V M _ ) +.7.#.@.W n V W W ) +.[ +.+.) ) +._ Q M n W _ _ ) ! C V ! O.C M _ +.| %.",
"PXPXPXPXPXPXPXPXPXPXPXPXPXPXAXxXAXBXxXAXxXxXxXxXcXAXAXFXAXFXDXAXPXPXPXAXAXAXAXcXxXaXiXkXaXkXcXxXxXxXxXxXxXxXkXaXaXaXxXAXAXcXAXcXcXcXFXcXcXzXzXzXhXzXhXhXzXhXhX5X$XyXyXjXjXyXyXyX%XyXyXuXjX3XvX5XvX5X5X3X5X5X5X5X5X6XvX5X3X3X3X3X3X3X&X3XoX&X3X3XhXhXyXhX5X3Xq.9 ,X6X;X5X4XA.}.R.}.-XY.A.-XL.Z.j.c.j.k.T.:XS.Z.D.s.V.B.}.[..XtX4X5X>X[. X X5X5X1X2X5X#X'.1X5X2X1X1X X6XoX4X1X XY.A.I.Z.A. X.X X.X.X X-X[. X|.'. X#X>XOX X[.B.'.[.1XuXpX5X2XuXuX5XzX5XzXuX).{.#X.X5XhXoX5XzXzXzX&X1X).A.}.B.Y.B.x.A.N.I.A.m.m. X'.x.k.Y.|.Y.B.x.t k d...........J J J J J J J J J v x v x v v  .J J  .^ ^ ~ ~ ^ ~ ^ Q Q ^ ^ Q ~ ~ ^ ~ ! ^ ^ ^ ^ E J g g g G c g g d x g x J J J d d J d d d d d d d d d J d h d h p f c h f h g h s g s g c G f h g g h s f h g J G G s a a a a g g p a h p h c g s p d a p j p e   F V.s.7.f.j.c.8.g.7.k.+.( 9.f.%.&.) _ X.! ! X.o...O._ B C Z V N ! +.>.%.,.X.) @.X.X.X.! X.,.) ~ +.X.! ! ! V C X.) X.) #.7.7.0.g.9.4.7.x.h.>.>.:.:.) ) _ ..%.) ! >.%.! C X.+.X.C B _ ) %.>.:.@.W n C _ _ [ +.) | | _ +.+.| _ V C V ! _ ) ~ B ! ! X.V C X.X.&.4.",
"AXPXPXAXPXAXPXPXAXAXPXxXxXxXxXcXFXFXFXAXcXZXFXxXFXFXDXDXAXFXxXlXxXZXlXaXhXuXiXyXyXuXuXaXaXkXkXkXaXxXcXAXAXxXkXkXxXxXcXxXlXzXaXuXzXhXhXuX3X3XvX1X3X3X6X3X5X3X3XvX5XvX5XzXhXvXvXhXhXvXuXhXhXuXhXhXhX5XvX5XvXyX5X5X3X5X5X3X3X5X5X3X3X6X&X3X3X6X3X5X5X5X3X3X3X3X6.9 |.-X>X>X-XY. XT.'.-X}.}.:XA.C.j.c.j.j.Z.:XT.A.S.s.D.S.B.-X-X.X1X5X1X1X-X.X4X5X1X1X3X1X1X1X5X2X X2X1X[.|.1X>X].M.A.Y.B.Y.|.-X X.X|. X1X.X.X[.[..X+X X#X.X|.).B.[.1XpX5X1X5XhXyX3XlXhXkXhX{.`.+X{.5XuX3X5XzXjXkX#X1XJ.v.Y.m.N.A.Y.B.A.B.Z.N.Y.}.A.h.g.Y.A.Y.Z.m.u , D.&...( ....^ ^ ^ J J J J J  .J v c v x l c x x x c v ^ J ^ ..J ..J J J J ^ ..^ ( J ^ ^ ^ E ^ E E J J J J c g c c g c g J c g g J f d d d d d a d h d d g a a d h g d g s g s s G J G g s s J c g G g E G L n n g g g s G g g s s s h s s a a p h s h s h e p . F F.$.,.c.>.9.7.g.9.h.#.#.f.;.&.&.X.) X...! ....~ !  .V Z V B l V +.>.%.%.+.) X._ @.X.) @.,.O._ X.) _ V ..! l ! [ ) _ %.>.#.7.8.7.#.0.k.0.7.:.} :.) X.) ) >.) _ $.[ ! C X.+.X.V C ! ) @.;.#.&.E M W ) ) [ +.) +.| ) +.+.+.) W C V V W _ ! N ! V ) V V _ X.,.:.",
"KXKXPXPXPXPXAXPXAXxXAXPXFXPXDXFXFXFXFXZXAXcXZXFXcXxXlXcXxXZXlXlXaXaXiX3X2X1X2X2X2XuXuXaXkXzXzXiXiXiXiXiXuXuXuXuXyXuXhXuXhXzXhXzXkXzXzXkXlXzXzXzXzXzXhXzXzXzXzXzXkXkXzXzXzXzXzXzXzXzXuXjXuXjX5X5X5X5XvX5X6XoXoXoX#X#XvXhXhXhXhXpXuXvXvX5X3XvX3X3X3X#X1X3X1XXX} 7 =X-X-X6XY.T.-X|.}.|.'.}.A.k.m.c.c.k.V.Z.S.A.S.S.k.D.C.T..X X].OX5X2X#X1X.X1X5X1X1X X3X2X2X5X5X6X1X XY.1X2X X XA.B.'.A.|.|.|. X|.|.'.OX-X[.[.|. X.X[.OX X XN.N. X>XpXiXOX5XzX5X5XzXyXzXyX{.[.{. X3XzX3XhXzXkXkX3X3X.Xc.Y.m.'.B.v.c.Y.v.Y.A.Y..XY.x.k.B.B.'.Z.v.d , d...&.&.o...(  .^ .... . . .J  .J J J v c x v x x x v x v x x J J J  ...( J  .J J J J J c c J J c G c g d G J J J J G c g d g d f h d d g g g g E g g g h h g s g G g s g a a h g g G G c g G G s p p a g s h g g G g a p g g n g g g G h a a h a a p p p 9 j   F E.,.,.k.%.7.g.f.f.h.&.&.7.%.&.+.~ ~ +.X.~ ) !  .! B  .B N N N _ &.>.%.%.X.) O._ ,.O.O.$.@.@.X.! )  .B ~ ! M ! +.) _ #.:.:.#.#.:.>.x.0.9.:.:.#.$.+.) ) _ ,.) ) @.) C V X.%.O.V n _ [ +.#.&._ n W ~ [ [ [ +.~ | +.+.+.) [ [ ! n C V _ ! _ C ! ! V V ! _ W @.4.",
"PXPXPXPXPXPXAXcXxXaXaXxXxXdXlXaXpXzXlXlXlXzXlXlXkXlXzXlXlXkXxXxXlXkXlXzXuXzXuXpXkXkXkXaXaXzXkXkXaXaXaXaXuXjXuXjXuXzXzXuXjXuXzXxXkXzXzXhXhXzXhXhXzXzXhXzXhXhXuXhXzXzXzXhXzXzXzXzXuXvX6X&X1X3X6X3X&X1X5X3XvX5X5XvX1X#X1X6X#XoXtXoXoXoXoXXX{.#XoXoXXX{.oXoX+X+X<.r T.6X-X>XT.M.1X=X'..XS.C.m.g.Z.S.m.k.Z.S.m.S.}.S.D.p.c.T.}.|.J.[.4X5X1XOX X#X2X2X5X2X5X5X1XhX5X1X4X'.N.>X4X1X}.N.m.A.B. X1X X X X X[.1X X'..X X X[.'.OX X.X[.N.|. XuX5X1X3XaX5X5XjX5XkXyX+XI. X+X3XhX6XzXzXzXzX5X#X.Xm.m.M.|.m.x.m.N.A.}.B.Y.|.Y.m.s.Z.g.Y.A.B.f , d...( ( ..^ ( ..J ^ J J ^  .J J  . .v B J ^ c c c c v c x u u u z u x J ^ ^ J ^ J J J J J J J E c c h d f c J g g g d d G c d h f g d h g E g g L G n g g G E n J g g s s g s h a h s s G g J g a a a a a a d p a p 9 j a d s g s h p d a p a h p h p p 5 5 5 . D /.@.@.j.7.%.f.f.h.7.+.%.;.7.%.+.) ) X.+.+.+.! V B B ! B v C N X.+.>.,.@.@._ ) ) ,.@._ ,.@.@._ X.X.V C X.! V ) +.X.! #.#.%.%.) #.7.h.x.9.@.#.:.@.) X.) ) ,.! [ %.~ C V +.[ _ V V _ +.+.#.@.E n _ ) ) ~ [ +.[ ) | +.+.@.@.[ Q V n m V W ! C X.! M V V _ ! +.:.",
"aXaXaXiXaXxXcXxXZXxXaXiXyX3XyXiXpXhX5XhXhXzXpXzXaXaXaXpXpXiXaXaXaXlXlXxXxXzXlXkXxXkXxXkXkXkXaXkXxXkXxXkXxXkXkXuXaXuXzXuXuXuXuXzXzXzXzXzXzXzXzXzXhXzXhXhXuX5XzXzX5XjXzX5XvXvXuX5XvX3XvXvX3XvXvXvXvXuX3X3X&X1X1X3X1X3X#X#XoX].oX3X5X5XvXvX3X#X3XoXoX#XoX X#X+X] 5 T.1X6X-X|.Y.|.'.}.}.h.m.m.c.T.L.A.A.S.L.S.M.}.A.D.s.j.S.A.|.'.N.6X4X1X1XOX X1X2X5XuX5X5X5X5X5X1XOXB.N. X2XOX|.A.x.B.Y. X-X X-X X X'.1X X'..X[..X[.[. X|.>X|.'.'. XiX5X2X4XzX5X3XhX3XkXyX].U.+X+X3XvX3XkXkXkXzX3X1X XB.M.Y.}.m.B.N.M.}.'.M.'.|.'.B.9.x.g.Y.S.B.d , d...( ^ ^ ( ..( ( ..^ J  .J J J J ^ ^ B ^ c c J J J J J J c v v u u x x x J J v c J J c c c c J c c c c g d J c g c c g c d p g J g g g g G L E g g L L E E E L G L J g E J G c g G c g a p p s h j p j e j p 5 p 5 5 j p a a a p d j p j p a h p p p j e e j . D !.s.#.k.7.%.f.8.g.k.[ #.f.7.,.@.) +.) &.#.X.! V B B  . . .v C O.%.,.,.@.@.X.O.! @.O.) X.X.,.X.) +.! C ! ! ! ) @.) W &.>.#.>.@.| :.9.k.q.} :.:.@.[ +.X.) ,._ +.@.! B _ X.) ! C C | &.+.+.+.C n _ [ +.) [ | ( [ | | ) [ #.| ~ M C t V !  .C _ ! V V W ! _ [ 4.",
"iXiXiXiXyX$XyXyXpXaXzXuXiXaXlXaXuXzXzXzXzXcXcXlXFXAXFXcXkXkXlXzXzXlXxXlXxXxXlXlXxXkXxXkXxXxXlXkXiXaXiXkXkXaXaXkXkXzXzXzXzXzXkXzXkXkXkXzXzXhXhXhXvXuX3X5XuXvXvX5XhXhXhXhXuXvXuX5X5X3XoX#X5XjXvX3X5X5X1X&XoX1X1X&X1X1X1X&XoXoX1X3X3X3X3X3X3X1X3X6X1X3X1X#X X].] 8 T.iX1X6X}.}.A.c.|.S.j.S.c.m.S.'.}.A.}.}.:XS.L.D.s.a.D.D.C.}.'.N.oX1X5X1X X.X#X1X5X5X6XjXzXeXyXOX|.Y.Z.|.1XOX|.B.g.'.}. X|..X X X X.X X|.).|..X[.'.'.OX X-X|.N.[. X5X5X5X4XzX5X#X5X2XkXvX{.).#X+X1XzX3XzXkXzXkX3X#X-XB.}.'.A.x.m.A.N.Y.|.A.N.'.Y.B.k.>.g.|.R.N.d < d...( &.( ^ ( ^ ^ ( ^ ^ J J J J ^ ^ ^ ^ J c E c J J J J J J v x d e e u x c d c x x ^ J v J x d d c c J d g d g f d g g g d g g G J G E E E ^ L E L E E ^ E G s g s h g g g c s s a p p a h p p s p p d a a a p p d p a a p a a a p s p p p p t 5 5 4 4 5 4 4 . D !.c.>.f.7.#.9.7.9.h.Q #.k.7.>.&.+.X.X.&.&.+.^ N x V ..! V B V X.&.,.>.%.@.X.) ) X.X.| O.+.@.X.! X.! C ! V ! _ @.@.! +.7.%.%.#.[ 9.8.h.9.} :.:.| ) $.+._ ,.~ #.@._ C _ [ _ W M V ) @.[ @.+.n C ) [ [ [ +.+.) ) #.| [ [ ) @.~ W C y V V _ C X.W V M V ! ! @.:.",
"$X$X$X$XiXiXaXiXaXzXlXxXxXaXkXxXlXcXZXcXFXlXcXcXcXlXkXlXaXlXkXkXlXxXxXxXlXxXxXkXxXxXxXkXaXxXlXzXaXaXaXaXkXjXkXjXyX3X1XuXkXzXhXyX3X5XvX3X1X3X5XuXvX6X&X6X5XuXuX3XhXhXzXhXzXuXhXvX1X&X#X3XvX3X3X3X&X3X5X3X3X3X1X&XoX3X1X3X3X#X&X1XtX3X3X6X3X3X3X3X3X#X&XoX{._.' 8 =X,X-X-Xc.Z.Y.m.L.A.A.}.m.Z.}.|.A.}.A.}.:XL.C.k.p.d.s.p.j.A.|.N.|.1X3X6XOX{.#X6X4XhX5XhXhXpXzX'.|.Z.B.|.6X X'.N.m.}.'.|. X}.|.OX X}. X'.I.{..X[.[..X X.X X Xn.B. X5X1X3X3XkX5XoXjX1XzXyX+X{.+X+X3XhX2XkXzXhXkX1X+X XA.'.}.B.v.A.B.Z.|..XA.}.|.[.N.c.g.c.}.N.A.f k d.&...( ..( &.( &.( &.( ^ J J ^ ^ J J J ^ E c ^ ^ v c c c J J J x x x x x u z e y u u x v c c c x d g c d d g d f d c d J J J g f g g J E L E ^ E E G E G g g s g s s g h h h h a a p a s f s p a a a a p p a p p g a p d p a p d p p p t j p j 5 5 j e j j j . D S.c.#.%.f.+.7.g.g.h.) &.g.7.>.[ &.+.) +.&.) B v C  .! V Z V  .X._ @.%.%.@.) X.+.@.@.,.X.) @._ _ ) V M ! M ! ) ) +._ +.%.#.#.#.@.8.g.9.9.#.#.| +.+.&.[ +.,.~ &.%.X.C _ X.! B C Q @.+.[ #.) n ! ) ) [ [ | #.[ [ @.&.[ +.[ | [ I V y C ! _ V _ W V C n W ) @.:.",
"iXiXiXiXyXyXiXyXpXkXzXkXkXzXkXlXcXAXAXcXFXcXAXAXFXFXcXcXZXxXxXcXxXxXxXxXkXxXxXxXlXkXlXaXuXkXxXkXaXkXjXiXaXaXkXkXzXzXhX5X3X1X#X X X{.$X6X5XhXzXhXzXhXzXzXuXvXvX1X#XoX X5X3X3X3X&X$X3X&X&X&X&X&X&X&X#XoX6X3X&X6XtX&XoX1X1X3X&X#X3X&X3X3X1X&X&X1X#X#X#XoX{..X).] 5 >X,X|.-Xj.Z.[.A.A.M.Y.Y.Y.m.A.}.}.L.C..X-XC.D.p.a.D.s.p.k.A.A.A..X1X4X3X1X.XoX5X6XhX5XhXzX5X5X|.T.Z.B.OX-X}.Y.A.B.A.N.-X'.'.|.1X-X[..X'.N. X{.[.[.'..X X|.'.'.'. X6X X3X5XzX5XXXvX3XjXhX1X].+X{.3XzX2XzXxXzXxX3X X>XA.|..Xm.B.'.m.v..X XM.|..X}.A.x.k.C.|.B.B.f * d.( ^ ( ^ ^ ( ( ( &.( ( ( ( J ^ J J J J c M E c J J J J J v J x J J d d x u u d l u u d x x d c x x d d g d g d c f f c g J J E G g g g g g g E g s G L g g g g s h a g s g s g g s s d g s s m a s 9 9 t a a d a a a p p a a p p 9 5 p p p p h h s s h s h h . D F.c.%.%.m.#.7.j.h.g.[ +.%.&.>.#.@.@.~ +.+.) V C B ..! B N V X.O.W X.,.%.%.X.X.) ) %.,.X.) X.! ..) ! C ! ! _ X.| +.) +.:.%.:.%.#.8.9.9.9.7.4.:._ ) @.) [ %.) ,.#.) M X.+.! V V ~ #.+.+.#.) C ! ) +.[ | +.+.[ | @.@.| +.[ [ ) _ W C N W ! B ! ! M C M _ ) #.:.",
"xXxXxXaXaXiXaXxXxXcXAXFXAXZXcXAXDXDXAXAXAXAXAXcXcXcXcXcXFXAXAXcXcXkXkXdXxXlXzXzXpXzXiXiXpXlXaXuXyX$X$XyX$XyXyXiXhXhXuX2X3XyXuXhXhXhXjXyXjX5X3X3X3X5X3X5X5X6X1X3X#XoX#X1X1X&XoX#X#XoX3X&X#XoX#X#XoX3X3XvX5X3X3X&X1X3XoX&X1X1X1X1X&X&X1X&XoXtX&X&X1XoXoXoXoXXX} 7 ,X2X1X-XZ.R.|.m.T.'.}.A.Y.A.M.A.'.}..X.XC.j.d.p.s.d.D.k.s.m.A.}.A. X1X6XoX X{.5X5XzX5XpXpX5XyX}.'.Y.T.OX X|.M.Y.A.Y.'.>XY.A. X|.[.[. X[.I.[..X.X).'.[.OX[.[.'.'.1X1X[.2X2XzXyX#X3X5XkXkX2X+X{.+X5XuX1XzXzXzXkX3X X1XB.'.'.g.A.'.N.h.'..XA. X X}.N.A.A.x.T.B.M.i , D.( &.( ^ ^ ~ ^ ( ( &.&.( ( ( ^ ^  .^ ^ J J c J ^ J J v J ^ ^ J x x d x v x d u u l d d x x x f f c c x d d c c f f c g d G G E J J g s c G g a G c g g g s g s g g d p p g a h p a a h g g h a a g a a a a f a g n g n s p 9 5 9 p a h h h g g g g s s h d j . S Z.9.g.>.j.7.#.g.h.g.) +.#.) >.%.+.) Q X.~ ) ! B M ! ! B C ! +...! X.@.+.@.) ) ) +.,.,.) ) _ X.! _ ! B ! ! ..) ) +.[ @.g.>.:.%.| 7.9.7.8.9.#.:.[ @.[ X._ %.+.#.$.~ ! X.[ X.M V _ #.%.[ &._ f _ [ [ [ +.+.} | +.| #.| +.[ [ [ _ W i N ! _ V ! V V M V ) _ | #.",
"AXFXFXlXlXcXcXZXZXcXcXFXAXAXcXHXlXlXxXxXlXkXxXAXAXcXAXAXAXxXlXlXlXkXkXxXlXlXpXhXiX3XiXpXaXlXpXuXpXyXuXpXuXuX5X3X2X5X3X1X2X2X3XuXjXuXvX5X%X$X&X1X3X1X#X3X6XvX3X3X3X5X3X1X3X1X&X3X5X3X1X&XoXoXoXoX&X&X3X3X3X1X#XoXoXoXoX#X#X#XoXoXoXoX{.{.]..X.XoXoXoXoXoX+X[.] 8 <X2X|.:XA.A.}.B.}.}.'.}.}.'.S.}.}.|.-XA.C.s.s.d.a.o.s.D.j.x.Z.A.'. X1X5X.X+X.X3X5XzXzX5X5X6X5XY.Y.}.|. X6X'.|.B.B.'.|. X}..X X X|.'..X[.).[.).'.[.).'. X X}.[. XOX>XI.2X1XzX5X$X3X5XjXzX$X{.{.+XuXuX2XkXzXhXzX3X X#XB.L.[.v.m.'.N.c.'.'.v.}. X|.N.S.}.k.A.m.B.d k d...( ..^ ..( &.( &.&.( &.( ( ^ ( ^ ^ ^ ^ J ^ E c G c J c c c J J c x d d d d x d x x x u x d x x d c d d g d c d d J d d J J c G g h c g g G g g g g g g n L E g g s p a h p h h a h g c g n n s p a g n E n g g g n g g a p a p p g a a a g h h g f s h p p X D V.g.g.%.4.h.#.9.h.h.&.@.9.[ #.%.#.+.) ) ~ ~ ! c N ^ M B C  .!  .X.) X.+.@.) X.) ) ,.,._ ! X.X.X.! V C V M ) ) ) ) +.#.7.>.7.%.#.#.9.8.9.9.4.#.| X.[ ) ~ +.+.>.#.! ! +.) ~ ! C ) #.| +.&.W n ) +.+.[ #.[ } | | | #.#.[ [ | +._ ! C N V _ M W W C C W _ ) :.:.",
"kXlXkXlXlXlXlXcXcXAXAXFXcXcXcXkXxXzXkXcXkXcXcXcXAXcXAXcXcXcXcXcXcXFXlXlXzXiXiXiXpXdXlXzXaXiXjXkXxXlXxXaXuX2X3X2X1X5XhX3X3X5XvX5X5X3X6X&X#X3X3X3X3X3X3X3X3X3X6X3X5XvX5X3XvX5XvXvXvXhXvXvXvX&X&X#X1X1XoX1X#X&XoXoX&XoXoX{..X_.].{.{.].].{.oX&X&X6X&X6X$X1X+X`.` t :X-X}.'.|.}.'.}.'. XN.A.Y.M.'. X.X|..XA.D.a.d.a.a.p.a.k.j.c.c.Y.'. X1X1X[..XOX3X5XzXzX6XvX1X4XA.A.}.Y.}.|.|.|.m.m.|.}. X X>X|.OX'.[.].[..X.X[.[.[.'.[. X X[.B.[.1X XJ.1X2XyX5X#X3XjXzXhX3X#X{.+X5XzX2XzXzXzXzXoX1X1Xm.B.'.m.A.'.L.m.N.Y.x.M. X}.B.}.}.j.'.N.N.x k d.( ( ( ( ( ( ( ( ( ( ( { ( ( ( ( ( ( Q ^ ^ ^ E J J J J ^ J J J J c x c x l d J J d u x u u d d c x c c x d d x x c d d J d h f g h g d h g g n g g M g s a s g L g g g s g g h g g h g g g g a g a a g E L E E n n n g g d s a s g s G g s a s h h h j p a j X F !.>.7.7.7.j.%.7.k.7.>.#.f.&.+.%.+.&.@.X.) X.~ V V ! ! f B V x ! ! ! @.@.X.X.| ) X.@.@.! ! @.) _ X._ V ! W ) ) ) _ X.&.>.#.>.#.#.%.7.9.-.7.#.| [ +.[ ) ) ) ) >.:.! V +.[ ! ! C ) #.#.| @._ M [ #.| | %.+.#.+.[ [ #.@.+.[ | +._ W l i V _ M V V n V M ! ) #.:.",
"xXlXaXlXlXlXFXcXAXcXcXxXlXcXzXzXhXzXzXhXkXzXkXkXkXcXkXlXlXlXcXcXcXlXzXuXuXuXlXZXxXxXaXiXpXuXuXkXkXxXkXzX5X3X3X5X5X5X3X2X5X5X5XjXjX3X3X@X#X&X3X3X3X3X3X1X&X3X3X6X3X5X3X5X5X3X1X3X1X3X1X&X1X3X1X&X&X1X&X&XoX#XXXoXoXoX].XX{.oXXXoXoXoXoXoXoXoXoXoXoXoX#X{.`.n.T 7 <X Xm.|. X'.'.A.}.'.'.'.A.A.'.}.Y.}.A.c.D.a.F a.s.s.k.s.j.c.j.Z.A.'.2X1X'.[.>X2X5XzX5X5X6X5XtXL.'.}.A.}. X|.|.A.v.>X'. X XOX|. X.X).[. X.X[.{.).N.'.I. X.X{.N.[.1X X[.#X1XhXvX$X3XjXkXzX@X{.[.{.yXuX3XkXzXaXzX1X1X6XM.B.'.B.N.[.[.).'.A.j.M.|.A.m.}.'.m.}.A.'.d , d.....J ( ^ ^ ( ( ( { &.&.{ { ( ( ( ^ ( ( ~ ^ ^ ~ J J J J c c c x v J c c x x v J J x d u x x d d x d d x d x d d x d J c c J g g g c h d d g g g g a g g n n J g E g s g g a d p s g n a d a a a a a f g n g g m n s s s a a a a s g s s h h p h p h h p j p X F E.,.%.7.x.x.>.>.0.9.%.%.f.%.#.%.) [ ) [ +.! ~ ! B !  .C C N l N ! ! ) +.X.X.| _ @.,.@.! _ X.) X.X.X.V ) Z ) ) ) _ +.[ 7.[ 7.%.#.:.9.7.:.9.4.[ ) [ ) _ @.+.) >.+.M E ) _ W V x ) #.@.X.+._ n +.#.| &.#.| #.+.[ [ #.#.+.| @.| _ Q V i ! W V W n x V n ! ) | :.",
"ZXFXAXcXcXxXxXxXZXAXDXAXcXcXlXcXkXcXkXcXcXxXxXkXzXzXkXxXkXcXFXxXcXlXcXzXzXuXpXlXaXaXpXaX3XiXuXuXjXzXzXzXzXzXzXuX5XyX5XjX5X5XjX5X5X5X3X1X&X1X3X3X5XvX5X5X&XoXoX3XvX5XvXuX5XvX&X1X3X&X3X3X&X&XoX&XoXoXoXoXoXoXoX{.{.oX{..X.X{. X XtX3X1X3X3X1X&XoXoXXX+X{.{.).T r :X>X}. X}.}.}.A.A.'.Y.S.L.A.L.A.m.B.A.m.D.F D a.s.D.k.k.j.Z.j.m.A.'.1X|. XL. X5XzX5XzXpX6XtX-XL.'.Y.A.'.|.'.}.Y.m. X|.N.'..X[. X|.I.).{.{..X].N.J.'.N.+X.X[.N.[.OX|.).$X1XvX5X$X3XvXkXkX@X#X].{.5XhX3XzXzXzXhX6X>X#XA.Y.Y.v.A. X.X'.'.}.g.B.|.M.B.Y.S.v.Y.L.N.x < d...( ( ^ ....J ( ( ( { { ( &.( ;.&.( ( ^ ^ ^ Q J ^ E E J c c u d d c J v J c x v x J d J d d x d x d u e d d d d d d d j t d f d d h f h g d M g n n g M L M L n G c g h g s p a a a a a p 9 p p p m m m g g g a g g g a a s a p h g a p h d h p p h h d p t X F !.>.%.>.m.h.7.7.7.>.#.@.>.%.f.%.~ +.! ) +.) ! ..! ..) ! B v V B ! ! +.+.,.) X.X.X.,.@._ _ +.X.X.X.! V _ ) ) ) _ ) +.) g.#.9.:.%.| 7.4.#.7.4.| ) ) ) _ @.+.+.,._ C V +.Q ! ! l ~ @.@.+.+.W M @.%.[ +.#.#.%.[ ) [ #.@.+.:.| | _ _ W C V ! M V C l M M W ) | :.",
"lXxXFXFXlXzXkXzXcXlXFXcXAXAXAXcXAXAXcXAXcXxXxXxXxXxXcXcXxXcXcXcXFXZXkXkXuXuXuXiX4X3X4XuXuXuXkXkXkXkXkXuXhXzXzXzXhXpXhX5X3XyXjX3X6X3X3X3X3X3X3X%X3X5X3X3X3X6X3XvX5X3XvX3X3X3XtXoX%X3X3X3X1X3XtX&XXXoXXX#X&XoX.X].J.J.]. X#X1X1X1X6X5X1X#XoXoXoX#X3X3XoXoX#X].` r =X>X|.-XY.'.'.'.}.}.'.A.|.L.}.'.M.S.A.C.s.a.S a.a.k.D.j.m.C.k.k.}.|.1X].OXY.|.5XzX5X5X5X2X|.A.B.}.'.B.m.}.I.|.}.B.>X|.A.}.'.).1X-XY.N.]. X].].n.).].B. X X].N.I..X X X$X3X5XvX1X5X3XkXjX@X#X{.[.yXjX3XkXkXkXzX3X1X1XA.Y.N.8.B. X X[.J.'.h.A.|.c.C.Y.A.A.}.A.L.d , p.&.&.&.&.( ^ ^ ( &.&.&.{ &.&.{ &.&.&.( ( ~ ^ ^ ^ ^ ^ ^ J J x d d c v J J d J J d x J J d x x x J J J d d u u d x d d d f d d d d x g h h h c g g g n m n M g g s a s g g a d s g a s a a g a f a s a s s n n n M L m g g g g g g p p a p 5 4 j d s a g h p t X A ~.>.>.9.x.m.7.g.g.#.&.%.7.f.>.7.+.) ~ X.+._ ~ O.M ..X.~ B l C N V +.O.@.,._ _ ! O.,.@._ X.X.) ! ! ! M ) ) ! X._ ) +.| g.g.%.4.@.| 7.} 4.7.7.| ~ ~ ) Q +.+.X.$.W C ! ) ~ ~ ! x ) @.@.) ) Q ! #.%.| } #.@.#.[ [ ~ #.| | %.| &.[ ~ Q M C C M M M y M M Q ) | #.",
"zXzXaXzXkXcXlXcXlXcXzXkXkXlXcXkXkXcXkXkXkXkXkXxXxXxXlXZXcXFXFXcXxXcXcXxXxXkXzX5X3XiX3X3XyXyXuXkXkXkXkXzXhXkXzXjXzXhXhX5X5X5X3X3X3X#X&X%X1X&X3X3XvX3X5X3X3X3XvX6X6X3X1X1X&XoXXXoXoX&XoX#XoXtX3X&XoXXX X#X&XoXXXoX{.{.oX#XoX X#XoXoX1XoXoXoXoXoXoX X#XoXoX{.`.] 7 |..X}.}.m.M.-X-X X}.'.A.|.-XA.A.'.S.M.Z.D.d.F F a.s.j.j.S.S.p.k.m. X1XoXoX'..X5X5XuX5X5X1XT.B.A.A.Y.S.B.M.N.[.'.N. X.X'.Y.'.[..X.XN.)..X{..X'.M.'.'.N.{..XJ.N.).[.#XoX1XoXjXjX$XyX5XkXjX$X#X{.{.hX6X3XkXkXzXzX6X>X1XY.A.A.x.B..X.X'.).'.k.Y.}.x.A.m.S.'.L.N.J.u < D.&.( &.( ( ( ( &.&.( ( ( { &.&.{ { { &.( ( ^ J ^ ^ J c c f c d c J J v d J x d J J d d x J c d d v v d u u u u d l x d d d h f c d h d d d g g c f f f f n m f d d a a g s g a s s p a g a a a a g d a a p a s n n n s g s a a s s a p j 4 3 4 5 p p a j 5 p X F E.>.g.9.x.x.4.g.x.%.,.%.7.%.#.%.[ X.~ ) +.! X.) B ! X.~ V y C V ! X.+._ %.) +.V ) @.@.X.! ! ! ! ! ! M _ ! ! _ V X.) | g.7.>.4.#.| 4.#.7.4.#.#.[ ) _ ! +.| _ @._ f V ) ) ~ V f +.| @.) _ Q _ #.#.+.&.| [ #.| [ [ @.| #.| | +.[ ) [ M m W M V C C C n W _ | #.",
"zXkXkXkXlXkXkXzXcXlXcXcXcXzXcXkXkXkXzXzXjXhXuXuXzXkXxXcXcXlXxXxXkXkXlXaXuXiXiX2XzXkXpXyXuXhXuXzXaXzXzXjXkXkXkXkXzXzXhX3X3X3X3X3X3X3X3X3X3X3X3X3XvX5X5X5X5X5X3X5XvX3X1X#XXX#X&X1X#XoX@XoXXX&X&X1X3X6X3X6X6X1X1XoXoX X X{.[..X X1XoXoX1X#X1XoXoX#X1X&X&XoX+X{.] r =X.X X.XA..X6X-X|..XY.Y.'..X}.A.}.M.j.j.p.D.d.p.k.D.j.s.C.V.p.j.C. X1X XoX|. X5X3X5X4XOX1Xm.m.}.M..X'.'.B.b.'.'.v. X X).N..X[. X Xn.)..X.X{.[.N.].'.).]. XJ.n.[..XOXoX&X$X5X5X3XyXyXkXjX+X{.{.[.uX1X3XzXzXzXhX>X#X1X'.B.B.x.m.{.|.).).Y.x.A.}.m.S.M.|.|.M.b.b.u k d.&.&.&.&.&.&.( ( ( ( ( ( ( ( ( &.( ( ( ( Q ^ J J c d g x g c v  .J v J J x J v J x J x J J J c x J d d u u u l e u x x c c f g c x d d d d d c a f f g d a d d a d p d a a g g a a a d a a a a a d p p p 9 p a a g g s a p a s a s a p p j e p a h a h j 4 p X A /.,.x.>.c.B.7.7.j.7.#.[ %.%.&.>.+.) ~ [ +.) +.~ V ! ..! ! l C V ! ) _ _ $.) X.! _ ) @.)  .C C ! ! B f W ! ! ) n ) ) +.8.7.7.4.#.#.7.#.6.7.-.| ~ ) ) W @.+._ @.) C M ! ) X.M g +.} ~ ~ ! ^ _ #.#.| +.| _ [ [ [ +.+.| [ } | | | ) ` W M V n V V m C C E Q ~ #.",
"AXcXFXAXZXlXcXlXcXlXcXzXzXcXzXzXkXkXkXzXhXaXkXkXzXkXkXlXxXcXcXZXcXkXxXkXiX2X2X3XuXuXuXzXuXuXaXjXzXzXaXkXlXkXhXzXjXhXhXhX5XjX5X3X3X3X3X3X&XvXjXvX5XvX6XvXvX3X3X3X3X1X#XoX{.oXoXXXoXXX#XXXoX6X6X&XoXoXoX&X#XoX#X1X1X#X-X1X#XoX6X1X1X1XoXoX1X&XoX3X5X3X6X&X+X{.] t :X.X6X|.}.6X].'.|.}.Y.A.A.}.'.m..XA.m.D.p.p.s.a.D.j.k.p.j.s.s.c.A.oXoX X#X].1X3X6X1X6X|.-Xx.Y.A.'.|.'.N.'.N.}.'.N..X.X).'.[.{..X XN.). X X+XJ.J.[.{.J. X{.N.I.[.[.OX1X&X$XvX5X$XyXhXjXhX].[.].].hX3XiXzXpXhXhX X1X1XY.A.B.0.v..X.XN.'.Y.k.m.-X'.m.A.tXtXA.B.M.u , d.&.&.( &.( ( ( ( ^ ( ( ( ( ( ( ^ ^ ^ ~ ^ ^ ^ J J c c J J J J J J J J J J J x J d J d x J x x J x x d d z y u u u u e u c c d f d d g d d d f d f d f d i d d i t d d g a a g g g s p h s g d p p 9 7 9 t a d g g s s g g s g s g g a a p p 9 e j p a a d e 5 . S !.g.g.9.x.B.9.>.x.8.#.+.>.%.%.7.) ~ ~ X.X.! X.! N B ! ! ! B V M ! ) _ W %.@.X.! ) X.X.X.! V C ! ! B x ! _ ! ) C _ ) &.7.4.7.:.-.#.7.%.4.4.#.} ~ ) _ ! @.,.! %.! C M ! ~ ~ M M &.+.~ ) W Q +.#.@.} | #.[ [ | | [ | +.[ #.@.[ [ Q ) _ V n C C V i f V Q ! ~ } ",
"xXlXlXlXxXxXlXxXxXxXcXcXzXzXzXzXkXzXhXhXhXzXuXuXzXkXkXkXkXjXkXxXkXkXkXaXiXyXiXyXiXaXkXjXkXkXjXkXjXjXkXkXjXjXkXuXzXuX5XzXkXuXhX5XjX5X5XvX3XvXvX5X5X3XvX6X3X3X3X1XvXvXtX&XXX{.#X1X3X&X&X#XoXoXoXoX#X3X1X3X1X3X3XoXtX1XoX XoX X X1X5X1XoXoXoXtXoXoXoXoXoX#X.X`.` 5 }.|.6X-X.X X|.}.|.}.}.Y.Y.B.Y.'.|.A.A.c.s.s.d.p.D.k.p.p.D.s.k.C.L. X{.oXoX.XtX3XoX6X|.'.Y.M.Y.A.'. XN.N.[.).L.'.].[.'.I.'.).'. X#X'.'..XOXtX).J.)..X[.+X.X).N.).].OX$X3X$X5XjX1XvXhXzXjX_.).).`.yXhXhXhXhXzXuX X1X2XA.v.J.m.N.].[.m.Y.A.g.B.:XA.A.'.-X-X}.N.e.u < d.&.( &.^ ( ..( ^ ( ..^ ~ ^ ^ J J J J J J ^ J J J J ^ J J J  .J J J c J c J J J v J J J v v x J v d d u y y e y e e y y e J y d u t p e e w y w w e y r u r e u u d f f g g g h g c g g a g p j 9 p p d 9 p p a s g g s g g s g g s h g d p p 5 3 4 e p p p p X S E.,.k.>.8.B.9.:.k.9.:.[ #.#.:.>.) ! ) $.+...X.! N C  .! V M ! V ! ..X.@.@.@.X.! ! @.X.X.^ x V ! M V C ! ) ! ) n ! [ #.7.7.7.>.%.4.7.#.q.4.>.| ( +.~ ^ &.%.W ,._ C C ~ ! ! n M @.+.Q ) W W +.&.#.&.} +.[ +.+.+.[ | | | +.[ [ [ ~ [ Q V M f f M i n V V U ) | ",
"pXzXkXzXaXaXaXaXkXkXkXkXhXuXzXzXzXzXkXzXkXjXkXkXkXxXkXkXxXkXaXxXxXcXkXaXkXxXaXjXjXkXaXjXjXaXkXkXjXkXuXkXjXaXjXuXhXyXyXhXzXhXuXhXhXhXhXhXhX5X3XjXvX3X3X3X1X&X5XzX5X5X3X.X].oX#X3X1XoXtXoX&XoXoX1X1X1X6X#XtXoXoX1X X X1X1X1X1X4X1X1X1X3X3X3X3X&X#X#XXXXXoX{.`.` 4 C.|.-X-X X}..XA.B..X'.}.N.S. X}.}.m.m.j.k.s.D.p.k.p.p.s.D.s.j.z..X X{. XoXoXtXvXoX X-X'.Y.Z.N.M.N.[.[. X[.N.}.'.].'.N.J.'.N.'.[.]..X].[. X{.'.'.H..X{..X[.[.[.N.).+X#X$X%X5X5X3X5XhXzXzX`.).`.[.5XjXuXhXhXpXpX|.1X1XB.m.[.m.A.[.).h.N.Z.g.A. XS.}.}. X-X}.B.v.u < d.p.( ^ ( ^ ( ^ ^ ^ ^ J J J ^ J J v J J v J J  .^ ^ ^ J J J J J J J x J c J J J J J v J J J v u e u y u y u z u z y y y J u u x d u u u y w w , , , , , , w e e r p d a d d g s a g L n n s a p d p p a a a a a a p a s g s g G s g g g s s a p p p 5 4 3 w w X F !.+.h.>.9.N.g.%.v.8.>.+.+.@.&.#.) ^ ) &.X.X.~ X.V C ! ! ! V _ ! X._ | @.X.@.) X._ X.) ) V C M _ M M V _ ) W _ M _ +.#.} 9.7.4.%.-.4.%.7.4.4.| [ | ~ ! #.+.! +._ C M ! ) W C ! [ [ ! ) Q ! | #.[ | #.} [ | #.[ [ ~ [ &.[ [ | [ [ [ ~ E M i C M i m V Q _ [ | ",
"hXuX4X5X3X2X2X3XpX5X5XhXpXpXzXzXzXkXlXkXkXyXuXkXkXkXkXkXaXkXcXcXxXxXcXcXkXjXaXaXkXjXaXyXyXjXkXjXkXjXuXuXyXyXuXjXzXuXzXjXzXuX5X3X5X5XhXhXhX5X3X3X3X3X3X#X&X3X5X5XvX6X1XoX#X#XoXoX1X&X6XoX#X#X].'.}..X X XoX.X X X#X1X3X1X1X1X1X X XoX#X1X6XtXoXoXoXoXoXXXXXXX' r Z.,X|.L.tX X X}.Z.|..X-X-X|..XA.T.Y.c.g.s.s.k.c.D.p.s.k.j.j.m.C..X X XJ.oXoX#X3X1X.X}.m.N.m.N.m.x.[..X'.N.B..X'.N.].[.N.'.N.].'.).{.[.{.#X X].'.n..X{.].)..X X).n. XXX1X1X5XhX1X@XjXjXzX{.).).[.yX5X5XhXhXhXhX'.1X1Xm.B.].N.L.[.N.M.'.m.s.}.|.m.A.|.-XL.L.B.b.u , d. .^ ^ ( J  .^ J J J c c J c v v v J J J ^  .J ^ J J J J J J c J J J c J v J J J J J J v x x u u y y y y y y u e y e y J J u x d d d d d d e e w w w y > w u r t e w e p u p p p d g g s g p d a s g g g s a a a a a p p p a h p a g s a h p p p j 7 t 4 4 ; . A /.@.9.>.4.m.l.7.c.7.7.@.+.&.>.%.! ! X.+.X.!  . . .B ! ....V O.) _ ) W | +.+.) X.! o.) _ ! B C V V M n ! ) W ) M _ +.#.7.7.7.;.:.4.4.4.9.#.} &.[ +.~ _ >.+.W +.V n M ! _ V f W ) ~ ! ) ^ ~ } | | [ @.#.[ | | +.[ ~ [ | [ ) | [ | [ _ E C i l C m V C ! Q ) } ",
"aXuXhXuX4XyX5X5X5X5XhXhXhXzXhXzXcXkXkXcXxXkXkXkXxXxXxXxXkXxXxXxXkXaXkXkXjXaXkXkXxXcXkXkXjXxXxXkXkXjXjXuX3XiXiXzXzXaXzXxXkXhX3X3X5XvX5XvXvXhXvXvX5XvX3X3X3X3X3X3X1X&X3X3X#X&XXXXX@X&X3X&X X X X.X'.}.'.}..X.X XtX X X X1X1X X1X1XoXoX X XoX&X1X3X1X#XXXoX.X`.{ 4 T.2X XA.}.|.'.|.Y.A.M.|.|.}.}.}.A.m.m.j.k.d.k.m.j.p.k.C.C.Z.C.L. X].{._.oXoX&X5X#X.X'.h.B.M.Y.N.m.[.[.J.B.N..Xb.J. X'.B.N.J..XN.Y..X X X X X].].n. X X'.J. X#XN.n.#XXX1X2X3XuX3X$XhXhXzX+XI.).[.iX5X3XhX5XzXhXL.1X2Xm.A..X'.'.].'.A.N.A.7.A.}.x.m.'.}.Z.N.J.n.u k s.( ....^ ^ J J J x x x c c c J J J J  .J J J ^ ^ v J x J v J c J v J c c J v x x v u z y e y y z y y e , y u y y y e e y u e u d d u d u d u u u u u r r r r e w w 6 w e e e e e 2 r r p t p g g s a g g n s s s g s s g s s a a a g a a p 9 7 9 9 t 5 4 e > . F S.X.9.7.9.j.g.%.x.g.7.@.[ %.%.@.~ X.! X.~ ! ) ! V V ! W ! ! X.@.+.+.) _ +.+.) _ ! @.~  . .! V W M M i ! +.W _ n ) @.#.7.q.7.#.:.7.7.4.8.4.#.{ [ #.! ) >.) ! | V l M W ) V d ! ! Q ~ ~ Q [ #.;.| [ } &.+.+.} | | ` ~ [ ` [ ~ ~ [ | [ W M i n n V M n M Q +.[ ",
"aXzXaXzXuXuXuXzXzXzXaXkXkXkXkXjXzXkXcXcXcXcXxXxXkXxXkXkXkXxXkXxXcXcXcXkXkXkXkXkXkXuXyXuXuXkXcXkXkXkXyXyXzXzXzXkXaXuXuXzXuX3X2X1XvXuX3X5X5X5XvX5X5XvXuX5XvX6X3X3X3X3X6X3X1X&X3X1X1X&X1X&X$X1X#XoX.XL.A.A.A.}.}.'.}.|.'. X X1X#X>X1X1X1X#X3X1X1XvXvXvX5X3X$X@X] w W.-X.X-X.X'.}.}.}.}.B.A.Y.N.}.}.m.c.V.g.c.s.k.V.j.p.j.S.A.M.A.}..X.XoX.X].&X1X6X#X'.A.h.B.'..X[.'.[..X}.h.Y.[.N..X].I.v.B.N.[.N.)..X.XXX.X{.'..X). X{._.).{.1XB.v.#X`.OX$X3XhXyX%XjXkXjX$X[.).`.5XjX3XhXhXzXuX'. X1Xm.N.'.'.'.'.J.M.I.A.>.A.|.7.k.[.A.'.'.J.N.x < d.....^ ( .. .J v J c v c ^ c J J J Z J J J J c J c J v J J v v x x d v d z u y z y z y y y u y , y z e y z u y y y e y , u J d f f f g f c f c c x f f d d d d i t e r t e e e w 4 4 4 4 5 t t 9 a s g s n n g g a g g s a a a a h s h g s a p 9 p 9 5 e w 6 . S E.@.>.g.g.x.9.@.j.0.9.@.[ :.#.@.Q X.! O...V O. .V ! X.! ) ! X.@.| ) [ ) +.%.O.) ! ,.) ! ! V ! ! M c i ! +.M _ C ) @.#.%.7.0.} q.7.4.7.9.9.;.} +.#.~ ) %.X.) %.M n M V _ M f ! Q Q ! _ ~ | &.&.| [ [ #.#.} +.[ [ [ ~ ~ ~ [ [ _ [ | [ Q M C i i C M V V _ | | ",
"uXaXpXaXlXxXlXlXzXzXpXuXyXjXkXcXcXcXlXcXkXzXkXkXkXkXjXkXkXjXjXkXkXkXkXxXxXcXcXkXjXjXkXiXuXkXkXkXkXkXzXjXiX3X2X3XjXkXkXhXzXyX2X2X5X5XvXjX5XjX3X3XzXvXvXvX5X&X3X&X3XoX&X3XoX&XoX&XoXoXoX.XoXoXoXoX&X1X#X X X}.L.A.'.'.'.'.A.'.'.'.].].{.oXoX&X&X1X3X&X3X&X#X@X<.4 T.tXL.|.}.|.L.A.}.'.A.A.B.m.|.Z.s.k.c.c.j.$.k.c.k.c.m.Z.m.m.'.L..XtX{.].oXoX3X3X Xc.[.m.N.M.[..XN.[.{.'.0.B..X.X.X'.v.m.J.'.'.B.[.].{.]._.].).].]..X.XJ.J..X1XN.).].).OX#XiXuXyX3XjXkXjX#XU.[.[.5X5X1XhXpXzXhXY.OX Xv.'.[.n.).).B.v.'.B.>.S.'.>.g.Y.'.}.J.N.M.i , d..... .J J v c v c c J B v ^ J J J J J v v z z v x x z v x z y y z z z y y y y y y y , y y y z d u u z d d u u u d u J J J J c E E J J J s c g g g c g f a d d a d d d d a d d d d t u t p 7 t 7 t 7 a a a a p a a g p p p 9 p p s h g g G s s a p 9 7 9 2 4 X S V.@.,.q.g.v.7.#.g.8.g.$.%.@.#.| ) +.! X.! V ! ! V X.X.X.! ! ) +.+.+.) ^ X.@.X._ ) X.! _ ! ! ! ! V C u W +.M ! n [ | #.4.4.7.4.7.7.0.7.q.9.4.[ +.#.^ ) #.) +.+.M C V M Q C f _ ~ Q ^ ) ) [ #.} +.} [ } +.&.| | ` [ ( ~ Q [ | Q [ #.} ) ^ W i i m W W U +.[ [ ",
"xXlXlXaXaXzXkXxXlXcXzXkXhXzXjXjXzXkXkXlXkXzXpXiXiXxXkXkXxXkXxXaXkXuXuXxXcXcXkXaXkXaXjXkXcXkXkXkXkXkXaXaXkXjXuXuXzXpXuXpX5XiXiX2X1X1X1X1X5X3X3XjX5XuX5XvX3X3X3X3X3X3X&X&X3X3X&X&XvX&X3X&X&XoX#X#X&XtX1XoXoX.X].'.L.'.'.'.A.M.Y.'..X XoX.XoXoX&XtX%X3X&X&X#XXX4.w T. X}.6X'.A.A.B.M.}.Y.A.m.c.}.c.s.k.c.c.D.s.D.c.k.j.C.C.M.}.}.A..XoXL.oXoXoX1X3XY.m.'.N.Y.N.[.).N. X.XI.m.'. X#X].'.k.A.A.[.N.b.'.)..X.X].[.].].'. X{.).n.{.>XI..X).u.#XOXyXuX5XyXyXkXjX$XI.U.`.2XyX3XzXyXuXyX'. X>Xm.A.N.N.A.N.N.M.I.A.,.Z.Y.>.k.'.A.'.L.n.v.l * a.Z J J J v J v v l v x v x l d z z y y y y y y u z y u y y y y , y y y y y y e y y y y y y u J y u d J J J J J J J J J J J J E ^ L J J G J G g h g g g a d d d d d a d a a g g a f g d s g d a g d p d a a t 5 5 5 5 3 5 5 p p p h f h g g J J G g s a j j e . S d.,.%.,.g.v.g.+.g.8.x.#.#.#.@.@._ [ ~ X.V B  .! ! X.X.X.! ! X.) @.@.) _ [ X.X.X.X.$.! ! V ! ..!  .M i ! +.W B g ) +.-.4.:.4.#.7.0.9.7.4.4.:.[ [ +.! ~ @.~ ) @.n C M M W C C Q W ^ ) [ ) | +.&.| } +.[ } [ } [ ~ [ [ _ Q ~ [ _ | #.#.~ V M r i C n W Q [ [ ) ",
"lXlXaXkXaXaXkXuXpXuX5XiXyXhXjXjXhXjXhXyXyXyXhXzXaXkXxXkXaXkXkXaXkXaXkXxXkXxXkXaXcXxXxXkXjXkXjXjXjXjXkXxXkXkXkXxXkXpXhXuX5X2X3X2X3X3X#X3X5XvXhXhXhXzXhX3XjXjX3X6X3X3X6X&X&X1X&X6X1X3X1X3X3X1X1X3X1X#X3X3X3X1X1XoX X X|..X'.N.N.J..X{.oXoX].]..XXX].XX].XX].{.1.> T.>X-X6Xm.}.A.}.Y.m.m.A.'.T.Z.k.k.k.g.j.j.k.k.j.k.k.m.z.'.}.].[..XoXK.XXtXoX1X3Xv.Y.}.'.Y.'.A.J.I. X|.v.A.'.].oX X[.j.v.M.'.n.N.I.'. X X].].).).].].{.J.). X XI.].n.).#X X5XhX5XuXyXkXkX$XI.I.`.$X3X3XzXuXhXyXN..XOXB.'.M.M.N.B.M.m.'.A.+.B..Xk.g.'.v.}.A.n.b.i < d...A J A v v l l y z y u l y z y y y y z z z z l x x v z z u z z u d z x d z z u x d x x x c J J J J J J J J J J d J J J J J G c G c G J g G g g f h d d a d p d a d d d a x g d d a d a a d a p p a a p p 9 p a 7 7 d t p p p p p h h s g g g G g g a a a t . S V.,.&.,.0.B.g.+.g.x.h.&.#.#.| %.) ) X.X.! N B !  .! ) ) ! V ) _ %.,.) [ +.) ) _ X.@. ._ B V ! ! V c C _ +.! M f ) @.%.7.7.#.4.9.9.8.q.7.4.7.| +.) ! ) #.~ +.+.f C M Q V f C V W Q ) [ ~ [ } &.} [ &.+.( [ +.[ | } [ [ Q ~ [ Q | | | [ W M i i n V W ! ) [ ~ ",
"ZXFXAXFXAXxXkXkXkXxXxXkXjXjXjXvXyXyXyXyXjXjXjXcXkXiXaXaXyXiXiXkXcXkXkXkXkXcXxXxXkXkXkXkXkXkXkXkXxXaXaXkXkXkXkXaXkXkXaXiXiX5X2X2X X#X#X2X1X3X3X3X5XjXhX5X5X5X3X3X3X6X3X3X3X3XoX3X&X&XvX3X3X3X3XtX&X&X1X&X1X1X#X1X#X1X#X X[.]..X[.[..X).{.]. X{..X].`._.).H.H.` : Z.1X-X-X'.}.}.}.A.j.M.B.M.Y.Z.k.c.Z.s.k.s.s.c.c.s.k.c.B.Y.A.].[.1X].'.oXoX{.1XtXv.N.[.'.M.'.[.N.'..X Xv.N.[.[.1X X'.j.m.N.L.N.N.).[. X].'.].).). X].{.J.).]..XN.).n.[.$X{.1XhXiXyX5XjXkXvXU.[.).#X3X3XzXiXyX5Xn.). XA.'.B.m.v.h.k.B.'.Z.%.B.'.x.k.N.B.S.N.N.N.f , a.v z z z z y y z z z y z z y z y v b x v v v J z z z J v v z J z u v d x J J x d J d l c c J J J ^ J J c J c d x J J J J J J ^ J J ^ G J J c g h g g f g f g f f f f d d a d d t t t p t t p d p a p t 9 p t p p p p p t 7 p j e p a g s G G s s g s h a 9 t . S c.,.,.) 9.B.x.+.s.x.9.#.@.#.| #.X.) X...X.V B ! ! ! _ ) ! V ~ ) #.%.#.+.+.~ ) X.) &.) X.V ^ ! ^ ! C M X.X.^ C d ) | %.4.7.} :.0.8.8.4.7.4.4.[ | [ ! [ +.^ @.[ x C ^ ^ B u M ^ W ) [ [ ( | | | &.| | +.Q Q [ [ | | [ ) ~ Q [ _ +.} | ) M V i y V C ! _ _ ) _ ",
"PXPXPXLXKXPXDXPXPXAXAXAXAXAXAXAXAXAXAXcXcXcXcXcXcXkXiXjXaXjXiXjXuXkXiXuXiXyXyXkXaXkXkXkXkXkXxXjXkXkXkXkXiXaXkXkXaXkXkXxXxXzXzXaXzXpXpXyX5X1X X{.#X1X6X3X3XoX&X3X3X&X3XvX3X&X&X&X&X1X&XvX3X3X3X3X3X3X1X1X&X&XoX&X1X1X1X1X1X3X5X5X1X@X$X&X#X&X3X&X&X@X{._._.).` : S.6X-X}.Y.M.L.}.}.}.}.B.m.A.A.Z.V.c.j.k.k.s.k.c.g.g.c.Z.'.M.n.[.1X'.].oX].'.3X Xm.m.'.B.m.B.N.'.'.[.[.N.v.). X+X X].x.v.J.'.L.).N.|.[.]._.).).oX.XoX].J.)..X].U.N.).]. X X3XuXyXhXjXjXkX%XH.[.).+X3XyXuX5XjX5Xn.B.OXY.A.m.c.v.m.0.m.N.A.g.B.Y.k.v.Y.N.v.N.n.b.x * a.z z z k z z z z u z y y z l x v J J J J J v J J J J J v J J J u d J x x d x d x d J c c J J ^ ^ J J J J J J J J J J J c J d f d h d d d d u u u d u u d u d d t t i t d t d d d a t d r e t 7 t 7 7 t t p p a e t p t 9 t p p t 9 7 p a a h g c G G G a p t . S V.,.,.,.q.x.m.@.:.B.g.%.@.#.+.+.| +.+. .V V C ! !  .! X.X.C V X.%.+.#.+.( ! ! ! _ X._  .C ! .. .V v C ) ) _ C f _ @.#.;.4.;.4.8.7.7.#.7.7.#.[ +.~ ! +.+.E #.[ C M ! W C f M ^ ^ ) ~ ~ [ ;.| } [ | &.) E E ) [ | | [ ` [ Q [ ] } @.| ) n M n n _ C n n _ [ ` ",
"PXDXDXDXAXAXAXPXPXAXDXDXAXPXPXAXAXAXAXAXAXcXAXcXxXkXaXjXaXjXkXjXuXjXuXiXiXyXyXiXiXyXyX2XyXiXcXkXjXuX$X$XiXaXiXyX2XyXiXiXpX5XuXiXiX5XhXzXuXuX5X3X3X2X3X3X$X{.{.+X#X1X&XoXoXoX&X3X3X3X1X1XvX&X&X&X3X3XvX3XvX1X&XoXoX_.].XX#X$XyX3XvX3X3X3X%X$XXX@X*X*XXXXX{._.` : S.-XL.A.x.j.m.}.}.'.A.m.A.j.A.Z.x.j.c.s.d.s.x.c.k.k.c.B.'.'.L.].1X].]. X].{.oX].h.B.Y.x.'.'.).N.[.].[.m.N..X]..X).'.j.v.N.'.N.J.).].[._.).)._. XoX X).H.).'.[.B.b.].XXOXXX3XuX5XzXyXhXkX2XU.[.U.+X3X3XhX5X5X5X[.).1XN.'.x.x.A.m.h.k.A.N.0.A.'.j.j.'.B.B.L.B.J.f < a.A v v v v J c v x v x x c J J J J J J J J J J J J v J J J J x J J v d J d J v J J v J c c c g x x v u u d d u d x d J d d d d d u e e e e w w e e u t p p d d d t r e w w u t u u d u t e i d d 9 t 9 t p 7 p d p p p 7 9 t p p a a a p a a G J g g h p j j X S E.,.,.+.,.x.x.:.g.v.9.+.:.:.#.[ [ ) O.! ! N C V V ! _ ) ..C ! X.@.[ +.+.X.~ ) ! ! X.X.X.C ! ~ ..! C C _ ) _ M f ~ +.%.#.-.4.7.7.4.7.-.4.4.;.{ #.( ^ | @.Q +.) C M ^ ^ x f W V ~ ~ _ ^ | #.;.| ( [ [ ^ E n ! [ [ } } | [ P [ +.) @.+.| n M C V _ C C n W +.[ ",
"PXPXPXPXPXPXPXAXAXPXPXPXAXAXPXPXPXPXPXPXPXPXAXAXcXxXAXcXxXcXkXaXuXiXyXyXyXiXiXiXiXyXyX2X$XyXiXjXkXuXaXkXaXiXiXiXiX2XyX$X2X3X1X2X2XiXyXpXhXhXuXzXuXhXyX5XhX5X5X5X5XvX5X3X3X3X3X5XvXvXvXvX&X%X1XtX@X#X&X%X3X&XvXvX3XvX$X3X3X3X%X%X&X#X#XXX@X@X{.+X@X&X&X@X{.{.[ : S.-XA.m.m.Y.h.}.|.x.M.A.m.m.S.m.c.c.x.s.s.s.c.s.s.k.c.B.'.'.]..XoX XoX#X].oX#X'.h.M.'.i.)..X[..X].'.'.N.).].'.'.m.[.j.m.N.J.N.L.'..X).L.J.'.'.{. X{.).n.).'.[.n.U.]. X X#X3XyX3XzXhXzXhX3XU.{.N. X3XOXyXyX5X3XXX1X XB.Y.m.g.'.B.x.7.A.N.j.A.|.B.v.}.m.j.N.N.].C k d.A J J J v J c c J J c x c x x v J J J J Z J v J v J J z z J x v J J v J J x u u u u d u u d u u u u e u u u u d d d d d d t e u e u d u u d d c E J E E J E n n m a f g a g g g m f f a g g g s g g L g a a s a a a a p p 7 p 5 t p p j p p p h s g h a p j . S V.,.#.&.:.h.B.>.>.k.h.@.7.#.#.@.&.) @.) V V V ! V V X._ ..C ! +.| +.+.[ X.~ ) ! ^ X.X.O.B ! ! ~ ^ i C ) ) ) V x Q +.;.#.| 7.7.4.7.4.%.5.4.%.&.&.[ ! [ #.! X.) n n ! M C C M W _ ) ~ Q +.;.#.[ [ [ Q n n C Q ( +.} +.} | E ) :.` ] | | W m V ! W n C M _ +.[ ",
"PXGXPXPXPXAXPXPXPXPXPXPXPXLXPXLXPXPXLXLXPXPXLXPXPXAXPXAXAXAXAXAXPXcXkXkXiXjXxXxXkXkXaXjXjXuXiXyXiXaXiXkXaXaXaXaXaXaXiXiXiXiXiXiXpX2X>XiXyXuXiX5XuX5X5XhXhX5X5X5X5X5XyXhX5XhX3X3XvX5XvXvXvXvXvXvXvX%X%X%X%X3X3X&X3X3X3X3XyX%X%X%XoXXXXX&X&X&XXX@X@X&X%X&X#XXX{ > m.|.}.A.}.'.|.}.}.A.m.N.A.}.C.g.Z.g.g.s.a.k.c.s.k.j.z.C.N.'.]. X].].#XoXoX{.oXB.x.m.N.B.n.'.'.]. X).[.[.N.N.'.].'.'.j.B.N.b.).'.'.).).).).J.].{.oX_.).J.H.[.[.n.n.].@X+X X3XjX3XzXhXzXhX3X[.[.U.#X2X].%X5XiX3X+X$X1XN.N.c.x.I.m.k.9.c.M.m.'.}.Z.m.'.m.j.h.N.].E k a.b v J v v J x v J c c v J J J J v J J J J J J J J z j e e y u z d d J v J d x d J x d d d e u l u d d g d h g g J J J G J J J J E J g J ^ G E L ^ ^ ^ ~ ^ ^ Q Q ^ Q ^ Q E ^ ^ ^ ^ ^ E E ^ E E n g L L L g g s g a a a p 7 5 e 4 4 w 4 j e e e e p h t p j e X A V.>.%.+.#.9.m.>.7.x.9.| ,.#.%.@.,.@.X.! V V V ! V V ! ) _ B ! +.| @.#.+.X.~ ) ! ! X.X...! ! ! ) W l C X.[ +.V n _ #.#.{ [ 7.q.4.4.;.-.7.8.4.[ [ ) Q +.&.) | ~ n n _ C n M E ! ) X.Q E #.#.-.[ [ [ W n f C L ~ +.[ | | } Q [ | [ ` | [ W n M W W i n M _ +.[ ",
"PXLXLXKXKXPXPXPXPXPXPXLXLXLXLXPXLXPXPXPXPXPXPXPXAXPXPXAXAXAXAXPXPXPXPXPXAXAXAXAXcXxXxXxXkXjXkXcXcXcXcXcXxXxXcXxXxXaXaXaXfX2XiXiXiXuXiXzXzXhX3XyXuX5X5X3X%X3X3XyXhXhXuXzXhX5XvX3X&X&X&X&XvX&X&X3X&XvX&XvX%X%X&X%XvXvXvX3XyXyX%X%X3X3X3X&X3X3X&X&X#X@X&X#XXX@X} , Z.-X}.M.'.}.}.'.'..XZ.M.'.A.m.m.Z.c.s.s.a.D.k.s.k.j.m.L.J.J.'.oX X_.XXoXoXoX{.m.v.8.v.v.'.J.J..X].'.N.I.'.M.J.oXY.m.m.N.B.M.'.'.].J.J.).).N.)..X{.].).H.J.)..Xv.n..X+XOX#X5XjX2XzXzXhXhX2XU.[.).$X$X{.2X5XyX3X@X3X1XY.B.x.h.).B.c.9.h.N.m.|.}.B.m.}.B.k.h.J.[.E * a.A v v v x u x x v v x x c v v J d v z z v v A J J z J J u J u J x J x J J J J J ^ J J J J J E E E J Q Q ^ ( ^ ^ P ^ J ^ Q ^ ^ Q ^ Q ^ ^ ^ ^ E ^ P Q Q Q ( Q ^ Q ^ ^ L G g g G g G E G L G g L L L E E J G g g g g L g g g g a d p j j t p d j 4 5 4 j 4 4 e . S V.,.,.) :.9.c.7.7.7.7.#.%.| @.+.@.| @.! V V V M B V _ !  .M ! X.) X.+.+.~ ) +.~ W ! ! X.B ! ! ! V C C ) +.+.W f ) @.;.[ ( 8.;.4.#.:.-.4.6.7.~ ) ) ^ &.@.~ [ ) M V Q C C M V W _ _ W ~ +.#.#.| [ _ E C f n n Q [ ) | } &.) _ _ _ _ ] | _ V n M W C C W W ) [ ",
"cXPXcXPXPXPXFXPXPXPXPXPXPXPXPXPXPXPXAXPXPXPXAXAXPXPXAXAXAXAXAXAXAXAXAXAXAXPXAXAXAXxXxXxXcXkXkXcXcXxXxXcXcXxXxXkXaXaXiXaXiXaXiXiXiXiXiXyXuX5XjXyXhXzXuX5X5XyXyXiXzX5X5XjXjXjXjXjXjXjXjX3X%XvX&X%X&X%X&X%X%X&X%XjXvXvXvXvXvXvXvXvXvXvXvX3X3X3X&X&X%X3X3X&X#X#X} : C.-XA.A.L.A.m.M.A.A.A.M.}.A.m.Z.Z.c.x.a.d.k.D.k.s.k.m.'.'.J.J.oX].).oXoXtXoX].B.m.x.m.I.'.].'.'..X.Xn.N..XB.[.{.L.h.m.N.M.N.).).'.J.J.N.J.J.)._.{.].).).).).].n.N._..X#X#X3X5X3XhXyXhXjX$XI.`.{.2X#X].3X3XjX3X.X$X1Xc.m.M.h.'.v.v.7.9.A.g.Y.'.c.B.'.m.k.N.N._.W , a.J z u v v v v x x d c d l d u v z J d J J J J J J J J J J J J J ^ ^ J ( ( ( ^ ^ ( ( ( ^ ^ P J Q J ^ P J P ^ ^ Q P J ^ / ^ ( Q Q ^ Q Q Q Q Q Q ~ Q Q Q Q ( Q ^ L P ^ G g J G g G J E E E G L J E g g E E E c g s g G G g g s s h p g g g G h p p t j j e 5 e . S V.:.,.%.9.9.x.>.7.g.%.&.@.#.:.+.@.@.X._ V V V x B ! O.!  .! B ! ) ~ ) +.+.+.) X.! ! ! ! C ! ~ ! V i C _ | +.Q C ) #.;.} ( -.#.#.` :.;.7.q.;.^ ~ ~ ~ &.@.) +._ M W _ M x C Q W Q ) M ) | #.#.[ [ ~ M n f C M M ) Q | } #.[ Q ~ ( ) | | W M C n ! M n ^ W [ _ ",
"aXiXaXcXPXFXPXPXAXAXPXcXAXcXAXAXcXcXcXAXAXAXAXPXPXPXPXPXPXPXAXPXPXAXPXPXPXAXAXAXAXAXAXPXAXAXPXAXPXPXAXAXPXAXxXAXxXxXcXxXaXaXdXkXkXlXlXlXlXlXzXzXzXlXlXcXxXzXzX3X2X3X$X$X&X3X3XvXjX3XjXvXvXvXjXjXjXvXvX%X%X%X%X3XvX5X&X$X%X%X%XyXvXvXvXvX3XvXvXjXjXvXvX3X2X#X{ : Z.|.A.}.-X}.}.m.m.m.}.'.'.m.k.c.Z.h.g.a.a.x.s.D.g.g.C.'.].N.H.#XoXJ.].1XtXoX#Xv.v.v.x.B.J.].].J.)..XI.N..XN.].{.'.j.v.L.A.).N.'.).).J.).n.[.).[.{.].].).H.].[.J.).[.).#X2X3X3X3XzXyXzXjX$X`.[.#XyX#X].%XjX5X3X{.&X#Xc.h.A.g.'.v.v.j.B.A.>.Y.'.m.Z.}.B.B.'.N.].M , a.v J v v J x J x x x x x x c u J J J J J J J J ..J J ( ( J ( ( J ^ ( ^ ( J ^ ( ( J J ^ ^ ( J J G ^ ^ ^ ( J Q Q J J P Q J J P J J G G G ^ ^ E G G E J g G ^ ^ Q ^ L G G E G E L E G E E G J E L G L E G G G G G g G g g g g g g s s s g g G c G g s a p p j e . S Z.:.:.&.7.9.h.>.:.9.7.@.%.#.#.+.$.+.@.V N V B B C ! ! ~ ! ! M ! ! +.[ +.+.) ) ) !  .! ~ M B ! ^ C C l ! ) +.! g [ #.;.+.[ 7.;.[ | 4.:.8.4.%.^ Q ~ ) #.[ [ +.~ E M Q V f M _ W ! W M [ ( | #.[ ) ( E c d g C n W Q +.#.#.| Q Q ~ ~ | | Q ! n n U V n E W ) | ",
"kXaXxXxXxXcXxXxXFXAXcXAXAXcXcXcXcXcXcXjXjXjXcXcXaXaXcXxXxXxXAXxXAXcXAXAXPXcXPXcXPXPXPXcXPXcXPXPXPXAXAXPXPXPXPXAXDXDXxXFXFXxXcXFXAXcXcXxXxXxXkXkXkXkXcXxXkXjXzXzXuX5X3XhXjXjXvX%X&XyXvXvXjXvXvXvXjXjXjXjXjXjXjXjXvXvXvXvX%X%X%X%X+X@X&X%X3X&X%XvXvX3XyX3X$X#X_ : V.'.L.}.}.Y.}.m.m.}.A.'.A.k.>.C.B.c.k.O.d.k.s.k.g.k.A.'..X).N.&XoX'.].#X#XoXoXJ.m.M.m.v.).'.oX'.[..XN.'. XL.oX].N.m.M.L.L.J.J.'.'.).J.).H.N.).).).).{.).H.].'.).).{.).#X1X3X3X&XhX3XvXzX&X).`.$XjX@X{.3XyXhX$X].%XOXm.g.N.>.'.).v.9.B.M.#.S.I.m.Y.}.A.B.'.N.].W , a.o.J J J A J J J J ( J J J J J J ( ( J ( ( J J J ( ( ( J P ( ( J J J J ( J ( ( ^ J G J G J g G ^ E E J J G J J G J G G J J j g g G J g h G c h h d d g d g G J E ^ J E J J J ^ ^ ^ ^ E E G P L J L G E E G E E G ^ G L ^ ^ P E G E L G J s a p p h h h d t j . S E.>.7.@.7.0.g.:.:.9.7.+.@.| #.@.$.) ) V B V B C C ! ! ~ ! ! B ! _ @.@.) ) ) _ ! ! X.! ..V C ! M C l i _ ) +.! C [ #.5.&.{ ;.;.] } 4.7.4.4.%.W ~ ) ~ 7.~ [ &.) E V W M f W _ Q _ V n ) Q | #.[ Q _ M C f n f i C L [ | @.[ Q U _ Q @._ Q Q n C L Q M V W ) +.",
"PXDXDXAXZXaXkXxXkXcXcXkXcXAXAXcXcXAXcXcXcXjXjXkXaXxXaXaXaXxXxXxXaXxXZXPXDXcXxXAXPXcXPXPXAXAXcXAXAXAXAXcXxXAXcXPXcXcXxXkXaXkXdXxXxXcXcXcXkXkXcXcXcXAXFXkXkXjXuXuXkXcXlXlXkXjXjXjXyXyXvXvXvXjXvXjXjXjXvXvXjXjXjXvXvX%XvXjXjXjXyXvX3X3X%X&X&X3X&X%X#X3X$X$X$X#X` : Z.A.A.:XA.A.Y.v.Y.}.A.A.m.j.c.m.c.C.k.a.s.j.s.g.k.x.M.L..Xn.].1XoX].].{.oX.XoX'.v.N.m.N.'.).oX'.]..XB.L.].]. X}.m.v.m.N.N.'.N.].).).).[.)._.).`.[.).`.).).'.).].J.).).1X#X$X3X3XhX1XvXcX3X].).+XjX3X#XhXyXyX#X].@X#Xv.m.A.>.'.N.m.9.A.T.%.m.B.m.N.'.m.m.).N._.W z d.o.J J J J J J ( J J J J J ( ( J J J J J / J J J J J J J J J J J ( ( / J J J J J J J c c c J J g G E J G J G h J J J J J J J d g d d d x d d d c c d d e e u j p t d p j t j j t p j d g h h s L E L L G E E P E G ^ L L E G ^ G s E J G G a p j 5 j e j 5 e . S E.>.7.#.7.8.9.>.7.7.>.~ ~ | #.&.%._ ! B V V B C B X.! ^ X.! B ! ! ) ,.[ [ +.! ! ) X._  .M C ! B x y l ! ) [ ~ M ( | 9.| } 7.5.{ #.-.4.;.*.#.E ) ~ [ %.Q @.| ) W W _ C d _ _ ~ ! M n ) _ #.+.) Q M M C f C f t n n _ [ | [ Q E Q [ | [ ~ [ n n E Q C M E _ [ ",
"cXAXFXcXFXFXFXDXxXxXkXaXkXFXAXPXAXAXAXAXAXAXAXcXcXaXaXcXxXxXxXAXFXAXAXcXcXxXaXkXxXkXuXjXuXkXuXiXyXaXaXkXkXkXxXkXxXaXaXkXxXkXxXkXFXcXxXcXcXkXkXkXcXAXcXAXcXxXjXhXuXkXcXlXcXcXcXkXkXkXkXkXjXjXjXjXjXjXjXjXjXvXvXvX%X%XvXjXvXvXjXjX5XjXjXjXhXjXjXjXjXvXyX3X+X].Q : C.N.B.}.h.B.}.j.B.}.B.Z.x.Z.C.g.g.m.s.O.s.j.j.z.m.g.B.].].e.J.1XoX].].J.oXoX#X{.c.v.N.).N.J.].[..XN.M.L.M.'.oXL.h.v.B.J.I.].).{.].{.J.).`.).].]._.n.].).).J.[.{.).[.).#X#X$X%X3XhX&XyXkXyX`.).{.yX5X$XyXyXjX$X).#X XC.m.B.7.A.J.m.7.N.Y.%.x.B.Z.A.}.c.x.N.N.].W k p...( ^ ( ..J J ( ( ( J J ( J J ( ( J J J J J J J J J ( J ( J / ( ( ( J / J ( P J ^ Q J P J P P ^ Q ^ ( / ( J J ^ ^ P ( ( ( ^ Q ( P J G G J ^ Q ^ Q J E J h J g c G h h d d p t e w w e e e e e t p d g G G G J G G g s h s a G G J G J G G f h j t h a h p a . S B.:.;.+.9.9.7.7.#.:.7.W ! [ #.#.) ! X.V C ! V C C ) ! ! ! ! B _ W ) #.+.+.+._ M ..X.~  .M M ^ C x i l ! Q +.Q M +.[ 4.| | 4.;.-.-.-.5.-.-.#.E ~ ~ [ &.Q +.%.) W Q Q M f ) ) ) _ C n ) [ | | [ Q n C g n C n d f f E _ _ Q [ Q Q [ ) [ ` [ ^ n E ! C V W E _ ",
"AXPXAXPXPXKXLXKXPXPXAXPXAXAXPXLXPXPXPXAXAXAXPXAXPXPXPXAXAXAXxXxXcXAXFXcXxXxXxXcXxXiXiXiXiXyXaXiX$X$XiXaXiXaXaXaXkXxXaXaXxXxXxXkXcXFXcXcXxXcXAXAXAXAXAXZXcXxXAXcXcXcXcXxXcXcXjXvXjXcXcXcXjXcXjXcXcXcXjXjXjXjXvXvXvXvXvXvXvX%XjXjXjX%XjX3X3XyXjXhXhXhXjXjX%X#X` = Z.Y.m.M.g.A.Y.Y.A.m.T.Y.j.C.m.k.k.k.s.a.k.j.j.m.z.x.N.].].N.J.3X{.[.].'.oXoX&X.XB.v.v.J.N.[.'.'.[.B.M.'.v.'.#XL.g.h.M.L.'.'.)..X].].N.).[.).].{._.v.J.).).n._.{.].{.`.1XoX$X$X3XjX@XyXcX2X`.`.{.yX3X#X3XhXyX$X[.OX[.m.h.B.7.N.).m.7.N.I.@.Z.m.m.'.'.B.m.J.N._.E , D.&.&.( ( ( &.( ( ( ( =.( ( ( ( =.( ( { ( ( ( ( ( ( ( ( J ( ( ( ( ( ( ' ( ' ( ( Q ^ Q ^ Q Q Q ( ( Q Q ( ^ / / ^ ^ P ( P / Q Q ( Q Q Q ^ ^ Q Q Q Q Q J G J E G J G J ^ G P Q Q G G J J G g g a h d p j d h s a d h g p p 9 p 5 p p s s G g G G g g s h s h h j . S Z.<.9.+.9.0.9.7.%.4.7.! ~ | @.%.) ! X.B V _ B C C X.! ! X.^ C X._ ) @.+.%.+.) Q ) X.! ! M f ! x C x i V ) _ ! M [ [ #.( [ ;.;.4.-.;.5.#.{ #.W ~ ! | #.M @.:.) ^ _ ~ M f ) [ _ ) M f _ | +.[ [ ! M i f n M n f C u g W Q ~ | ) Q ) [ [ ~ ) Q M Q Q n n M L _ ",
"PXPXPXAXPXPXKXPXPXPXDXAXAXAXAXAXAXPXPXPXPXAXcXAXPXPXPXPXPXPXPXPXPXAXAXxXxXxXxXcXcXcXcXxXxXDXFXAXPXxXxXxXcXxXxXxXaXaXaXaXpX3XuXkXkXkXuXjX3XyXpXzXxXxXxXcXFXcXkXkXxXcXcXcXkXcXcXcXjXcXcXjXjXjXcXjXjXcXjXcXjXjXjXcXcXcXjXjXjXcXjXjX3XyX3XjXjXjXjXzXjXjXhXjX%X$X] < V.A.c.B.S.|.}.m.S.Y.T.A.m.C.m.m.m.c.s.O.k.V.m.m.g.0.N.).].b.'.1X{.]..XH.oXoXoX{.v.j.h.B.).'.'.N.J.M.J.'.M.J. XN.l.z.v.N.[.].].].).'.].].].].`.]._.b.b.J.N.H.`._.XX#X{.$X].@X%X5X5X@XjXkXOX{.U.[.%XyX#X3XjX5X$X[.+X XC.g.v.7.'.N.m.9.v.M.>.B.m.g.L..Xm.m.N.J.].M y D.&.&.( &.( ( ( ( ( ( ( ( ( ( ( ( ( =.( ( ( / ( ( ( ( =.( ( ( ( ( ' ( ( ( ( / ( Q J G J Q Q ( ( ( ( ^ P Q P J P ^ J P J Q J ^ Q J P J G J ^ J G J J G G E J Q ^ J Q G G Q Q P J J G ^ ^ I Q Q Q Q ^ G G G g G G g G g h g g G G g g s h h h g c G G G g G s d . D x.:.9.[ 7.0.7.:.:.4.%.! ) | #.%.X.! _ ! ! ! M B M ~ ! ^ X.! M ) +.%.+.+.#.%.X.! X.X...! M C ! M M x u M Q _ ! M +.( ;.~ +.4.-.7.-.-.;.{ #.} E Q ! @.>.^ &.#._ Q _ _ M C ) [ ) +.W n ~ [ | | [ ) W f f n m M m M u u M n ) | [ ~ ~ ~ ` [ ) Q m Q W n n n C W ",
"AXcXcXDXDXPXPXLXKXPXPXPXPXPXPXPXPXPXPXLXPXPXPXPXPXPXAXPXPXPXPXAXPXAXPXPXDXcXFXAXcXAXAXxXAXFXFXZXcXAXAXxXFXcXFXFXcXxXcXAXxXxXZXcXFXxXkXkXaXhXuXaXjXyXyXjXkXzXjXuXuXzXkXkXkXkXcXjXcXcXjXcXcXcXcXcXcXcXcXcXcXcXjXcXcXjXcXjXjXcXjXcXjXjXjXjXkXzXjXjXzXhXjXjX$X@X| : Z.v.h.m.A.}.}.m.N.}.A.A.z.M.C.S.C.c.s.a.k.m.c.B.h.j.B.N.'.v.].#XoX].].).oXoX&X.Xv.l.m.M.'.).J.'.N.v.'.L.B..X.Xm.l.M.N.J.U.].].].].).].].{.]..X`.).v.v.n.n.H.{.`.@X{.].#X[.{.6XyX%X#XhXkX$X`.).[.{.yX@X$X3X3X$XN.].[.B.v.x.>.L.N.m.g.x.m.%.B.x.>.N.'.m.M.N.n.N.n , p.( ( ( &.( { { { { ( ( ( ( { =.( =.( ( / ( ( ( ( ( =.=.( ( ( ( ( / P ( ( ( J ( ( ( ^ Q ^ J Q G J P ^ ^ J J J J P ( J P P P J J G J G G g G G g G s h G g J J G Q J P ^ Q G J G E ^ G P ^ P E Q G Q E E E J J J h h p j j p h d g G h s g h g h h g J g h a j . S Z.4.7.[ >.0.8.7.%.:.%.~ X.[ } %.+.^ ....!  .B ^ V !  .M ! W C ! ) +.+.%.&.,.) ! ~ X.! ! C c M M C x i M V _ ~ M [ [ | ( } -.4.8.-.} #.{ ;.~ n ^ Q +.>.W #.#.W ! _ Q n M +.+.[ +.V M ! ~ [ | ) Q Q f d d n W C g t r n n _ ) [ Q Q E Q [ [ Q n W _ W n C V W ",
"KXPXPXPXPXPXPXPXPXPXPXPXPXPXPXPXPXPXPXPXPXPXPXPXPXPXPXPXPXPXPXAXPXDXAXFXlXkXxXcXAXAXAXPXDXPXAXDXAXAXcXAXxXFXAXxXAXcXcXAXlXkXkXFXAXcXxXkXFXcXAXAXcXcXxXkXzXzXkXkXkXjXkXjXjXjXvXvXvXjXjXcXcXjXjXjXjXcXcXcXcXcXcXjXcXcXcXcXcXcXjXjXkXkXcXcXcXcXkXjXhXhXjX5XyXyX` : V.Y.x.m.m.B.'.S.A.|.B.S.h.g.m.C.m.k.$.s.k.c.m.m.z.m.N.N.J.N.].1XoX X].H.oX#XoXoXv.j.M.J.J.J.).J.N.N.).L.J.].N.m.M.N.J.'.b..X).].].].].`.].].].].J.v.t.n.n.N.].`.{.XX{.{.).{.2XuX$X#XjXjX2X`.).`.`.yX{.%XyX%X#XJ.[.[.m.h.m.q.Y.J.x.g.B.k.>.m.k.f.M.}.m.B.A.N.b.x , p.( &.( ( { ( ( =.( ( =.{ &.{ =.( =.( ( { =.{ =.=.=.( ( { ;.( =.( ( ( ( ( ( ( ( ^ P ( / ( ( ( ( J ( ( / J ^ / / ( / ( Q ( P Q Q ^ Q G J J G G G J G G c G J G ^ Q ( Q Q ^ ^ Q ^ E ^ P E ^ P ^ J G G J J g G g h p j e e j p p j j h h h h p h h h h G g s h p . S R.q.7.[ 7.0.7.7.7.%.%.) Q +.#.%.X._ X.) ! ! M ! ! ) ! V M C f ~ [ +.) [ @.:.+.V ! ! ! ^ c x M C C x x B M ~ ! M | [ &.~ } #.5.5.4.-.-.*.-.~ n E E [ #.~ +.@.M _ _ Q f V +.| #.[ ^ n ) ) [ &.) _ M i i d n W E n d r i n _ Q @.) W W ) ` ( ` W Q _ L n i n W ",
"AXAXkXxXAXAXPXPXPXAXAXFXAXAXAXAXPXPXPXPXPXPXPXPXPXAXAXcXcXPXPXPXPXPXPXDXPXDXFXAXxXAXFXPXAXcXxXPXPXPXxXPXDXFXAXxXFXcXxXPXxXxXkXcXDXcXPXAXcXcXxXcXAXAXAXAXcXcXAXcXxXcXxXcXcXkXjXcXcXjXjXcXjXjXjXjXjXjXjXjXjXjXcXcXcXcXcXcXcXcXcXcXxXcXcXcXcXcXjXjXhXjX5X3XyX$X} $ c.Y.m.h.A.Z.M.m.B.Y.A.M.g.c.z.C.m.j.o.s.j.c.x.m.v.j.B.M.L.M.].oX#XoX X'.{.oX&X{.B.v.B.n.J.B.B.J.b.N.'.N.N.'.N.b.N.J.).'.N.].).).).{.{.XX_.XX{.{._.n.v.U.n.n.[.).{.#X]..X_.{.$XyX$X@XzXhX$X`.`.{._.5X{.3XjX3X#XJ.).[.j.v.m.7.N.I.m.7.v.v.>.v.j.7.m.|.B.N.M.J.b.f , a.( J ( ( J ( ( P ( ( J ( ( ^ ( ( ( ( J J ( ( J J ( ( ( ( ( ( ( ( ( J ( P P / / ( ^ Q Q ( ^ ^ Q ( ( ( Q Q ( ( ^ J J J J P J Q Q ^ P Q ( Q / / ^ ^ ^ ^ Q ( Q Q Q J G G G P ^ J G G G G J G G L G J g s G G g h s s a p j j j j h d h j d g h p p j p p p j t j   A E.q.7.%.#.7.7.4.7.>.#.~ ) [ @.>.) Q _ ..! ! B ! ) ! ! ~ ! c C ) +.) +.+.+.+.[ ! W ! ! ! C f x C d M C V C ! ! M | [ #.( } -.8.4.4.-.-.[ | Q M W E | +.~ #.[ W _ _ V f Q | :.,.@.Q E ) ~ ) | ~ Q m i f d n W n M c r u n U _ [ ) P Q ) ~ I ) W Q Q V n i C U ",
"cXxXaXaXcXZXcXcXFXcXxXlXkXxXzXZXAXAXAXHXcXcXlXlXcXcXAXcXcXcXxXcXFXFXFXFXZXFXZXcXAXDXDXDXAXAXZXFXPXcXcXFXDXFXAXAXAXFXDXAXcXlXxXFXFXcXxXkXxXcXxXkXAXAXcXcXHXcXkXkXcXkXzXcXcXcXcXkXcXcXcXcXcXcXcXcXcXcXcXcXcXcXcXjXcXjXcXcXjXcXcXkXkXxXkXcXkXcXkXcXjXjXcXvXvX&X] : V.B.A.x.A.c.B.N.z.j.A.c.g.C.m.C.m.j.s.s.m.c.m.Z.M.j.M.'.N.N..X#XoXoX X).oX%X&XoXB.A.v.n.).A.m.B.b.N.'.L.M.'.H.M.M.N.J.].J.N.J.].).{.oX{._.].{.#X{.n.v.N.b.n.).n.`.#X{.]._.].$X3X1X%XjXkX3X_.n.#X].3X+XyXhXyX$X[. X'.c.v.m.>.'.n.v.7.h.9.%.M.c.7.v.A.N.B.).'.v.x * a.A J J J J J J J J J J v x d J J J J J J J J ..J ..J J ( J ( J ( J J J ( ( P ^ Q Q ^ P Q J J Q ( / Q Q Q ( ( P ^ J P Q Q Q Q P ( / / Q P Q J P ^ G J J Q ^ P P ^ P ^ P P ^ P ^ ^ P L G s s p h p h h s G J G G J s h j h G c G g G J J G J G g h g h h 5 4 4 . S R.7.;.#.| 4.q.#.:.7.:.X.) [ #.%.Q _ ! Q ) ! C ! X.! ! ) E C C ) +.+.) +.+.[ _ M ! X.X.! x x C C g B M B C M ! M [ } } ~ | *.0.8.4.-.-.[ { ( ~ M E [ [ ^ | ~ E ) Q M f Q +.#.:.@.W _ [ _ [ @.Q Q m i d d n E n W M u r n W W [ [ E Q ~ ` Q Q W Q W m n i M _ ",
"aXfXfXpXkXaXaXkXaXzXiXuXaXzXAXFXcXkXcXcXkXkXlXcXcXcXcXAXaXaXiXxXHXlXkXzXkXuXiX4XuXaXzXkXcXcXFXxXxXxXxXFXZXAXxXkXlXZXFXAXAXAXcXFXAXcXcXxXkXcXcXcXcXcXFXcXcXcXcXlXcXzXzXcXkXzXzXzXjXcXcXcXcXcXjXcXcXcXcXcXAXcXcXcXcXcXkXcXcXkXkXcXxXkXcXcXkXkXkXcXcXcXjXjX%XvX] : c.Y.Z.9.A.x.x.T.m.g.j.g.z.A.m.A.m.k.o.s.j.k.B.M.m.j.N.L.N.v.{.#X&X&X.XH.oX&X&XoX).M.J.'.I.N.e.n.J.M.N.N.v.].N.b.n.H.).[.'.n.N.].]. X{.XX{.{.oX{.`.B.n.n.n.n.).H.].+X`.)._.].%XyX&X@XjXjX3X_.n.#X#X$X{.yXhXhX+X).{.N.g.v.x.#.J.N.v.7.v.7.>.[.j.7.m.J.x.B.].J.0.C k a. .A  .J J A J  .J J J J v J J J J J J J ..J J ( J J J J J J J J J J J J J J J c J J J J J J J ^ ^ ^ J Q ( ^ J G J P P ^ ( Q / Q J G J G J Q Q Q J G G G Q ^ P Q Q Q Q J P J G L E E ^ J g g E G J E Q ^ ^ P G h h h g G J G G g g h g s s s g G g g G a p p . A R.q.7.+.#.7.7.4.9.7.+.^ Q ) #.%.~ [ _ V ! ! M ) ) ) ~ ) ! V ^ ) ) +.+.+.X.X._ C ! X...^ f x C C B V C ! W B M ^ +.[ [ ` ;.;.8.;.4.} -.{ [ ~ ^ n Q ) ) ^ @.Q M ) _ M f ! +.@.@._ L [ +.[ [ +.Q L m f d d n L n E L n u i W W _ [ ~ ) Q _ I ~ Q M ) M n C V Q ",
"sX4X<X2X0X>X4X0X>X>X>X4X4XpXkXaX5XhX5X5XuXzXkXkXkXjXjXiXiXiXaXaXaXpXpXhXpXuXpXzXuX5X3X1X1X$X2XuXaXaXaXzXkXuXzXxXuXpXxXxXlXcXkXzXkXkXkXcXaXzXxXxXcXlXkXzXvXcXcXcXcXcXcXzXzXjXkXcXjXjXcXcXcXjXjXcXjXcXcXcXcXcXcXcXcXcXcXcXcXcXcXcXcXAXcXAXcXAXAXAXcXAXkXjX%X&X] : c.Y.Z.x.Y.k.B.'.A.m.k.>.j.m.j.j.m.k.o.k.k.9.M.B.v.j.n.N.M.N.{.&X&X1X'.N.{.#X&XoX).m.N.'.'.J.l.B.'.M.M.N.v.].N.l.N.N.J.N.].J.'.[.{.#X]. X{..XXX#X`.n.n.n.n.N.).N.].#X_.n.U.{.%X3X3X$XhXjX2X`.n.+X$X{.).yXyX5X$X[.[.M.>.m.c.:.].J.m.7.x.k.g.J.v.f.v.'.x.M.'.].e.g < a.J J J  . .J Z J  .J J J J J J J J J J v J J J J J ( J ..J J J J J J d J J J c d u u d u c c J J f d h c g g J J J J J J P ( Q J P J G J ^ ^ J P J P J Q E L G g G ^ E J G G g g d h s s g s s h G G J P G ^ L J J G G J G h h G h g s h j h h j h d h d j s . S R.7.:.#.>.4.4.7.9.7.[ M ! ) | %._ +.) ^ B M M X.X.! ! ) ) M W ~ ) #.) ) +.[ W M ! ! ~ V C M f x c ! c ) ! M M ! } [ ~ [ 4.7.4.-.-.} -.] [ Q ^ C ~ ) ^ ~ @.Q M _ M n f Q +.#.#._ M | [ [ +.[ E n s f n i n n M L E n i 7 n W ` @.` Q Q Q Q Q ) n Q Q M f m Q ",
"fXsXfXfXdXgX4XaXfX4X6XeXfXZXZXlXlXlXlXzXzXlXkXzXaXaXkXaXxXaXxXaXzXpXpX5X3X4X3X2X3X6X1X#X#X#X#XOXOX2X3XiXuX1X>XOX4XiXzXuXuXuX5X5XzXkXuXuXiXyX3XyXzXzXzXzXzXhXzXzXzXcXzXzXjXcXkXkXcXcXjXjXcXcXjXjXjXcXjXjXcXcXcXcXcXjXkXjXkXkXkXcXcXcXcXAXAXcXcXAXPXcXcXkXjXjX] ; V.Y.B.>.A.B.A.A.'.z.g.%.j.m.k.7.9.k...j.j.7.M.A.z.x.N.M.m.J.oX3X3X&X'.M.#X&X&XoXN.b.).J.J.A.m.N.'.b.m.L.v..Xv.8.B.n.N.N.H.'.J.].oXoX{.XX{.#XXX X].J.N.n.).U.).).[.@X{.n.U.{.%XyX@X%XhXhXyX`.U.#X+X{.J.jX$X3X$XJ.[.m.>.m.x.%.n.N.B.4.m.9.g.).m.g.m.N.m.'.L.L.e.n , p.Z A J A J J J J v J v z x v J J J J J z J J J J J J J J J J J J J J d x J J J c x x c ^ J J J c c c d d d u h d d d d h d d d d d d d d d j d f c f f g g c J f c J J G g c a u p a s d d p p d t p h s G s s G G E P J J G g G J G J G G a g h h h h h p t . S S.7.4.| } 7.7.:.8.7.+.! _ _ +.+.Q @.) ! ! C V ) ) ~ _ ) ) V ! ~ ~ #.[ ) +.) ! x ! ! ! M x x c C C V M [ ^ ~ E ! [ [ ( &.4.7.;.;.4.4.;.[ { | Q g ! [ Q ! +.^ M Q ! f c ~ +.#.&.W L ) ( [ +.Q n n n m i n n n n n L M f i i W ) [ Q ) ^ P Q _ [ n M Q M C f W ",
"LXPXDXGXPXDXxXSXlXZXlXdXaXaXpXaXlXzXlXlXcXZXcXZXcXFXcXFXxXAXAXPXDXDXAXAXcXcXlXhXzXkXlXzXiXlXlXzXlXlXkXpXaXpXpXuX5XiX5X5X3X#X#XoX2X5X5X#X2X5X#X1X6X3X1XvXuXvXvX1XvXvXuX6X3XzXzXzXzXkXhXhXjXcXjXjXcXzXjXzXzXcXcXzXjXjXjXjXjXcXcXkXkXjXkXjXjXjXkXkXcXjXjXkXkXjX1.- S.}.m.7.M.A.B.'..XM.k.+.k.m.g.g.j.j. .k.c.k.N.M.j.m.N.J.v.).#X#X&XoX_.v.XX3X&XoXN.z.N.).J.L.v.M.'.v.M.M.v.'.v.h.M.b.N.b.).).].].{.#X{.{.{.oXoXXXoX).N.b.H.N.J.)._.#X].n.).`.%X5X3X$XhXhXyX).).$X{.{.[.5X#X#X1XU.I.m.>.v.h.7.v.l.v.7.m.f.8.J.m.g.z.N.m.).)..Xt.f k F v v d v x z z v x z x u x x z z J z z J J z J J J J z J J z u v u d z x u d u c x d x ^ J J E E E c ^ J E c c c d x d d d d d u e t t e u u e e u u e t u u d d x g g c g c d d g g g h d d p p p j p p p h p p j j h G h h h h G G G J J s s G g g d h h h . S R.q.7.} | 9.7.:.7.7.| W ! ) +.@.^ ) ) ! M B W ~ X._ ~ +._ W ! ) +.| +.Q ~ [ ^ C M !  .! x d B M M ! C +.W _ M ! [ ~ Q #.4.4.4.-.} ;.-.} [ [ ^ M ~ [ ^ ~ +.^ n W W n C ) #.| @.n ^ _ [ [ ` W m L E f i m t m n n M n n f i E ~ ` [ ) Q P Q [ _ M m W E C f M ",
"lXpXsXiXiXiXaXaXdXaXpXlXdXaXlXzXzXzXuX5XpXzXkXzXlXkXcXlXaXaXaXaXlXlXZXFXZXZXAXFXlXFXZXlXxXlXlXlXlXlXkXzXzXkXkXkXlXkXzXlXlXlXzXiXzXzXuX5XpX3XOX2XvX6X3X1X1XoX.XtXvX&X1XoX X{.oX#X&X1X3X5XjXjXjXjXzXvXvXzXzXcXzXhXcXjXkXzXjXjXjXkXkXkXkXjXjXjXyXjXjXjXkXjXyXyX<.: V.Y.Z.9.B.A.m.}.J.z.g.$.9.m.s.j.v.s. .s.z.z.L.m.8.N.N.L.b.N.#X#XoXXXJ.J.oX3X$X].M.8.m.A.N.v.m.N.N.m.A.m.m.N.0.0.B.v.L.v.N.n.].].{.oXJ.{.{.{.{.#X+X).).b.v.n.).).[.{.`.n.n.`.$X3X#X@XhX5X3X_.{.2X#XOX].yX#X#X#XB.'.x.>.c.j.>.n.v.m.f.v.9.f.).v.h.M.N.l.N.).].n.f * F z b x z z y y z y y y y y u z y y y y , y y u b u u z z z z u z u z u u z u x u u x x x x c c x c c d c c c J J c d c d d x c f f f g d d d g c c d x x d d d u i u t e e e e d f a d g h g p d f s h h a h h g d p j j p p h h h h h s h h p h G g G h p h X S R.q.7.| :.:.:.#.7.q.#.W W _ [ #.Q X.Q ! M ^ W ! ) ^ ! ) ) Q n _ [ +.| E ~ [ ! n V ! ! ~ C d M M f B M ) M ! E Q ~ ( Q } -.4.-.-.-.4.-.#.[ [ E n ~ ) E ~ | M f ! M i n _ | @.[ E _ Q ~ ~ ) L m W n a t t f m n n E m n n t m U ) [ _ ~ L Q ) ` Q a n n n n n ",
",X>X>X4X4X>X4X2X4X>X6X2X4X5X5X5XvXhXhX5X5X5X5X5XzXuXuX4XiXiXyXiX4X5X2X1X5XzXpXpXzXzXkXlXaXpXpX5X5XuXzXkXkXcXkXlXkXzXkXcXlXaXxXlXlXzXzXpX5XhXhX5X5XzXzX5XvXpX5X5XhX6X3X1X&XoXoXoX X{._.'.*X@XvXjX3X3XvXvXhXvXzXzXzXjXjXjXvXjXkXkXcXjXkXkXkXkXjXjXzXkXjXjX%X%X1.- D.R.B.v.v.A.A.}.'.z.>.&.7.j.>.c.k.,.O.k.h.m.N.j.8.N.J.N.b.H.#XoXoXXX].L.3XvX1X].v.g.v.M.M.k.0.N.B.B.B.v.J.N.0.j.n.N.'.M.v.n.].{.].oXU.{.].].oXoX X].U.v.t.v.[.)._.XXXXn.).`.3X3X{.#XyXjX3X{.{.#X#X+X{.5X2X$X$Xn.Y.h.>.v.x.9.N.n.v.7.x.7.;.L.v.f.l.v.9.N.n.].J.n < F J J v v v d z y y z v u v z z z y , z z z y z y y , , y y y y , , y y , , y y k , y l z l l l l c c x c d c x d x u d u x d d d d d d d x x d d g c g g g x a x d f u i d u d d d d t e e e t d p p d j d d j p h g g t p j e e j j t p p j j j j p j d j j . S R.7.7.#.| 4.} :.7.7.#.! _ ) @.@.W ) ! M C C M ) +.Q ) +.) ! ^ ^ [ ) ) ! Q ~ Q n M ^ ! W C x B C C ^ C +.^ ~ ^ ~ Q ~ ( #.} 4.4.#.} 7.-.&.' [ M M Q ) E ) [ ^ n W C i M ) ] | Q Q _ ) ` ~ ~ m n E m r r C a n n m n n m n d i M Q ` [ _ U U [ _ _ W n M m f M ",
"eX4X>X1X,X>X<X>X1X1X-X}.|.OXoX1X6X6XoX6X5X1X6X5X3X6X>X1XOX|.[.I.'.'.'. X4X1X3X4X5X6XhXzXzXzXzXhXzXlXkXzXzXkXcXcXzXuXzXkXkXkXkXkXzXpX5X5X5X5X6X5XvX5X3X5XvXhXhXhXhXzXhXvX6XoX5XuXuXvXvX%X&X&X&X&X.X]..XXXoXoXXXXX&XvXjXjXjXjXjXvXjXjXjXjXjXjXjXcXcXcXkXkXkXyX<.; D.x.Z.Z.A.A.N.A.M.z.f.%.h.g.9.k.g.o.O.s.h.v.m.m.k.).J.N.v._.&XoX*XoX'.J.&X3X&X{.m.9.z.M.M.v.9.J.M.A.B.j.}.N.8.0.v.)..XN.v.v.].{.{.{.).{._.{.XX{.XX[.n.n.t.n._..X_.XX_.)._.].&X%X_.{.yXyX3X{. X$X{.&X+X5X5X#X1XI.N.x.$.m.j.7.J.v.v.%.l.7.%.H.m.7.7.m.9.N.N.].J.M * a.A v J v x x v x x v v x d z u u u J z J J e J z x x J u z J u z y z z y , , y , k y , y k y , y y y r z u z y y y z u y y e y u e > w w e e u u d d x x d i d i i d d d d d d c f h f d p d s h p t j j j h p p p j j j e j e j 6 4 e j j t d j d h p j e e . S T.7.4.| 4.7.{ :.7.q.%.~ ) | +.&.! ) _ V C B M _ ) _ ) [ ) ! Q ^ +.~ ) _ Q @.! M V ^ B V V f C C M V M ) ! ~ E [ ( Q [ ;.-.4.4.-.-.5.-.} [ | C E Q ) E ) [ M f _ f n M [ @.) E W _ Q ~ Q Q a m n m 7 t m a a m n n m n n g r n U ~ [ ) Q Q ` Q [ E W m M n M ",
"dXaXeX4XrXfXzX4X1X5XeX5X6X6X1X1X5X6X6X5X5X5XtXoXtX6X5X5X6X6XoX.X}.}.-X-X X.X1X5X1X1X6X1X X1XoX>XOX>X2X1X1X1X1X1X>X4XuXpXiX5XzXzXzXlXkXkXzXhXzXuXhXzX5XhX5X5XhX5XhXvX5XpXvX5X3X6XvXvX5X3XuX3X1X6XvX&X&X6XtX&XoXoXtX3X3XtX&XtX&X3XvX&XvXvX3XvXjXzXzXjX3X5X%X%X} ; Z.c.m.Y.A.}.A.'.m.m.g.j.z.f.f.j.f.O.o.s.h.h.A.v.m.N.n.N.l.].XXoXXX&X].H.#X3X#X XN.8.h.M.M.h.0.N.m.Y.B.h.|.N.0.v.A.).'.'.B.n.].{.].{.].#X].`.{.{.@X`.n.t.n.n.N.].`.XX{._.).{.$X%X`.{.yXyX3X]..X#X[.2X#XjXuX1X#XM.N.c.7.B.h.,.N.v.z.#.h.g.&.n.h.f.9.h.9.A.N.{.'.E * a. .v J v c c c c v ^ c c x x v v c v x c x d d u l x d x c x v d u v d J z z x u y y y y , , y y k > , k , , , k , < < , > > > w > , < ; , ; > w w w w w , w y e y u u y u u e d e e d p d g g s f h d G g h h d h g h g h h g G G d j 5 5 e 5 5 5 e 5 6 ; 4   S R.7.q.[ 8.7.| #.9.9.#.Q ) | &.&.M ) W B C C M ) ) ) ~ ~ ) E ^ _ [ ) ~ ~ ) +.( ^ ! M M M x f V M C M M +.M ^ ^ ) [ [ [ #.*.;.-.} -.7.-.| [ Q f M ! Q Q ) ) E C W i C E [ @._ L _ ( ( ^ L W a n f t 7 a t m m i m m m n n n i t E _ ] ` [ _ Q I [ W L M n n n ",
"dXdXdXdXzXlXfXpXdXlXpXlXcXzXzXlXzXzXzXuXhX5X5XzX5XzXzXlXzX6XtX.X-X5X5XuX5X6X6X5XhXhXpX5X1X6X1X X1X1X5X1X3X-X-X X XOX-X|. X|.|.-X>X1X6X6XOX-X1XtX6XpXzXhX5X5XhXzXvXjXvXvX5XvX3X5X1X3XhXhXvX3XvX5XvX6XvXvX5XvXhXvXhXvXvXvXvXvX&XoXoXoXoX3X5X&X3X3X3X&X&X@X#X@X} ; D.c.x.c.m.'.N.N.M.A.x.m.g.9.f.m.,.Z $.k.h.m.L.v.m.).J.B.K.J.oXXXXXoX).L.#X&X&XoXJ.g.v.l.m.l.8.A.m.M.B.m.'.b.v.v.B.B.).[.N.).).{.]._.{.{.@X].{.XX].).n.n.n.t.n._.`.{.{._.).{.%X@X{.{.%XyX3X[.`.#X{.#X3XuX5X$X#XN.B.9.k.N.g.+.N.v.9.#.l.z.#.N.h.7.8.h.0.'.n.].J.E < p.V v ^ B ^ c v c c c x x v ^ ^ J ^ J J c c c J J J c c c x v v J J v e u z J x d x u x u i d z e w y y w r , > e > w y u y y e r y w y e w w w , , , , , < < , , > ; > w w e y y y e e e j e e e t e j j d g d j j j h f h j j g G s s h g h a p j j 5 w 6 6 . S Z.7.4.| 8.7.} %.7.4.@.W ) @.} +.M ) W ! f x V Q ) ) [ ~ ) E W ) ) [ ~ ~ _ +.) ^ ^ ! C C f x M V C ^ g +.M Q Q [ [ [ } [ #.;.-.} -.5.-.} _ ! x E ( Q ^ [ ) M n ! n n E [ | E W [ Q ~ Q E L a a p t t m m m a a m m a m M n f r a Q ) ~ [ ` ~ U ~ ) L L n n i ",
"lXlXlXZXHXlXlXlXlXzXpXzX5XzXlXaXzX5XzXzXzXzXzXzXzXzXlXzXzX6X6X6X5X5XpX5X5X6XtX6X6X5X1X1X6X1X1X5X2X6X-X-X-X X6X6X5X3X6X3X1X-X}.N.'.|. X].A.B.M.L..X.X XoXoXtXtX6X6X3X6X3X5X6X3X3X1XvX5X3XoXoX6XvX6XvXvX1XvXhX3X&XvXvX3XvX5XvXhXvX1XvXvXvXvX3X&X3X3X3X3X&X@X{.' : c.9.x.c.h.'.J.n.v.A.m.m.k.>.f.m.s.A $.h.g.v.L.h.v.).N.N.l.XXXX].oX#XN.J.oX&X#XoXN.l.z.v.v.0.v.B.v.A.v.x.'.v.M.M.m.n.J.N.Y.).).{.].`.].{.{.XX{.{.{._.n.).v.t.U.`.{.{.*X).H.*X$X+X{.`.@XyX$X).[.+X.X#X#XhXuX$X$XN.N.v.c.m.g.$.Z.0.j.g.0.h.-.M.v.9.0.).h.N.N.).L.n k a. .J  .~  .~ ^ ! ..^ ^ ^ J J ^ J J c c c c J J v J c v c J J J J J d z x J d x f f c c c c c g c l x u u u l u e x x d e u d u e u p e e e e w y w > w , > , , < < , , ; , , ; , w 6 w w w w 6 e > w e d e e e 4 6 e 4 j e p p d p p p e j p p p s h s h p j . S Y.:.-.| 9.7.| 4.7.4.| E ~ +.@.@.V ) W B C f M _ ) ) ) ~ ) M E ~ ~ [ [ ~ Q [ ) W W ^ C d x C M M C M f | Q V ^ ) [ ( &.} #.4.&.} 7.-.-.} ` W f ! [ ~ Q ) _ n f Q n f E ) ` E Q ` [ ~ M m a a a a a a m a m i q m m q a n n n t 7 M _ [ [ [ | Q Q [ M m n n i ",
"HXHXZXZXlXHXHXHXHXcXlXlXlXlXlXlXlXzXlXlXlXlXHXzXZXcXzXlXzXzXzXhXzXzXzXzXhXrX5X5XeX5X5X5X3X4X1X1X-X-X.X-X}.}.}.}.}.|.6X6X1X|.L.L.}.1X1XtX X|.'..X XoX X X.XoX.XL.L..XL.'..X.XoXtX6XvX6X1X6XtX&X3XvX6X&XtXoXoXXXvXvXvXvXvXvXvXvXvXvX6XvX5X&X3X#XoX&XjX3X3X$X$X{ - D.g.Z.g.g.A.M.N.B.L.l.m.x.%.k.c.,.A ,.h.8.c.A.h.m.J.N.b.z.XX*X*XXXXXb.N.XX#XoXoXn.l.v.v.m.v.v.M.m.B.x.v.L.v.b.B.v.b.[.J.).).).].{.{.].XX{.`.{.{.{._.).).n.6.J.{.].`.{.`.`.*X$X$X].`.{.3X2X).`..X].@X#X5X3X#X#XN.J.x.h.v.h.$.B.v.h.7.h.h.#.M.m.h.v.N.9.N.N.N.'.n < a.l l z l c x x ^ v J J c J ^ ^  .J J c x c ^ l x y u y y y e u v v d J J u J c M c c c J J E c c c c g c J g c x d d d d d x t d u d x d d e e e w w e u e r e e e w w > , ; , w w w ; ; , , > ; ; ; ; 6 w w 6 6 > 6 6 6 6 6 6 e j 4 j e 4 e 6 4 e e 5 e e 4 . S Z.:.4.#.7.q.} 7.7.7.[ M ) [ | [ V ! M ! i C M Q ) [ ) ~ ~ n ! Q ~ ) ~ ~ ^ [ ) W W M c f C C M M M C g @.W E Q ~ ( ~ } -.;.} [ -.4.4.#.| ~ ! n ^ ~ ) ^ ~ [ E W M d m W ) [ ^ ( _ _ W g a n n m a a a n m a a t 7 t m a n n m m d d U [ | [ | Q E Q W m M m i ",
"=X=X7X-X9X,X;X,X;X;X,XrXfXfXpXlXpXeX5X4XeXHXHXzXzXzXpXzXpXzXzXzXzX5XhXzXzXlXzXzXpXzXzXkXkXzXlXzX5X5X,X6X5X4X1X6X6X1X4X6X5X5X6X6X.X X X1X1XtXtXtXtX3X5XzXzXvXtXoXoX-XL..X X}.'.'.L.].L.]..XoX XoXXX].oXoXoXtX1X&X&X&X1XtXoXtXoXtX.XoX&XtX1X&X&XoXoX#XoX].@XXX] : D.g.x.h.q.B.N..X].N.g.v.j.$.f.m.$.A s.j.h.j.'.l.m.).n.v.b.].&XJ.oX].v.N.{.#XoXoXn.b.l.M.n.v.n.m.m.v.h.h.'.l.v.v.t.U.).N.U.).).].{.`. X{.`.].@XXX`._._.).t.q.).{.{.{.{.)._.XX%X2X@X).].$X1X_.`.+X+X#X+XyX3X3XOXN.N.h.9.j.7.,.v.v.h.9.8.9.;.M.v.h.'.J.;.v.).N.L.n k a.l v v v  . .c B B c c x x x x c f c J c J J J c c l u y y y u u u u e y y y u d x x d x c d f c c c c J E E E L c g c J g J g d d a d p p t t d t t e p d d d u d u u e u t d e t d u w w 6 > 6 & > ; ; ; & & & 6 ; & 6 w w & 6 6 6 6 ; 6 w 6 w w w e e e 6 . V Y.:.7.| 0.7.| q.9.4.[ V _ +.[ ) W ! M ! i C M Q _ ~ ~ ~ ) M W ^ Q ) ~ Q ^ ) [ ^ W W x f M C C B M C C @.^ E Q ( ( ( | 4.-.-.*.#.-.*.:.} _ V C ! ~ Q E ) ! M W C i n ~ ) ! ^ [ Q Q n d s L m n s a s m n f s 7 8 7 t 9 f n n m n a a ) [ ) | _ U W _ y n m i ",
"S.W.S.S.S.L.:XL.=XT.}.W.=XT.T.S.:X:XW.:XL.S.tXrX6X6X,X,X9XtXeX5XzXeX6XpXzXrXpX5XeX5X6X6X6X6X6X5X1X>X6X.X.X1X6X1X6X5X5X6X6X6XtXoX>X XoX X|..XtXtX6X6XtX3XtX6XvX5X3X3XoXtX6X5X1X1XtXoXoX.X'.L.'.'.L.L.L.L.L.L..XoXtXoX.XL.L.L.C.c.C.S.L.L..X.XoXtX#XoX#X#X]. X' : V.g.s.x.g.B.]. X XA.v.h.k.$.k.m.,.A s.0.h.v.A.j.B.N.N.v.b.XXXXXX@X].b.N.oX#X&X.Xl.l.M.J.M.0.N.v.B.m.8.B.'.0.n.v.0.N.N.H.J.N.).].#XXXXX_.XX{.{.@X{.u.).H.t.i.n.`.].@X{.H.).{.2XOX@X`._.$X2X)..X@X{.#X@X3X2X#X#X).N.8.f.x.g.#.m.v.g.9.0.9.;.N.B.0.J.N.7.B.J.J.).f k a.J ^ J c c c c c c x c J J c c c c J ( ^ J J J J c c c c x c x c J d x u v u y u y e r y u u u e u u d d d g g J E c G J ^ E g g g g G g J f g g d G h J g d p p p u e e p d p t e e e w e u e e d t t e w w w w e e w 6 6 6 6 4 ; ; ; ; % $ : & ; ; ; 6 & ;   S Z.:.4.#.7.4.#.4.7.-.[ ^ [ [ ) ) W ! M M f M ^ ~ ) _ ~ Q Q ^ ^ ~ ) [ ~ ) Q _ Q M W E C l M x f M f f f @.M E ~ Q [ ~ } 4.} -.-.{ ;.} { { ] W i _ ~ W W [ ^ n E n i E Q [ Q E ~ ` E s g n n n n g a s f s m a r 4 t 8 7 9 a n n n n p s ) [ ] [ I U M i m n n ",
"eXeXeXtX9X:X:X:X|.T.T.}.S.Z.S.S.C.S.S.S.S.S.S.S.L.L.S.L.L.L.:X-X:X;X:XS.L.L.:X:X:XL.}.}.-X}.-XtX1X1X6X6X6X6X6X5X5X5X5X5X5X3X6X6X5X5X1X6X1X4XpXhXvXvXtXtX6X3X6X3X6X6X1X'.L.J. XoXtX&XtXtXtX].'.'.oX].].].].L.L.oXL.L.A.L.C.k.s.k.D.k.p.p.z.M.L.oXoX{.oXoXoX{.} : D.g.g.g.k.N..X X.XN.v.j.>.X.k.m.$.O.s.0.h.v.v.v.B.J.N.b.).XXoXXX&X*Xb.J.oXoXoX*Xb.e.b.M.v.q.b.v.v.m.0.B.N.0.v.J.B.).B.).J.).).XXoX{.oX`.`.`.@X{.`.n.H.).y.t.n.{.`.{.@Xu.).*X%X$X#X{._.3X3X.X{.#X`.+X#X%X@X#X X).n.7.>.m.7.,.m.x.v.g.g.h.7.A.m.v.'.N.;.b.'.J.N.g , s.&.X...( ~ ^ ^ ( ( ~ &.( ( ( ^ J J J ^ J J ^ J J d d J d d c d J J d J J J J ^ c c c c x x x x x d d x i u u i u u d c G Q P s h a g J h s G G G J J J J G G G g g a a g g d d d d p e e u j h h j d j p p d p p d h h d e 6 6 6 6 6 6 6 ; & & & & ; ; & & #   S Z.:.:.#.7.:.| 7.7.7.) ! [ +.[ X.W ^ M M d M W ! ! _ Q W ! V M ~ +.[ ) ~ W Q W M Q ! C d M x C M i x n %.n W ~ Q ( Q &.-.;.} -.#.;.} { _ Q W f Q _ ^ ^ ) ^ n W n f W ( ~ ^ Q [ [ L a n L n n g L a a n p 7 t r 8 5 4 8 5 9 m m m n n a Q ~ { [ Q L M n i V m ",
",X,X6X9XeXeX6X:X,X,X;X6X,X;X=X:X:X:X;X;XS.S.L.S.S.;X7X-X;X:XS.S.L.L.L.:XS.S.S.C.A.:XS.C.C.j.m.C.S.A.S.T.}.}.-X,X-X-X-X-X6X6X5XhX1X>XtX4XvXhX5X5XvX5X6XoX.X:XL.L.|.oXtX>X.X.X-X XtXoXoXoX X X.X].oX.XtXvXvXoX&XoXoX.XL.M.j.p.a.p.p.V.s.a.p.k.z.A.L.L.J.].].oX{ - c.9.,.>.0.N.].#X].n.m.c.o.O.k.m.,. .>.l.j.k.j.m.'.).n.v.).oX@XXX&XXXb.'.&X&XXX].v.0.M.H.l.0.n.v.m.v.h.v.N.e.n.).n.).b.N.).N.).{.{.@XXX{._.`.XX].`.).u.).n.0.v.`.`.+X@X).).`.$X%X$X{.].yX5X{.@X$X`.].#X%X3X$X.X).[.>.7.Z.7.&.m.v.x.:.0.v.-.M.v.z.'.N.7.v.J.N.v.f k s.&.( ( [ ( [ +.( +.( ( ( &.( { ( ( ( ( ( { { { &.( ^ ^ ^ Q Q ( ( ( ^ J J J J G E L g c f d i u l u u u u x u u d d d d d g g c g J J h d d d d d h d J g E E E J L L M n g G G g g d p d j e d d j h p d p j t t j t j p a t j e e w w w w e e 4 w e 6 w > : . A Z.:.4.} 7.#.' :.9.q.) Q +.&.) ~ ! C M M f M Q _ Q ^ W M M n ^ [ [ ~ ~ Q ^ E E E ^ ! C f ^ x M M i i C X.i Q ~ ~ ( ( #.5.} } -.{ 4.{ { ) W V C Q ~ C W +.L C Q n f W ~ ) W _ ] Q n f n L L L g s a m a p 7 2 8 r 8 8 8 4 8 7 m n n n a m Q [ ] ) L M n m U M ",
"S.S.S.C.S.S.S.S.=X,X,X,X,X,X,X;X;XS.S.S.L.,X6XrXrX9XtX9X-X;X;X;X,X6X,XtX,XtXtX:X:X-XtXS.C.z.j.D.C.S.L.C.S.z.C.C.C.c.j.S.L.}.:X}.}.}.}.6X5X6X5X6X6XtXtXtX.X:XA.A.L. X.X.X.XoX1X#X1X#X1XoXoXoXoX1XoXtX&XoX&XvXvX1XtX&XoXL.C.k.p.p.p.p.a.a.p.p.k.C.A.L.m.7.9.m.Q = D.x.f.h.g.N.J. X].v.N.k.$.o.k.m.,.O.$.g.x.c.v.v.J.J.z.K.L.&XK.&X&X].n.].#X#XoX].0.8.N.N.e.8.b.x.x.h.x.b.N.0.n.].).[.v.n.).H.{.{.].XX#X{._._.XX`.`.).J.H.y.i.t.).`.{.{.).).*X$X@X$X@X@XyXyX+X@X$X`.XX+X%X3X@X).v.J.:.k.N.,.X.v.m.h.;.v.M.7.v.v.M.].N.0.B.N.b.v.d < k...^ ^ ^ ^ ! ( ( ( ..^ ( ..&.Q ( Q ~ ( { ( { { &.{ { ( ( &.{ &.{ { { { ( ( ( { ( Q ( Q ^ J J c c g c c d d h g E G d d t e e 4 t p e e t e d d d j e e e e e e a a f g p d g G G G g d a p g h G d h d h d p d d a p p p s g J h h h j e w 6 e 4 e e 6 6 : &   Z E.:.#.#.4.| #.4.7.9.) ~ [ #.) ! ^ M C C C E V ~ W M E C C E ^ ) [ ~ Q ^ n n W W Q M u C M x M f i x C ^ d Q ! Q [ ) #.-.{ -.-.} 7.} [ ) E M M ~ ~ M W [ n g W n f Q ) ^ W [ [ W a m Q E W g p a s g q t 8 - 2 2 2 2 2 8 8 8 p g n n m p W ` [ [ P m M n m L ",
"6XrX9X,X;X;X:XS.R.R.T.}.T.:XW.}.L.,X9X,X,XS.S.,XtXS.;XS.L.S.L.L.S.S.:X-X:X-X,X-XL.-X:XL.-X-XtXtXL.-X-X,X,XL.S.S.S.Z.V.D.V.C.A.Z.C.C.C.Z.C.S.A.L.:XL.:X.XtXtX6X6X6X6X6X6X1XoX X.X X X6X6XoXoX X X.X]..XoX&XoXoXtXoX.X].].J.A.z.k.f.s.p.k.S.C.z.z.m.C.M.c.>.7.n # k.A.k.z.v.m.J.].}.v.M.f.&.o.g.j.$.o.$.g.x.m.h.v.z.K.l.K.&XK.&X&X@X).n.XXXXXX*X_.l.l.n.v.l.l.v.v.v.0.0.B.n.t.n.).].'.t.).).J.{.{.].].#X{.XX)._.`._._._.).H.t.t.[._.{.{.U.).`.&X%X@X@X@XyXyX+X@X%X+X+X#X%X3X].[.h.N.4.>.x.p.@.v.h.9.9.v.g.9.h.v.B.].N.9.v.n.B.v.g < p. .^ c c c c J J J c c J J ^ ^ J ^ ^ ^ ^ ^ ^ ~ ( ( ( ( ( ( ( ( ( { &.{ { *.{ { ( ( ( ( { ( ( Q ( Q ^ ^ Q J Q ~ ^ Q Q ^ Q G J J P J G d g h j j p d p d p d p r r 4 e 6 w e e u d d t d e e j p e p p p e e 6 6 6 6 e e 5 5 p p j h g g h p p p j j j j 4 6 6   Z I.q.-.#.7.[ { } 7.q._ ! [ #.+.Q C M f g C ! V W W E W M M ^ ! Q [ +.) n M n M W ^ E i t C f c x u i W W f ) Q ! #.` #.{ -.;.;.-.7.} { ` M n ^ [ ~ n _ Q C n ~ g g Q [ P P [ [ L a m Q W E s a g a s m t 2 : 2 : 2 8 9 t 4 2 7 g L n n m L Q _ [ ( n m f n n ",
":X,X;X9X7X:X;X;X=X=X;XQ.:X:XR.S.S.rXnXS.S.S.S.S.S.6X;X-X9X9XS.6X-XL.S.L.L.S.S.L.L.:X:X,X-XtXL.6X-XL.:XtX-X6XtXL.}.T.}.}.S.}.:X}.T.T.A.C.S.}.:X}..XtXtX-X}.C.C.A.A.m.C.m.C.m.Z.S.C.A.C.A.L.L.A.L..XL..XoXoX1XoXoX*X]..X].'.L.A.M.z.m.C.M.L.L.z.D.c.m.m.L.A.z.W $ s.Y.g.m.j.B.N.[.].v.h.f.o.o.9.h.$.o.%.8.j.v.v.j.L.J.y.K.K.&X*X&X*Xb.b.oXXXoX{.).e.v.b.l.0.b.v.l.0.h.7.M.M.t.).).].J.t.J.n.).{.].`.+X@XXX{._._._._._.J.H.n.i.v.).).`.`.U.U.`.@X%X@XU.@XyXyX+X$XyX#X{.$XyX%X@X).v.].5.f.g.&.>.j.8.9.h.h.7.;.9.0.b.'.J.l.e.N.n.e.c , k.~ ~ ^ ^ ^ ^ J J J J J c c J v c x c x c c J c J J J J J c c J J J J G J J ^ J Q ( ( ( ^ Q Q ( ( ( { { ( ( / Q Q ( / P ( ^ Q Q J J G P J G Q E E ^ P P J G c G g g g p t e e e e e j p p d g d j e 6 6 e e e j e e e p 4 e e e e j j j j 5 j j 5 j 5 e 6 6 &   Z Z.:.-.#.7.| [ #.7.9.[ ~ ~ @.+.M C E C f V Q E W Q W W n ! M W Q [ +.~ M n m n W E M i u M C C C i f ^ ! g ! M ~ | ( [ ;.#.-.| { #.| ] Q E n E ~ Q E ~ ) n n Q L n Q ~ E ^ [ [ g d g W W n a g g g s m 8 2 2 2 - - - 7 9 8 5 7 a n L n a p W Q ` ` E a a M m ",
":X:X:XL.,X,XS.S.S.S.S.!.S.:X;X;X9XL.,XL.S.S.S.L.S.S.9XL.C.L.S.S.L.S.S.:X,XL.-X:X,XL.L.:XS.L.S.S.:XL.}..X:X.X:XL.}.-X-X-XtX-X X-X-X-X-X.X-X-X-XtX6X6X6X6X6XtX}.L.L.S.A.C.C.A.C.M.A.A.C.C.j.m.C.z.m.M.C.M.L.].oXL..X.X].].L.L.M.M.L.A.L.M.L.L.L.L.A.A.L.A.N.B.Q = s.h.x.m.m.b.n.).J.v.9.k.o.&.j.f.$.o.k.h.v.h.j.v.M.b.K.K.&X*X*X&XJ.b.J.oXoX_.].H.e.v.N.8.v.v.v.v.9.h.0.N.b.v.).[.].N.t.n.N.U.@X].].@X@X].`.).`.].]._.H.H.H.v.t.).).+X`.U.).`.&X@X@XU.$XyXjX+X$XyX#X).&XyX%X#XU.i.).q.f.7.$.7.h.g.g.v.7.7.%.#.0.N.).L.l.v.N.b.v.g , j.&.&.&.;.-.;.;.( &.( ( ( ( ^ ( ^ J c c g c x x c J J c c c c d h d J c d g d x d d h f d d g g J G J J G J J J ^ P Q ( Q ^ Q Q Q Q ^ J G J J P E Q Q ^ ( Q ^ Q ^ ^ G J G G s h h s a a h a h d j e e e j e t e e 6 w w e p j j e e 6 4 6 4 w 4 4 e 4 4 4 4 ;   A Y.>.| } 7.| [ } 7.7.) Q ) [ +.M M E M f ! W E E M W ! E ^ L M E ~ ) [ E ^ n n V W M i i E f M C t f ~ M g ! n P { [ } -.-.-.{ [ } ' [ Q M i E ) ^ E ~ Q n C ^ n E ~ ~ P ~ ` ~ m s E L E s g m m s d r 2 8 : : 2 : 2 - 4 5 9 7 7 s L n n p n _ ( ~ Q f m W m ",
"-XqX,X6XeXzX6X6X,X}.V.V.V.C.C.S.;XL.9X9XL.tX9XL.,XL.S.L.L.S.L.L.S.C.L.S.S.L.S.j.C.C.C.L.L.S.L.S.L.S.:X:X:X:X:XL.S.A.}.}.-X}.}. X-X-X-X-X-XtXtX-XtX-X.X}. X6X6XtXtXtX6X-XtX-X|..X.X.X-X.X:X.X}..XL.L.L.L.L.L.M.A.M.z.m.m.M.M.A.A.L.L.L.A.}.L.L.A.L.L..X.XA.N.Q $ s.9.m.B.m.v.J..Xb.l.z.s.o.$.j.>.X.,.g.h.m.l.g.v.z.l.t.].&X&XK.L.J.y.).XXoX_._.e.0.b.n.8.m.v.0.v.q.v.7.Y.b.b._..X].n.t.t.n._.+X{.@XoX{.n.`.n.).*X]._.H.H.H.t.t.).).`.`.`.u.`.&X@X@X*X$XvXyX$X$X%X@X`.@X3X&X@X_.i.H.9.;.;.7.7.j.8.h.m.q.4.#.9.l.b.[._.l.b.N.n.e.L y h.;.&.;.{ { { =.( { ( / ( ( ( ( ( ( ( ( ^ Q ( ( ^ ( ~ ^ J J J J J J d c J J J J J J J J J J J J G J ^ J J G G G G h G G G J G P ^ ^ Q Q Q Q Q E P G J G G G J G E J ^ P Q Q ^ E ^ ^ G J Q J G G J J G G G J G s p e w 6 6 e 5 j 4 4 e 4 6 6 6 e j 3 6 ; : ; :   Z I.:.| | 7.@.] :.4.7._ ! Q [ ) n n M M n ) W Q E m ^ Q E ^ W W E ~ ) Q M Q M C M E C i f B c M C i x ~ M g ~ E Q } [ } #.-.-.[ } #.[ | Q M f M ) W W ) Q n E E g ^ Q Q ^ ~ ( Q a m n E s f n n n m r 7 r 8 2 2 = - 2 2 2 7 7 7 7 p g n E m n Q ` [ Q n a W n ",
"-XL.L.6X,X-XtX-X-X:X|.:XT.S.A.S.S.L.L.L.9X6XL.rX6X6XL.,X-X-XL.;XtX,X:XL.L.L.L.C.D.C.C.C.C.L.L.S.C.C.C.z.A.L.L.}.}.}.}.S.}..X}.S.A.L..X-XtX-X-X.X}..X}.}.-X-X.X.XtX6X6X-XtX X-X}.L.S.M.A.L.L.}.}. X.X.XoXXXoXoX.XL.M.j.f.k.k.f.z.M.C.C.C.m.A.m.m.C.L.L.A.M.B.Q $ D.9.x.B.h.v.A.J.B.n.l.7.X.,.j.%...>.k.l.m.h.h.x.z.e.e.*XXX&XXXK.H.n.{.oXXX_.L.e.8.b.M.9.e.l.e.v.9.v.8.N.v.t._._.`.b.t.n.N.).+X].$X{.).t.v.n.).{.@X_.n.H.J.n.t.n.).*X`.`.U.`.%X*X@X@X%XyXyX$X$X%X{.{.+X%X&XXXU.v.N.7.k.9.g.8.h.9.k.v.7.%.+.7.v.n.'.).v.B.N.b.l.c , c.;.;.*.( &.{ { { ( { ( ( ( ( P / Q Y ( ( / ' { { { { { ( ^ ( ( ^ P J J Q ( J Q / ( ( ( ( ( ^ Q ^ Q Q ( P ^ Q J J J J J J J Q J P G G G G J G P ^ Q Q ^ G G g g g g a a h s g h p p p h j p h s G J ^ ^ Q Q J L L G s s h h h p p h j j e 4 j 4 3 6 ; & : % %   Z Y.:.] ,.7.| #.@.#.7.! Q ! [ _ V n C C W _ W ! n M Q ^ E W V M ! [ ) _ E W W n L L M d x M M M d f f ~ C g W ! Q [ } { { #.-.| } -.} [ Q ^ d W ~ E W ) ^ C E L a Q Q Q G Q Q L a n n n a m n n s 9 t q 7 2 4 2 - = = 2 8 8 8 7 9 7 p a n m p E Q ~ Q E m E n ",
"S.L.L.:X-X6X,X-X,X-X-XtX-X-X-X}.L.S.S.L.L.rX6XL.L.tX,XL.:X-X-X:XtXL.:XtX-X:XL.tXL.S.L.S.S.L.,XL.C.S.S.M.C.S.S.C.C.:XL.S.L.}.}.C.Z.S.L.S.L.S.S.L.L.S.L.:X.X:X.X.X-X.X-XtX-X.X.X}.}.}.A.A.L.}.L.L.L.'.L.]..X.XL.L.L.C.m.C.C.m.M.A.M.C.C.A.L.S.C.z.m.M.M.C.m.v.L $ s.9.c.v.l.M.J.B.N.H.g.9.o.p.k.%.X.f.g.v.M.v.l.v.0.l.b.oX&XK.L.K.J.b.oXXXoX_.J.7.h.v.M.e.h.q.8.v.0.x.h.N.v.t.]._.).n.0.n.)._.{.].+X.XN.v.n.n.).].#X_.H.u.H.n.0.u.U.*X*XU.u.`.&X*X`.`.@X%X%X%X%X$X{.*X@X#X@X@XN.v.b.7.g.h.{ 9.h.g.7.l.7.#.+.7.l.l.'.).b.b.N.n.6.g , j.{ -.-.;.;.5.8.;.r.r.2.2.-.=.=.{ ' { ( ( { / Q ( ( { =.` ` / ( ( ( ( ( ( / Q Q P ^ Q ^ Q Q Q P ^ Q ^ J ( I ^ Q Q P ^ P ^ P P G J G G J J J G G G J Q ( ^ G c p p p g G g G g s d j e e e j d s s d G g s h 5 j p p s s J J G G G G G J G G g h p p p e 3 6 ;   F Y.:.#.:.7.#.#.) | >._ M W [ ! n C M M U W _ Q n M ^ ^ P ^ ^ E Q [ ~ ~ Q Q E L M c x d M M g M i i x Q i C W Q ! [ | { #.{ } [ -.*.} ` Q M d W ~ E U [ ^ f E g a ! Q E G ` Q n g L W a g n n n p 7 a 8 : - - - 2 : - = - 8 3 5 8 8 3 a a s p a _ _ Q W f n n ",
"9X,XS.S.S.:X-X-X-X,X-X,X6X6X>X6XtX,X6XtX6XL.S.S.S.S.L.S.L.S.L.L.:X-X:XL.L.:X-XL.-XtX-X;XL.-XL.L.tX.XL.:XL.:X}.}.L.L.}.A.S.S.C.Z.S.C.C.S.D.V.C.D.S.C.L.L.S.L.}.}.}.L.L.}.}.}..X}.}.}.}.L.A.A.S.L.Z.C.L.}.L.L.L.L.z.M.M.A.M.A.L.L.L.A.M.M.C.m.M.L.S.C.M.M.h.0.n $ D.h.B.x.0.N.'.L.H.M.v.7.$.&.f.>.&.7.h.z.m.m.h.h.l.n.n.].&XXXJ.K.H.H.{.XXXX].n.;.0.b.v.l.l.-.7.0.l.h.v.N.t.6.]._.).t.t.n.).].#XXX@X).n.t.t.U.n.].XX).).)._.n.i.v.U.+X*XU.u.`.@X@X*X`.&XjX%X@XyX%X@X*X@X&X#X+XN.b.h.#.g.h.&.h.h.l.h.0.g.+.[ 7.v.l.J.[.b.b.H.n.4.M > C.;.;.-.=.-.;.=.r.5.;.-.2.-.=.=.-.5.-.*.*.-.-.*.-.*.{ { { { ' ( =.{ -.{ ' { ( ( Q ` ( ( ( Q Q ( ( Q Q / P / ( / P / Y ( ( / ^ Q ^ ^ J G ^ G ^ Q G Q J J J g h a d s G E G J G s p p d d h h s J s G G g s h p p e 4 j j h j h p p h h h h g G G s h h h p p t   A Y.:.,.#.:.@.%.[ #.4.Q W _ | Q C M E E V M W W M W W Q W ! Q E Q [ ) ) ^ ! L M E M f i M M C M u r g Q n M W ) Q [ | #.} { } ` -.} | ) L M f W ~ E W ~ E f M E f Q Q E U _ Q n m n L s f g n f p 7 ; : w 8 : - - - 2 = = - 2 2 2 3 r 7 a a a a Q I Q _ n n Q ",
"6X6X6X9XL.;X6X6XtX,XL.:X6XeX6X6X6X6XrXeX5X6X6XeX-X:XL.:XL.S.S.L.S.L.L.A.S.:XL.:X.X:X.XL.:XL..XtX-X.X}.-X-X.X'.L.}.}.L.'.A.S.S.L.A.Z.C.D.D.D.s.k.k.D.C.S.S.S.Z.R.A.}.}.}.}.}.'.}.L.L.}.A.S.A.C.M.A.z.c.C.]..X.XoXoX{..XoX{.oX X X]..X.X.X'.'.}.'.'.L.A.m.m.B.n $ j.x.v.v.v.b.J.'.N.N.0.7.o.$.f.%.%.9.h.v.v.h.l.h.K.L.K.oXtXL.J.K.N.]..XXXXX].b.;.l.n.M.v.9.;.8.0.v.l.v.M.v.b._._.).n.t.n.)..X].#X Xn.v.t.i.B.n.).XX].`.H.).H.q.n.).{.].H.y.{.#X@X@X*X@X%X%X*X%X%X$X@X@XyX@X`.U.i.v.>.7.h.%.v.h.h.9.%.#.+.@.0.v.6.J.).y.b.H.H.e.E y Z.7.{ &.{ { -.*.;.-.5.5.2.-.*.=.{ =.{ { { ( / Q ^ Q / { ;.-.-.-.-.-.-.;.*.*.*.;.-.-.;.-.-.{ *.-.-.` ` ( ( { { =.{ =.' ( / ( P Q / ( ( / Q G G P Q P ^ G G G G P J G J G J G G J G J h g h h h h h G h G G G h g G G G G g h G G h h j p 5 5 j p h G G s h j 5   Z B.:.#.| -.&.#.[ | ;.) ^ [ _ M ! W W W W M L W n E ^ Q E Q ! W Q _ ) [ W Q g C M M f d f d f M i r i V C n E [ Q ~ } -.{ { ] [ -.*.[ ~ L n f Q ) E Q ~ g a E ^ f Q Q E W Q ^ G g P L m n m m d 8 ; 5 - 4 = : - - 6 = % % % & - 2 8 8 : m 7 t 7 n _ U W E n n ",
",X9X9XL.L.9X,XS.-X;X9XtXtXtX-X:XtX6XtXtX6X6XtX6XtX:X6X6X6X6XtXtXtX:X:XL.L.L.L.L.:XL.L.L.L.L..X:X:XL..X.X}..X.X}..X6X-X}..X.X.X}..XL.L.A.A.C.V.D.D.V.C.C.C.C.k.k.D.c.c.A.T.}.}.}.S.Z.C.C.c.z.c.m.A.A.C.M.L.'.]..XoX]..XoX.X].]. X.X{.].]. XoXtXoX X.X'.M.m.b.L $ k.m.m.m.m.v.N.N.b.e.h.7.$.>.k.&.7.f.j.v.m.z.h.0.K.L.K.L.&XXXXXK.n.].XXXX].J.b.8.M.v.l.v.7.7.j.0.v.8.v.N.v.H.].J.t.v.t.).).]. X#X].B.t.B.i.v.t.n.{.].`.H.).H.0.n.`.`.`.H.u.`.@X@X@X*X%XyX%X*X%X$X&X@X$X$X%X+Xu.6.v.%.k.v.7.l.v.h.7.;.+.#.#.9.e.l.J.n.b.b.J.H.l.E k j.&.[ ( Q ^ Q Q Q / ( ( { =.-.5.-.*.{ &.=.-.*.{ -.{ { { { { { =.=.=.2.2.-.{ { [ { { #.{ { ( [ -.-.*.*.*.*.=.2.{ =.-.=.{ ' { =.{ { ( ' ' ( ( / Q / / / Q Q Q Q P P J G J G J J G J G G G J P G J P ^ G G G g G G J / G G P P J G h a a a p p 9 p h j p p a p 4   Z Z.@.4.#.#.| #.~ | #.) W [ [ W M M ^ n _ V W _ n n W ^ n E _ ^ L ~ _ [ ~ ! g g M M f d f f C M f r f Q n m n [ ( [ ;.-.{ [ ( [ -.*.] Q L f C ~ ~ E Q Q M i E E g W Q E P Q Q g L Q n s a f a 7 2 r = : 4 ; % @ @ @ = = & # % - : ; 8 2 2 7 m m m ` Q _ U m m ",
"6X9X6X6X9X6XtX9X,XtXtX6X:X-X-XtXtXtXtX,X-XL.tXL.-X6X6X6X6XtX:X:XtX:XL.L.A.L.L.S.L.:X:XL.L.L.-X:XL..X-X}.}.'.}..X}.}.-X|.|.}.'.A.L.S.L.Z.m.C.}.L.L.S.S.Z.c.j.k.D.k.k.c.j.j.c.C.j.C.z.j.c.m.C.A.L.L..XL.L.].'.].]..X].].].].].L.J.J.'.).].].].]._.].]..X{.A.H.E $ g.x.x.B.M.M.n.J.b.v.j.%.%.f.>.&.%.7.m.8.z.l.0.v.L.K.K.vXXXXXK.K.n.*X]..X].b.b.h.e.m.h.z.;.h.v.0.l.8.v.M.b.J._.J.6.v.n.[._.{. XXX`.n.i.U.t.v.t.n.).]._.J.H.H.6.n.).`.XX).u.`.&X@X@X@X@XjX%X@X%X%X@X`.yX%X@X+XI.h.j.7.z.l.8.l.0.7.0.g.@.%.&.5.l.n.].b.e.b.J.J.y.G y j.[ ( Q ( ( Q ( ( &.{ { &.-.{ -.-.-.;.-.*.-.{ =.;.-.-.;.{ { { ( =.-.&.*.-.{ ( { { { { { ( ( ' ( ;.-.{ ( ' ( ' { =.=.{ =.=.=.=.=.=.=.*.{ ' ' ( { { { =.{ *.' =.{ { ' / ' / Y P G G G h G G G G s h h G G G P P J P G Y Y G P G G h h h j h h h h h p j 9 j 5 5   A Z.:.#.&.#.@.#.[ [ @.) L [ ~ ! ^ C n n V W _ W n E M E E Q W M W Q ~ ~ ~ ! E C ^ M x x f u M C i r f W f n M ~ [ ` } -.{ { ( ] -.#.( Q M d g Q Q W ( Q n d E E n I Q E P ( E a P W s g g g a 3 r ; # # & % # = % @ @ % : % + # # - 4 r 2 2 m q m _ U ~ E a a ",
",X-X-X,X6X6XrXL.-X;XtX6XeX6X6X.X:X:XL.L.L.tX,XtX6X6X6X-X6XtX-X:XL.;X:X.X:X:X-XL.L.L.L.L.L.S.L.L.L.L.L.:X}.}.A.A.L.A.A.L.'.L.L.}.L.A.A.L.L.}.L.}.L..XL.L.'.S.A.A.S.A.Y.A.S.L.A.A.L.S.L..X}. XoXoX.XL.A.L.L.)..X.X.X{.oX.X].).).J.J.].oXoX XXX.XoXoXXXoX].'.J.E $ k.I.B.B.z.l.b.J.B.b.h.%.%.k.%.&.f.;.z.z.h.9.9.B.K.K.K.L.&XK.L.K.n.].XXXX].b.M.8.v.b.8.l.#.v.v.h.h.8.v.v.t._._.n.q.v.n.).n.{.{. XJ.n.B.N.B.v.i.n.).].{._.).H.6.v._._.`._.u.`.@X@X@X%X%X%X%X%X%X%X@X`.$XyX$X@XN.B.v.%.8.h.7.0.8.>.v.v.#.>.&.7.l.b.J.v.e.v.H.J.y.g y j.$.( ( ( ( Q ( ( Q J J ^ ( ( ( [ [ ( ( ( ^ ( ( ( -.( #.{ { { { &.-.*.{ ( ( ( / Q / ( { { ( ( =.-.{ { { ' ( / ( / ( { ( / ( { ` ( ( ' ' { =.-.=.=.{ =.*.=.( ( ' ' / =.' ' ' Y / Q / P P / / P Q P G G h G H G G Y Y G G J P G G G h G s h h h G s G G h h h j . A v.%.:.@.#.#.#.+.[ @.~ E ) [ E W M n V _ n E _ n n Q W W ! W C ^ W _ ! Q E g E ^ C d n C r d n u r i V i M E [ ( ( { #.{ *.( { ;.{ / L m f g Q E Q ( Q C n E g L Q Q L E Q L g E E s m s f t 7 t - # $ @ @ @ % : & & % @ & @ # # # - 8 r 8 t m t Q _ Q E m a ",
"L.S.L.9XL.L.9X6X6X-X:X:X:XtX-X-XL.-X6X,X9XtX-X,X6X-X-X-X-X}.-X=X-X-X-X-X-XA.L.:X-X:X.XL.A.A.L.L.}.}.L..X.X-X}. X-X}.}..X}.}.L.L.L.A.L.}.-XL.L.}..X.X.X.X]..X.XL.L.}.A.L..XL.L.L.M.L.L.L.]..X.X.XJ.L.L.L.J.'.J.'.].]. XoXtX3X1X&X&X#XoX{.{.oXoX].].]._.'.).].I < k.0.M.M.l.v.N.b.l.l.h.+.&.h.f.;.7.7.z.l.h.h.;.N.L.K.K.&X&X&XL.K.J.*XJ.XXJ.M.l.l.N.l.l.h.#.m.4.9.g.8.v.v.b._._.b.q.n.B..XH.{..X{.B.n.v.N.B.u.i.n.[.).].)._.J.6.v.u._.*X`.u._.@X@X@X%X@X%X%X@X%X$X*X@X%XyX@X+Xn.v.A.#.9.z.7.4.v.7.v.v.#.@.#.9.e.e.J.e.e.e.K._.e.a y k.#.[ ( ~ Q ^ Q J ^ P ^ P J P E E G E J E ^ Q ^ J ^ Q Q Q ( Q ( ( P / / ( / ( Q / ( / Q ( ( ( ( ( { { ' ( ( ' ( ' ' ( ( { ( ( { Q Q Q / / ( ' ( ( / / / / / / I J ' ' ' ' =.=.' ' / ' ' ' ' ' { ' ' / I Q I P J Y G Y Y G Y J G Q G G P G P P G G G G h h h j   Z U.,.#.#.%.| #.[ } [ _ E ) ~ n W E M ^ _ W n Q L n ! Q ^ M Q c M ! ^ W W M n M ^ f f M C i g M i u u C d n W [ ~ / { #.{ { ' -.;.{ ( G g f M Q W Q ` Q C g ^ d E Q ^ J P ^ G g E L a f s g 7 7 5 # # @ @ @ @ + % ; 4 2 6 ; = = = = = : 7 8 m a 9 Q Q Q W n p ",
"9X6X,X9X9X6X9XL.:XL.L.,X-X-X-X-X;X-X6X6X6XtX,XL..X:X-X.XL.A..XtX6XtX6X-X:XL.L.:X-X-X-X.X}.:XL.}.-X-X}.A.A.}.-X6XtX-XtX-X}.-X:X}.}..X}.L.L.L.}..X-X.X-XoXtX-X.X X.X}..X].'..X.X.X.XA.M.A.L.L.M.z.m.M.S.L.L.L.J.]._.].{. XoXoXoXoXoXoXoX XoX.X].H.).J.).].oX{.Q $ j.h.m.N.l.v.N.b.z.5.z.&.7.f.7.%.7.7.l.9.0.h.7.b.L.L.L.&XK.K.&XK.K.L.*X].*Xz.l.b.N.l.8.;.4.m.#.7.8.0.n.b.H.].J.b.0.v.v.).).].].{.n.v.t.I.n.B.t.B.).n.).).).).6.6._.*X*X`.u.`.@X&X@X%X%X%X%X%X%X@X@X@X&XyX&X+Xn.0.B.4.9.5.;.7.v.7.h.t.@.+.[ 4.b.b.J.l.8.e._._.y.d y p.( ^ ^ J ^ ^ Q Q J Q P J J J J J J J ^ G ^ Q J P J G h G s G J G P ^ P Q Q Q Q J ^ G g c s g G J G ^ Q Q ( ^ ( ( ^ ^ ( / ( / Q ~ Q Q ( ( / ( ( { / / / ' / / / ' ' ' ' ' Y =.' Y G J Q / Y Y Q I I I I P P I T / Y J J Y Y Y Y G Y P I / Q / I ^ G G G H h h . A D.@.7.#.#.[ +.@.&.[ _ ^ [ ! ! W n M Q ^ W M V M W W Q W E V g M g M M M Q M M M d u C c d c C d u i g d ^ L ~ Q Q } { ' { ( { *.' Q E n g E Q E ^ ( ^ f f Q d E ( ( G J ( G g P L s a s f 7 4 - # + + + @ + + @ % - r 4 2 4 = # = = - m r 8 s 9 L W U L m a ",
"6X6XL.tXL.L.L.9X-XS.L.L.S.L.-X:X6XL.,XL.;XtXtX-X}.-X-X-X,X,XtX6X6X-XtX-XL.L..X-XtX6XtX}.L.}.:XL.L.:XL..X}.}..X.X-X-X.X-X}.}.}.L.-X-X.X-X.X.X.X.X-XtX-XtX.X-X-X X.X XoXtX XtXoXoX-X.XL.A.L.L.S.C.C.A.m.m.C.M.'.'.].'.].].].*X].].XX.XoX#XoXoX{.].].oXoXoXoX].Q $ j.h.j.N.l.M.n.N.l.8.h.+.p.h.;.&.7.;.l.l.g.8.8.M.K.K.K.&X&XK.L.K.J.].].J.J.b.0.b.J.l.9.%.7.M.#.0.8.0.b.J.J._._.b.0.v.b.].).[.].).N.t.0.I.N.n.n.B.J.t.n.)._.).r.6.n.*X*X`.P.`.&X@X@X%X%X%X%X@X%X@X@X+X&X%X$X+Xn.x.N.7.8.9.#.8.z.7.h.q.@.+.^ 7.J.J.J.b.;.b.K.K.y.p < p.! J G G h a G J J J P J G h c G g G G g a d G J J Q ^ ^ J G G J J G Q P ^ ^ P Q J P G G g s g x d d h h G g G J J J G G G G g G g G L L G E P / P / J Y ' / ' =./ ' =.' / / ' / ' / / Q Y Q / / / Y / ' / / Y ' / Y Y G G Y P P P P G P P I / I P I G P P G . Z x.,.%.%.+.[ | #.#.) _ Q _ ^ Q ! C ^ W W ! n n M ~ Q _ W W W g M d f n W ! C M M d t C g u f f i u d C t ^ W ( Q I [ [ / -.( #.{ [ Q L M L L ^ L P ) W a n ~ h E Q / Q J ( G s E G h f g g 7 4 2 % + + @ + $ # # : - - 4 2 2 = # = = = 8 t 8 a a m U L L g a ",
"6XrXrX6XnX6XrXL.:X,X,X:X:X,X-X:XL.S.L.tX,XL.-X;X,X-X=X}.:X.X-X-X-X.X:X-X:X-X6X-X,XtX-X-X-X-X:XL..X.X-XL..X-X}.}.}..X-X.X|..X}.}..X-X.X-X.X}. X XoXtX-XtX X.X.X X6X6X6X6X6XtX.X.X.X.XL.L.A.A.L.L.C.m.h.f.k.h.L.'.].]..XXX.X.X{.].J.J._.oXoXoX&X#XoX#XoX#XoX{.Q $ c.x.m.b.m.M.b.J.g.8.z.&.&.f.;.&.;.f.m.v.8.7.z.v.K.K.K.&X&XL.&XK.K.XX]._.].l.l.v.N.l.0.7.8.v.7.h.7.e.).J.]._.H.b.t.t.b.[.).].).N.n.v.v.U.U.B.n.n.v.n.t.)._._.y.5.H.{.*X*XP.U.&X@X@X%X%XyX@X`.%X@X+X@X@X%X@X`.t.v.A.#.7.;.#.e.0.4.9.8.+.) ^ ;.J.J.].b.6.b.K._.y.d , k.&.( ^ J E E G J P ^ Q ^ ^ J G E J ( ^ ^ J E J g G J J G Q ^ ^ Q ^ P J G J G G P G J ^ Q E ^ J G J G G J g g G G j G G J G J G s d a s s g g J G P J G G G Q G G G G J G G G G G G G G G G Q Y I / Y I Y I / Y Y ' / ' / / ' / Y I P P G P Q / G H G P P G G . A x.:.7.#.} [ @.#.#.[ ! ~ Q ^ ~ Q M ^ W W W f m L _ W ! Q ! n a C n C n W Q E n f u f M d d d f d u i f t E E ` Q ( { { [ { { -.] ( / L E n L ^ L Q ` W d L Q h Q / ( G Q ( G g W g a s s m t 6 ; : +   + + + @ = r t ; % - ; 4 = : : = m m 8 s a n P g L L a ",
"rX5XrX6X6X6X-X-X:X-XtX-X9X6X-X-X9XS.S.-X-X-X:X:X-X-X6X:X-XA.A.S.}.,X-XtX6XtX-XtXtX-X6X-X-X.X}.L.:X-X.X.X}..X}.,X6XtX-X}.'.}.-X}.L.L.}.L.L.L.-XtX-X.XtX X.X-X6X6XtXtXtXtXtX6XtXtXtX.X}.L.C.z.c.m.C.Z.C.C.j.m.C.A.'..X.X.X XoXoX{.oXoXoXoXoXoX&X&X.XXXXX]..X].P : c.x.h.9.z.N.n.N.l.5.g.+.p.h.f.#.;.8.z.l.7.#.z.l.J.J.*X@X&XK.K.K.K.].J.XX].b.l.K.J.l.l.;.8.h.0.0.q.v.).N._._.K.b.v.v.b.[.)._.).n.v.i.v.N.J.n.n.t.t.B.t.)._._.y.5.u.*X*X_.P._.*X%X&X%X&X%X@X*X@X@X@X*X@X%X$X`.U.x.B.>.4.>.| e.h.;.9.7.7.#.~ 4.n.J.].l.e.n._.XXy.p , s.~ ^ E E E ^ ^ ( { &.&.( Q ( ^ Q ^ ^ G J E L E E E g a g g E J P ^ J ^ ^ ^ Q ^ Q ^ ^ ^ P ^ ^ ^ Q Q J J G s g G j h h J g g h s s f g g g s g g g g L L n g g G J G ^ L G G ^ G g s h p t p a s G G L P G P L G P ^ Q I / Q I Q I Q I Q / ( / ( / / / I I P L . A x.>.>.@.+.` [ [ #.) Q _ ^ Q Q E L W E ^ M x C E Q Q ^ ^ Q M m C f g C E E E n f d C g u a f n f i d x t ^ Q ( I ( ( / ] { { } { / ^ L Q E E Q E ( ( G d L ^ h Q P ( G P ( G g E s a m a m 9 ; = = ; # + . + + + @ 6 ; @ % = r : 2 - 2 d p 7 a a G P s n g 9 ",
"L.rX6X6XeX6X6XeXrX6X:XL.:XL.L.;X6X-X,XL.-XS.S.}.-X}.:XtX-X-X=X}.L.L.:X-X.X.X6X6X6X6X6X6X-XL.A.L..XtX-XL.}.-XtX-X X.X:XL.A.}.L.}.}.-X-X-X-X.X}.}.}.}..X-XtXtXtX6XtX X.X.XL.}.tXtXtX-X-XL.L.L.A.L.'.L.L.A.C.m.z.m.C.M.M.B.M.N.'.]..XoXoXoX XoXoXtXoX1XtXoX#XXXL $ c.N.8.#.z.H.n.J.b.8.h...&.;.;.&.7.g.h.l.5.#.z.v.J._.XXXXL.&X&XK.K.L.K.XXL.l.b.e.J.l.l.;.h.8.0.x.7.b.J.b.]._.K.b.v.t.v.).).].).v.t.i.B.n.N.n.B.t.t.n.t.n._.).n.6.u.XX*X*XP.P.*X%X&X%X%XvX@X*X@X`.$X+X%X%X$X@X).u.i.:.%.4.#.e.h.7.8.8.9.#.) 7.n.N.*Xe.8.n._.XXy.g > 7.[ ~ Q Q ^ Q ( ( ( ( / ( Q J Q ~ ( ~ ( ^ ^ Q ~ Q ^ L g g g g G G G h G s g G g g L E ^ Q Q ( Q Q Q Q ^ E J G G J G J G g J d t t a s g s g s p p 7 t p 7 p 8 j j 5 p a h s h a p p p h a h p p p 9 9 9 p j p h H s G G G G G s G G h h h h G K G U K K G s a . S U.>.9.@._ +.[ ~ #.) ! Q Q ~ ^ E M M n Q M a C _ W W ~ W M n a n C f n E M E E c d f d t x x C i i d f r W W / Q ( ' Q { / { { ` ( E g Q ^ E E P Q ( n t n P g Q Q ( P Q / J g L a g a a m t 6 - = = ; % @ @ # # # = ; = ; ; q 2 4 ; 7 9 d 7 p h G Q L L g p ",
"6XS.L.9X-X-X6X6X6X6XeX6X6X:X:XL.S.L.,XtX:XC.c.C.S.T.-X:X:X}.}.L.S.S.C.S.Z.S.S.L.-X:X:XL.:XA.A.L.:X-X-X-X}.A.A.L.L.A.A.Z.C.S.S.A.L.-X-X-X-X-X.X.X-XtXtX.X.X|.tX X6XtX6X6XoXoX.XL.L.A.A.L.L.}.-X}.L.}.A.M.M.A.L.S.}.M.B.A.}.}..X'.J.'.]. X].].].].J._.]..X X{.Q < c.m.7.#.g.n.J.J.N.l.f...X.f.&.&.7.8.0.l.4.-.l.l.J.L.XXXXL.K.XXL.K.L.J.XXK.z.l.K.b.8.e.5.0.h.l.h.0.b.n.b._.XXK.b.N.e.r.).).].N.t.i.0.n.N.).v.n.n.t.).t.n.)._.H.6.y.*X*X*X_.K.XX&X&X%X%X%X&X*X@X@X@X@X@X%X&X*XI.U.9.#.;.4.>.h.0.7.h.M.%.[ +.4.n.J.*X0.8.K._.XXK.g > k.#.%.+.@.[ E ~ ( ( ( ( ( Q J E E ~ ^ L g G L L E E E E g G J J J G ^ ^ E g h a g a g g g E E ^ ^ E E ^ P G ^ J P ^ G G J G J ^ Q ^ E L E P W ^ Q L n g a a h g t j p 9 p a h a a d h s h g s p j p 9 j p j 9 j t j j p j j h s s s g G s s s s s s h h 9 3 7 . V E.,.7.| [ [ [ [ [ ) Q ! +.~ ^ ^ M E n ^ ^ f n W Q E ! ^ W g n V f f n E E E ^ g r a d d f f C d u f a r Q I Q I / / / { Q ' [ ( Q G g ^ E P L Q ^ Q a d E L g J Q / P Y / G G E a s s a m 4 4 w 4 = % % & 6 ; & = : % & 4 7 5 4 ; 4 d q p 8 7 s P Q L n s 7 ",
"nX6XL.6X:XL.:X:X:X-XtX,X:X-X,X,X6X,XL.;X:XS.L.S.}.T.}.L..X:X:X:X}.-X-X:X:XS.S.S.C.S.:XS.L.S.Z.L.S.L.L.L.-X-X-X}.L.L.A.Z.j.j.m.Z.S.S.M.C.L.-X-XtX6X6XtX6X6X X-X X6X5X6X1X6X3X6X].L..X}..X}..X.X.X}.'.A.}.T.L.C.M.m.A.}.|.-X.X}.L.M.M.L..X].'.).'.].oXoXoXoXXX~ $ c.m.>.7.0.l._.J.J.h.;...o.f.%.X.f.h.0.z.8.;.h.l.K.K.XXXX&XK.K.K.K.L.K.L.K.e.z.e.K.l.9.7.z.0.v.8.8.l.n.u._.].b.b.n.e.b.).`.).J.v.6.t.n.N.n.v.n.v.n.).t.n.J._.b.r.y._.*X_.K.K.&X@X&X%X&XvX&X*X*X*X@X*X@X%X&X+XI.v.9.( 7.g.#.8.e.7.v.b.%.| [ 7.M.H.].8.e.K._.*Xy.g > 7.~ Q ^ E M L E E ! Q ^ Q ^ ^ G L ( ~ ( ~ ! ^ E L g E L g g s G J ^ ^ ^ E c g g E c g p p d p j h s g J G E E J J Q ^ E G J h g g s g f g g E E L L P E L L n G G G J G J G G g G s s h h h g a p a p a a p j j j 5 5 5 5 4 3 5 5 p 7 9 p h h h h q h a h p 7   A U.| :.@.[ | [ [ ~ Q W Q | ( Q W n f s ^ c f M W E E W Q E n M n f a n M W E n x i x d d f f g r r d f d ^ Q ( ( ( { / Q / { ' / Q G g E E E L Q Q Q a d L n g P P Q J J Y G G g s a s a q 4 w 3 - = % & ; 3 9 4 - # @ & 4 r 2 : : 7 t q a 3 a s L Q U P s 7 ",
"5X6X-X:X-X6X-XL.L.L.-X6X,X-X-X-X,X6X6X9X6X,X:X-X-X-X:X:X}.L.:X:X-X6X-X-X,X-X,X-X:X-X:X:XL.}.S.:X}.L.S.}..X-X-X-X=X:X}.-X-XS.A.A.L.S.Z.S.'..X|.-X-XtX-X1X6XtX X-XoXoXtX XoX X6X6X6X6X-X.X-X.X:XL.L.}.A.}.}.L.S.L.A.A.L.A.A.m.A.L.'.T.'.M.M.M.L. X X{.oX XtXoX' : x.v.7.x.k.v.J.H.b.8.&. .o.f.$.) 7.8.8.h.9.;.0.8.K.K.*XL.*XK.K.K.&XK.K.&XK.r.z.l.l.e.9.8.z.e.v.8.8.l.b.y._.].J.b.n.e.b.).).).H.e.t.v.n.B.t.t.n.n.n.J.b.H.).H.H.r.w._.*X*X_.K.@X&X&X&X%X%X&X*X@X*X&X*X@X%X@X*XI.v.g.&.9.h.[ ;.l.7.h.l.} #.| 7.b.t.J.e.8.H.].XXy.a y s.+.Q E n E ^ E E E M J J G E E ^ P ^ L E L W ^ ^ Q ^ Q ! Q ! ^ E E E L W E L g E M L g g E g c g g g G g E E J g g g d d d g g a f a d d d a d p p f s s m n n L L L E E L E L L L G g a p p p h j p p 9 a s g s a s a a p 9 p 9 9 9 j j 9 9 9 5 5 9 7 p a 9 . Z v.| | #.[ ~ ) | _ W E ~ ) [ Q E M a g E c f g L L E W W L g M f f a n E E E E c d n d d f f f u u f g f Q Q / Q / / / Q Q { / / L s s L E g L ( Q E p p g n g E ^ Q G P Q g g g h h q a 5 4 r 5 - - % % & 5 8 2 - # # : r 8 > = : m q p a 5 s s G I L K K 7 ",
"tXtX,XtX-X6X,X6X-X,X-X-X-X-X:X-XL.:X-XtX-X-X-X-X}.=X:X-X}.Z.L.}.:X:X,X-X-X,X-XtX-X:X-X}.-XL.L.A.C.S.S.L.C.A.A.A.S.:XS.Z.A.S.S.Z.L.S.T.}.A.S.A.S.A.A.A.}.}.L.}.Y.L.A.M.N.N.}. X|.tX.X}.L.C.A.L.L.}.L.}.}.S.}.L.A.L.'.A.A.A.A.A.C.C.A.C.A.A.C.m.A.L.L.L.'..X.X/ < c.m.9.h.v.v.N.e.z.8.+. .$.f.+.+.;.f.8.h.;.-.8.;.z.K.L.J.L.K.K.K.L.&XK.L.K.r.K.b.b.8.5.h.l.e.t.0.8.b.b.y._.XXK.e.t.r.t.).J.H.n.t.t.v.b.n.t.6.n.t.n.).b.H.n.).H.r.w.P.K.*X_.K.*X*X&X&X&X&X*X*X*X*X@X*X@X@X@X@XU.i.9.-.7.9.~ 7.0.%.h.l.;.7.#.8.n.t.J.b.6.H._.*Xy.a r >.[ ! M g ^ W E E M ^ Q Q ^ Q ! ^ G E E E L M Q E E L g g g g g g g g g a g f g f g g g g g J G J G L J J g s g a g g s g c s d d t d a f g a d t t r r r t d p g a a p p p 9 p p a s s s p g a h h a 5 9 p a p p 9 e 5 j p p p g a s p p p 5 5 5 5 4 5 8 7 7 . N h.[ [ [ [ Q Q | ^ E ^ Q ~ [ ~ E M g g L f a n n E n L W g a m a d a n n M n M a g C u p f a M t e f a a Q Q / Q P Q Q P / ( / / G p g E E s G ( ^ P p a L G G L P I G g P s J g p a p t 4 r p 4 % ; : & 5 q 8 - : : : 2 r 4 : : 4 9 a d p 7 g s s P s n L t ",
"L.L.C.C.L.L.L.}.tX}.:XL.L.L.:X.XtX-X.X-XtX-X-X-X-X=X-X-X.X}.}.S.L.L.}.-X:X.X:X-X-X-X:X}.:X.X}..XL.L.}.A.A.m.C.Z.L.T.S.C.S.C.m.S.S.Z.T.A.}.}.S.:XS.A.A.m.C.m.Z.m.m.m.c.C.m.C.A.B.M.A.A.M.J.M.M.L.A.A.A.A.L.A.A.A.S.S.M.C.m.m.j.m.j.j.h.c.m.C.m.z.m.m.m.S.'.'.~ : c.B.7.h.m.l.B.9.7.s.+...$.>.+.%.f.;.;.e.;.-.l.-.b.K.K.L.K.K.K.P.K.K.K.K.z.l.l.b.J.8.;.8.v.l.0.0.l.t.b.b.oXXXJ.e.e.e.b.N.J.H.n.b.n.n.v.v.0.t.n.t.n.).b.K.y.J.K.y.w.P.P.K._.P.*X*X*XvX%X&X*X@X%X*X@X`.*X%X$X@Xu.u.g.7.5.4.) j.v.4.m.z.;.7.@.:.v.N.].B.e.n.y.H.y.g < %.~ ~ c E c f n g f g g g J g g g g g g a L Q Q W L M g g g f h f u t d p a d a g g g g J s s g s g g g s g g s g c g c M g g d d f f g g n g g a a d u i d u d a u d p r p t p 7 9 e 5 5 7 5 d g h p t p p t p 5 u p t r 5 p 5 j 7 p p 9 9 9 9 p p e 9 7 8 t X V h.#.+.( ~ ! Q +.E E W Q ~ Q ~ ~ E M n E f g g M E n L W M g m f d p n M L W n d f g f f c g n r d L s p ( / { ( Q Q I G { { / ( G g I Q Q p g [ Q Q g L Q G G P P ^ G G I s P L p p a a p t 7 4 # 4 4 7 h h w > 4 ; 4 5 w : 4 : q m s s p p L G K Q U L K h ",
"J v y l v x v c J J J c E c E c ....( ..( ..( ( ~ ) ~ ~ ~ ) +.~ ( ~ ! ~ ..[ ( ..~ ~ ! ^ ^ !  .! ! B B x c v x x c c c C f c C x c v C C B M M c x C c x x d f v x x c x c c x x c d d x d x x x B ^ ! ~ ~  .! M ^ c c c M c c x g x c f x f c c x c c f d d ; r g.#.) | _ [ | [ ^ Q M E ^ E E ^ Q ( / ( I Q ( / -.2.5.5.P.2.r.2.P.r.r.y.*.{ =.*.*.( / ' } { ` } *.*.4.2.w.r.5.-.*.=.*.*.*.1.*.} <.4.} } { } 1.} *.4.*.4.*.4.*.*.=.*.2.w.3.3.P.u.P.P.P.P.3.P.P.u.u.u.w.u.u.u.3.<.( ( ( [ L | #.` -.} Q [ Q ~ { 4.0.4.#.*.*.1.=.a , e w w > ; ; : : , > ; ; , ; ; : ; w 4 > > ; ; ; ; > 4 > e w w w ; : : : , : ; ; ; ; ; ; ; ; ; ; & : : ; & : & & : : % & & & & : & : % : : : , : : : : = : : = : : : : = : = = $ : % < % % % $ % # & % : $ % $ = % % % & : % & < % & % # # $ # $ @ + @ X + # #   V @.m g s d t t t i t t t r t p a r t r 7 r r 4 r 5 e w w w ; ; : : > r t t t e > w w 4 e w w 4 ; 6 e e 4 p p s h h h h h G a j a 2 e t t t 5 t a d a 4 t a t r p d p 5 t p t 7 t 5 4 ; 8 ; - - % + % & = 5 2 = = = # = < = : # = : 4 4 3 5 t p 7 t a 9 t 9 7 ",
"b b k k k b b b k k k b k b b b k k k k k , k , k k k k k k b b k o k k k o k < k k k k k k k < < < k k k k k k k k k z k z z k k k , , < < < < , , , , < k < , < , < , * < , * * * * * * * * , * * * * o o * * o o * o o o * o o o X * o * * + X o o o o o X b p.v  .! ~ ........&.........&.....+.+.+.[ +.+.[ { &.( { { { { ;.*.-.*.*.-.-.{ -.=.{ { -.{ { ;.-.4.-.#.-.} #.*.#.#.#.} &.| } { } [ [ } [ } { { -.*.*.*.*.{ *.=.=.=.=.{ =.=.2.2.r.r.r.2.5.-.=.=.-.*.=.*.=.{ { =.{ =.&.{ =.{ ( { ' [ { [ #.=.( ( ( ` ( ` ( [ [ / ~ [ r , , , : < : $ $ < $ < $ : $ $ : $ $ : $ < = < : $ < $ : < : : < : > > > , < $ < < < % < : < < , & , < : , , : , > > > > > > > > > > , : < : : , : , : < : = < $ # $ = $ $ $ $ $ $ * $ $ $ $ $ $ $ $ $ $ $ * + * X * * * o * * $ * $ $ $ $ $ $ * * * * X X $ y C : w w 4 r w e 5 w e 4 w w w > > 4 4 4 w w 6 w w w w 4 4 w ; 4 w w w w w r e r r t e r e r r r e r 7 t e t 5 t t d t 7 p 7 t t t 7 r 7 r r 7 t 7 7 r 8 4 r 7 5 w 5 5 r 5 7 t 7 t t t t r r w r r r r y i i r y i r r > r r r r w r 4 r t t t t 7 r 5 r r 5 e ",
"mX7XG.F.G.G.(.(.(.(.(.G.(.G.G.(.(.(.G.G.G.G.G.G.G.G.G.G.G.G.G.G.G.d.G.G.G.G.G.G.d.G.G.G.(.G.F.G.G.(.F./.(./.F.F.wXwX8X7X^.Q.~.8XQ.!./././.~.~.~.~.F.~.!.~./.F.F.F.F.G.G.G.G.G.G.F.G.(.G.F.G.G.G.G.G.G.d.a.d.d.d.F d.G.G.G.d.d.G.d.d.d.G.d.G.d.G.G.G.d.d.d.d.A X ~.nX8X8XwX9X9X9X9X9XeX9XtX,X,X,X,X6X,X,X,X6X,X,X9X6X6X6X,X5XrX6X9X,X6X,X,X6XtX,X,X:X,X-X6X6X-X,X6X6X-X=X-X-X-XtX XtX|.-X-X|..X.X X.X.X.XtXtXoXoX.XoXoX.X.XoXL.L.L.].L.L.L.oXL.L.L.L.L.L.L.L.L.L.L.L.L.L.J.C.K.L.z.L.z.z.K.K.z.z.b.l.b.M.N.n.n.N.b.N.n.M.l.l.l.c %.>X}.}.Z.B.j.c.c.c.B.B.B.c.m.c.x.B.A.x.k.m.m.M.B.A.m.A.Y.m.m.m.m.m.A.Y.Y.N.N.v.B.v.b.M.N.A.Y.'.L.'.L.].`.`..X{.{.].{. X X].{.{.)..X{.[.[.[.[.N.N.N.n.b.B.x.v.x.x.N.v.x.x.g.x.B.v.9.q.g.x.m.x.9.g.7.#.x.7.7.7.>.%.&.#.>.%.+.| | $.X.+.+.:.>.>.g.x.g.c.i.x.9.x.c.n c.U.6.6.q.1.4.-.4.4.4.} { 4.4.*.*.4.4.4.*.*.-.-.5.5.5.6.5.5.6.6.4.5.1.2.5.6.r.6.r.0.r.6.w.r.6.w.5.q.5.6.6.6.0.r.e.e.t.e.0.6.e.t.6.r.6.6.6.6.2.0.q.6.q.q.6.6.5.6.6.q.q.q.0.6.6.0.q.i.6.q.q.q.q.q.q.0.0.q.6.q.0.6.i.q.t.i.0.0.9.q.q.4.5.5.4.2.4.4.q.4.q.1.4.4.*.",
"G.D.D.p.D.p.D.p.F F F F F F o.o.a.a.a.o.F F o.F F F o.a.A F o.F F F a. .F a.a.A D a.a.p.a.a.p.a.a.a.a.s.k.k.p.o.S.:XA.A.Z.x.C.:XC.j.k.p.D.C.C.S.D.D.z.C.C.S.m.C.D.D.D.p.D.d.a.a.D.F.D.p.D.D.D.p.p.a.p.a.F F F F F F F p.F a.a.p.a.F F p.a.a.a.d.D.p.p.p.a..., + C.A.C.C.S.M.C.C.C.L.S.M.A.z.z.z.v.m.v.m.z.z.z.h.z.z.h.z.z.z.z.z.z.z.z.z.h.h.l.8.8.f.h.h.f.h.h.8.h.h.8.8.8.8.;.;.7.;.;.f.;.7.;.f.7.7.;.%.#.&.&.;.%.&.;.&.&.;.;.f.;.;.&.( &.;.&.&.&.{ &.( &.{ &.( ( &.&.&.&.&.( &.( ( ( &.&.&.&.&.( ( ( ( ( ( ~ ~ Q ^ ( ( ( Q ^ & $.oXA.M.x.h.x.v.B.x.x.h.x.x.x.h.0.x.v.b.x.v.n.b.B.n.0.e.J.v.v.B.0.0.m.v.v.l.9.0.0.0.0.t.N.n.N.H.n.).J.].).P.u.).).H.`.+X{.).]._.n.H.n.n.n.n.n.u.n.n.v.n.t.i.t.n.n.).B.B.B.6.t.B.N.v.8.9.v.m.0.9.9.:.| M.h.9.9.9.@.>.8.0.#.) ! :.| | ~ [ :.9.9.B.B.9.9.9.0.x.h.7.r V.U.` / I I I Y / I Y ` ( Y / / / ` ` ( / ( ' ' ' ' ` ` ` ` Y ` T Y T ` ` ` T ` T ` Y T ` ` ` / Q ` Q Q / I Q Y Q I ( Q Q ` ` ` / ` ` Q _ ` Q Q I Q Q ` Q ` ` T ` ` T ` ` ` ` ` ` ` ` ` ] ] _ _ ] _ T U U I I T Q T ` Q ' | ] ' ` ` T I / ` ' Y Q ` ` Y Y T / ",
"p.D.D.D.D.D.p.D.F F F b F F F o.a.p.o.o.o.o.o.F ..o.A o.o.o.p.o.Z a.F a.a.a.a.A F a.p.d.p.a.a.o.a.a.$.s.D.D.s.$.C.}.A.}.M.j.C.}.m.j.f.p.k.z.A.A.h.h.j.M.L.L.z.m.j.k.p.p.k.p.p.a.D.D.p.p.p.p.p.p.p.p.a.a.A F F A b F o.F o.o.a.p.a.b a.p.a.p.p.p.s.a.a.p...v < + z.C.m.C.m.z.z.z.m.z.M.z.z.z.l.z.M.l.m.l.l.h.l.z.l.z.z.l.l.z.j.z.h.l.z.8.l.z.z.h.8.h.;.l.l.l.l.h.z.8.h.l.f.8.h.h.g.7.f.;.%.;.;.&.%.%.;.&.%.;.%.%.%.;.&.&.X.&.&.&.&.&.&.&.&.( o.( ..( ( &.&.&.&.&.&.&.;.;.;.;.;.&.( ;.;.;.;.&.&.( [ ( { ( +.~ ( &.( ~ ( ( +.Q G , o.-Xm.z.8.v.m.B.v.0.v.k.h.v.x.0.9.4.7.B.v.N.b.m.N.v.8.g.B.i.v.v.8.h.v.v.v.h.q.4.q.q.6.v.n.n.).t.n._._.J.).P.).`.).H.].`.`.`.].).).U.J.v.n.N.U.v.n.n.B.n.n.i.t.v.n.N.v.b.v.9.t.N.B.h.x.v.v.x.:.h.9.:.>.N.0.h.h.9.[ 7.9.g.#._ ) >.%.+.E ) >.0.x.v.I.q.:.9.7.0.0.:.y x.i._ ` ` Q ` / / [ ` ` ' { ' } [ ` ` ' ' =.] ` / ` ' { { ' } { ' ] ` ] ] } ' } [ [ ` Q Q Q I Q I I Q Q / [ ` ` [ [ ` [ ` I Q Q Q I I U Q Q ` ' [ ' ` ' { { { ` ` | | ' ` ` _ _ | ` _ _ ` _ ] ` ` ` _ | | ` ` Q Q I I T ` ` ` ` ` Q ` ` Y Q I I I I I Q Y P Y ",
"p.j.k.k.D.D.p.p.F F b F F o.o.o.p.o.a.o.a.o.a.o.F o.F o.o.o.p.p.o.o.F a...a.a.A F a.a.p.o.p.a.a.o.a.o.s.s.f.p.p.A.N.m.'.A.j.M.A.c.j.>.,.k.C.A.M.f.;.h.m.m.L.z.z.z.f.p.p.p.p.p.p.D.D.k.o.p.k.p.p.o.o.p.o.F A o.A A Z a.o.o.o.a.a.a.b a.p.a.p.a.p.D.p.a.a. .c $ X D.C.m.C.L.M.C.z.l.l.z.z.z.K.z.l.z.l.m.v.z.z.b.z.M.J.M.M.L.z.M.z.z.z.M.M.J.z.z.8.z.z.l.l.l.l.l.l.z.0.l.z.z.z.l.h.8.;.;.;.;.;.;.;.7.;.;.g.k.f.8.f.;.;.;.f.;.f.;.;.;.;.&.;.;.p.;.&.&.;.&.;.&.;.;.&.;.;.;.&.&.&.;.{ ( ( ( ( ( ( &.&.&.&.-.&.#.&.;.;.&.-.#.#.( J E ; X.6Xv.m.9.x.m.v.v.h.x.0.0.i.v.0.0.%.6.v.v.N.v.v.n.v.0.0.N.v.e.v.0.8.v.v.b.0.0.q.:.#.4.v.v.n.J.n.n._.].`.).u.K.`.).H.`._._.[.).).U.n.U.n.n.U.I.t.N.n.v.n.u.0.n.n.n.N.n.v.t.q.0.N.n.h.0.m.M.v.7.9.8.@.7.J.m.h.0.8.#.4.9.9.@.~ [ 7.#.X.^ _ 4.9.9.x.B.9.#.0.:.0.q.4.r j.0./ ` { / ` ( ' ' } } =.' ' ' ' [ =.=.=.-.*.' ` / / ' [ ' { ' } ' ] ' [ ` ` ` [ ` Q I Q ~ Q W P L s s G L P Q I I I U I Q ` [ ' ` Q ` | ] ` ` ` _ ` ` ` Q ` ` Q T Q I I I U I U L m U U I I T Y Q T Q ` ` ` ' ' | { | { } ] ] | ] [ [ ` Q I P I ` ` ( / Y I ",
"p.p.p.p.D.D.p.D.a.F b F A F A o.o.p.o.o.p.p.o.A ....F o.o.p.p.p.F ..A ..a.a... .S a.a.p.a.p.a.o.a.o.O.s.s.f.p.&.C.M.z.L.A.z.M.M.j.k.,.$.z.z.z.m.h.;.j.z.m.M.z.z.k.f.p.&.p.p.a.p.D.k.p.o.k.p.p.p.o.a.p.o.A A o.F b F F o.a.Z o.a.a.J  .p.p.p.a.p.p.p.p... .c $ + C.z.k.z.l.z.M.L.m.z.z.b.z.8.z.z.M.l.l.z.h.l.l.l.l.z.z.J.z.K.K.z.M.M.z.z.z.z.z.l.z.l.l.h.l.z.z.z.v.m.l.z.l.;.;.8.h.l.h.h.l.j.h.h.8.9.;.;.%.;.f.8.f.h.9.k.8.l.8.f.;.f.;.;.8.;.;.;.;.;.;.;.;.;.&.;.;.;.&.;.;.;.&.&.&.( ( ..( ( ;.&.;.{ &.( +.+.( ( [ [ ( ~ Q J J & $. Xi.m.8.e.B.v.x.v.0.0.h.0.v.0.e.-.0.t.t.n.n.b.N.b.0.v.).q.0.n.v.:.v.t.v.0.-.5.4.4.6.t.t.n.H.n.n.).).).H.P.K.`.K.H.`._.).`.).H.n.n.n.v.U.U.U.t.n.n.u.n.u.i.v.n.n.).t.v.t.} i.n.B.i.0.v.v.B.7.9.7.#.9.N.h.e.v.7.&.4.7.8.:.! X.7.#.[ ~ [ #.9.x.0.B.i.#.0.:.x.0.4.r g.t./ ( Y / / ` Y I / ` ' } { =.=.*.] =.[ ] [ ` / / ( ' ` Q Q I L L L G U ^ P P L g K g h s s K I W Q I Q Q / [ ` [ ' [ ' { { ' ' ` ` ` Q Q Q Q ` | ` ` ' ' ' ` | | I ` _ ` Q U Q U T ` _ _ ` _ _ ` ` ` Q Y T T ` [ ' [ ] ' ` _ ` ` ` ` ` / ` ~ [ } ` Y / / / ",
"&.p.p.p.D.p.p.D.o.F b F o.o.A o.p.o.p.o.o.p.o...A o...o.o.p.p.p.a.Z A Z a...a. .A  .a.p.p.$.o.a. .a.a.s.s.f.p.$.j.M.g.'.A.M.M.M.z.g.%.$.j.m.m.z.f.f.h.l.z.J.z.z.z.f.f.p.k.p.o.p.k.j.k.o.k.;.p.p.p.p.a.o.A F o.A b F o.o.o.o.o.p.a. ...p.p.p.p.p.p.p.p... .c $ X j.z.z.j.j.j.z.M.M.M.z.b.z.z.;.z.h.z.m.z.l.z.z.z.h.l.l.l.K.z.K.z.l.h.z.h.h.f.8.z.z.J.l.l.h.;.;.l.M.M.m.l.l.l.h.l.h.l.z.8.8.f.8.;.;.8.7.;.7.f.f.;.g.z.h.;.;.&.&.;.8.8.8.f.;.;.{ ;.;.&.;.&.;.;.&.;.&.&.{ ;.;.&.&.( ( ( ( &.{ { &.&.;.&.&.{ ( #.( +.) ~ ^ E J ^ ^ & X.1Xv.v.0.v.v.v.v.v.0.4.0.t.B.6.0.q.t.0.t.t.t.N.N.v.8.v.].8.0.N.0.:.t.v.t.0.4.q.;.-.6.t.t.n.n.u.u._._._.H._.P.).K.H._.).).`.).n.n.n.n.y.N.).n.t.U.n.u.n.v.t.n.v.n.).u.t.7.] q.U.n.x.i.B.b.v.9.0.7.@.q.A.0.h.v.8.@.7.8.0.>.) X.9.#.@._ +.>.8.9.B.B.v.:.9.:.0.0.} r g.v.` / ( / / ( / Q L L P P P G L Q Q ^ P G g a a a g s a h s g g L g s L P L G s s K P U L L Q ` ` ' ` ' ' ` ' [ ` ` ` [ ` ` Q / Q Q Q I I Q ` Q ` ` ` ` Q I U ` I ` ` _ ] Q _ Q _ _ _ ` I T T _ I I Q U Y I I I I _ I I m m K U I Q Y Q ` / Y / / P L P L L ",
"o.p.&.p.D.D.p.p.a.F b b F o.F ..o.p.p.o.o.p.o.o...F ..o.o.o.p.p.o.a.A a...a.a.F A  .p.p.a.a.o.O.a.a.o.%.k.s.p.$.z.z.h..XL.m.m.C.k.j.s.,.j.z.m.z.;.;.l.z.z.J.z.z.z.;.f.f.p.o.o.p.k.z.p.p.k.f.;.&.p.p.p.o.A A A A b A o.o.....a.o...v  .p.f.p.p.p.p.&.p.&. .J < o j.j.h.k.j.h.f.g.h.h.z.z.h.z.z.;.5.h.f.h.h.z.M.M.z.l.j.8.h.f.8.z.8.f.f.;.h.z.M.L.M.z.l.l.l.h.l.h.h.9.0.h.h.l.l.z.l.h.l.h.8.l.;.;.;.;.%.;.;.;.;.;.-.&.-.#.&.&.&.;.;.;.f.;.8.f.;.-.&.&.( ( ^ ( Q ..J ^ ( ^ ^ ^ ( ( ( &.( ( ( ( ( ( ^ ! ^ J B M B ^ c E c c J c J ; o.1Xe.m.8.m.v.t.t.x.4.4.0.v.n.e.e.q.t.0.0.v.t.).H.v.0.B.[.0.0.n.q.#.0.t.b.0.#.*.4.4.6.y.t.n.H.n.n.H.).].).).H.K.H.u.)._.)._.).n.n.t.n.t.n.).n.t.).n.n.B.n.t.n.n.n.).t.i.7.[ 9.B.n.0.9.t.v.x.7.9.0.| ;.b.h.v.v.7.[ :.h.0.>.! Q %.%.#.) &.q.9.7.0.n.x.7.0.<.9.9.} r k.v.I P I Q P Q P P L E g n s n L L ^ ^ I E g a a a s g s L L U Q ` ` I L I I Q ` [ ( _ ` ( ` ` Q Q ' { { ' { [ } *.} } ' ` I U ~ ' Q ` ` _ ` I Q _ U U L L L I _ I Q I I Q Q ` T T I ` I _ I T I Q T _ ` ` I U U U U U U U U Q I Q I I U I P U I P P I P P K ",
"..o.p.p.;.k.;.k.o.A b b F o.o.o.a.p.o...o.o.p.o.o.A ..o.p.p.p.o.a...o.F  .....A Z Z d.a.$.a.o.o...a.o.s.>.f.$.$.m.m.A.}.M.m.M.M.8.f.g.$.k.7.h.z.;.g.z.M.M.M.z.m.z.;.;.p.p.p.a.o.k.z.p.p.k.f.p.p.p.p.p...A b A A b a.a.a...a.a.a.a.v ..p.p.p.p.p.p.;.p.p. .^ $ * C.j.z.j.j.j.j.k.k.z.k.C.z.z.L.z.z.c.m.m.M.m.j.h.;.p.&.&.&.;.&.o.a.....o.&.p.&.;.f.h.8.f.;.;.f.h.8.7.f.8.;.%.;.;.f.;.{ &.&.;.&.&.%.;.;.f.;.h.;.h.k.h.h.8.f.;.;.&.&...( ( &.( ( ! ^ ..( ..( ^ J ^ ^ ^ ( ^ ( Q ( ( { &.{ ( ( ^ ^ ^ ^ ^ ^ B M ! ^ ^ ^ ~ ( ..{ ( ^ 6 X.1Xt.v.0.v.n.q.0.0.8.4.0.v.t.0.0.w.t.6.6.v.0.N.H.0.q.B.[.0.0.B.7.:.0.t.t.6.#.} 4.4.6.t.t.H.J.n.n.).`.`.H._.H.P.H.P.`.P.`.{.).u.y.b.t.n.n.U.U.u.I.n.t.n.t.i.n.t.N.).t.t.:.| 9.v.n.0.4.i.t.v.q.q.0.@.7.m.h.v.v.g.+.7.h.0.7.W V #.7.#.) %.7.#.<.0.B.v.:.0.7.q.#.#.r s.U._ / ( ( Q Q Q Q ^ P Q Q ( ` ` ( ( ^ P P _ Q E U Q [ [ { ` ` ' ` ` Q ` / ` ] { ` ` ] ] ` ` ` ' [ { ' ` ` [ I Q ` I U P U L E U U U U L I W U _ _ T Q U W Q U W I U U W I U U Q U L L m U U U U _ I T Q _ I I I _ I Q ` _ _ Y _ I Y I T Q Q / I Q Q Q ` ` ` ",
"..o.p.p.p.p.p.p.p.A F F A F F o.o.o.o.o.o.p.p.p.o...o.o.p.p.p.o.a...Z F A a.a.A Z a.o.s.a.$.a.o.o.a.o.s.s.s.$.p.m.J.M.A.A.A.m.N.z.k.s.%.g.g.h.h.8.h.z.l.M.M.z.b.K.z.&.p.p.p.a.o.k.D.;.o.p.k.p.&.p.p.p.o...A A A b A ..a.......p.a.A o.p.p.&.;.p.p.s.f.p...B $ X k.C.C.c.z.j.j.k.k.f.;.;.k.;.f.f.f.k.;.f.f.;.;.;.p.p.%.p.p.p.%.p.%.&.&.p.&.&.&.&.&.%.;.;.%.%.&.&.%.;.%.%.%.#.&.&.&.X...( ( !  .^ ! ..o.( ( ..~ ! ^  ...~ ....( ..~ ..^ ..( ....( ( ( ( ( ( ( &.( &.;.&.&.&.&.&.;.&.;.;.{ &.{ { ( [ X.( ( [ ( [ ( ( ( ( ( ( ( ( 6 X. X0.n.0.t.n.0.6.6.7.4.v.b.t.q.0.0.n.q.0.t.i.n.N.v.8.n.N.0.v.v.4.#.t.t.e.6.} } *.4.t.t.y.n.n.n.u.`.{.).)._.u.).).P.).).P.`.U.u.y.t.t.n.).N.n.n.U.u.n.B.t.t.n.t.N.).v.t.4.] 0.n.t.0.6.v.v.v.8.9.0.] 7.v.9.t.v.8.@.7.x.8.%.Q _ %.7.#.) #.8.q.,.0.n.B.9.0.4.7.| ] i 9.i.T / Q L G G L P / ( ( ' { ` Y ' ` ` { } *.*.*.} { { 1.1.1.} } ' ' ' ` ` { ] ` ' ' [ ` Q Q Q I I I Q U U U Q ` ` ` ' ` ` / ` ` [ Q _ Q ` ` ` ` ` _ ` ] | ` ' | ] [ ` I Q ] ` ` ` ] ` ` | ` | ` | ] ] ` ` ` _ T I I U I Y ` Y Q I _ Q Q Y I P U I I I I Q I ",
"..o.p.&.;.k.p.p.p.A A F A A F A o.p.o.o.o.o.o.p.o.o...o.o.o.p.p.o.o.o.o.A  .a.b Z Z o.a.o.a.o.a.a.a.o.p.k.>.$.p.C.A.m.M.'.A.z.m.l.k.k.,.f.k.z.z.f.z.z.z.z.M.b.J.z.8.p.p.p.o.....;.z.p.o.p.;.p.&.p.&.p.p...A F A b  ...a.a. .p.a...J a.p.o.o.p.p.7.k.;.$...! $ o C.z.C.c.j.z.z.j.k.;.p.;.;.;.&.&.;.f.f.f.f.;.f.s.;.f.f.;.;.;.f.;.%.p.;.p.&.p.;.;.;.;.;.f.f.f.;.;.;.f.%.%.#.%.&.;.;.%.&.&.X.&.&.^ ^ ..X.^ ( ..^  .! ^ ! ..( ..&...( ..( &.&.( &.&.&.;.;.;.&.;.&.( &.&.{ ;.&.;.{ -.=.&.;.{ &.&.;.&.{ &.{ ( &.{ { ( ( { ( ( ( ( Q 6 O. X0.t.v.t.t.0.q.q.6.4.e.b.t.q.6.t.u.0.0.t.t.).n.n.0.N.H.t.t.v.4.:.i.t.v.q.#.*.*.4.t.b.t.n.y.y.n.).`.).P.K.u.).).).u.K.)._._.u.y.t.t.n.N.).n.n.n.n.t.u.i.t.n.t.n.).t.n.4.| i.n.n.e.0.t.n.v.8.q.0.#.9.v.8.e.i.g.@.7.8.9.>.) _ @.| #.) %.0.x.7.9.n.i.q.0.7.:.#.] t c.x.] [ ] } | } *.-.4.5.*.*.*.} ] ] { *.] } ] ' ' ' ' [ ] ] ' ` T I I W ^ U P W L I P U W Q ' ' _ ` | [ ' { { { { ' [ ` ` ] ] | } { { } ] ] } ] ] | ] ) ] ` ] ` ] ` ` _ Q Q _ _ T ` _ _ ` ` | _ ] ` ` T _ ` I Q Q I U U L L U Q U I I U I I I Q ` / ` / ( ` Y ",
"o.&.p.p.p.p.p.;.p.o.F b F A o.o.o.p.o.p.&.o.&.&.o.o...p.p.p.p.o.o.a...Z b  .a.A A Z o.,.o.O.a.$.o.o...s.g.s.s.$.m..XM.A.'.M.M.m.h.m.k.&.f.c.m.z.h.g.h.z.M.A.M.J.K.k.;.p.p.o.o.p.k.z.p.o.;.f.p.p.f.p.o.o...A A A v  .a.p.p. .....a. .p.p...p.p.;.p.f.s.o...! $ + C.C.z.C.C.C.z.z.j.k.z.z.D.k.z.k.h.f.f.f.k.k.k.8.f.f.;.p.;.;.f.%.;.;.;.;.;.;.f.;.;.&.;.&.;.;.f.8.;.;.;.f.;.;.;.h.8.8.;.;.;.&.;.;.;.&.;.;.&.&.&.&.{ &.&.{ &.{ { ;.;.;.;.;.;.;.;.*.&.;.;.;.&.&.&.;.( &.( { -.{ { &.&.;.{ -.-.=.{ { ;.{ #.;.#.{ { &.{ { { { { ( ( 6 X. X0.v.v.t.n.0.6.0.l.q.v.v.t.0.q.0.n.e.t.t.v.n.n.n.0.H.).v.t.v.4.7.t.t.e.6.*.} 1.4.t.t.t.n.H.n.n.`.`.).).P.u.).P.`.u.u.u.`._.n.y.t.e.t.n.).n.n.n.t.n.t.t.t.n.i.n.).t.t.7.:.i.n.B.0.i.i.n.0.0.6.q.#.v.i.8.e.t.7.[ 7.8.7.:.+.) +.7.:.[ 7.h.0.q.x.v.g.x.0.7.} :.` t c.x.] ] *.*.' =.} ' ' { ] ' ' ' ' ' ' ` ` ` ` ( Y ` ] ] { ] ] <.} } ] ` ' ` ` ] I I Q _ ' { { { | ' ' ' ` ` / Q / I Y ` Q Q Q ` ` ] { ] ] { ' ` ` I I T ` I I _ U U U I I Y I Q U U K L U K Y Q I I Y I I _ ` T ` I Q Q U U L K m K K m m L Q Q ` ' / T ` Y I ",
"&.o.p.&.k.p.&.p.p.o.A F A F A o.p.p.o.o.o.p.p.p.p.&.p.o.&.p.p.p. .p.a.Z A A a.A A Z Z a.p.a.o.p.o.o.o.s.g.f.$.s.m.'.A.L.N.z.M.M.g.k.s.$.k.z.m.m.h.f.8.h.b.L.z.L.b.h.&.a.p.o...s.z.D.p.&.k.;.p.p.p.p.o.o.F A Z A v a.a.p.p.a...o.p.v o.p.p...p.p.p.f.%.&...! $ * C.C.z.C.C.m.z.j.z.k.f.k.z.z.z.K.z.z.z.8.h.j.z.z.l.8.f.;.;.8.8.;.;.;.8.;.;.8.h.z.;.;.;.;.8.8.l.8.l.l.l.l.l.8.;.8.8.;.8.;.l.;.;.r.l.8.;.8.;.;.;.;.;.;.;.;.;.8.8.f.8.;.;.;.;.-.-.;.;.( &.( ( ( { ;.;.;.-.;.{ { ( ( ( { ( &.;.-.{ &.*.-.{ *.*.-.=.{ { ( =.{ { ( ( e ..oX0.b.t.v.t.t.6.t.t.7.t.i.t.6.4.t.t.6.b.n.n.b.b.n.0.J._.y.0.b.:.q.t.i.0.4.#.-.7.4.b.w.t.y.H.H.n.).).U.P.K.u._._.H.n.u.u._.).u.u.r.t.t.n.).N.U.v.t.n.n.t.u.B.n.).).n.t.7.<.v.B.b.6.0.i.B.t.0.0.4.#.t.v.e.t.0.7.[ 7.8.7.+._ ) %.>.7.) >.h.v.q.0.B.x.0.h.:.:.4.] r V.t.} 1.4.4.1.*.} ' ' { / / ' ' ' ' { ] } } *.1.4.6.1.1.] } <.1.6.6.6.6.1.1.} { ] | [ [ Q I Q I Q W I I I Q Y Y / Q I I Q I T / Y ` ` T T ` Q I Q Q Q _ ] ` ` ` ` ` ] ` _ ` Q _ Q U I U Q _ Q T Q K U K U Y Q I ` _ Q T I I U I U U U U L L U U I / ` ` ` ` Y ",
"p.p.o.&.k.k.&.p.p.o.A b b b A o.p.o...&.p.p.&.;.p.p.&.p.&.&.p.p...p.a...A A a.Z S a.a.p.a.Z Z p.o.O.$.s.g.s.p.,.Z.m.'.J.N.v.A.M.h.>.$.,.f.h.z.z.f.g.;.z.z.L.z.K.M.h.;.p.&... .p.;.D.;.o.;.p.f.;.p.o.o.o.A A Z A b  ...a.......a.a.J p.&.p.( p.&.p.f.$..... .@ + C.z.C.M.C.m.j.f.;.p.;.f.k.j.k.f.h.h.h.h.h.l.z.l.z.z.j.z.z.z.z.8.z.z.z.z.z.z.z.8.r.;.f.l.h.8.h.8.8.h.8.8.;.8.8.l.l.h.h.l.l.;.l.;.;.;.;.;.8.8.8.r.8.h.l.e.l.8.8.;.-.*.-.;.-.;.;.8.;.-.;.{ ;.{ ;.-.-.-.-.;.;.-.-.;.;.-.-.=.{ { -.=.*.-.;.;.;.;.;.;.5.;.;.;.-.{ { j ~  X6.b.t.i.v.t.6.0.t.6.v.0.t.4.4.i.t.t.v.n.n.n.t.n.v.n.J.v.0.t.#.7.0.6.0.4.*.#.1.6.b.t.t.n.).H.n.n._.H.K.).P.P.).).u.u.n._.).H.n.e.6.t.n.).n.B.t.t.n.t.t.t.t.t.).N.n.t.4.:.t.v.n.0.0.t.B.t.t.0.4.#.t.b.v.e.t.7.[ 7.7.7.@.~ ) @.4.,.) :.0.v.>.i.U.x.9.x.:.4.7.] m c.n.1.1.1.*.*./ ` ` ' ' ' ' =.} =.*.] *.] ] =.] ] T T ] ] ] ] ] <.1.1.1.} ] ] ] ] ] ] ' Y I I I Q ` ` { ` ` ` ` ` ' { ] <.] ] ' ] ` ' ' ` ` ` ` Y ` I ` ` _ ` ` ` ` ` ` ` I U U U Q ` ` ` ` ` ` ` ` ` _ ` _ ` _ T ` ` Y I I Q Q ` Q U U U Q Q ~ Y Q Y / I / Y ",
"p.p.p.p.p.k.&.o.p.o.F A F A A o.p.o.o.o.&.&.&.p.;.p.p.p.p.o.p.o.o.a...F A A v A A Z Z s.$.Z Z p.o.o.o.f.s.>.s.$.j.v.L.N.L.v.b.N.j.g.O.,.k.7.8.x.z.k.h.M.l.L.z.M.z.h.;.p.p.a.v p.k.z.p.o.k.p.p.p.p.o.o.o.F A o.A v a...o.p. .....a.v p.p.&.o.&.p.7.s.$.~ ..~ * * C.z.j.z.j.f.;.f.f.f.f.;.k.f.;.z.z.z.z.z.z.J.z.l.z.h.l.z.L.z.z.l.z.z.z.z.z.z.8.z.l.l.l.z.z.h.h.l.8.l.l.l.l.z.b.h.h.5.8.e.;.l.l.;.8.8.;.l.8.r.l.8.l.l.8.5.5.8.8.5.;.5.;.e.8.8.r.8.;.;.;.-.&.;.-.;.-.;.;.-.-.*.=.;.2.;.-.;.;.-.;.-.-.-.;.-.=.-.;.5.2.*.*.{ { { { e !  X6.v.v.t.n.t.4.0.i.4.0.t.0.6.1.0.v.n.n.n.).n.t.b.t.J.J.t.0.0.:.9.t.6.w.4.} 4.4.6.u.y.t.H.).H.).n._.U.).).u.H.P.H.u.n.n.n.).n.n.t.t.t.n.U.n.u.t.t.i.i.t.i.t.t.).J.n.t.4.} i.v.v.6.i.v.t.0.0.1.4.*.t.t.v.e.0.:.@.7.8.4.#.+._ #.7.#._ 7.0.v.9.v.N.h.q.x.:.7.9.| r U.U.q.5.5.q.1.=./ ' ' ` ` ' 2.2.*.*.=.=.1.*.1.1.1.1.<.} ] <.1.1.2.1.*.=.1.1.1.*.] ] } 1.} ] } } { [ ' ' ] 4.1.1.1.4.2.1.` ` ] ` ] ] ` ` T T ` ' ` ` ` ` I ` ] ` ` ] ] ] ` ` ] T ` T ` ] ` ` ] ] ` ` ` ` Q Y U U I Y I I Y U U U U U I Q Q Y I I T Y / T ` T I ",
"p.&.p.o.;.f.p...p.o.A A F b A o.p.o.o.o.p.p.p.f.p.;.;.p.o.&.p.p.o.o.a...a.A A a.A Z Z a.p.O.Z o.o.o.$.s.7.9.s.p.m.m.'.L.J.M.N.N.0.g.$.$.>.f.m.m.h.k.z.z.z.M.z.L.b.h.;.o.p... .p.;.z.f.p.;.;.;.p.o.p.p...A A o.A v v a.p.o. .a.a.A  .p.p.p.&...p.p.f.$...X. .@ * S.S.C.M.L.A.M.z.z.z.j.8.z.z.z.z.z.f.h.z.l.l.z.z.b.b.z.z.K.z.M.8.z.r.8.r.r.l.l.z.l.;.l.l.l.8.h.8.h.;.;.8.8.z.l.;.8.8.;.;.;.;.8.8.l.8.l.;.8.8.;.5.5.g.8.8.8.h.l.8.8.8.8.8.l.e.8.8.r.8.=.;.;.8.l.r.z.r.r.r.8.5.;.-.-.-.=.{ { ' { { { { { =.-.*.2.-.;.-.;.-.-.-.( 5 ..{.t.N.u.v.v.v.1.0.t.} t.6.0.q.} 0.t.t.t.y.n.n.t.v.n.H.).t.t.0.} 0.v.t.i.1.4.*.4.t.H.n.w.H.H.).`.U.`.U._.H.H.u.H.H.u.U.n.J.n.H.t.i.t.t.n.n.n.n.u.t.t.i.t.t.i.t.).).n.t.4.4.i.n.n.0.i.n.v.4.t.4.<.#.v.n.b.t.0.4.| 7.8.0.:.) ) #.4.#._ 7.h.v.9.v.B.q.x.i.:.<.7.} t E.i.<.*.=.1.} ' ' =.Y ' =.*.*.*.-.*.=.=.=.*.*.1.} ] ] ` ] 1.1.=.*.] ] 1.4.q.2.1.1.<.} ] } 1.1.5.1.1.1.{ ] } 1.1.1.} } 1.] =.<.1.1.1.1.1.1.1.1.1.*.} ] ] ] ] ` ] ] T ] T T T T T T ` T ] T T Y I T T T T T T Y T T T ` ` ` ] ` | ] ] ] ] ] ] ] } *.1.*.*.} ] T ",
";.&.p.&.;.;.p.o.p.o...A A b b o.o.o.o.o.p.p.p.;.k.;.p.p.o.p.p.p.&.o.o.o.o.A F o.A A ..o.p.o.F ..o.p.$.f.>.g.s.$.B.'.A.'.J.N.L.J.j.g.@.$.f.7.z.M.c.g.z.z.h.v.l.M.M.z.;.p.p...A p.p.k.k.&.;.;.p.;...o.p...A A o.A A A o.p.o.o.o.A Z Z p.p.o.p.o.X.p.k.%...X...# * A.L.L.L.L.L.J.L.L.L.L.L.L.L.L.L.L.M.L.L.M.A.A.L.M.M.L.M.M.K.K.K.r.z.z.K.z.M.z.z.r.z.r.8.8.8.8.8.h.;.8.h.l.h.z.8.l.l.l.l.z.l.z.l.b.l.l.b.l.l.r.z.y.l.r.z.r.z.l.r.l.8.8.5.;.*.-.;.5.5.5.8.r.r.r.;.2.2.r.;.;.r.;.r.;.;.8.;.;.=.;.;.;.8.r.5.5.;.;.;.-.{ ( ( Q ^ ^ 6 ) +Xb.b.v.b.t.v.1.0.t.1.0.6.0.q.] t.t.6.n.n.n.n.i.v.n.J.).t.v.v.7.v.v.n.0.*.| } 5.t.n.y.t.n.H.`._._.).)._.H.u.u.).u.u.U.n.n.U.H.t.t.t.t.n.U.n.n.t.u.i.i.t.0.t.n.U.).t.t.4.#.0.v.v.q.e.n.t.4.t.0.-.} 0.n.b.t.0.7.@.9.9.5.#.! +.%.4.&.Q >.0.m.7.v.v.9.0.0.:.q.q.<.t R.N.e.r.0.8.6.5.-.5.*.*.*.*.=.2.4.2.5.5.w.5.1.2.4.2.q.5.6.6.2.2.1.2.1.2.1.2.q.1.1.1.1.=.=.-.4.1.q.4.1.4.1.4.6.q.4.4.1.4.1.1.1.1.1.5.4.1.4.1.1.4.6.4.4.1.1.1.1.1.1.1.1.2.*.=.} 1.1.6.2.q.1.1.1.6.1.q.1.q.2.1.5.6.6.4.q.1.1.4.6.q.6.1.q.6.4.2.q.2.q.5.2.2.1.=.=.",
"k...p.p.p.p.p.o.p.o.A A F b b A ..o.o.o.p.p.&.p.;.p.p.;.p.o.o.o.p.o.p.o...F Z A A A A p.p.o.Z ..O.o.o.s.s.f.$.$.A..Xm.L.[.'.].J.l.g.$.$.f.9.v.m.j.j.M.v.z.g.z.L.M.z.;.p.p...J p.f.z.k.o.f.p.p.p.o.p.p.p.A A A A A ..o.o.o.o.o.J A  .p.&.o.&.o.$.f.f.%.X.o.~ % * A.C.m.C.M.M.M.M.z.M.m.K.M.M.M.J.L.J.K.M.J.M.K.M.M.M.M.J.J.M.m.M.z.K.M.K.K.K.K.K.z.z.z.z.z.z.z.z.z.b.b.M.m.M.M.M.M.M.b.l.l.K.K.l.z.l.l.l.l.K.z.l.r.r.8.l.z.r.8.8.l.8.;.;.;.;.;.;.;.5.8.5.;.;.;.;.-.;.r.;.2.r.r.;.r.=.;.;.=.;.;.{ ( ( &.( ( ( ( ( ^ Q ^ Q ( Q Q e X.3Xb.b.e.t.v.t.q.6.t.1.6.6.6.4.} 0.t.0.t.n._.H.0.u.t.).).t.n.t.q.v.t.t.6.} } 1.4.e.b.y.y.J.H.).H.).u.H.).).u.H.U.y.u.).n.t.n.H.t.t.t.n.N.U.t.n.v.q.6.t.t.i.t.n.).n.n.t.4.4.6.v.t.6.t.v.0.4.t.6.4.#.q.b.v.0.0.7.[ 8.8.;.[ ~ [ %.7.+._ 7.0.B.:.v.x.9.x.0.:.7.9.<.p W.+Xe.e.r.r.6.-.*.*.*.2.r.r.y.y.r.y.u.r.y.w.w.w.w.w.w.w.t.6.e.w.6.6.3.2.1.1.1.6.q.6.6.6.6.6.0.q.t.t.t.t.t.n.v.t.n.t.n.t.v.b.v.v.n.v.v.v.t.v.b.n.n.b.b.u.t.t.v.t.y.t.e.e.6.6.w.e.r.6.w.w.q.i.6.6.6.6.6.6.6.6.6.2.6.6.6.6.6.6.6.6.2.6.2.2.2.2.6.2.2.6.3.6.6.6.w.",
"p.&.&.o.p.p.p.o.o.o...A A b b A ..o.o.o.&.p.;.p.p.&.&.o.o.p.o.o.o.o.o.p.o.o.o.F A b A p.p.Z o.F O.O.o.>.9.k.$.%.L.].m.N.'.J.L.N.h.h.,.,.f.h.m.m.h.j.b.l.m.j.l.J.z.z.f.p.p...A p.;.k.f.o.k.;.;.p...p.p.o.A A ..b A o.o...o.o.p.A Z v p.&.&.$.o.&.%.f.$.o.&...# * C.j.j.j.z.C.z.C.M.z.m.C.C.A.M.M.J.M.M.M.m.z.z.z.M.M.M.M.J.J.L.M.M.M.M.K.K.z.M.M.K.z.z.z.8.z.8.8.;.;.8.l.l.l.z.l.l.e.b.l.b.e.l.b.l.z.l.8.8.;.5.;.;.-.-.=.-.-.8.;.;.;.;.;.8.;.8.-.&.;.;.( ( ..( ^ ( &.{ &.;.&.&.{ ( ( ( J ( ^ J J J J ^ J J ^ ( ( ( ( -.&.&.` ( 6 o.3Xb.M.i.t.t.t.1.0.t.5.4.q.e.6.4.4.0.q.v.H.J.n.e.t.0.n.N.n.t.0.q.t.v.t.q.} } *.6.t.u.b.y.n.n.).H.H.u.).).u.P.).H.u.n.n.y.b.u.n.t.t.t.v.n.U.n.u.n.t.i.0.t.0.t.n.n.n.v.t.4.9.0.t.t.6.v.t.t.:.0.0.4.} q.v.v.7.0.7.[ 0.6.;.#.~ ~ 4.:.@.) 7.7.v.7.B.x.9.v.0.#.#.4.4.a T.[.e.e.r.r.r.r.r.r.r.r.2.2.r.6.w.r.r.r.r.r.r.w.w.t.w.y.t.t.t.t.t.y.e.t.t.i.6.q.6.2.q.-.6.8.r.6.6.0.6.6.i.0.0.0.0.q.6.0.i.6.6.q.6.q.4.1.} } 1.*.4.-.-.<.} { { 1.} ] =.] ] ] ] } ] } } =.] ] <.<.1.} 1.<.1.1.:.<.1.*.} <.} } } ] } } 1.} *.1.*.<.} 1.1.*.*.} ] ",
";.o.p.&.&.;.p.p.......A b b b A o.o.o.o.p.;.p.&.&.p.o.&.p.o.o.o.o.o.o.o.o.o.A A A F Z p.p.o.....O.$.O.f.,.>.s.$.'.L.v.'.).I.J.b.8.k.$.k.k.h.M.z.h.h.M.m.z.z.z.M.z.z.;.p.p.o. .p.f.k.f.o.k.;.p.p.o.p.p.o.A A ..A o.A A p.o.o.o.A a.v p.&.o.$.o.+.p.s.+.+.&.) $ * z.f.p.;.p.;.f.k.f.j.f.j.h.c.k.f.f.f.f.f.h.h.j.z.m.z.z.z.z.m.l.l.z.z.z.z.z.z.z.8.z.r.z.z.z.8.z.8.h.h.h.8.;.;.8.l.8.h.z.z.l.l.l.e.l.8.-.{ { ;.&.&.;.;.;.&.;.&.;.;.&.&.{ &.-.&.-.&.&.( ( ( ( ( ( ( ^ J ( ( ( J ( ( ( J J ( J ^ ( ( ( ( ( ( ( ( { ;.;.;.-.*.*.{ { j X.3Xn.b.v.v.n.0.6.0.i.q.q.6.t.0.6.6.6.6.v.N.H.K.0.6.t.n.n.b.t.0.4.v.n.b.8.{ #.} 1.y.b.y.b.H.)._._.).H.`.).).H.u.H.u.y.H.t.b.H.n.i.i.u.t.n.n.t.n.t.6.t.6.t.i.t.n.U.n.t.e.4.4.0.t.0.0.v.v.0.*.t.8.#.| q.v.8.4.8.4.&.8.8.;.#.+.) :.:.#.[ 9.0.v.7.v.0.q.B.9.:.1.q.4.i R.N.6.4.6.-.-.2.5.6.2.2.5.2.2.5.2.5.5.5.4.6.6.5.6.6.1.2.1.1.q.4.*.*.-.<.} ] ] ` ` I I Y Q Q ( I Q L L U I Q U Q I I I I I I Q I I P U U P L K G G G G I U I U U U I I I I U P I L U L m m m m s m s s m m L L m m K m m 0 s s s s s m n K 0 s m m s s s s s s ",
"p.&.&.&.&.p.p.o.o...A F A b A A ..o.o.o...p.p.p.p.;.p.p.o.o.o.o.o.o.o.o.o.a.F o.A A ..o.p.A o.A  .o.o.s.s.%.s.>.'.L.N.'.L.).J.m.h.g.%.,.g.g.m.v.h.h.z.h.h.v.M.m.z.z.;.p.p.o...p.f.f.p.o.;.;.;.p.p.p.o...A A ..b ....o.o.o.o.o.Z F  .&.&.o.o.&.$.7.%...( &.X.& * Z.C.j.k.h.f.;.f.;.f.7.k.f.k.k.f.f.f.f.k.f.f.;.7.f.;.f.;.f.h.z.z.z.z.z.z.l.l.z.z.l.z.h.8.8.f.z.z.z.h.l.;.f.8.;.;.;.7.8.h.8.l.l.l.8.8.;.;.;.;.;.;.;.;.;.( ( ( ( ....( ~ ~ ( &.&.( &.-.;.;.;.5.-.&.-.-.;.;.{ ( ( ( ( ( ;.( ;.{ { { =.;.;.{ { { { { -.-.;.;.*.{ { e &.tXn.H.b.n.B.t.4.t.0.6.4.6.v.6.6.4.6.6.b.n.J.n.e.6.t.n.n.t.0.0.1.v.n.n.q.*.#.*.4.t.H.y.u.n.).H.u.).n.).H.H.H.H.u.n.u.H.n.n.n.H.t.v.t.u.t.n.n.n.t.i.t.6.t.t.t.n.N.n.t.t.4.8.8.l.i.0.n.t.0.5.t.6.4.#.8.v.8.4.8.7.-.9.5.7.%.[ ) #.#.@.[ 7.0.v.9.x.0.q.x.0.} q.0.q.p E.q.` / / ( / / / / / ' Y Y Y I Y / Q I Y ( / I P P P U U L L P G G P G G G P K K G G P G G G n g s G G P E I I Q Q U P P P U L G G G G L G G G G L P L G K K G L U Q / I L s L L G G G g L s h p p p 9 p 9 a s a n s g s s a m s s p a p a a s s s s s m K K ",
"&.&.p.p.p.p.&.&.o.o.o.A b b A F o...o.o.o.o.o.p.p.o.p.p.o.o.o.o...F o.o.o.o.o.A A A F p.o.o.o. . .o.X.>.7.$.$.&.N.J.B.].J.J.m.v.h.j.%.s.g.l.v.j.g.g.v.j.9.z.M.M.z.z.&.&.D.o.A p.f.k.&.o.p.f.;.p.p.&.p.o.A o.Z b A ..o.o.o.p.o... .Z o.o...p.o.&.f.7...~ &.~ $ $ C.h.z.z.h.j.l.j.j.h.z.z.z.f.%.;.f.;.f.;.;.7.f.k.h.k.;.;.;.;.;.8.;.8.;.z.8.;.8.z.8.8.;.8.z.8.;.;.;.f.f.l.8.8.8.;.5.7.8.;.;.8.l.;.;.;.-.&.&.&.( &.( &.( ( ( &.&.&.{ &.&.;.&.-.-.-.-.;.8.;.-.-.-.-.;.-.=.-.=.;.-.-.{ ;.=.=.-.-.=.;.{ -.=.;.;.-.;.{ *.{ { { { &.' e +.3XM.n.y.n.v.e.q.t.0.4.6.6.t.q.i.4.4.5.t.n.n.b.t.t.B.n.i.6.6.0.q.v.N.b.6.} { } 4.t.H.y.H.n.).H.u.H.u.).).H.n.H.H.H.n.H.t.y.H.b.y.n.t.t.w.n.n.N.t.0.i.6.t.t.i.n.).n.t.0.6.8.9.l.i.0.n.v.0.q.t.q.-.| 8.l.8.%.4.;.;.8.;.;.| [ _ #.#.@.[ >.8.x.8.v.0.7.0.q.:.4.q.7.a c.q.I / P P P I P P Q J Y J Y P P G G G s G G P P L L K U L G G G G G G G P P U U P P Q Q P P I U P Q Q Q Q P U P L U P P L L G G L L L U P I Q G G G L G G s h q h U I P P K G G s G s s p 9 9 9 7 9 p p p a s s g s p a a p 9 a q a s s K L P U I W I I I U ",
"..&.p.&.&.p.&.p.o.o.o.A A b A ..o.o.o.o.o.....A ....o...o...o.o.o.A o.o.o.o.o.o.A F Z p.o.o.o... .&.X.s.>.>.$.>.'.J.m.J.J.N.l.h.h.k.#.>.g.h.z.h.f.f.v.z.g.l.M.M.z.z.p.o.p.o...o.;.;.p...;.;.p.p.p.&.o...A ..A A A o...p.o.o.o... .Z &.o...&.o.$.k.%...( #.+.$ * m.m.l.h.l.z.z.M.A.N.A.M.M.m.m.z.h.f.g.k.k.g.g.h.h.h.j.f.f.8.h.8.z.8.8.f.;.8.;.;.&.;.;.;.;.;.;.&.&.( ( &.;.;.;.-.#.{ &.{ #.-.{ -.{ { &.&.-.;.;.8.;.;.;.;.5.;.;.;.;.*.;.;.;.8.;.8.8.8.r.8.5.;.-.;.;.=.;.8.;.;.2.;.;.8.;.r.2.;.-.-.-.-.;.2.-.-.-.-.-.-.-.*.{ { { e X.3Xn.b.y.v.t.e.4.t.6.6.0.6.0.6.t.1.1.1.t.n.H.b.t.t.v.t.0.6.6.6.q.n.H.n.4.} { *.6.t.H.0.n.H._.H.n.K.H.H.P.H.u.H.).H.u._.y.y.H.y.u.n.u.i.t.n.n.U.i.0.6.6.t.t.t.u.n.n.u.v.q.8.7.v.0.q.v.e.0.6.t.6.4.[ 9.e.0.4.7.#.#.9.8.;.#.| Q %.4.+.) 4.8.h.h.x.v.7.9.q.#.:.4.q.t c.>.Q P Q / / I / / / Y Y J Y P P L G G G G L Q P L L G K P L P P K L P P G P P I P Q / / Q / E P P P L G G L L L L G L g L P L L G G G G G s h h p p 9 h s s K U G s s s K L L G G s s G s a s m g a a a p q a a a m s s g s L L n g L E U L L P U I U L L K ",
"&.o.&.p.o.p.&...o.o...J b b b A ..o.o.o.o...A o.o.o.o.o.o.A A o.Z o.F o.F o.o.F F b b p.o.o...o.Z +...p.f.f.&.s.'.m.m.).N.L.l.v.v.9.>.%.9.z.z.h.;.h.l.l.g.z.M.m.z.z.;.p.;.o.o.&.;.k.&.&.;.f.f.&.&.p.&.o.A A A b A ..o.p.o.o.o... .Z &.X...o.$.$.p.%.) ..&.) < $ h.m.M.M.M.m.M.m.M.M.M.M.N.M.A.M.M.b.M.M.M.b.l.l.l.l.l.l.z.z.l.z.z.8.8.8.;.;.;.;.;.;.;.;.;.&.;.&.&.{ &.;.f.8.r.;.-.;.;.;.8.;.;.;.;.;.8.;.;.8.8.8.8.8.;.8.8.;.;.;.5.;.;.;.;.5.l.r.r.r.r.8.r.r.r.8.r.r.8.5.8.8.8.2.2.;.r.2.;.r.2.;.;.r.r.5.5.5.5.-.-.{ &.{ { { { w ( 3XH.b.l.t.6.0.4.t.4.6.i.0.6.6.t.q.6.4.v.b.n.H.n.n.0.t.q.6.t.0.6.b.H.v.0.} } 1.4.v.n.w.H.H.)._.H.).H.H.).P.n.H.H.).)._.t.y.H.b.n.u.i.t.t.n.U.N.6.t.t.q.i.t.t.n.n.n.t.t.0.4.4.i.i.0.N.0.4.0.i.0.4.[ 0.l.9.7.0.| } 9.8.} &.+.~ 7.#.@.) :.8.v.0.t.v.8.q.4.#.<.0.:.i g.>.I / / / / / Q P Q J Y Y Y I I I I P Q ( / I Q P P P L U P P I I I Q Y Q I P Q Q / P I G P U P P P P L L G G G K s K n L P L L G a h a h a a s s s h G L L K L P I L P G G G G g s g G m s a h h n s s s s L E U P W P P I Q U Q U P L W I L L L m g L s s ",
"&.&.&.p.&.p.p.o.o.p.o.A b b v A ..o.o.p.o...b o.p.o.o.F o.A b F A F A o.o.o.o.o.A A A o.p.o.o... ... .p.k.g.&.%.L.b.N.L.N.n.l.m.z.k.7.s.f.h.l.h.;.z.j.l.8.g.M.M.z.z.;.p.p.....;.;.;.&.p.k.;.p.&.&.&.p.o.A ..A J b ..o.o.o.p.....a. .o.....&.%.&.;.&...( &.~ ; * z.N.L.A.L.L.L.L.J.N.N.N.J.N.L.J.J.L.J.L.J.L.L.N.J.N.N.L.J.H.J.N.b.m.l.l.l.l.l.l.z.K.K.l.l.8.l.8.;.8.8.8.8.h.;.;.8.8.8.8.r.l.r.8.z.r.r.8.8.;.8.8.8.8.8.;.8.;.;.-.-.;.8.r.8.8.8.z.z.r.8.r.;.8.r.8.r.r.r.r.r.r.;.r.8.r.r.;.r.;.;.2.;.-.2.5.8.8.5.-.-.[ ( ( / / ( 6 ..3XK.r.b.e.e.8.} 0.4.5.0.6.0.q.t.4.4.6.n.n.n.b.b.t.t.t.1.t.i.0.0.t.b.y.5.-.#.4.4.t.v.w.H.H.).H.H.H.t.).H.n.u.).H.).H.`.u.u.).H.H.n.t.6.t.n.U.n.t.6.i.w.t.t.t.n.n.n.u.t.q.4.:.t.0.0.n.0.6.0.t.0.6.( 4.e.9.8.h.[ ~ g.4.;.#.| ~ >.#.| Q %.i.v.0.0.N.0.7.9.4.#.0.4.9 s.>.` Q I I U Y Y G P G H G G P P P P / P Y Q I P G I / / / / / I / ( / I / I I Q Q / Q P P G L L L P P P L G G G P P P P I P P s h h p 5 p a s s s s s G L U I I P P L U U L U U L U ^ L G s n U I Q Q ` Q ` Q Q Q P U P U U U L L n L L L s s s h a h s K s ",
"p.p.o.&...p.p.&...o.o.b v b A J Z o.p.p.o.o.A o.o.A A A A F A A A A A o.o.F a.F A A A p.o...p... .o...%.g.g.%.%.}.L.N.].J.b.h.N.8.h.7.+.f.h.8.g.>.j.z.v.x.h.m.M.z.z.&.&.p.o...p.;.z.p.&.;.&.&.p.&.p.o.o.A A A b v Z ..o.o.o.....v ..o.p.o.&.p.&.&.&...&.( ~ < * M.z.l.m.m.M.M.J.J.L.J.L.J.N.N.L.M.J.M.M.N.M.N.n.v.M.n.B.M.N.M.b.n.v.v.l.l.9.l.l.l.l.l.l.l.8.l.l.8.l.8.8.;.;.;.r.8.l.8.r.l.l.l.l.l.l.z.z.b.l.8.8.8.8.8.8.8.8.;.;.;.8.;.;.8.8.5.8.r.z.z.r.r.r.z.r.r.z.;.r.;.;.;.;.;.=.{ =.;.;.;.r.8.-.5.2.-.-.-.;.-.{ { +.( J / e X.6XH.8.v.t.e.8.{ 0.q.6.6.6.4.6.t.6.5.4.n.n.b.t.b.n.0.t.6.0.i.6.0.t.n.b.4.} 1.1.6.n.t.t.H.n.H.H.H.H.u.)._.H.u.H.P.).K.K.P.u.u.H.H.u.t.t.t.n.n.n.t.i.t.0.t.t.t.n.u.t.t.t.0.:.| 0.0.0.n.0.q.0.t.0.5.[ 4.l.4.e.8.} Q 9.#.4.;.+._ 4.#.| ~ 4.0.v.q.0.t.0.q.7.q.7.4.4.r c.h.I U L U U G J J P Y Y Y / / Y / / / / / / / / / / / / Q P P ^ L P P G L G L L K G G s G L L P L P P I P I Q P P P L G s g g 9 7 t : % 5 p g G g g L L K L G s s s K m L I Q Q I [ ` ( ` / Q ~ Q Q Q Q _ I I U U U U L n s p h g L s g s h a p p a s L K L ",
"o.&.&.&.( o.&.o.o.p.o.v b A Z ......o.o.o.......A b F b b b A A A F A o.a.o.a.o.F b A p.&.o.p.....O...%.;.f.&.>.L..XH.L.N.N.b.M.l.z.7.&.f.z.l.h.7.h.8.l.h.z.v.m.z.;.p.&.p...o.p.p.z.;.&.p.;.&.&.o.p.o...A A A b A o.o.o.o.o.A ..v p.&.p.o.&.&.&.&.&.~ &.&.^ $ % C.M.M.M.l.M.v.m.m.M.N.N.J.N.L.N.L.M.J.z.v.M.M.b.M.N.b.b.M.M.b.N.M.v.l.l.9.l.l.l.l.z.l.l.l.l.z.z.l.8.8.;.;.;.;.5.z.z.K.z.K.z.b.z.l.r.l.8.8.8.;.;.;.;.;.&.*.*.;.5.8.;.;.z.l.l.8.l.r.8.r.8.z.r.8.r.;.;.=.( { { ( { &.;.{ &.;.;.=.{ &.-.#.;.-.&.=.{ { [ ( ( J J J 6 ) 3XN.b.v.b.e.6.{ 0.4.6.0.4.1.e.t.6.6.6.N.y.v.n.v.b.t.e.0.t.e.6.0.t.b.t.q.} } q.6.n.t.6.n.b.H.).).H.y.n._.u.P.u.H.).K._.H.P.w.u.).t.6.t.t.n.U.t.t.6.i.t.t.t.n.v.n.t.6.i.0.#.#.0.q.t.n.6.6.6.i.e.6.{ %.6.-.0.0.~ E ;.} ;.-.| _ >.#.[ ~ :.4.i.4.0.e.q.:.q.h.0.4.q.9 g.9._ ` ` ` [ / / ` / Y Y Y ' Y / / / P Q Q / I Q P I Q G G P G L G s G G G L L L L L L P P Q Q L L P ^ P P P P G G L G s 9 3 4 : = - # : 2 9 G G s a s n L L U I I Q I I ` Q I Q Q U Q I Q E U U L L m U K L m K s L L n s a a p s g G s p s m K L L G L U L ",
"( ..;.p.....o.&.&.&.o.A z A A ..Z o.o.A ..o...A b F b b b A A A A b A F o.o.o.o.A A A f.o.o.o..... . .p.;.;.+.>.].].J.L.M.J.n.B.z.h.f.;.f.M.z.g.k.l.l.z.l.l.M.l.z.z.;.o.p.&.o.p.&.;.p.p.;.&.&.o.p.p.o...A ....b A ..o.o.p.o.A ..J o.o.p.o...$.&.&.%...&.&.^ < * z.M.b.M.A.l.l.m.z.M.m.M.m.M.M.M.M.M.m.J.N.M.M.N.N.M.M.M.v.l.l.l.h.z.h.e.l.l.l.l.z.l.K.z.z.l.l.l.8.;.8.;.8.;.;.;.;.8.8.8.8.8.l.8.8.8.;.-.;.;.{ ;.;.f.;.;.;.;.;.;.-.;.;.8.8.8.8.8.8.;.;.8.;.;.;.;.;.;.;.;.{ { &.( ( ( ( ( ( ( ( ( ( ( Q ~ ( ( &.{ &.{ ( ( Q Q ^ 6 +.3XH.l.t.v.l.6.} 8.q.6.t.t.4.t.t.4.4.6.H.b.b.n.v.t.0.v.0.0.t.4.6.t.y.e.4.{ *.5.e.n.e.e.n.b.n._.).u.u.).H.n.H.n.u._.`.`.n.H.y.u.).u.w.w.t.n.N.t.t.i.i.q.u.B.n.n.n.t.t.0.6.| #.8.4.v.n.0.4.6.t.0.4.[ ;.q.| 0.8.[ L 8.#.-.#.) W #.#.[ ~ %.7.v.} 0.h.%.7.q.0.0.-.q.t D.x.| [ { ( Q Q Q Q G J Y J G P G G P P G G Q P G L G G Q P I P P P P Q I Q / Y P P P Q P I I L K 0 s G G G s s a a 9 p 5 2 4 = # 4 p : = 2 h ^ L E G L L P L L L L U Q L U L P n m s s a h G m h a p a s m a p a p 9 t h h s s s L G s G L P I Q U U P P I P ",
"&.&.&.p...o.&.o.o.o.o.A v A ....A ..A o...o...b b b b b b A F A b b A o...Z o...Z b  .p.&.o.&...O.o. .%.%.%.%.;.].L.L.].b.M.n.M.z.h.;.f.7.m.v.h.h.j.z.l.l.l.M.v.z.z.;...p.o.o.&.p.k.&.p.;.;.p.o.&.p.o...A A o.b A A o.A o.o...A A o...&.....&.&.%.&.~ &.&.! , @ l.z.M.l.l.z.l.8.8.l.h.h.9.h.h.h.f.h.h.h.z.M.M.N.N.l.z.z.l.l.l.z.v.l.v.b.M.v.M.v.l.l.e.l.l.z.l.z.h.8.z.l.z.8.8.8.;.5.;.;.;.;.;.;.;.;.;.&.&.;.#.;.;.-.;.;.;.;.8.r.;.8.8.;.;.;.;.;.;.;.;.;.&.&.&.&.{ ;.;.;.&.( ( ( ( ( J ( J J ( ( ~ ( ~ ( #.[ +.{ [ ( ~ ^ ( ^ ( e &.tXN.b.v.v.e.0.-.0.q.6.0.b.6.v.n.6.4.e.n.n.n.b.y.t.6.t.e.6.6.0.q.r.l.0.*.{ } 6.w.n.r.y.y.t.u.)._.K.u._.).H._.P.P.K.H._.H.P.u.u.H.y.6.6.i.v.n.n.t.t.6.0.t.n.n.n.y.t.t.6.0.| } 0.0.v.v.t.q.0.t.0.5.+.4.6.#.0.6.( ^ 7.-.-.| ~ W @.#.) ^ #.4.h.:.0.7.} q.0.9.0.<.4.a s.7.` Q Q Q Q P Q P Q G Q / P Q Q Q G P P / / Q Q ( / { / / ( / Q P I I P P P G h s G P I Q P K s 0 s G h s s 0 q q p h h p p ; - - 5 2 7 s L L P L s L s n g n n m m s a a q p a s a a s s s s a p p a a a 9 p p s L L P L L P L W I P I Q Q Q I I I U L L P ",
"&.;...p.....&.o.p.p.o.o.v A ........A o.A ..A v b b b b b A A b b b A .... .o.Z A b  .p.p.o.p...! o.X.&.%.%.&.f.].J.).L.v.b.v.m.9.8.;.7.;.m.z.7.h.l.l.l.h.8.l.M.z.z.;...p.o...p.;.z.;.&.;.;.p.o.&.&.o.J J A ..b b ..o...o...o.A v o.&...( ..X.X.+.&.( &.( ..; * M.M.M.z.z.z.z.z.z.z.z.m.z.h.f.f.;.%.p.;.;.f.h.h.h.5.;.;.;.;.;.l.l.h.l.l.l.l.l.z.b.l.z.z.z.b.z.l.h.8.h.l.h.8.8.8.8.;.-.;.8.8.r.l.l.8.8.;.;.#.&.;.;.;.#.-.;.;.;.;.;.8.8.8.;.;.( ^ ( ( ( ....( ( ( ( ( &.( ( ( ( J J J ( J J ( J ( [ ( ( &.( ( ( ( [ ( { ( ( ( { j &.vXb.l.v.b.t.6.4.e.0.0.4.i.6.v.0.6.6.6.b.u.b.b.v.t.q.n.0.4.6.6.0.e.v.0.4.' 1.0.t.n.e.v.y.u.y.H.).).H.).H.P.H.H.u.u._._.H.u.H.H.).w.w.2.t.n.n.t.t.i.0.0.0.n.n.n.u.t.t.0.q.%.| 9.0.b.v.0.1.6.6.0.4.[ -.4.#.6.6.( Q 7.%.#.| ~ E @.} ) Q | | 0.7.0.q.} 7.6.4.q.4.4.a s.:.I U U L G h h G G / / P J G G G G G P / P G G G G P Q G h a a h G G G G G G G G L L L L G G s G G G G G G G s G L K s G G s a 9 a f n L m G a s s n L P L n s a q p a t m s a p s p p p p p p p a h s s s s L ^ P E W Q Q W I L P L L s U P L m G s G G H ",
"&.&.&.&.&...o.o.p.o.o...A Z ....o.o...A A b b b b A A A A A v b b b A o.o.o.a.Z A b  .p.&.o.p.o...o.O.&.%.&.&.7.].J.].L.0.8.v.l.g.h.;.%.%.v.h.4.l.h.v.z.h.l.z.b.z.z.&.&.&.&...p.&.z.p.&.;.p.&.o.p.&.o...A ....b A ..o.....o.o.A v p.&...^ ..X.&.&.+.( &.( ( , * l.M.M.z.h.5.8.;.8.h.8.8.;.f.;.;.f.f.f.;.f.f.z.v.M.M.v.z.h.h.h.f.h.z.h.l.8.h.l.;.8.8.l.h.l.8.h.;.8.l.l.8.8.z.l.8.8.;.;.8.8.;.;.-.;.;.&.;.&.;.f.f.;.;.&.&.&.{ { &.;.;.;.;.&.( ....J J J ..........( ( J ( ( J ( ( ( ( ( ( ( ( ( &.( [ { { #.-.-.#.#.*.;.{ { -.&.j %.3XN.e.t.t.0.4.6.0.0.t.6.6.6.n.0.6.6.r.H.b.b.e.0.t.t.v.6.q.q.5.t.t.t.r.4.{ 4.6.t.n.w.t.t.t.u._.).).).)._.P.H.P.P.H._._.P.y.u.P.H.y.6.6.t.n.n.v.t.e.i.i.t.n.n.n.u.i.e.0.6.#.} 8.v.n.b.q.*.6.q.6.4.` 4.8.*.q.7.~ E 9.7.#.[ ~ E &.#.) ^ | #.7.q.0.x.:.<.q.4.q.6.4.t C.9.Q ` Q / ^ P Q Q ( ( Q Q Q G G G P ^ P I G G G G G G G G Q L G ^ E G P ^ G G s s G G G G G L P L K K G P P I ( ( Q P L s s K s L s h h h m g a a g g s a a 9 a p a t t 9 9 p p a q 9 p 9 9 a s s G L L P W I Q I ^ Q Q Q P P U L n L K s s s s s L K P P P ",
";.p.&.&.o.J ..o.o.p.o...J A ..o.o.o...A J b b b b A F A  .A A A b b A o...o.o.A A v  .p.o.o.....$.o.O.&.&.%.%.5..X].].J.h.h.M.0.8.h.f.7.;.v.v.7.j.0.z.v.h.h.m.z.z.z.;.p.p.o...&.;.z.p.&.p.;.&.p.&.o.o.A A ..A b A ....A o.o.o.A v o.&.o.....X.+.&.+.+.&.&...; @ m.z.l.l.M.l.l.z.z.l.l.h.z.l.;.f.;.%.;.f.g.l.h.l.z.l.8.;.8.8.;.8.5.8.9.l.l.z.l.h.l.z.l.l.h.l.l.z.l.h.l.h.z.8.8.8.;.5.;.;.8.;.8.;.;.;.&.( [ ;.-.-.&.#.( &.[ ( &.;.&.&.( &.( ( &.&.&.....( J ( ( ( ( ( ( ( ( ( ( ( { { ( ;.;.{ { { { ;.;.-.-.-.-.-.-.-.;.;.5.-.&.j $.5Xb.e.0.t.t.4.6.t.6.t.t.q.0.t.0.6.6.v.H.b.n.r.0.t.0.n.6.q.4.0.v.t.t.t.4.{ 1.6.y.t.e.y.t.t.u.K.).H.H._.).H.H.P.u._.H.).H.b.K.u.H.y.6.6.t.U.n.t.t.i.t.q.0.v.n.n.t.i.0.6.-.#.| g.v.b.N.q.4.0.6.6.-.[ ;.8.4.6.5.~ Q q.8.4.+.[ ^ [ &.Q E @.} 0.0.h.v.7.:.6.:.4.0.:.i c.k.' [ ( I I Q P G G Q G G G G P J P P P Q P G Q Q / Q Q Q G G G G L P L P ^ G G L E P P ^ L K P Q I / ` / ( I L U Q I s s p a 9 p 7 a n n s a a a d p p 7 t r 9 7 t 9 8 t a a s s m L L L g L L L U L L L L E P P L L s g s g s s s s s K L U P P P P L P K ",
"p.&.&.......&.o...o.o.A A A ..o.o.o...J A A b b J A A A o.o.A b b  ..... .p...v F v Z p.a. . .v a... .p.;.p.;.f.].J.'.L.z.9.b.z.7.z.7.%.;.m.l.7.4.8.m.m.0.l.l.z.l.8.7.s.p... .p.8.h.;...;.f.p.o.p...o.A v ..Z b v ....Z ..o.Z A A o.....J ..&.&.#.( &.+.&...< @ l.z.z.l.0.l.z.l.h.8.z.z.z.j.z.;.f.;.8.z.z.z.z.z.8.z.z.z.8.z.z.z.z.z.z.z.z.l.z.h.l.z.z.z.z.h.8.8.f.8.8.;.;.&.&.( &.;.&.&.&.-.;.&.&.&.&.{ &.{ &.&.[ +.+.+.+.( { ( ( [ [ &.{ &.&.{ &.( ( &.{ { &.-.=.=.( ;.;.=.=.( =.( =.;.;.;.;.;.;.=.=.;.=.;.;.;.5.;.5.-.-.{ { j %.3Xv.0.v.n.t.4.6.6.0.t.6.0.0.t.6.5.5.K.K.n.n.r.0.0.6.v.4.q.e.t.v.e.v.e.6.} 4.5.t.y.r.y.6.y.y.H.).H.)._.).H.H.u.u._._.`.u.P.H.P.H.t.6.6.u.n.n.n.i.i.v.4.6.t.U.n.t.i.0.0.4.| [ 9.n.v.n.6.4.4.4.6.} ( #.8.;.4.7.` Q 4.6.| @.+.Q ) @._ n +.:.7.7.v.i.4.4.9.q.4.0.<.a Z.i.L I ^ G L L L P ^ P P L G L L G G L K L G K P Q Q P L s s L I Q P U P / / ` Q I P Q [ ` / ( ' [ [ ` / Q ^ G L P K s s s a s s g L L L n p t t r e w 4 r 5 7 9 d a s n L L L I W I ^ P U n L n L L W E I P L G s h h a a h a h G P W Q U P P P G G G h s H ",
";.&.&...o.J &.&.o...o...J A A o.o.o.o...A A A A A A A o.o.A b b v  .a.p...p. .A A b Z J v  . . . .a.o.%.;.;.%.8.].l.].H.l.b.v.m.h.g.7.;.%.z.0.7.&.9.v.M.h.z.l.l.h.0.7.%.$.....>.f.h.%...p.;.;.&. .p.( J A  .Z v A o.o.....o.Z A A o.&.....&...( &.~ &.+.+.~ < $ m.M.l.m.z.l.z.z.l.h.8.8.;.f.f.f.f.f.f.;.8.f.z.;.;.&.;.f.8.z.z.;.z.f.8.8.;.;.;.&.&.;.;.;.;.8.;.;.;.f.;.;.;.;.;.;.;.;.-.;.;.-.-.&.;.-.;.&.&.&.{ &.#.&.{ &.[ [ &.;.%.#.&.#.;.;.-.;.-.;.;.;.&.-.;.-.;.;.;.;.=.=.=.;.;.;.;.;.=.;.=.;.=.;.;.=.( ;.;.=.=.-.;.=.=.-.&.d >.&X6.t.t.t.0.7.0.q.6.t.e.0.t.v.6.4.4.e.b.K.e.r.0.7.8.t.:.0.v.b.t.0.t.e.q.-.0.1.t.b.b.b.w.w.u.y.).H.H.H.P.H.P.u.u._.P._.u.u.u.H.).w.2.q.n.n.U.t.t.i.t.q.q.t.n.u.t.0.6.q.4.| ) q.v.t.n.0.1.q.4.4.#.[ -.6.-.4.7.` Q %.;.%.| ) W [ #.) n | 4.| q.0.0.q.1.0.4.6.0.1.a c.x.` Q I / Q I I Y / / I Q I Q Q / / / / I / / ' { =.` Q Q / ` ` / / / ] } ' ' Y / ` ` ' ` / ( Q I P P L G s g s h g s s P ^ E ^ L n g s a a p 7 t e t t a a g n L s s s m L Q Q Q I P P U U P I P P P g s g s s a s G G G P ^ I P Q P U s s h p s s s s h G ",
"p.&.o...o.o.o.&.....o.....A A o.o.o...A A A A A ..o.o.o.......A v ..o.&.p.p. .A v b a... .a. .v p.....&.&.%.&.h.J.h.L.M.z.b.M.v.8.8.%.%.7.8.h.7.%.e.l.M.l.h.l.z.5.h.%.$.$.O...;.f.z.&.( &.%.p.&.p.o.p.v  .Z Z b A ..Z Z  .Z ..A J o.&.&.....&.&.&.&...[ #.~ < * z.l.z.0.h.z.l.l.z.l.h.h.8.f.;.;.f.;.f.f.8.;.;.;.;.;.;.;.;.;.;.;.;.;.;.&.&.p.&.&.&.#.&.;.;.;.8.8.8.8.r.r.z.8.z.8.8.8.8.5.;.8.;.8.8.8.8.8.;.-.;.;.%.4.;.;.;.8.8.8.8.;.8.;.8.8.8.r.8.8.5.2.-.-.=.-.=.;.;.;.;.;.r.;.;.;.=.;.;.;.;.=.=.=.;.r.;.=.;.=.=.;.-.-.;.;.=.d 7.#X6.0.0.t.e.4.0.0.4.v.t.t.t.t.6.4.6.y.b.y.y.8.t.7.0.v.4.0.b.n.t.6.v.6.#.*.6.5.e.y.b.b.t.w.t.u.K.P.K.)._.u.H.u.w.`.K._.H.u.H.H.H.w.1.6.t.n.n.v.n.t.t.q.q.t.n.u.t.6.0.6.4.@.~ q.i.t.n.6.4.q.6.-.#.` -.8.} ;.7.#.Q #.:.#.[ W n ) | ) n +.} #.q.i.e.0.4.6.4.6.6.} a C.B.1.-.*.*./ / ` ` [ { { { -.-.{ #.=.[ [ { ( [ ] { { ` ` / / ' { ` ( ( I / ( P L P Q ^ ^ P L G G J G G s g g n L L L E L g G g s g G g a p a a a a g n L m K K L L L U U I Q I ` ~ ` Q I I Q n s L s p a g n L G L ^ ^ L L E L U g s s s h h s s a s s s G G ",
"p.&.....o.&.o.o.o...Z ..A ..J A ..........A o.o.o.p.o.o...A A A  .o.....&.....J b b .. .J a... .^  ...p.&.&.;.M.J.e.].b.l.N.m.0.g.h.#.%.7.h.l.;.;.h.l.m.h.8.l.l.h.h.7.&.&.....&.f.h.&...&.&.&.o...p...A b J Z v A ..Z o. . .A A A o.....^ ..( ( { +.^ &.&.^ < @ z.8.l.h.0.8.e.h.8.l.8.;.8.8.k.h.8.z.z.8.8.8.8.8.z.8.z.z.z.l.z.z.8.f.8.8.8.8.8.h.h.;.h.h.l.l.z.l.z.z.z.l.8.r.8.8.8.8.r.l.8.5.5.l.l.8.8.8.l.l.8.8.8.8.6.e.z.8.e.8.8.r.8.e.8.5.5.5.2.;.5.-.=.{ 2.-.=.r.;.r.;.;.=.=.;.=.=.=.=.=.=.;.;.r.;.=.;.r.;.=.;.=.2.;.=.{ { j 7.1X4.h.8.q.0.4.e.q.7.t.t.0.6.0.6.5.6.b.K.l.l.8.t.#.0.t.;.q.l.n.0.t.b.6.4.*.5.5.r.y.y.r.r.6.u.P.P.K.K.K.P.P.H.u.w.`.K.).H.u.u.u.n.t.1.6.v.n.n.n.i.t.t.e.0.i.t.t.t.0.6.0.-.| ~ 4.t.t.v.t.1.4.6.-.{ [ 8.6.;.4.4.%.` 7.4.[ [ ~ W [ [ [ Q [ #.} 4.6.i.0.1.6.1.6.6.} a m.B.1.-.] ] ( / ` [ { -.=.[ [ Y ( ` ( ' / / / / ( I Q Q P I ( Q I L s L P L Q P g g g L G G L P L ^ ^ P g E L L L E L g p p p a g g p p s L L U U L U K G L I U I I ` ` ~ I ~ I ~ I W P U m n s s L L L P Q Q ^ P L G G J G a s h h h h h h g K K G G L G s q ",
"p... ...o...o.&.o.A A ....A A A A ..A o.o.o...o.p.o.o...A A ..A J p...p.a.....A b J .. ... ...( ..B X.f.;.#.%.M.].e.L.M.h.v.h.8.9.k.%.[ ;.l.h.9.5.h.l.l.l.7.l.l.z.7.;.p.o. .X.f.f.j.&.^ &.p.&.p...&...J  .A  .v v A  ...A ....A  ...( ....&.&.^ [ &.( X.&.^ , * z.C.b.K.M.M.b.M.z.K.M.z.l.l.l.l.l.z.l.l.l.r.8.z.z.r.z.r.b.l.l.r.8.r.8.8.8.8.l.l.e.l.8.e.K.r.K.l.z.r.z.r.r.r.r.8.;.8.r.r.l.8.r.l.l.e.v.v.l.l.l.e.0.l.e.l.l.l.r.8.r.;.8.8.r.e.5.5.5.;.=.;.;.=.;.5.r.r.;.=.=.;.=.=.=.=.=.;.=.;.;.=.;.;.r.;.r.r.;.r.5.5.;.2.;.=.;.j ;.&X8.b.t.4.4.6.v.4.-.r.e.0.5.0.6.r.q.b.n.l.r.e.e.4.h.y.4.0.b.t.0.t.v.4.-.| *.5.r.b.t.y.y.w.u.H.K.)._.P.P.U.K.P.3.).P.).H.t.P.H.u.t.1.6.t.v.n.t.t.i.t.6.q.w.u.v.t.0.6.6.4.@.) 0.t.i.v.0.4.4.4.4.#.[ 0.0.;.4.5.4.~ 4.#.#.} +.^ ) @.[ ! #.:.| q.4.6.6.1.t.1.6.1.*.i B.n.*.-.| { ' / ( ' ( / / ( Q Q ^ P ^ ^ G G G s s s L P L G s s G E Q / P G G J G J G G s L ^ Q G s G G G J G L s s g g s g s s p s s G L Q P I ^ I U P W I / Q ' ` Q Q ` I U m a a h n n K L P I Q Q Q Q P P P E G s s s s s s s h K s L L U P K s s q h h h ",
"Z ..J o...........o.A A ..A J J A ......o.o.o.....A A A A A A .. .p.p.&.o... .v z a.a.v  ...o.....Z o.>.$.&.&.N.].l.J.N.l.l.z.8.h.7.;.&.%.8.8.l.;.l.l.l.8.8.l.l.8.g.%.&.o...X.;.8.k.&...&.&.&...&...^  .v v  .b b ......A  ...Z  .......^ o.&.( &.$.&.( &.^ < @ z.K.K.K.b.b.n.M.K.l.l.K.l.K.r.l.e.K.K.z.r.l.y.P.r.z.K.z.K.K.K.M.l.l.l.K.K.K.l.z.b.z.K.l.r.l.e.l.r.l.r.r.l.l.l.z.K.z.z.z.l.z.8.r.8.l.l.e.8.e.e.8.0.8.0.8.r.8.5.5.8.8.8.5.-.5.5.-.-.{ ;.( ( { { { =.( ( ;.=.;.r.;.;.r.;.r.r.=.;.r.r.r.r.r.r.;.r.;.2.;.2.-.-.-.;.j >.1Xq.v.6.0.-.0.0.q.7.8.8.4.6.0.0.0.6.b.H.e.8.r.v.0.0.b.6.e.v.e.e.e.v.*.-.' *.6.r.y.b.y.r.r.u.H.P._.`.H.K.P.K.u.u.`.).P.u.t.H.u.H.w.1.q.u.n.N.t.t.t.b.q.6.q.n.t.t.t.6.6.} | ) 4.0.t.t.0.} q.6.4.#.[ q.5.;.7.-.#._ } 4.4.[ ) E +.| [ ~ | 4.-.#.6.q.4.q.6.4.0.4.*.i B.v./ / I ^ G G E P ^ G g L G G s h h h G J G L Q P L L g G L L L G G G s G s G G P G P ^ Q P Q G J G J J G J g g g g s s s s L L E P L P L P P P I ^ P I Q / I I / Q U m a 9 9 p s L L L P L P W P I U E L n L J s s a h s s s g L L L P U K G 0 s s G G U P ",
"....Z ........o.....A v A A A A A ..o...o...o.A A o.o.A A b A ....&.;.&.&.o.A b b  ...v J J a... .^ $.&.&.%.;.M.J.M.J.b.l.M.l.f.8.h.7.+.&.z.z.l.;.8.z.8.5.h.8.l.l.8.%.$.o. . .k.f.8.&.^ &.&.&.p.a... . . . .v v J o.Z o. .....b J ..^ ....o.&.( ;.&.{ ..( ^ ; * C.L.L.L.L.L.K.K.M.J.l.K.K.K.K.K.K.K.z.y.r.5.r.z.M.K.P.K.P.K.K.K.K.l.z.K.K.K.b.K.b.l.e.y.l.K.r.l.r.l.8.;.8.l.r.r.r.r.8.8.5.5.8.8.8.8.8.8.8.8.8.8.8.6.8.8.;.;.8.8.5.;.;.-.-.5.-.;.=.;.;.{ -.&.{ ( =.( =.=.;.;.=.2.=.r.;.=.;.=.;.r.r.r.r.=.r.;.=.r.2.-.-.;.{ { ( J %.#X6.l.6.0.q.0.e.4.q.h.7.4.v.6.6.e.6.n.b.b.8.e.b.8.v.y.;.8.e.l.0.6.r.#.*.[ -.6.y.y.u.y.t.w.H.H.H.H.`.P.P.P.`.u.u.K.K.P.P.w.H.H.n.t.q.6.n.v.n.0.t.t.t.0.1.6.t.t.t.t.q.6.:.[ ) 4.6.t.e.6.-.4.6.4.#.` 4.0.-.5.q.#._ } 7.#.] _ E [ { ~ ( #.%.-.} 6.0.} 6.t.4.q.4.} t Z.v.U K P G G G s s s s s s P P L G G G P G Q P L L L G G L L P L G G G G L L Q P Q G P P P P P G G J G g G j g s s s g L P L P P P P I P P I P P P P P L U I Q I P s a d p s m L L U L U U L n L K g L P L s s h a s s G G G L G L K G s G h G G K U P Q Y P ",
"..A Z Z Z J A ....A ..A J A ..J J o.o.o.A ......A o.A A A J b ..o.o.&.p... .v b v p. .J a. ..... .N &.) &.#.%.L.K.M.J.N.l.8.h.8.7.8.;.| %.8.h.l.;.8.h.5.;.g.l.l.8.7.%.&.X. .X.f.8.f.&. .p.;....... . .v a.v  .b A Z ..A A ....A A ....( ..( &.&.;.&.( ( (  .< ; J.L.L.L.K.K.J.J.K.K.K.K.K.l.l.K.r.r.r.e.y.z.z.P.z.K.M.K.M.b.z.z.K.z.K.b.b.b.K.K.b.l.l.r.l.l.8.r.z.8.r.5.;.8.8.z.l.r.8.8.8.;.;.;.5.0.h.0.8.5.;.9.8.8.8.5.5.-.-.;.;.5.4.5.;.-.5.-.;.-.{ ;.=.{ =.;.=.;.;.2.2.r.;.;.=.r.r.;.r.r.r.r.r.;.r.=.=.=.;.=.=.-.2.2.5.-.( G >. X0.b.t.t.8.0.0.4.8.8.8.4.0.6.4.0.0.b.b.l.6.8.b.e.y.b.r.;.b.e.e.0.e.-.[ { *.6.y.b.y.u.w.w.P._.*XK._.P.P.H.`.u.u.K.`.K.u.U.P.P.u.t.<.0.u.v.n.n.t.i.i.0.6.q.t.t.t.i.6.0.4.[ Q q.0.t.0.6.#.4.5.6.-.( %.8.4.7.6.-.[ 7.0.| ) _ W [ ] [ ) } 4.4.} 0.q.} 0.e.1.6.*.<.a B.B.T I Y Q P P P P I Q Q I ^ Q ^ G G P Q I Q P P K K G ^ L G G G P Q ^ P P Y P P P P Q Y Q Q Q I ^ G h p G G p L Q ( ~ / Q / Q I P P P I ~ Q Q I Q P ^ Q L L m n L L P U Q I Q I I W W P L g a s n n L g s a s G G G L L P L L G G G s L U U I I Q ` / / / Y ",
"o.A A Z J o.A Z ..A ..A b v ..Z A ..o.o...A A ....o.A b A A A ..o.&.&.......v z N o. .Z .... . .N  .&.&.>.&.%.J.L.M.L.N.0.l.0.g.;.8.;.%.;.9.h.M.5.h.8.;.;.l.z.l.8.%.%.&.o.! &.f.f.k.(  .&.;.o.o.....^  . .v v A Z Z  . .A  . .S A .. .....( %.;.&.{ ( &...^ ; $ M.L.L.L.L.K.L.K.K.L.K.K.J.K.K.K.b.K.M.K.K.K.K.K.K.K.b.P.l.y.z.K.M.K.z.K.l.l.K.l.l.r.l.K.8.l.l.r.8.8.;.;.-.-.;.;.-.-.-.;.=.;.;.-.;.5.7.7.8.;.;.-.-.{ ;.-.-.;.-.{ -.;.;.;.;.=.&.{ { =.-.5.r.r.r.r.r.r.r.r.r.r.r.r.r.r.r.r.;.r.r.r.r.r.r.;.;.;.=.;.=.;.;.;.=.{ { j 7.1X0.b.v.e.0.0.8.4.q.0.8.8.0.0.6.0.e.b.v.t.0.6.l.e.K.K.5.8.l.b.e.t.t.4.} { -.6.y.y.y.y.r.w.n._.`._.).H.y.P._.P.u.K.`.u.u.K.K.P.n.t.1.6.t.t.B.n.t.0.q.w.0.6.n.i.t.q.6.t.5.| ~ 4.0.t.0.4.} 4.0.6.} ) #.8.;.4.8.| { 4.9.#.` ^ Q +.#.) ~ } 4.#.{ t.q.<.t.0.6.6.] } a A.b.Y ' / Y J / ( / Q I Q Q / Y P G P Q P Y G P P / P P / P / ( / P / / / ( / / Q I Q Y / I L G G G G G J J G J / / / / G / Y ( / ( I I / I P L L U L P L n G L G U Q ` ` ` / / Q I U L s G G g G g s s s s g L L L L L L s s m L L L U Q I Q Q Q Q Y Q I Q I ",
"o...J A A A A A A J v A v v b A A ....J A A ....A A A J A A ....&.o.&.o...v v z Z .. . .~  . .N N ..&.%.%.+.>.'.J.H.].b.M.M.v.h.g.h.7.&.;.8.9.b.z.l.8.;.5.z.8.z.5.#.%... . .o.p.;.k.&...%.&.&.%.o..... .v  .v v v v Z  .Z  .O.A Z ..^ ....( &.%.&.&.[ X.~ ~ $ $ K.L.L.L.L.L.L.XXL.K.K.&XL.J.J.K.K.L.K.K.K.M.K.y.M.r.b.K.K.K.M.K.K.K.K.z.z.K.l.l.l.l.l.l.l.8.8.8.;.8.8.;.;.&.{ &.;.{ &.( { &.;.;.-.#.;.-.{ { &.-.( -.&.{ { =.=.;.-.-.;.;.;.;.r.2.8.8.5.5.;.r.r.r.r.r.;.r.r.;.r.r.r.r.z.r.r.r.;.;.;.;.;.;.;.=.;.=.=.{ =.( { { { G ;.1X6.l.v.6.5.0.0.4.8.0.8.7.0.0.0.6.r.n.e.e.4.6.z.r.e.b.5.8.l.e.q.6.e.{ [ *.4.w.u.K.y.y.r.r.u.)._.`.K.P.P.P.H.u.u.K.K.w.u.P.).P.u.q.1.i.n.t.n.t.t.t.6.i.t.i.t.t.t.i.0.6.4.+.[ 4.0.w.0.4.{ 5.0.6.4.` #.q.-.4.8.;.| } 8.;.[ ! n | @.[ ) } } 4.} 0.7.] t.t.6.q.<.1.s L.l.Y Y G Y Y Y I I I I P P G J G G P Q G G P P P / / ( ( ' ' / / / ` / / Y G / / / ( ( ( L s G J G J P P ( Y G / G / ' / ' ' / Y P P I P U P P P L G g L P I Q I I I ' [ { { ( L U m n G L s s s g L g U L L L G G s s g L L U U I I Q U ` I Q Y Q U K L U U ",
"o.o.A ..v ....Z A A A A A b v A A A ..A ..A ..A o.A A A A A ..A o.&.&.....v b b  . . . .N .. .Z N o.&.&.&.X.7.].b.b.J.J.J.b.N.h.8.g.f.#.;.h.g.b.M.h.;.h.8.8.8.z.7.&.#.&.B B +.;.;.;.&...;.;.&.;.&.&.v  . . .b v Z A Z Z  . ...A  . .....X.X.&.&.&.&.&.( ( ~ ; < L.K.L.K.K.L.L.K.K.L.K.K.J.J.K.K.K.K.K.K.K.z.M.K.K.z.b.z.r.z.b.K.K.l.l.z.l.l.l.l.r.l.h.;.;.;.;.;.;.;.;.;.;.;.;.;.;.-.-.;.&.&.&.;.;.#.#.#.-.;.-.;.8.;.-.;.;.;.;.8.;.2.;.8.2.8.r.r.r.r.r.z.r.r.r.r.r.r.r.r.;.=.=.=.8.;.;.r.;.=.=.;.( ( ( J ( ( =.=.;.2.=.=.=.{ ( j ;.oX5.8.t.6.1.5.4.7.0.0.0.4.4.v.0.0.t.b.v.0.6.5.b.r.l.e.5.5.l.e.0.0.e.#.[ =.4.y.u.H.u.y.y.r.y.H.K.`.).P.u.H.).P.w.u.).w.u.P.P.U.y.6.4.u.t.6.n.n.i.6.1.6.0.t.n.t.u.6.6.q.4.| ) 4.t.6.6.4.| 4.e.6.4.[ } 8.-.4.0.#.( } 8.-.| Q M [ | ^ Q #.<.#.4.0.7.] 6.w.6.q.} 4.g A.e.' Y / / / ( / / Y I G G G J Y / / P Q J P / / =.{ =.' ( ' Y / / ` / / ^ Q Q J P E L L G P P P P / / ' / / =.' ' ( ' ' J Y P I / Y ` / ` Q U G s K P / / / / ` ] ] { ` ` I U U U L s G s s h L L L L g G G s h s G U P U Q I P U I U U Q Q I L m L L U U I ",
"o.J A A A v ..Z A J b J A v b b b A A A ..A J A A A A A A o.o.J o.&..... .v v v o. .B  .N  . .B B ..+.&.o.&.8.].M.K.l.J.b.n.N.g.z.;.%.&.;.h.;.M.8.8.8.8.z.8.8.z.l.;.+.+. . ...;.f.;.....&.&.&.;.&.o. . . .v z v  .N N A N Z ..Z  ... .( ( [ ;.&.&.;.&.X.( ..< $ L.L.K.K.K.L.J.J.K.K.K.L.K.J.L.K.L.L.K.L.K.K.K.K.K.K.K.r.z.r.8.8.8.l.8.8.8.8.8.8.8.l.h.8.;.;.&.;.;.&.{ -.;.&.{ &.( ( -.&.;.{ ;.;.-.5.;.8.8.8.8.8.;.5.5.;.;.5.8.8.r.r.r.r.r.r.z.r.r.z.r.r.r.z.r.8.r.;.;.=.=.;.;.=.=.;.2.r.;.=.=.=.=.=.;.=.;.=.;.;.2.;.;.=.=.( { G %.3X5.5.e.4.4.6.;.4.4.4.4.4.-.e.0.6.t.t.e.l.5.6.b.6.b.b.5.5.b.r.6.0.e.4.} *.6.r.y.K.y.y.r.y.u.K._.K.H.P.P.H.P.P.u.3.P.u.u.u.u.u.t.6.6.t.n.6.t.n.t.6.4.6.i.t.t.t.t.6.4.e.6.| | 4.i.0.0.1.} 4.r.0.4.| +.4.-.4.8.-.[ #.7.4.[ ~ M W | ! Q } #.#.4.0.1.{ t.0.4.1.4.1.g A.b.' ' ' ' Y U K P L G P Q Q Y G J G P Y Y Y / P P / / ( =.( ' ( ` ` ` G G G G G G G G L ^ P P / / / / / / ' ' ' ' =.G G G G I ' { ' ` ` Q U L U I I Q ` ` ' ' { ' ` / P U U L L h G K g K L K L G K L G G h s L P P Q Q Q I Q U L U _ Q I U K K U I Q Q U U ",
"o.A A A J A Z o.J A A A J b v b b A A A J A A A A b A A o.o...A ..p.&... .B v N .. . .o.N V .. .N o.&.&.+.&.v.'.b.J.J.L.K.l.b.v.l.;.&.+.;.h.8.b.5.h.8.8.z.;.8.z.8.;.&.&. .B ..;.;.f.....&.&.&.;.&.$.^  .Z B z N v A v v Z  ...A  . . .J a.&.;.&.;.;.+.~ ( X.; $ K.K.J.J.L.K.L.K.L.L.L.K.J.J.J.L.K.K.L.L.K.M.y.K.K.z.z.z.z.z.z.z.z.z.;.;.&.;.;.;.;.p.{ ;.&.;.;.p.;.;.;.8.8.8.;.;.;.;.;.z.8.8.;.8.8.8.l.8.8.;.8.;.5.8.r.l.l.l.8.r.r.l.r.z.r.r.z.z.r.r.r.8.r.8.;.=.;.=.=.;.2.r.2.;.r.;.r.r.8.r.;.;.;.r.r.;.r.;.r.;.r.;.r.;.=.=.;.G ;.&X8.l.0.6.q.4.#.*.q.4.-.4.6.0.0.5.0.b.v.e.1.6.b.8.e.K.-.5.l.e.6.e.r.4.-.} 6.y.y.y.n.u.w.u.u.K._.K.P._.u.P.H.H.y.w.u.u.u.H.u.u.y.6.6.n.t.t.t.v.v.6.6.0.i.t.n.t.t.0.4.0.6.@.| 4.0.6.6.4.<.4.0.0.4.&.| 4.4.8.6.#.} ;.;.#.] ~ E ^ | ( ~ #.| 4.#.6.4.} t.t.q.} 1.1.m Y.t.' ' Y G Y Q P G Q Q P P P J G ' G Y / / / / ' / Y ( =.( ' / Q P G G G G G G Q I I / / I I / ' =.=.Y / ' =.' ' G G G / / ' ' ' ` ` / P K U U Y ` ` ] { } ] ' / I I I I U G G h G K G s G L s m s s G G G E ^ U Q P I I Q Q L P Q Q U L m m U U U I U K K K ",
"..o.A J A o.A ..J b A A J Z A b b J b b b A A b b A A J ......o.o.&.....B v S Z .... .X.!  ...B B #.#.%.o.+.M.B.l.L.L.J.l.l.l.l.8.%.#.( ;.l.9.m.8.l.;.h.5.{ l.h.8.;.+.&.!  .X.f.f.8...~ &.&.&.p.( &. .A Z A v A  .A v S b  .A v  . .J  .o.( ;.&.;.%.+.~ +.~ , $ L.K.L.K.z.K.J.K.K.K.K.K.K.K.K.K.K.K.y.K.b.z.z.l.z.z.r.z.;.;.;.;.;.&.&.;.&.&.&.&.&.;.;.&.;.;.;.;.f.8.r.z.8.8.8.r.;.-.r.8.;.r.r.8.8.r.5.r.l.b.l.r.r.r.5.K.l.r.r.K.z.y.z.P.r.z.z.r.8.8.r.r.8.8.2.;.;.{ ;.=.=.=.;.r.r.r.r.r.r.8.r.;.;.r.r.r.r.r.r.r.r.r.2.;.;.;.&.j #.oX6.r.e.t.0.#.} -.;.-.-.0.0.6.e.5.5.b.v.0.4.6.b.e.e.b.4.6.v.0.0.e.8.-.} } 6.r.y.y.y.y.y.y.y.P.K.K.P.u.y.u.P.H.y.r.y.w.t.n.H.u.u.6.i.y.t.t.n.n.v.t.i.t.t.t.n.i.t.q.6.0.6.#.| 4.6.t.0.0.*.4.r.0.2.} -.0.-.5.4.;.Q } } #.[ _ W [ } ) ~ 4.*.4.| t.q.} v.e.-.' 1.4.f }.n.' ' ' ' ' ' { =.` ' ' ' ' ' { =.' ' ' ' ' { ( / / P / G G G h G G P G J Q / I Q I / Q I / / ' / / ' ' ' Y G G G ' / ' ' ' ( ` I U L G U I ` ' ' ] ` ' ' / P I / / P L s a 0 s s s h s L G s K s G L P P P I I I Q Q U U U L U W m m K U I L W U K m m m K ",
"A A A A ....A ..A A J A A J A v b b A b A A b J b J A A ..A J o.&.&... .B z v Z o. . .~ .. ...v V %.%.&.o.%.v.b.z.K.K.M.l.h.8.l.e.;.%.+.;.8.h.l.l.h.8.f.8.;.8.5.7.;.+.o.! B &.f.f.;.Q ..{ &.&.&.&.&.v  . .Z N N A B N A v ..Z v  . .J J ( ..&.( %.p.+.~ ( ! < < z.K.z.L.K.K.8.r.r.l.l.l.l.K.z.b.K.M.z.K.z.z.z.8.;.;.;.;.&.;.{ &.;.;.8.;.;.;.;.;.;.&.;.;.;.f.8.;.;.l.8.8.z.5.r.r.l.l.r.8.r.8.8.r.r.5.5.r.r.r.l.8.8.r.8.r.r.l.r.l.y.r.r.r.z.r.r.r.r.r.r.r.2.2.;.=.=.( { ( ;.;.;.=.8.8.r.8.;.r.8.r.r.z.r.r.r.r.r.r.r.r.2.r.=.=.-.G %.oX*.e.e.6.6.-.} #.} -.4.e.6.4.0.6.0.t.e.6.6.6.b.e.b.e.*.4.t.r.6.0.6.} ' } 6.t.e.y.y.y.y.y.H.P._.K.K.K.y.y.u.H.y.w.y.t.u.n.n.u.w.q.u.t.i.i.t.t.t.t.t.i.t.t.u.t.i.6.6.6.6.#.#.1.4.0.e.0.4.4.6.0.5.{ -.0.4.-.4.-.~ } 4.-.) ! ^ ~ [ ) ( 4.#.4.-.e.q.4.e.0.#.( *.4.m '.`.r.r.5.5.*.=.*.=.=.{ { =.=.' ' ' =.' / ' Y J G G G G G P G G G J G G G G / / Q / / / P / ' Y ' / / ' / / Y / / ' ' ' =.' Y I P U K K I / ` ] *.] ` ' Y P Y / Y P K G s s s G s h q h s s 0 s s s L L P Y I Q I ` Q P L L L P U K m L U I W L U K 0 m m K m ",
"..o...A A ....Z A v A A v A A b J A b J b A ..b b A ..A A J ..p.$... . .N k v V o.B .. .^ .... . .&.#.%.X.&.z.l.8.L.L.z.8.z.;.9.9.;.#.%.#.;.l.l.8.h.8.8.h.;.h.;.;.%.+.&. . .+.;.f.;... .&.&.&.&.&.p.J v  . .v Z N A N N  . .A A .. . . .( &.{ &.;.%.( ( &.~ # $ z.L.z.K.z.z.z.l.K.r.l.r.;.l.l.h.8.8.8.8.z.8.;.;.&.;.&.o.( ( ( &.&.&.f.;.;.;.;.;.;.;.;.8.8.;.8.;.8.;.8.r.8.z.z.z.r.y.l.r.r.r.l.r.;.e.e.e.r.5.5.r.l.l.l.l.K.r.K.r.z.r.r.r.r.8.r.r.;.;.;.r.2.;.{ { ( ( ;.{ =.=.r.;.r.z.r.r.r.r.;.r.r.r.r.;.r.z.r.r.;.2.;.=.=.;.{ G &.XX-.l.8.5.6.4.-.| #.} 4.v.0.*.q.6.0.b.v.6.1.4.b.l.e.b.} 6.l.8.0.0.0.] | 4.2.r.K.K.u.r.r.r.n.u.K._._.P.y.w.u.P.u.n.H.r.u.H.u.w.t.e.t.n.t.6.v.n.t.t.t.v.i.n.v.t.q.6.6.6.6.} <.#.<.e.6.6.} q.0.r.6.| | 0.4.-.4.-.( #.4.%.| ^ E ~ | ~ | 4.*.4.4.0.4.1.t.e.} / -.q.f }.*X5.2.2.2.=.=.=.{ *.=.=.*.=.=./ / ' / G Y G G G G J J P P P Q P Q Q Q P / P P / / ' ( I ' ' Y / ' =./ Y ' G G ' { =.' ' / ' Y P P U Q ` ' ] ] } ] ' ` / / ` ( P G G 0 s G G s s h 9 q h h G G L K G K K I / / ` I I n s K Q L K m U W U L L U U K K m K K K ",
" . .A  .a.v  . .v  .v  .v v a.v A J A A J b A v b J J ..A b ..o.o...^  .z z b ~ o. .o. . ... .v  .X.+.&. .#.l.8.8.J..Xl.8.h.f.8.;.;.#.;.;.8.m.z.8.8.;.h.f.7.h.;.;.;.&.&...V ..%.%.%.......+.&.;.( &.^ v  . .z  .v v A a. .A v v .. .^  .( [ ( ;.%.;.( ~ o.^ $ < m.e.l.l.8.e.0.8.h.0.l.l.h.8.;.f.z.z.z.8.;.;.f.k.f.;.p.&.&.&.&.&.;.;.;.;.;.f.8.;.z.z.8.z.8.8.z.8.r.z.z.y.y.z.r.r.z.r.r.r.r.r.r.z.;.r.r.r.r.r.r.r.r.z.z.z.K.r.z.r.r.r.r.r.r.8.;.;.2.;.2.;.=.{ ( { =.-.-.;.=.;.r.2.r.r.r.;.2.;.r.;.8.r.8.8.8.4.6.5.-.-.;.{ ] ( ( p ;.].-.b.r.5.-.4.#.} ;.5.-.e.0.4.4.6.t.b.v.0.4.5.v.b.e.v.} *.e.e.r.0.0.} } 4.4.t.t.H.n.r.w.y.b.u.K._._.P.y.w.y.K.y.u.n.w.u.u.u.w.3.w.u.t.t.i.t.u.i.i.t.n.t.t.n.v.6.1.0.q.6.6.} } } 6.6.5.4.-.6.6.6.} #.-.-.} 8.-.P #.4.#.| ^ M ~ | Q [ 4.| } 4.6.4.} 6.0.} ' q.q.n '._.2.5.2.*.2.=.=.=.=.=.( =.( Y G G G G J G P P P / P / ( / J Q / ' / / / / / I / ' } ' / / ' / ( ( Y Y P ' ' ' *.*.=./ J G ' P K P / ] ] ] ] ] ` / P P ( ` Y Y G G G G G G s h q 9 9 h h L U K K G L I I I Y ` I I U m K U U L K K L I _ U U U L R K m m K K ",
" . .a.v v  .v v  .A A  .a. .v v A A J A b v v b b b A ..A J o.o.o.)  .v z k v  ...~ ..!  .^  .v X.+.O.o.! %.M.h.l.l.XXb.l.h.8.g.&.#.+.%.;.8.m.l.8.%.4.h.8.5.l.#.8.;.X.+...B ( f.;.+.~ ..~ +.&.%...&.v  . .v v v v  . .v  .A b Z ..^  .X.&.&.X.&.%.$.) +.( ^ > $ m.l.l.8.8.8.h.e.8.4.8.l.8.;.&.&.&.&.&.;.;.;.;.p.;.&.;.;.;.;.;.8.;.8.;.;.;.;.8.;.;.8.;.;.8.8.8.r.r.r.r.z.r.l.P.z.r.r.z.P.z.P.r.r.r.r.8.2.8.r.r.r.K.K.r.K.K.K.z.z.r.r.l.r.r.r.r.r.r.r.;.;.;.=.=.;.-.5.2.r.=.2.;.r.;.2.2.r.r.r.2.r.8.6.5.5.-.{ } #.] { [ { [ ' ` e ;.].5.e.8.8.r.5.*.4.5.4.8.5.6.4.6.6.e.b.b.r.6.0.b.e.r.y.4.4.e.l.8.6.8.-.*.*.5.t.y.u.n.y.w.r.K.u.P.`.H.K.w.w.u.u.u.H.u.t.n.n.u.t.3.w.U.n.t.i.t.n.v.t.t.n.t.i.i.t.6.6.6.6.4.4.4.<.{ 4.6.4.4.-.q.0.0.} } -.-.-.4.-.P #.} &.| Q E [ [ _ [ 4.#.} -.0.4.*.6.e.#.` 4.4.n '._.2.*.=.=.=.' ' ( / P G J G G G J P Y P / / / / / / P P P / Q / Q / P ( ' ' ] } ' ( T ' / ' ' Y Q Y P / { =.=.{ { ' ' G / G P P ' ' ] ] } ] ` I P I ' ' / Q Y P H P Q G G G h h h 0 g G L m G G G P P / I I Q I U m K W W m n L W I I I I I U K m m K K K K ",
" . .v  .v  .v  .v v  .v v a.v  .Z A A A A b v b A b ....J ..&.&... . .N z z B ..o.~  .V .. .Z B +.&.~ ..! %.l.5.l.M.J.M.b.8.8.h.&.%.+.#.h.8.z.l.8.g.7.8.;.l.l.-.;.%.) ....V +.%.;.%. .) ~ +.%.#.( &.v  . .v v  .A v v a.v A v a... ...( &...( ;.%.#.( .. .^ , $ v.m.l.8.h.h.8.8.5.7.;.;.&.;.;.%.;.&.;.&.&.;.;.&.&.;.;.;.;.f.;.&.;.;.8.8.;.;.8.z.8.r.z.l.z.r.r.z.z.r.y.y.z.y.z.r.r.z.z.r.r.z.z.r.r.r.z.r.r.r.z.r.r.z.z.r.r.r.r.r.r.5.r.r.r.;.r.2.;.;.=.=.=.{ =.;.2.r.5.2.r.2.;.2.r.;.r.;.=.;.;.;.*.-.#.{ { ( ~ ( { { { &.{ { ' 5 ;.L.;.r.r.e.8.5.*.4.-.4.;.*.5.6.8.6.e.y.y.e.4.e.e.r.e.e.*.6.l.8.8.6.q.*.-.} 1.r.y.u.y.t.e.w.H.H.u._.).P.u.y.y.H.y.n.t.w.n.u.u.t.q.i.U.i.i.t.t.U.t.t.i.t.t.t.t.t.2.i.6.1.4.1.1.4.{ <.4.6.4.1.6.6.6.#.#.-.-.-.5.} E | #.[ [ ! Q ) ( Q [ *.*.| } 0.-.4.6.q.4.| 4.1.m '._.2.=.=.' Y Y Y Y Y / P G G P P Y / / Y Y / / Y / / / P / / P P P P / ` ' ' } ' ' / ' Y / / P G G G Q / ' =.=.=.' ' ' Y G G P ' *.{ ] ` ' / I P P / [ / Y P Y G G I G G G h h 9 h h s s s K g G P I Q Y Y ` Y I L L U W U n m K U _ Q _ Q I Q U U m m L L U ",
"v J a. .v  .v a.a.v v b v  . .A J b ..A A v A v ..v Z ..v ..o... .! B S z b B  . . . .B !  .v c $.&..... .;.z.7.0.b.K.N.l.;.l.h.&.%.+.#.;.h.b.z.h.8.8.7.;.l.l.9.5.%.( +...N +.;.;.&.! X.+.~ &.&...a.v  . .v b  . . .v  . .v v v ..~ ....( [ &.&.&.&.(  .^ ^ ; < m.e.8.9.5.;.;.;.;.5.7.8.z.8.l.8.8.z.z.8.z.z.8.;.;.h.f.;.;.;.;.8.z.8.8.8.8.8.8.8.h.l.8.8.r.r.l.r.r.z.r.r.z.r.r.r.r.z.r.r.r.r.r.r.r.r.r.z.r.r.r.r.z.r.8.r.z.r.r.r.r.r.r.;.;.=.;.;.;.2.;.=.( ( ;.=.;.5.5.5.;.2.=.2.r.r.2.2.;.=.=.{ { *.{ ( ( ~ ( ( %.#.-.#.#.{ [ 9 ;.XX;.r.;.r.6.-.4.4.*.6.-.] 6.*.5.r.y.y.r.e.4.t.e.8.v.e.=.4.y.l.8.8.6.-.4.{ *.w.y.u.y.t.w.t.n.H.u._.P.P.u.w.u.P.n.H.u.u.u.b.u.u.2.q.n.t.6.w.t.n.t.6.t.6.t.t.v.t.6.i.q.4.6.1.4.6.} { *.0.q.1.5.5.5.} } 4.] #.4.#.E :.} } +.Q ^ _ ~ ~ | -.{ } #.4.4.6.1.4.q.| 6.1.m T.).2.r.*.*.' =.Y / Y P G Y / / ( Y Y Y Y / / / Y Y Y P Y Y / P I ( ' ] ] ' ' ] ` Y / / =.' / / / P / ( / { ` ' ' ' / G Y G G I [ { *.] } ` I I I U L Y / / P G P G G G G G h h q h G L s s G s U I Y / ( ` I I U K s L I U n K s m I ` ` _ Y I _ ` Q U U K U ",
"v  .Z  .v  .v v A v  .l Z  .v  .A A v v v A A A A J ........&... .B v v b N B  .v )  .B B ! N  .&.&. ...~ %.l.5.N.J.b.H.b.8.M.h.+.%.+.#.;.l.8.8.0.9.7.5.5.z.l.l.8.%.&.....B X.;.h.&.~ ..+.+.+.X.( ^ v v  .v z Z v  .v a. . .A  ... .^  .( ..( ;.;.&.) ! ! c , $ z.l.l.h.8.;.8.;.8.h.8.8.8.l.l.l.z.z.8.z.8.;.;.;.h.f.8.z.z.8.l.z.z.8.8.8.;.8.z.z.z.r.;.r.r.z.z.b.z.r.y.r.r.r.r.P.y.r.r.z.r.P.z.r.r.r.r.r.r.r.K.K.K.K.r.r.z.r.r.r.r.8.r.=.;.;.;.r.;.=.;.{ =.=.;.;.2.5.5.;.r.r.;.5.2.;.r.=.=.;.( { Q ( Q ~ ^ ^ ^ Q Q ( ( ( [ ( [ p ;.XX8.5.-.r.8.*.*.4.-.;.5.=.8.-.*.y.y.y.y.5.-.b.e.q.t.e.4.r.e.e.6.r.8.4.4.{ 4.e.y.y.y.t.r.t.H.H.H._.H.u.y.y.y.u.u.n.n.y.H.n.n.y.6.i.u.u.i.t.t.n.u.i.6.w.i.t.n.i.6.w.6.6.6.<.4.6.[ { 1.i.q.-.4.6.4.[ { #.{ ] 5.} I %.#.[ | ~ ~ Q Q | | ;.-.{ 6.8.-.0.4.4.4.4.6.:.G ].K.2.*.=.=.Y Y Y P P P P Y ' Y ' / ' ( ' ' Y Y / / P Y / / Y / ` ' { { } } ] ] ] T I ` ' ( I I P K I ' Y ' { ' Y Y Y Y I P G G / ` ' ' ' ` / I Q I I P I / / Q P G G K K G s G G h G G G s h h P I I Y Q T ` Y I I P m U U U P L L m L U ` _ ` ` _ I ` U U U ",
"J Z Z J  . .v  . .b v z Z v  . .J Z v v J A ..A ..Z Z Z ....o... .V v v z v  .~ v ..Z B  . .^ ! &.+.) ..! +.l.8.M.L.v.b.l.l.l.l.&.#.X.#.f.h.;.h.l.9.7.;.h.l.l.z.f.#.) +.~ B X.f.f.%...~ +.+.&.{ .. .v  . .v l v  .b v  .v  .v v .. .^ ^ ( &.&.&.;.+. .^ ! B , $ m.0.l.9.g.8.;.h.f.h.h.l.l.z.h.z.z.8.z.8.;.;.;.;.f.;.;.8.8.z.z.l.z.8.z.8.8.z.r.8.8.8.5.8.l.r.r.l.K.z.K.r.r.r.r.z.r.K.y.y.r.z.r.P.z.r.r.z.r.z.K.z.P.r.z.r.r.;.r.r.-.r.;.=.2.2.r.=.=.;.=.=.;.;.2.=.;.;.r.r.r.r.r.r.r.r.2.;.;.=.=.{ ( ( ^ ^ Q Q ( ~ ^ ^ ^ E Q L P e ;.L.;.5.r.r.8.-.=.2.-.5.-.5.r.*.-.r.y.r.y.6.5.b.e.4.r.t.8.6.e.e.5.8.6.-.4.} *.e.t.y.t.w.w.t.t.H.H.H.u.t.y.u.u.y.H.H.y.u.u.y.H.w.6.t.u.i.t.t.t.i.t.t.i.i.6.t.v.t.6.w.6.6.6.4.1.4.' [ 4.t.4.4.1.6.4.( { #.#.} 6.#.Q 4.#.] [ E E _ ~ [ ( } } #.q.4.4.q.q.4.} q.4.} s *XK.=.=.=.' Y Y P P G G G Y Y ' Y ' ' ' =.=.' ' / =.' ' / ' Y ` { ` ` ` / ' } ] ] ] ' ' Y I / I P I ( ' { ' ' ( ' ' / ' / / P s P ' ' [ { ' ` / I P P L P / I I I P G G L G s q h h G G G G G m U I I Q I I ` / ` Q Q U L L L L L U L L m m U Q _ Y T Q Q T _ ",
"J  .Z  .v v  .v v v v v Z  .Z  .A A A b b ....J ..J A J ..&..... .B S z z v B  .^ ..B !  . .l B #.X...! ~ g.l.5.M.].M.b.b.l.8.l.#.%.[ %.7.h.;.8.l.;.7.5.8.l.e.l.8.&.+.+. .B o.7.f.&.~ o.X.+.&.&.&. .v  .v v Z Z v v v  . . .v  .o.v ^ ..( X.( +.&.&. .^ B ^ w $ z.e.h.8.l.8.h.h.8.8.8.l.l.z.l.l.z.l.r.8.z.8.;.;.;.;.f.;.;.8.8.8.8.z.r.z.z.r.r.8.r.r.l.8.r.r.l.l.r.y.r.z.z.P.y.r.r.z.r.z.y.K.y.z.r.P.r.r.K.r.z.r.r.r.r.r.r.r.8.r.r.2.2.-.2.2.-.;.;.r.=.;.=.;.;.2.2.r.8.r.r.5.r.r.r.r.;.2.r.2.;.;.=.{ &.( [ ~ Q ^ Q ! ~ +.[ ^ ^ e 8.L.*.r.;.r.-.*.-.} 1.6.r.5.e.*.5.y.y.y.y.r.5.r.6.5.t.r.5.r.r.8.4.8.*.} 4.-.*.6.t.t.y.e.r.t.r.n.J.H.H.u.y.y.y.u.H.n.u.y.H.w.u.w.t.t.u.t.6.t.n.n.u.i.t.t.6.n.u.t.6.w.6.6.6.1.1.1.] [ 4.6.q.-.1.6.4.Q [ 4.-.} 8.#.` 4.} #.+.W M _ ~ ~ ( #.| } 6.} -.6.} } { 4.q.] s L.K.3.=.' T ' Y P P P Y P Y P G ' / ' ' ' ' =.' ' ' ' ' / ' Y / ` ` ` ` / Y ' ] ] ' ` / / I Q I P / ` ' ' { ' ' { { =.' ' Y Y P G P [ ' ' ' ` ' / / P P P / / G Q I I I L K G H h 0 G L L G s s m U I Q Y Q Y I Q Q Y ` ` I I L L m U U L L n m U I T ` _ _ ` ",
"J ..Z J  .v v v a.v v .. .Z  . .J o.A v A J A ..o.A J J &.( ......A v k z B B  . ...B  .! ^ v  .&.+.X. .~ l.l.6.l.J.J.z.l.e.z.g.;.%.+.%.5.l.7.l.e.8.;.9.l.8.e.l.;.#.[ &...v X.;.;.#.! ..&.#.~ ) o.J v v  .v v Z v v  .a.a. .v  . .J  ...! &.( &.;.(  .^ ^ ^ , $ l.l.l.z.z.b.M.l.z.l.h.8.l.l.z.l.z.z.z.z.8.8.8.z.h.8.8.8.8.8.l.8.l.z.8.z.8.;.r.r.8.z.e.K.z.K.K.y.z.y.y.K.K.K.y.K.K.r.P.r.r.r.P.K.K.y.y.y.r.r.r.z.r.r.8.r.r.8.r.;.2.;.2.2.;.=.=.=.=.2.r.;.r.r.;.r.;.r.r.r.r.r.r.r.r.2.r.r.;.r.2.{ { ( &.Q ~ ! ^ ^ ~ ~ ( ( ~ ( Q 5 ;.XX-.e.*.5.-.*.q.-.5.5.8.-.y.*.-.r.r.e.y.;.5.l.;.5.y.5.4.e.e.8.*.6.4.} { 4.1.6.t.b.t.w.t.t.y.H.H.H.H.y.r.y.w.u.u.H.u.u.u.t.y.r.t.t.i.t.t.t.t.u.t.i.t.v.6.t.i.i.w.6.6.t.0.1.q.q.[ ' 0.6.} } 4.0.*.( ' 0.-.{ 6.} [ 7.4.| [ W M Q [ ~ ( { #.} 4.*.4.6.4.-.} 4.1.1.s L.K.=.=.=.' Y Y Y Y Y P Y Y Y ' Y Y Y ' { { =.=.' ' Y / ' ' ( ` ` ` ` ` _ ' ' ] ] ' ` ` / P I G Q [ ` ` { { ' { =.*.{ =.=.' ' Y Y Y ] { ` ' ` [ ' / Q I I I ( ' I Q I I I P U G s H h G P L L 0 s K L U I T Q I ` Q ` Q Q ` Q Q I U L L U U U L K m m m U Q I ",
"J Z J Z Z J A A N z Z ..B v  . .z  . .v  .J c ..o.J J ..o.o.....! N z k S B  . ...) v  . .B l ! &.%.X. .[ v.l.-.K.K.l.e.b.r.8.;.#.&.X.%.;.9.5.z.l.7.;.5.h.8.e.l.;.&.( #. .B ..;.%.&. . .( &.~ &...v  . .A v v  .v v v  ... .v  ...^ ..( ( ( X.&.#.) ..! ! ^ , $ 8.h.l.8.h.b.l.z.r.z.l.8.l.8.l.z.z.l.z.z.z.8.8.z.8.;.h.f.;.f.z.8.z.8.z.z.l.l.z.P.z.y.r.K.z.y.y.z.P.y.r.P.z.K.z.K.z.r.K.y.z.r.y.K.K.z.z.r.r.y.r.r.r.r.;.;.r.r.r.r.r.r.;.r.r.;.=.=.;.r.r.r.;.;.r.r.r.;.2.;.r.r.z.r.l.l.r.5.2.-.;.-.#.{ { ! c c ^ ~ Q ~ ~ ~ ~ ~ Q e 8.J.-.5.-.-.2.4.*.4.5.5.5.5.e.*.*.y.r.y.b.-.-.e.4.0.b.r.0.e.e.0.4.5.-.#.*.4.4.t.y.t.r.t.e.t.r.n.H.J.H.u.t.y.w.u.H.H.u.u.u.w.u.w.3.t.u.w.t.i.n.i.i.i.v.t.6.t.6.t.6.6.t.i.6.1.<.1.{ ` 0.0.} 1.} 6.*.` [ 8.8.{ } } [ 4.} } ( M g ) ) ~ _ } { | 4.#.6.4.` 4.1.4.4.1.g I.H.*.=.=.=.Y =.=.Y Y Y Y Y Y Y Y ' =.=.=.=.=.' ' =.=.' ( =./ ' { ' / I P Y ` ' ] } ' ` T I P P P / ( ` ` ` Y ' =.*.*.*.} } ] ] { ] ' T Y T ` ] ' ` ' ` ` I I / ` ( / / / / Q Q U K K m K U L U s s 0 K K K K I U P I Q Q Q Q T Q I Q I I Q I I L m K K m m m ",
"J  . .Z  . .v v B z  .B Z v  . .v a. . .A v v ..o.A J &.o...^ ^ N N z k N B ^ ! X... . .V B v ! +.+.X.! %.e.0.4.l.l.e.8.l.8.z.7.#.+.~ #.-.7.8.l.r.;.8.e.9.-.l.l.;.#.&.&.! ^ ..&.#.&. .^ ~ +...&... .c J v z v  .v v v  . .Z v  .!  . .( &.&.[ &.#.~ ^  . .c w $ h.0.h.h.l.8.8.z.l.z.l.h.h.h.8.j.r.z.l.z.z.z.f.8.z.8.;.8.;.8.;.8.8.8.8.8.l.P.r.z.y.r.z.r.z.P.r.K.y.y.K.z.K.P.P.y.P.K.K.P.K.P.P.z.K.r.r.r.r.y.z.r.r.r.r.;.=.;.2.2.;.=.2.2.=.r.;.=.=.=.=.2.2.r.r.r.z.r.r.r.r.r.r.8.r.r.8.r.-.-.*.#.{ { ! !  .^ ~ ~ ~ Q ~ ^ E I ~ e ;.J.} *.-.6.4.*.} 4.*.-.5.6.e.*.-.y.y.y.y.5.8.e.*.e.b.r.4.6.w.e.1.5.-.} *.4.q.5.b.r.w.6.t.t.r.u.H.u.H.u.w.w.w.u.).n.t.u.u.u.u.w.t.i.i.i.t.t.t.t.6.t.u.t.t.t.i.6.6.0.q.w.2.1.} 1.` ` q.0.4.4.1.1.*.[ [ 6.0.*.[ { *.-.*.[ ( M f ~ ) Q ~ *.} { -.} 6.} Q } 1.4.q.1.g A.H.2.2.2.=.=.=.Y Y Y Y Y Y ' ' ' =.' ' =.=.' =.=.=.' =.=.' =.=.' ' ' ` / / Y { } { ' ` / / ` I P P / ` ' ` ` Y ' { =.*.*.*.*.} =.*.] ] ` ] <.} =.] } { ' ` Q I I / ` ` / ' [ ` Q Q U U m m K K K m K s m s m L K L L U U U I Q I _ ` Q Q Q Q I Q Q U Q U K U ",
"J ..J A J Z v v  .z B Z Z v .. .x  ...J  . .v ......Z ..( .... .B l z k l N O. ..... .!  .v N X.+.@.X.W &.e.h.;.b.8.8.e.8.l.l.;.&.#.+.%.;.8.e.e.e.;.8.e.8.5.b.8.#.( +.#. .^ ..;.&.o. .! ..&.) &.o.^  .v  .l B  .v v A  .v  .v  ...~ ....&.&.( &.&.~ B  .! ^ < $ h.9.;.;.g.g.7.%.&.;.f.8.;.8.8.8.8.;.8.8.8.;.8.z.8.f.8.&.&.&.;.h.z.r.z.z.l.l.z.l.y.z.r.z.r.r.y.y.r.z.P.K.K.r.r.r.z.r.l.K.P.r.K.K.K.K.z.r.r.z.z.r.r.;.2.;.;.=.;.2.=.;.r.;.;.2.;.r.r.r.=.r.=.2.;.r.r.8.r.;.r.8.r.r.5.r.5.5.5.5.-.} { ( ^ ^ ^ ! ~ ~ ~ ~ Q Q P n E 4 ;.H.{ *.*.r.;.4.*.-.1.4.5.6.l.*.8.y.e.y.y.r.8.8.*.e.n.6.6.6.r.t.1.4.*.} 4.4.1.6.u.y.5.r.r.t.y.u.H.y.n.y.w.w.u.n.H.H.3.u.n.u.u.6.i.w.i.q.6.t.i.t.i.t.n.i.6.t.i.i.6.6.6.0.q.1.} 4.' _ 1.q.6.1.1.5.;.` ( 4.6.5.#./ #.#.{ [ W n f Q Q ^ ( ;.| { #.} 6.{ ` 4.} 4.6.1.s )._.2.3.=.2.=.=.=.=.=.=.=.=.=.' ' ' ' Y ' ' =.' ' ' ' ' ' ' ' ' { ' ' ' ' ' / I ` ` ] ' ` Y I Q P P P ~ ` ' [ ' ' ' { ' ] *.-.1.*.} } ] { ` Y ` ' ' ] ] ` ' ' ` Y I I I I / ' ` Q _ Q I U U L L m m s s a q a s m n m m s L L L U U W I Q Q Q Q Q Q ` I Q I _ ",
"A ..J v Z  .v A B l Z  .v B o.v J  ..... .v v  ...J J &.&.....J N b z z N C &.! ..~ ..~  .v ! &.X.o. .V %.e.8.#.b.-.l.-.8.e.8.;.+.+.~ #.5.8.e.b.8.;.8.8.8.8.l.r.;.( ~ &. . .X.;.;.&.!  .~ ..X.&... .J ^ v z Z v v b v  .v  .v v ..^ ( ~ ( &.[ ( ( ..^ ^ ! ^ , $ 8.7.%.%.&.&.&.&.o.p.%.;.f.;.f.f.k.;.f.f.;.8.8.;.;.8.8.;.;.&.;.8.;.8.8.8.l.y.P.r.r.K.z.P.r.K.r.z.z.P.r.r.r.y.z.K.K.K.K.K.K.K.K.y.r.y.P.K.K.K.r.P.r.r.2.2.;.2.;.;.( =.=.;.=.r.r.2.;.2.r.;.r.;.2.2.2.;.r.r.r.8.r.;.5.;.-.-.-.*.} -.{ [ ~ ^ M M ^ ^ ^ Q ~ ~ ! L E 2 #.L.{ -.-.r.r.5.-.q.4.-.-.5.r.2.r.r.r.y.y.r.r.8.-.r.y.} 1.w.e.v.} 6.} { *.1.1.6.t.y.5.6.w.t.b.n.H.t.y.u.w.t.u.n.u.u.w.P.y.u.y.6.i.i.w.q.6.i.i.u.6.t.n.u.q.w.6.w.1.e.t.6.w.4.} 4.[ ` q.6.1.4.6.q.-.| ^ -.6.4.-.{ } | } [ _ C n Q Q Q [ 4.[ [ } ` q.] ` q.] 6.0.4.g _._.2.3.=.=.=.=.2.=.=.=.=.=.2.=.=.=.=.=.=.' ' Y Y ' =.=.' =.' =.=.] ' ] ' ' / / Q I ` ' } [ Q I Q P L K U [ ' [ [ ' { ' { =.} } <.4.*.1.1.1.] ` P Q ] ] { 1.4.} } } ' ` I / Q / { ] [ ` ' _ I U L K s m m s L m s h a a a m n n n U L L U P U U Q I Q ` Y ` Y ",
" ...J b  ...v v  .l Z v v  . . . .v  ... . .v v ..! ..&.( ..^  .N z k v v B ..!  . .!  .V l O.%... .! B 4.l.l.{ z.5.8.;.5.l.8.%.+.[ ~ #.;.8.8.b.8.-.8.8.8.e.l.8.#.( ..+.^  ...;.;.X.B  .! ~ +.&.^ ^  .v v l  .v B Z v B  . .v  .( ....( ( &.&.( ~ ) ^ ^ ! ^ ; < h.7.7.;.;.%.%.p.p.p.o.o...&.p.p.&.;.;.f.&.;.;.;.;.;.;.;.;.;.;.;.r.z.8.8.;.;.z.r.r.z.P.r.r.r.r.r.r.y.r.y.r.K.z.K.K.K.K.K.b.K.K.P.P.z.P.z.y.z.P.r.r.r.r.;.;.r.2.;.;.( ;.=.r.r.r.r.r.;.;.r.r.r.;.r.5.5.5.r.l.r.r.8.;.-.-.=.*.{ ;.} #.{ +.~ ! ! ! c M B ^ ! ~ W ^ 4 #.b.` 5.;.e.r.;.=.5.;.*.5.8.2.5.r.e.y.r.b.e.8.r.*.6.r.-.6.e.e.e.*.4.*.] } 4.4.6.y.y.6.5.t.t.u.).H.y.t.y.6.w.n.n.u.u.w.u.t.u.u.6.t.i.6.2.i.w.6.t.6.u.n.t.t.i.6.6.6.t.t.w.6.1.} q.| { 1.0.4.4.6.6.*.{ ~ } 5.;.-.-.[ ` | ` Q M M n ^ Q | *.| ` } ] 4.{ [ 6.4.1.q.4.a '._.3.3.3.3.=.2.2.=.=.=.2.2.=.=.=.=.=.=.=.=.=.' ' ' ' ' =.=.=.*.=.*.-.*.*.=.{ ' ` I I / ` ` / I I I L U P I / / ' ' ' / ` { ' ` ] 1.<.1.1.1.1.} ] } ] ] ] ] ] } 2.1.<.} ] ] ` ` Y ` ` ` | ] ] Q ` I P U P L U L m m m m a a t a 9 a m m K U U U I Q I U I I Q ",
"^ Z J v J Z v v Z v  .v z v ..J  .v J  .J v  .^ ....&.( ....^ J z z k N v  .) !  .^ v B B x ..&.X.! B ! 9.8.e.&.K.l.;.-.5.b.9.#.+.+.~ +.;.8.e.e.r.8.8.8.;.r.b.r.-.~ ~ ) ~  .&.&.&.o. .^ ! ~ &.X.! ! v  .v l v  .N v v N v  .v  .....( Q ( ( ( ! ( ~ ^  .^ J , $ 8.8.g.5.8.8.7.8.&.;.&.;.;.;.&.;.;.f.&.p.&.&.p.&.&.;.;.f.8.;.;.;.;.;.8.r.r.r.8.z.z.r.r.z.r.y.z.K.y.r.r.z.r.r.r.P.b.P.K.K.K.K.K.K.K.K.K.r.y.y.y.r.r.r.r.;.2.;.=.;.=.;.=.=.=.;.;.;.r.r.r.;.;.r.2.2.5.5.2.2.-.-.*.5.2.5.5.;.5.;.-.-.{ [ [ ( ~ ~ ) ~ W ^ M M M g E w %.K.{ ;.*.r.r.*.*.-.5.*.5.r.r.6.r.e.l.r.r.-.r.r.5.w.y.4.e.t.t.r.} -.} | *.q.6.8.r.t.6.e.t.n.u.n.n.u.t.y.6.w.u.u.u.n.w.U.t.w.y.6.w.i.6.1.6.i.6.t.w.t.v.t.w.q.q.0.q.6.t.e.q.1.} 4.} | 4.6.4.1.t.6.4.[ Q } -.6.5.*.[ ` ~ Q Q Q Q E ~ Q [ #.| ( | } 6.[ } 4.1.1.4.*.s '._.3.3.2.2.=.2.3.2.3.2.3.3.3.2.=.=.=.=.2.=.=.=.' Y Y Y ' ' =.=.{ *.*.*.*.*.*.} ' { ` I P I Q I Q I ~ [ [ ~ I P P / ' ] [ ` ' ' ` ] ] 1.=.=.=.1.1.1.2.<.<.1.] <.1.] <.] } 1.1.} ] ` / Q Y Q Q ` Q ` _ U I Q Q U U U U L L m m m m m a m a m m n m L U W Q I I ",
" .J v v v ..J b B v  .v N B  .Z  .c v ..x c  .~ ~ ~ ( &...^ ^ v z z z N B .. . . .B ^ Z B N O.@.+. .B ^ ;.5.8.#.N.l.5.-.h.z.-.+.~ [ [ +.;.e.r.b.e.;.8.r.-.r.e.e.-.( +.~ ..! ..&.&.&. . ...&.+.~ .. .B B v v Z v v v v  .v  .x ....( ~ ^ ( Q ~ ( ) ..^ ^ ^ B , # l.e.l.e.e.l.l.l.8.8.f.f.k.8.;.h.k.;.%.&.p.&.&.( ( ;.f.8.f.8.;.&.;.;.8.;.8.;.8.r.r.z.K.r.r.r.K.r.z.P.r.r.r.z.r.K.y.K.K.y.K.K.K.K.K.K.K.K.K.K.K.r.r.P.r.r.r.r.;.=.=.;.;.=.{ ;.=.;.=.r.r.r.r.r.r.r.r.r.8.r.5.2.*.-.-.2.;.r.r.5.5.5.;.-.[ [ ( ~ +.+.[ ~ ! ^ M x c 6 &.J.-.-.r.5.;.*.=.-.5.*.8.r.-.5.r.e.y.r.r.r.e.-.5.r.6.-.b.w.e.0.1.} [ *.-.8.r.r.t.y.5.w.n.n.y.H.n.u.w.u.6.i.n.u.H.y.w.n.u.w.u.6.w.w.q.1.6.6.3.i.i.t.t.q.t.6.6.q.6.6.w.6.6.} ] 4.[ ' 4.6.6.6.0.4.*.{ ~ } -.5.-.#.[ ` Q ~ Q W M E Q ^ ` -.] [ [ 4.0.| } 1.4.1.4.} a |.`.3.3.3.2.2.2.2.=.=.2.2.3.3.3.2.2.2.=.2.=.=.' ' =.=.=.=.=.2.=.=.*.*.*.*.-.=.=.*.=.' ` Q I I ( [ ' ' { [ ' ' / Q P P Q / ( ` ` ( ` T } } ] 1.1.1.1.] <.1.1.1.1.1.] ] <.} 1.} ] <.] ] ` _ I I U U U I I _ _ I Q _ Q Q U Q I U U U U U U L L m m K m 0 m L U U ",
"J  .J v  .A J  .v v B v v Z  .v J v v  . .J ^ ....~ ..o.^  .^ v z z z B v ..^ ..^ B B  .B N X.@.&.! B ! 7.5.8.-.l.8.5.;.8.z.#.%.~ ~ ( -.-.e.e.8.8.;.r.l.5.5.e.8.;.{ &.) ^ ..&.&.( X.^  .( &.[ X.~ v B B v v B A v l v  .Z J v  ...( ~ ^ ~ ..( &.( ~ v c ! B > $ b.K.b.b.b.l.l.e.K.8.z.8.8.z.z.8.h.8.8.f.;.;.&.p.;.&.;.f.;.;.&.;.;.;.;.;.z.z.r.z.K.r.z.K.z.r.K.z.P.r.y.y.y.y.y.r.y.K.r.K.b.K.K.P.P.z.M.K.K.K.K.z.z.z.r.z.r.r.r.;.;.;.{ ;.;.{ =.;.=.;.r.8.8.r.r.r.8.r.r.r.r.8.5.r.5.-.2.-.;.8.8.5.;.5.4.*.&.{ ( ( [ ~ E C c d g w #.H.=.2.*.5.-.*.=.-.-.5.-.e.5.2.r.e.r.8.r.;.r.-.*.e.r.=.e.t.e.6.1.-.} } *.r.e.e.t.w.2.t.n.H.y.n.u.u.t.t.w.6.y.u.H.y.6.U.t.w.u.6.i.6.6.q.2.q.i.6.q.i.t.6.0.6.6.6.i.w.w.6.q.} { 1.' ` <.6.1.q.e.4.-.[ ^ } *.1.4.} [ [ ` ) Q W n W Q W _ } { { ' } w.} } 1.1.4.1.1.a '._.w.r.2.2.2.2.=.2.2.=.2.=.2.2.=.=.=.=.2.=.=.=.=.=.=.=.=.2.2.5.*.*.*.=.=.*.*.*.-.-.} ] { { ' / U Q ` ` ' { { [ ] [ / / / / / ( ` ` ` T T ] ` ` ` ` ] } ] 1.} ] <.} 1.1.1.1.] ] ] ] } ] ] ` T ` I I L K K I I T Y _ ` Q ` Q Q Q I Q _ ` Q I Q I U U L U L K m ",
"^ ^ J v v  .Z v b v v v v v  .v Z v B  .! c  .~ ( ~ ) ~ ! ^  .v v k z v v  .^ ..c B  . .v v ) +.&.V B ..9.h.;.5.5.8.e.;.e.l.#.#.[ ! ~ #.-.4.r.8.-.5.e.e.-.5.e.;.;.{ ( ) B ! &.) .. .J ( &.&.&.(  .v v B z z v Z v z v ^  . .v  .~ ( ( ~ ( ( X.[ ~ ! J ^ ^ M : $ e.y.K.n.K.b.b.b.b.b.b.z.l.8.8.8.l.8.h.;.8.8.7.7.;.;.&.&.&.#.&.#.;.f.;.8.;.g.8.e.8.b.b.b.l.e.K.K.K.K.K.b.r.r.K.r.r.K.y.y.K.K.K.K.K.r.e.K.b.b.y.K.K.K.r.e.K.5.r.l.l.r.5.;.-.5.;.-.{ { ;.&.=.2.;.;.r.r.2.r.r.r.r.r.r.5.;.;.2.-.;.2.8.2.-.;.-.-.*.-.{ { ( Q ^ J E 6 [ K.*.*.=.5.r.-.=.2.5.2.r.r.2.5.5.b.r.-.5.5.y.2.=.y.r.-.e.e.r.-.*.{ | } ] 6.b.e.y.r.1.t.n.n.t.u.u.t.t.t.6.w.u.u.H.w.w.U.t.w.u.w.i.q.1.1.q.0.t.q.6.6.i.6.t.2.6.2.q.i.6.6.4.` } 6.} ` ] 0.4.1.i.4.*.| ~ ` -.-.-.} ~ [ } _ W I n E Q ^ Q 1.| [ ' ' 4.<.} 1.] q.q.1.J L.K.=.=.' =./ ' / ' Y Y Y Y ' ' =.=.=.=.=.=.=.=.=.' ' =.=.=.2.2.2.2.2.2.*.=.} *.*.*.*.*.*.*.-.] ] ` Q ` T ` ` / / Q ` _ ` ` ' / I Q ` ` ` I ` I I Q ` T ` ' } } *.1.1.<.] ] ] ] <.} 1.1.] ] ] ] ] ] ] _ Y U U U U P I Q I _ Q ` _ T Q ` ` Q T _ ` ` ` _ ` ` Q ",
" .^ A J v Z  .J b J  .x v  . .v v B v ^ ^  ...( +.X.~ ~ ! v v c l z z v ! ~  .~  .V B B x B X.&.&.B B +.5.8.8.;.b.e.8.5.0.0.&.%.@.^ ~ &.;.5.r.e.r.8.r.;.;.r.y.r.-.( !  .^  .&. .(  . ...( &.( &. .c B v z z v v v z v  .v B v ..^ ....( &.( &.( ^ ^ B c ! c < $ b.J.K.J.J.J.J.J.H.v.b.z.l.l.l.e.8.e.8.e.l.z.h.z.7.;.%.#.#.#.&.&.+.#.%.;.;.5.8.8.l.e.e.e.r.5.r.e.8.l.l.r.r.r.8.r.r.8.e.e.r.y.y.y.y.K.r.K.y.y.K.K.r.l.e.K.r.r.r.r.K.r.r.r.5.r.5.-.-.{ { { =.&.;.=.2.;.r.=.;.2.;.2.5.r.r.r.r.5.2.-.*.-.5.5.;.2.;.;.-.-.;.&.{ Q ( e { e.=.*.-.r.r.-.-.5.-.-.;.l.-.5.r.r.5.r.5.r.y.-.*.r.5.5.e.r.y.-.-.} ] } } r.y.b.e.e.1.w.u.n.y.).u.t.w.t.i.w.u.n.u.w.w.n.u.w.u.i.i.3.2.1.q.i.6.6.6.4.6.6.t.q.6.6.i.w.6.6.1./ { 4.} [ | 6.6.1.6.6.*.} Q ] -.*.*.[ Q { } [ ^ L n M Q L ` <.} } { } 6.*.} *.} 4.1.} G L.K.=.=.' ( ( / / / / / / Y / Y =.' Y Y Y G ' ' ' =.=.=.=.2.=.1.5.2.*.*.*.} } *.*.*.*.2.4.*.*.} 1.] ] ] } } { ` / I ` / I Q I I Q I U I Q ` [ ` ' ` I P U U I Q ` ` ] ] { ] ] ] <.} <.<.<.1.<.1.] ] { ` T ` ' ] ] ] _ I U U U I I U U I I T _ I I T _ I I I Q ",
"J  .J v v J  .v v x v v v v v v v v N ^ B ( ( ( &.( ~ ! ^ ^ c v v z z x  .~ ~  .V B B V x N ) X...V M +.;.;.;.-.l.e.8.;.b.9.#.} %.~ Q #.-.8.e.e.;.8.8.8.*.8.e.5.-.( ! ~ J ! &.( &... .( X.&.( X...v B v z z v v z l Z v  .v v ..~ ( ( ( X.&.&.( ! ^ c ! ^ C , $ b.e.K.K.K.K.J.J.J.J.n.b.b.l.v.l.z.e.e.e.e.b.b.l.l.b.l.8.9.;.;.#.#.( +.#.;.;.;.8.;.8.8.8.l.l.r.r.r.r.r.5.8.r.r.8.r.r.r.r.r.r.r.r.e.y.K.l.y.e.e.y.e.y.K.K.K.K.l.K.r.K.r.e.r.5.2.5.5.-.{ ;.{ ( { { { =.-.;.;.;.;.r.8.r.r.r.r.r.r.;.=.;.*.-.-.-.5.5.5.2.-.*.=.{ ( e +.K.=.-.-.r.r.=.*.;.*.5.*.r.*.5.r.r.5.2.r.r.y.5.5.K.*.5.r.e.r.-.2.} } -.-.5.t.n.b.w.1.q.u.n.n.n.n.t.6.w.w.i.t.u.u.3.w.n.w.w.i.i.6.q.3.1.1.e.i.6.q.1.6.6.t.i.6.q.t.e.6.6.1.` ] 4.} Q ] 6.4.4.4.q.4.} Q } 5.*.] ~ Q { | Q W ^ i a M W ` :.*.| { } 6.} 4.<.] 1.4.} j S.K.( / Y ( / P Y P Y P P / ( ' ' ' Y Y G Y Y Y ' ' =.=.=.' ' ] =.} =.*.*.=.*.*.-.-.*.*.*.*.=.1.1.1.1.1.1.1.1.*.] ] ] { ` T I I I I Q I I I I / I ` ` Q Q I L U K U U Q I Y ` ] ] 1.1.1.1.1.1.1.] ] ] ` ] ] ] <.1.<.1.<.} ] ] Q ` ` I L L U I Q L U m L K K K ",
"..J A J v  .J v v v v x v v v v v x Z ^ B ..( &.&...~ ~ ! c v x v k z v ! ! ~  .c N V B l B ..X.M C ! &.8.;.{ { 8.r.8.;.l.8.#.( ~ ! ^ #.5.5.8.-.r.r.r.-.;.8.r.8.;.^ ~ ~ ^ ..&.[ &. .J ..( &.X.[ ( v v v z z v v z l ^ v c v c ~ ~ ( ..~ ( &.{ ( ~ ! c ! ! C , # K.K.b.e.P.y.K.b.b.b.b.b.b.b.b.b.b.M.b.b.b.M.J.b.b.b.l.l.r.8.8.0.8.f.;.#.{ +.+.&.#.%.;.;.-.-.;.;.8.8.8.8.5.-.8.8.8.8.5.5.r.5.5.r.r.8.r.r.r.e.r.e.e.r.r.5.r.y.r.r.r.r.l.e.l.r.8.5.;.r.r.8.-.&.-.=.{ { ( ( =.{ { ;.-.;.;.;.8.;.8.r.8.5.8.;.5.-.*.*.-.-.5.-.;.*.*.j &.y.{ 5.r.r.5.{ *.r.-.*.*.r.-.2.y.y.2.-.-.r.r.r.e.e.=.*.5.5.l.=.4.-.( { } 6.y.b.e.5.1.q.t.y.H.H.u.y.w.0.q.w.w.H.u.3.w.H.t.6.w.t.w.q.2.q.6.i.6.4.1.1.6.6.t.t.w.2.6.w.2.2.} / ] 4.} ` ] 4.1.1.6.6.4.#.Q | 4.=.-.` ` | { Q m n i i M Q ] 4.-.} ` 1.6.} #.} } 4.1.] j L.K.=.=.=.{ ( ' / / / / P / P Y Y ' ' Y ' J ^ G / ' ' ' ( ' ( I I I ` ' =.=.=.=.=.*.*.=.=.=.=.] } *.} 1.1.*.*.} } } 1.} 1.} ` { } ] ] ' ` / I L L L U ` I I Q _ ` _ Q Q U U Q Q ` ` ] ] ] ] } ] ] ] ] ] | ] ] ] ] ] ] ] ] } } ] ] <.] ] ] ' ] ] T U T I I I I ",
"..J x v v  . .v v v v v v v z v v v  .v E ! ~ ( +.( ! ^ ^ B v l z z l v  . .! ! C v N B l ! ~ ! M B E &.7.#.#.;.8.5.8.;.8.;.#.&.+.! ^ | -.r.;.*.r.r.5.-.-.e.5.5.;.~ ~  .B ( &.&.&.^  .^ ....&.( ..c v v y z v  .v v  .J v v v ....( ( ( ( ( #.( ~ ^ B ^ ! c , # K.J.K.J.J.K.K.K.K.K.K.K.e.l.e.e.l.e.e.y.e.b.b.b.n.b.b.b.l.b.e.l.e.v.l.8.h.9.8.;.f.8.;.8.;.;.5.5.;.&.-.;.{ -.-.{ ;.5.;.-.;.;.-.-.;.5.8.5.r.r.r.r.r.r.5.8.r.r.r.r.r.r.r.r.r.r.r.r.5.r.l.r.5.8.2.8.;.;.;.-.=.=.=.&.{ { ( -.;.&.-.=.2.-.8.5.;.5.r.;.-.r.5.r.-.' { e ( l.=.5.2.r.r.=.*.2.-.-.4.r.4.e.r.e.5.-.r.r.2.5.y.5./ *.-.5.e.;.4.} [ ] } 2.y.b.6.6.6.6.t.t.n.).u.u.6.6.q.3.t.u.y.6.w.u.w.i.w.i.q.6.q.1.6.6.6.q.1.} q.q.0.t.6.5.w.6.5.5.*.` { 4.{ Q ] 1.1.1.q.6.q.} ^ } *.*.4.[ [ | ` ~ g n f u L Q ~ *.4.*.{ } 4.] 1.1.{ 1.*.` d L.L.r.2.2.-.=.=.=.-.=.=.=.' ' ' =.' Y ' ( P P J G / Y P / ' ' ` / Q / / ' ' ' / T ' ' =.' Y ' ` ' ' *.} 4.*.1.] } 1.} *.1.} 1.1.4.1.1.4.<.=.] ' ] ` ` ] ` ` I I U U I I _ _ ` Q Y Q ` ` T ` Q ` I Q ` ` ` ] ] ] ] ] ] <.] <.} 1.1.1.<.1.] { <.} } ] ] =.] ] ` ",
"..J x v J J J v v x v v v v y v v l  .c B ! [ ~ ( ~ Q ! ^ B l l z k v v c c !  .N v c N l ! ) ! E ! B ( 8.} +.{ e.8.5.#.8.5.-.[ +.~ ! %.;.6.4.-.;.r.-.*.;.r.5.5.#.( ..!  .X.;.&.{  .^  .~ ^ ( ~ ..c v z y z v v z v v v v v ^ o.Q +.~ ~ ~ ) ( ( ( ! c ! ^ c , # J._._.*X_._._._._.J.K.K._.K.K.K.b.e.b.y.b.K.e.e.b.b.b.e.e.l.b.b.b.l.l.l.e.8.l.e.8.5.9.8.0.8.8.;.;.;.;.;.;.;.;.-.;.{ &.&.( { ( ( { -.;.6.-.;.r.5.5.5.r.r.5.r.5.r.8.r.r.8.r.5.5.5.r.8.r.r.5.5.5.5.5.2.5.5.5.;.5.;.-.;.-.{ { { { ( ( { =.-.2.;.2.2.5.5.-.5.;.=.{ p { K.*.2.2.e.8.=.5.-.5.r.5.6.2.r.e.e.5.=.r.r.r.*.r.-./ -.2.5.8.5.5.{ ` ' 1.4.e.r.2.0.5.6.t.w.n.n.t.w.6.6.2.i.t.U.u.3.w.n.i.6.u.i.w.6.1.4.6.0.q.1.4.1.6.1.6.t.6.2.5.6.5.1.} Q { 6.] Q | 1.1.4.1.6.6.} Q | { | 4.` ~ | _ P d E C i E ~ ( } 1.} { 1.6.<.} 1.} 4.1.| j L.K.8.r.2.=.=.=.=.-.-.=.=.=.=.=.=.2.=.2.=.=.=.2.=.=.=.{ { =.{ / Y I I I ' Y / Y T Y I / / Y / Y ` Y Y ' ' ' ] ] ] ] ] ] ] } 1.*.*.*.*.*.=.*.] } <.2.1.1.1.1.<.] Q Q Q I ` ` U I _ ' ' ` ` ' I ` [ ] ] ` I I ` ] ` ` ` ` ] ] ] ] } <.<.1.} 1.<.<.1.<.1.<.<.] =.",
"..J v v v J A v v v x v z l z l x z  .B c ~ ( ~ ..~ ^ ^ ! c v l k k l ^  .v ^  .N l N v l ~ ) ~ ! ! B &.4.#.&.-.l.t.-.{ ;.#.} #.[ ^ ^ ;.*.-.-.;.5.5.-.-.*.;.r.8.{ Q ( B J &.&.-.&... .^ ^  .&.~ ..J v v y z v v v v v v v v J ..^ +.~ ~ ~ ( ( ..~ ! ^ ! ! B : $ K.K._.K.K._.K._._._._.J._.K.J.J.K.b.b.K.K.n.K.J.b.b.b.l.v.n.b.l.n.b.b.b.K.K.b.N.K.b.b.l.b.e.K.l.K.l.l.z.l.r.l.l.8.8.8.8.8.;.&.=.&.{ { { -.-.-.-.5.;.5.8.5.5.-.2.r.5.r.r.r.r.r.r.r.r.5.r.r.r.2.-.r.r.2.2.r.r.5.2.5.;.;.-.2.-.-.=.-.;.-.{ { =.=.{ *.*.*.*.{ ' { d { K.=.5.*.r.5.=.*.*.r.6.w.4.*.e.r.y.5.=.r.r.2.5.*.*./ =.-.5.5.5.6.{ / } 5.6.e.6.1.5.5.r.n.r.n.t.w.t.6.w.q.w.t.u.u.2.t.u.i.w.t.u.6.q.1.1.0.6.1.4.1.<.q.4.6.t.6.2.2.6.6.1.} ` { 1.} ` <.<.1.1.1.6.1.} Q | } 4.4.[ I { ` W m n n n Q Q ` q.4.} ] ] 4.] ] 1.<.4.1.' d b.K.2.=.2.=.=.=.=.' =.=.' =.=.=.2.2.=.=.*.=.=.=.=.=.=.=.=.=.=.2.-.*.=.' ' { ' Y / Y Y Q G I I Y / ` T Y T / Y Y Y Y ` ` ' ' ' ] } *.} ] ] *.} } 1.=.1.1.*.1.1.1.1.{ ] *.} } ' ' ` ` ` ` [ ' Q Q ` _ I Y Y ` ] ] ] ` ` T ` ] ] ] ] ] ] ] ] ] ] ] ] ] ] ] } <.] ",
"J  .J b v  .J b c x v x v l z l l z !  .^ ( ~ ^ ( ~ ^ Q ^ v l l y k l B ^ B B ^ M v B v x ~ ~ ! E ! ^ ;.5.#.[ ;.e.4.{ -.;.{ ~ +.+.^ ( ;.{ r.8.-.;.r.-.-.-.r.;.5.&.! ! c  .[ &.&.&.^ ^ ..^ ^ ( ..^ J v v k z v v v v v v v v J ..( +.( ( ..( &.( ( ^ ^ ^ V c < $ u.J.J._._.K._._._.J._.*X_.*X_.J.J.H.K.b.J.K.K.J.J.K.K.J.J.H.J.J.J.H.K.J.J.J.J.J._._.J._.J.H.J._.K.K.K.K.K.K.K.l.r.K.K.l.5.r.z.z.l.8.;.;.#.{ ;.;.-.{ -.{ -.;.-.-.;.5.5.-.8.8.=.;.5.r.r.r.;.5.5.5.2.;.;.r.8.5.r.;.2.-.-.2.;.5.;.;.-.5.-.-.-.;.-.2.-.-.*.' =./ ( j &.b.*.5.r.-.-.=.6.*.-.r.r.*.4.e.r.r.r.=.r.r.5.5.=.=.' *.2.-.;.r.-.[ } } 6.r.e.4.*.4.w.n.u.t.y.n.t.6.6.6.6.i.w.n.t.3.t.u.3.i.t.t.6.6.6.4.6.6.1.q.1.1.6.4.6.t.6.2.2.r.5.*.] ` { 1.} ~ ] 4.1.} <.6.5.} ~ | } } } ` Q [ Q ^ n n n n Q _ _ 6.1.| ' } q.} ] q.] 4.} ] j L.K.=.=.=.=.( =.( ' =.=.=.=.=.=.=.=.=.=.{ =.=.-.=.=.{ =.-.=.2.5.*.*.=.=.*.-.*.*.=.=.' ' ' Y Q I Q Y Y T / / Q / I P U Y / ` / ` I T ] } } =.] ] } } *.} *.=.] ] } ] ] 1.} { ] } { } } 4.*.1.<.{ ] ] ] ` | ] ` T ` T T ` ` ` Q ` ] ` ] ] ] ] ] ] ] ] ] ] ] ] ] ",
"v J ^ x v v c c  .v J v v z z l l v ^ ! ^ ..~ ^ ^ ^ E B B c y x z k y B ^  .^ B c N B x c ) ! ! ! ~ ^ 7.9.;.[ *.e.4.#.#.8.-.( +.) ^ ) 4.#.8.6.-.;.8.;.-.-.5.;.-.{ ..( ^ B ) &.;.{ ! ( ^ J ..( (  .J c v z z x u z v v v v v J o.( &.( ~ ( ( &.[ ) _ M ^ ! M < $ b.H.K._._.K.H.H.K.J.K._.K._._._._._.J.J.J._._.*X]._.)._.J.J._.J.J.J._.J.K.K.K.H.H.H._._._._._.K.J.K.b.K.K.n.b.K.K.J.l.K.M.J.b.K.K.b.l.l.e.8.8.l.8.;.-.;.{ &.{ { { -.=.;.-.*.-.2.5.2.r.5.;.r.-.5.8.r.5.2.5.2.5.;.8.5.-.;.5.-.-.5.2.5.8.-.2.-.=.-.-.2.=.2.=.{ { j ( l.*.r.y.-.*.=.r.5.=.r.6.4.*.r.2.r.r.2.r.r.2.2.r.{ ' -.-.-.r.r.} [ ] 5.6.6.t.*.*.2.w.y.n.t.n.n.n.q.6.6.6.t.i.u.y.r.t.t.w.t.t.i.6.6.2.q.6.q.1.1.1.1.q.4.6.t.1.5.6.r.6.} { Q ' 4.{ Q } 1.6.4.} 6.1.] _ } { ] 4.[ ) [ ` _ M n i C Q ~ Q 4.2.] ` ] q.1.1.1.1.<.] ` u L.b.=.=.=.' / ' / ' Y ' ' ' ' =.' =.Y ' ' ' ' ' ' ' ' { =.=.=.=.=.*.*.=.*.-.*.*.*.-.*.*.*.=.{ ' / / ( / Y I P P I I / P P P P P I Y / ( Y Y Y T ` T T ` ` ' ` ' ' ` ' ` ` ' ` ] ] ] } ] ] ] ] } } 1.1.1.<.1.1.1.<.] ] ] ' ' ] ` ` ` I ` ` ] ] ] ] ] ] ] T ] ] ",
"v c  .v v J c v J J v v v z z z z v  . .~ ( ^ J ^ ^ ! ^ E x l v y k l ^ ^ ^  .B c N N c x W ^ ) ~ ~ [ 5.5.5.#.#.l.;.#.#.e.{ +.{ [ ! #.7.-.5.;.{ *.r.-.*.-.r.-.-.[ ^ ( v ^ ..;.;.&. ...^ c ..(  .J J v z y z v z z v v c v x ....Q &.( ~ ..( &.( ( ~ M E M x = + n._.K.J._.J._.`._._._.K.K.H.H.K.H.K._._._._.].XX_.*X_._._._.*X*X*X].*XJ.J.J.H.K.H.K.H.K.K.J.J._.J.K.J.J.J.K.K.J.K.J.K.l.e.b.l.b.K.b.b.b.K.K.K.b.K.K.l.e.l.e.l.8.8.;.5.{ -.;.-.;.-.;.*.;.-.-.-.2.2.*.-.;.5.5.5.;.5.5.2.2.;.5.;.5.-.r.5.-.-.=.-.=.=.-.2.-.-.-.=.j { K.*.r.r.=.*.*.5.-.*.5.r.1.1.y.5.5.2.-.r.r.5.*.-.-.*.-.5.5.*.r.*.[ { 1.5.r.r.1.5.6.6.w.u.w.y.n.n.t.6.6.q.w.6.t.t.3.t.t.q.i.t.i.2.q.6.q.0.6.1.4.1.1.6.6.1.t.6.5.e.r.4.*.} Q { *.` Q #.*.1.{ } q.<.{ Q 1.<.4.#.' _ ] #.I W m m n W _ Q 4.6.` ) ] <.<.1.1.<.1.1.[ r v.y.T / ' =.*.' =.' ' Y ' ' Y / Y ' / ' Y ' ' ' =.=.=.' { ' =.' =.=.*.*.*.=.*.=.=.=.*.{ =.' { } =.*.*.=.=.=./ / ( ' Y / / P Q Q I I ^ I I I I Q I I Y I I Y I / I I / I P Q I U I ` ` ` ` ] ` ] ] ] ] ] } ] 1.1.1.4.1.<.} <.4.<.1.<.<.1.] ] ` ` T T Y U Y T ` ",
"v J  .c v  .c v  .J v v v z z z z x  .^ ! ..Q E ^ ^ ^ ^ B x l v z , v M !  .! B v c B v x ~ _ ^ ! Q +.9.;.;.[ ;.l.-.| #.0.[ ( +.) ~ ;.4.-.5.;.{ ;.r.*.-.5.r.-.{ ( ~ ) c ^ ..*.-.{ ..! ^ J ..~ ~  .v v x k z v z z v  .v v z ^  .^ &.( ~ ( &.Q [ +.^ M M M c < $ r.e.y.b.y.u.b.H.K.K.K.K.K.K.e.b.e.b.K.K.K.J.J.J.K.K.b.b.K.J.J.J._.K.J._.J.J.J.J.J.J._.H.J.H.H.H.K.K.K.K.b.K.n.n.b.K.b.b.y.e.K.K.K.n.H.K.K.b.b.K.K.e.b.y.y.K.y.e.l.8.r.8.-.-.;.-.5.-.{ *.&.*.&.-.-.-.{ -.{ -.*.-.;.5.5.-.-.-.2.5.8.8.5.r.8.2.2.2.2.-.-.-.=.{ { h ( r.5.5.r.=.*.*.r.2.*.r.r.} 1.w.2.5.-.*.r.r.-.-.2.*.*.-.5.-.*.r.*.( ` 2.6.6.e.1.6.w.5.t.w.t.u.y.).i.2.w.q.w.i.t.t.3.t.u.3.6.u.w.2.6.6.1.q.6.1.1.<.] 6.q.1.6.2.6.e.6.4.} { _ { 1.` Q | -.4.' ] 4.*.' Q } 4.} <._ I ` :.Q U n i t Q ~ Q 4.4.` Q ` *.} <.<.1.4.] [ p x.t.( / / / ' =.' { =.=.' Y ' Y Y Y Y P Y P P G =.' Y / / ' Y ' ' / ' / =.' =.=.{ { ' ( / =.=.=.*.*.*.*.=.*.*.=.*.*.] =.{ { { ] ] ] ' / / / ( Y Y ` ` / / I I P G G P P Q P P W Q I I Q I U I ` ] { ] { ` ] } { | ] ] { ' ] ' ] ] ] ] ] =.*.1.1.1.] ] ] ] ] T ",
"l v  .Z v J c v v v c J c u z k k v ..^ ^ ( ^ ^ ^ ^ B ^ c x l l k k v ^ ^ Q ~ B d x x x C _ ! ^ ^ ^ [ 4.;.;.~ -.t.9.{ #.6.+.+.~ ) Q #.8.;.;.5.-.*.;.-.-.5.e.;.[ ~ ! ) ! ^ [ &.;.&. .^ J J ( ..~ J v v z y v v z z c v l u v ^ ^ ! &.[ ~ [ [ ~ &.+.Q ^ M M f $ + r.b.e.b.K.H.)._.J.J.K.H.b.e.e.e.e.b.b.K.H.H.K.b.b.l.v.b.b.b.b.b.b.y.K.K.K.K.K.J.K.K.J.H.K.J.H.K.H.H.J.n.H.K.K.b.l.K.z.b.K.K.b.b.K.y.n.K.K.K.b.K.b.K.y.K.l.r.y.b.K.K.K.K.K.r.5.r.b.r.r.-.*.{ =.-.-.;.;.-.{ { *.=.-.-.;.5.-.;.-.{ -.;.5.5.r.5.2.8.r.5.=.=.' { { j ( K.2.r.-.*.5.*.-.5.*.r.r.T *.y.5.5.*.5.K.r.=.=.r.5.*.-.-.;.*.8.*.[ I 5.6.w.w.5.w.r.e.y.y.r.u.n.u.i.2.6.1.0.i.u.t.2.t.t.i.q.t.w.q.1.q.1.6.q.4.1.] 1.5.q.1.6.2.i.r.2.6.} ] I { 4.' Q } 1.4.] ] 1.<.{ Q } 4.1.} ` Q | | | Q V n t _ ~ Q 1.4.] ' ` <.} } ] ' 1.1.[ r z.v.` =.' ( P J / ' ' ' Y Y ' ' / ' ( ' ' ' ' ' Y ' / / ' / Y I P P G G G P P / Y I Y I Y Y ' ' *.] ' { =.=.*.=.=.{ =.=.=.' =.{ ] } =.*.*.=.' ' ' ' ` ` ` / / P / I U P I Q I Q ` ` _ ` I Q I L L U I W U U Y Q U U I I U _ Q I Q ` ` T ` ` } <.] ] ] ] ] ] ] ",
"u z ^ v c J v v J c v v c v v k k v ! ^ ^ ~ ^ M M ^ v ^ c c c z k , v ^  .! ^ ^ C x c l C ! ! ^ M ^ [ 4.-.#.~ ;.0.5.} &.5.[ ( !  .^ #.4.;.5.5.5.*.*.*.-.8.r.5.[ ^ ! ~ c ! +.{ &.-.^  .^ ^ X.&...J v v v k v v l l v l z z l ^ ^ ^ &.( ( +.( ( +.[ ! E ^ ^ f $ + b.n.y.n.y.n.H.H.K.K.J.K.y.b.b.K.b.e.b.y.b.b.b.b.b.n.e.b.l.K.n.l.b.n.l.K.b.b.K.b.K.y.K.b.K.y.K.u.H.K.b.y.y.y.K.K.K.b.y.y.y.b.b.K.b.K.u.P.b.K.b.K.K.b.b.y.e.b.y.y.K.r.y.r.y.K.e.K.b.e.e.r.r.l.5.r.8.;.;.2.-.5.;.;.{ { { { { { -.{ ;.-.-.-.;.2.5.r.2.5.2.-.2.{ =.h ( r.5.r.r.-.3.*.r.r.5.y.5.' 6.y.5.5.=.e.b.r.=.;.8.-.{ =.5.*.=.r.*.` ( 4.r.t.w.1.e.6.w.6.y.b.w.u.).t.2.1.q.i.w.u.t.2.y.t.3.6.t.i.2.1.6.1.6.1.4.1.1.1.q.1.1.4.6.6.e.w.1.1.} _ } 4.[ Q } 1.4.` *.1.] } ` [ 1.*.} Q _ ` [ | ` n n t Q _ Q 1.5.1.[ ' } ] { ] ' ] <.] w h.b.[ ' / / I / P P / ' G / G G Y G J P Y / ' ' ' ' / Y / ' { =.' ( ' / / Q P / I I P P Y Q I Y / Y ' ' ' =.{ ' =.' ' ' ' T ' ' ' ' =.*.=.*.*.2.1.4.4.1.1.1.} } ] ' ` I I ` Q Q T I Q U Q Q I ) Q I Q ` Q Q U L L m s s m L I U L U L P I ` Y Y T ` Y T Y Y I ",
"z u  .J v v x v v v J c v v v y y v ! ^ ^ ! ^ x M ! v c N M N y , k v ^ ~ J ^ c i x x y ^ ! M E M B [ 7.7.#.~ ;.;.;.+.[ 7.+.) M _ W #.#.#.8.9.5.{ ;.{ -.e.8.;.{ ^ ~ ~ c  .( #.&.[ ^ ^ ^ ^ &.( ~ v v v z y l v z z v x z u l  .^ ! { ( ( ( ~ ( +.( ! E c C x < $ b.y.b.b.v.b.b.b.l.8.8.8.r.l.b.e.b.J.K.J.J.v.v.e.l.b.b.b.M.J.K.J.J.K.J.K.K.K.b.e.e.6.e.r.r.8.r.y.e.u.r.r.y.e.K.b.b.b.y.y.e.y.r.y.b.y.y.y.y.e.r.K.b.y.K.y.y.e.K.y.l.K.y.e.K.r.y.K.K.K.K.K.K.y.b.r.K.r.K.l.K.r.e.r.;.-.;.-.=.&.( { { -.-.{ &.=.-.-.-.=.-.=.*.{ { j ( r.-.e.*.5.*.*.r.w.r.y.2.} w.y.r.;.' 5.y.r.=.*.5.*.( *.5.*.;.5.*.( Q 1.w.y.w.2.w.e.w.5.r.y.y.t.u.w.q.1.6.i.w.U.e.w.u.t.6.6.6.t.q.1.6.4.q.1.1.1.1.1.6.1.} 1.6.t.0.6.6.1.] Q { 1.} I { 4.4.' 1.1.} { _ ` { *.1.Q _ ` ' _ _ n C C Q I _ 1.1.<.] [ } ` { ' { <.] ] r l.e.( / I / / / P P P J Y G G Y J / / P Y P P J Y Y Y Y Y Y / ' / Y / ' ' =./ / ' / / Y / ( Q / Q G P Q Y / / ` ` ' T ' T ] ] ' ' ' ' ' ' ' ' ] ] *.] { ] ] ] ] ] } } <.<.] ] ] ] ] ` ` T Y Q ` Y Y Y ` _ Q I U U U L U U I Q Q I L L G K I P P P U P U U I I ",
"u l J Z v c x x x x c x x x z z k B ^ M B Q ^ x M B B c c M N k k y B ^ ^ ^ c v i f x l ^ ^ M M x M [ 7.4.-.( 7.-.-.[ } 4.[ ~ C ) ^ #.-.#.r.5.;.] -.{ -.8.r.;.+.^ ^ ~ J ^ ( &.[ ~ ^ ^ ^ ^ &.&. .J z x y z z v z z v v y u x J ^ ! &.( Q ~ ~ [ +.[ ^ M C M x = * v.t.e.0.e.v.v.b.b.0.l.e.e.e.8.e.e.e.e.e.t.v.l.b.b.b.b.b.N.b.e.b.l.b.K.b.l.M.l.b.e.8.e.r.r.y.e.y.y.y.b.e.e.b.r.y.r.e.b.e.y.y.y.e.y.b.e.K.K.b.b.e.e.y.r.e.y.K.b.b.K.K.e.y.r.y.y.K.K.y.b.y.e.K.K.e.r.r.5.r.r.e.K.r.r.l.r.8.r.-.;.8.;.{ { { =.{ { { ( { =.{ { ' { j Q y.5.r.=.*.*.r.e.r.r.y.1.*.w.y.y.-.*.-.r.;.=.-.*.{ ( *.=.-.5.2.*.( / 1.0.y.w.5.t.w.w.5.6.y.u.u.u.6.2.1.6.i.w.u.t.w.u.t.2.5.w.6.q.1.6.6.5.<.1.} 1.1.6.1.1.] 6.6.6.6.1.1.[ I ' ] } I ' *.*.' *.*.} { Q } 1.4.4.[ Q I | ) _ L m i Q _ Q #.6.1.' ] 1.[ ' } } 1.] } r v.K.=.=.*.=.*.{ ' ' / =.' Y ' ' ' ' =.' =.' P Y / Y Y / ' ' =.' ' ' T / / / ' ( / / ' ' { ' ' ' / / / Q / Y P Q I I I I I I ` ` Y / / / ' ` ` ` ` / T / ` ' ' ] ] ] ] T ] ` ] ` ] ] ] ] 1.} } <.} ` ` ] ` ` Q Q W I Q I U I I U L U K P P P L K G G K U K K K ",
"z v v  .c x x v v c c v x z x b z B B ^ ^ ! ^ d M ^ c c M c x y , z ^ ^ ^ J ! c l C x u ! ! C c x c +.5.4.;.[ ;.-.4.[ #.7.~ M c ! ! } -.#.8.8.-.{ -.*.-.5.5.;.{ Q ~ ~ c ~ ~ } ~ ^ ^  .! J X.~ J v v z y y l v l z J u z l v ^  .~ ( Q ( ~ ~ +.[ ) ~ M c c d < $ n.y.v.e.t.0.0.0.e.v.b.l.b.l.e.b.r.l.b.l.e.v.l.e.l.l.l.8.e.0.e.0.8.e.8.8.e.e.l.y.e.b.l.e.e.e.e.y.y.y.e.e.e.e.r.r.8.l.y.b.u.b.n.r.r.r.r.r.r.r.r.e.r.2.r.b.b.y.y.y.r.r.r.y.e.y.e.K.l.K.e.e.e.e.l.K.r.K.l.r.e.8.r.r.r.5.r.8.r.8.r.r.r.5.5.8.2.5.-.2.2.;.-.=.{ { ' p / r.5.r.-.*.3.r.y.2.r.w.2.2.w.w.r.-.*.2.r.r.=.=.;.{ ( { =.5.8.5.-.` [ *.r.t.5.6.w.6.w.6.r.t.y.u.u.q.2.q.w.i.3.u.6.u.u.u.6.w.w.i.1.6.1.4.4.1.1.] } q.q.*.1.<.q.6.q.2.6.1.' W ` } } ~ } 4.*.' *.4.1.[ Q 1.} 4.1._ I _ [ [ V n m i Q Q Q :.1.<.' { 1.' [ } } <.} { r 0.l.=.-.-.=.{ =.{ { =.=.' ' ' =.=.' ' ' =.=.' ' =.' / ' ' { ] =.=.*.*.-.*.=.=.] ' ' ' ' ' { =./ ( / Y / / / { ' ' ' ` ` T I I Y P I P I I I T ` ` ' ` ' ' ' ` ] T ` T T ` ] T ] ] ` ` ` T ` ] ] ] 1.] <.1.<.} ] ] ` [ ` Q Q I I U Q I I I I Y I P U P P U U U ",
"v l v  .v c x x v x x v x y v v y v ^ ^ ^ ..J x M M c c C M v > , z ^ c ^ J ^ x d B l i W ~ ^ x d M ;.0.9.;.{ 5.;.7.[ ;.;.^ W M ^ ~ #.#.-.8.-.5.*.-.*.-.r.;.-.{ ^ [ ~ M ^ &.+.( Q ^ ! ! J ~ ) c c z v y y b v x v x u y v v ^ ^ ! ( Q ( ( ( [ [ ) L M ^ x f $ * y.`.*X_.H.H.J.J.J.n.n.b.t.e.l.y.n.J.K.K.z.b.v.l.;.7.7.7.9.5.8.4.;.-.;.5.;.7.6.8.e.l.r.v.b.e.e.r.r.r.l.e.r.e.0.0.e.e.e.b.e.y.e.e.e.e.e.r.t.e.y.b.r.e.r.y.e.e.r.e.r.y.r.r.r.r.y.r.r.5.r.r.e.y.y.e.l.r.l.r.e.r.r.r.r.K.r.r.r.r.e.K.l.K.K.r.r.r.r.l.y.r.r.-.*.*.*.j Q y.r.e.4.' =.r.y.2.r.r.2.r.y.r.r.*.=.5.e.5.-.2.-.( Q ` =.=.-.-.-.( =.5.r.r.2.5.w.w.w.6.w.t.u.n.u.q.q.q.t.6.w.y.w.u.H.w.6.w.w.0.5.1.5.5.q.] 1.] ] 6.6.} 1.1.1.6.q.6.1.1.` L _ | #.Q | 1.1.` 1.4.*.` _ } ' 4.1._ Q [ ) Q _ m n m Q _ I :.q.*.` } 1.{ <.<.<.} } } t 9.n.4.*.*.*.=.{ *.] ] { *.=.] -.-.{ } =.=.' ' ] =.] ] } =.} ' / / ' =.} =.} } ] ] ' ' { { ' ' ' ` ` ` ( / Y / I / ` ' ' ' { ] ' [ T Y / P I I Y / / / / Y I ` ` I I / Y Y / Y ] ] } } ] ] ] ] ' ' ] ] ' ] | ] } } } | } ` ] ` ] | ] [ ' ` ` ` Y ` / U U I Y T ",
"l v  .J v d x x v J u v v u z v y v ^ ..J ^ c x x c c v C c l y k l ! ^ B B M c l ! u x ! ~ W M d M 7.4.8.#.( 8.;.4.} ;.#.E ! ! M Q | -.4.r.5.;.{ -.*.-.r.5.*.( ! ~ ^ M ( [ [ [ Q ^ ^ ^ ^ ( o.c J x z , y z x z v x z y v J ^ ^ E ..! ~ ~ ~ ( &.~ M C c c g : $ H._._.*XXXoX#XXXXXXX].`._.J.K.K.J.J.J.J.J.J.J.J.n.H.K.b.N.N.M.b.v.l.l.v.b.0.7.8.8.0.0.0.5.6.4.;.;.-.4.4.4.-.#.-.7.6.5.5.8.4.5.8.6.0.4.6.0.r.r.b.y.y.y.t.r.e.r.r.r.e.e.r.r.5.5.5.r.r.5.5.r.r.5.5.r.r.r.r.K.r.r.8.5.2.5.5.8.r.r.l.r.r.r.r.r.r.5.K.e.e.e.y.r.*.-.h Q y.w.2.2.' *.r.y.*.y.r.2.r.r.r.2.=.*.5.e.2.2.5.*.( Q { *.-.-.=.*.' *.5.r.t.5.2.6.w.w.w.w.w.u.n.t.w.2.2.t.w.t.u.y.u.u.y.w.6.t.w.2.6.1.4.q.] 1.] } 4.1.<.1.1.q.6.5.1.<.1.] L I ] } Q ] q.1.] *.*.} I I 1.{ 1.<.` [ ` ` _ Q n n n Q Q U 4.5.} ` } <.<.] } } <.1.] t 9.t.` ' [ { ' Y / ( ' ' ( ' ( ] { ] } } } } } ] } *.-.*.1.=.} ] ' { =.=.} *.*.{ ` Y ` ' [ ` I / I / ( ' ' / / ( ` ` ' ` ` ` T Y / I I / / ` ` ` ` / / / / Y ` Y / I Y / I Y Y I T ` Y Q ' T ` _ ' ' ' ' ] ] ] ] [ ' ' [ ] | ` ] ' ' ] ' ] ] ] ] ] } 1.*.} } =.",
"l x v J v u v c d v x z v y z v u x ^ J ^ ^ c u v C x x c C x y k l ^ ! B c c i u M x f ^ ) E ^ C M #.;.5.{ { 8.5.-.[ 5.} ~ Q ^ M ! { *.-.5.-.*.=.-.*.-.-.6.;.( ( ( M E ^ ( &.~ E E ^ M ^ [ ( c v u x y z u v z l v z y l x ^ J E ^ ( ( ~ ~ +.+.~ M c C c f $ $ J._.K._.J._.XXXXXX@XXX@X_.*X*X_.*X_.*X_._._._._._._._._.]._.].H.J.n.J.J.H.H.H.J.J.n.n.n.b.l.0.6.r.r.b.n.b.b.y.t.6.6.4.6.5.5.6.5.e.e.t.e.0.r.r.r.y.e.e.e.e.r.5.-.-.-.5.r.r.r.r.K.b.b.l.r.r.r.r.l.8.r.2.5.r.r.r.r.r.-.*.2.*.2.8.r.r.r.r.r.r.r.r.r.r.r.w.5.r.5.2.G ( y.5.*.=.' *.5.r.*.r.2.*.y.r.r.6.=.*.r.r.=.-.r.=.Q ( =.*.-.-.{ -.{ -.r.6.e.r.6.w.t.t.w.5.w.K.b.w.w.q.3.t.3.y.y.w.H.u.w.6.w.w.0.1.5.4.4.4.] 1.] 1.1.4.1.1.1.6.4.6.4.<.} ` L Q { { Q ] 1.*.' *.=.} ` I } <.} } _ Q _ ` Q _ L M n M U L <.1.1.[ ' ] <.=.=.] ] <.{ t 9.t.} } } { { [ { ] } ] [ { [ / / / / ` ` ' ' ' ' ` ` T ` ` ` Y T / / ' *.*.} ] ' ` [ ` ` Q U P Y / Q P I Q Y / Y Y I Y Y Y ` / ` Y ` / / Y Y U I I ` I I ` / / ` Y ` ` ` ` ` T ` T T ` T Y Q ` Q Q I I U I I Q Q _ ' ` _ ` T I ` Q ` { ] ] ` ] ] ] ] ' ' ` / ",
"l l x v d u x v x x x y v y y v v v ^ ^ ^ ^ x e c c c l l c x k , x M B c x x y u M f C ^ Q M ^ a E #.-.;.{ #.e.8.#.{ -.[ ) Q ^ B E { [ -.-.-.] *.;.{ -.5.;.-.[ [ ( c B ^ ( { Q g c E ^ ^ ( ..x v x v y y v v u v z y z v d ..J J E ~ ( ( ~ ( #.Q M g f C x = $ _.K.K.H.K.*X@XXX@XXXXX*X`._.K._.*X_.].*X]._._._.XX_._._._.K.K.H.H.H.J.).)._._._.`.]._._.J.H.H.H.J.K.J.J.).K.H.K.H.H.b.b.e.l.b.K.b.y.r.r.6.5.r.8.6.2.5.4.5.5.6.5.2.2.2.-.2.5.2.r.r.r.r.r.l.8.r.l.r.l.l.r.r.r.5.;.r.5.*.*.-.-.2.2.-.5.5.r.r.r.r.5.r.2.-.-.*.*.*.G { y.*.-.=.' 5.w.2.3.y.=.2.r.5.r.r.=.;.r.e.*.-.2.{ ( ` -.-.=.=.' *.=.5.5.r.w.r.6.5.u.t.w.r.w.H.u.3.6.2.w.t.6.u.u.u.u.u.w.6.6.t.6.1.6.4.5.5.] ] ] 1.q.1.*.<.<.q.6.4.1.1.1.` L _ [ ' Q ` 1.} ' *.*.} ' Q } 4.} ] Q I Q ` _ Q n n n L W U } 4.<.| } ] ] } ] 1.} ] ` t h.t.' =.} } } *.{ { { -.-.} *.{ { { ' [ ' } { { { { ` / ` / Q ' / ( ' ` ` I Q I I ~ Y / I Q ` ( { ' ` ` ` ( ' ` / Q Y I I Q Y / ' ' } ' ` ' ( ` ` Y / ` ' ` ` ` ` ` ` ' ` T ` ` ] ] ] T ` ] ' { ' ` Q Q U Q Y I I I I I I I Q U U U I I Q ` ` _ ` I Q / / ` ` ",
"x z v J u u x v z J x y z u z u l c ^ ^ ^ ^ x y x f c u x c l y k x x ^ c i x u i c d x W ^ M c f ^ } #.-.&.8.e.4.&.[ ;.[ ( ~ ^ M ! } -.-.*.5.{ { -.{ -.-.-.{ Q ~ ( M M ^ [ [ ~ c M E E Q ) ~ x J v z y z v v y l v y y x c ..J ^ ^ ^ Q ~ [ &.[ ^ M f x x c ; $ _.K.K._._._.*X*X`.XXXX*X_._._.K.K._._._.*X_._.*XXXXX*X*XXXXX`.*X_._.`.]._.H.H._._._.`._.`.`._.H.K.H.H.H._._._.K.H.H.H.P.K.K.H.K.K.P.K.H.K.K.K.K.r.r.r.y.y.w.r.r.r.r.r.5.-.=.-.-.*.=.*.-.*.-.5.5.5.5.r.5.5.r.;.r.5.r.r.5.r.r.r.r.r.r.8.r.5.5.5.5.*.*.=.*.*.-.5.g ( b.] ;.=.*.6.w.2.r.e.*.2.r.2.r.-.*.*.r.r.*.*.2./ Q ( =.-.{ { ' ' =.5.r.r.r.r.r.w.y.6.3.w.y.P.y.3.2.2.6.i.3.u.u.u.u.w.w.3.6.w.6.1.4.q.6.4.] ] ] 1.1.1.<.} 1.1.4.1.1.} 1.' n E ` I Q ` 1.*.] *.} ] { ( { 4.4.` Q ~ L _ ` I n n m n n U :.1.1.' ] } } ' ] 1.1.] ' t h.6.] ] ` ( { ( / / / ( ` / ` / / / ( ( / { { { [ ` { { ' ' ' ' ' / ' ' / Y ` { | [ ' { | [ { ' ( / ` { ] } =.{ ` ` ` ` ` ' } *.*.} ] ] ] *.} } *.] ] } } } ] ] ] } *.} } *.} { 1.<.} ] } } } { ] [ ` ` ` Q _ Q I I U I U Q Q Q Q I L L K U I / I I I I L P P ",
"x x l v l u v d u x x , y y v z i C B g J B x u x x x l x c y k y x c x c d x l i x c f E ^ n M g ^ #.-.7.} 5.8.5.} { -.[ ( ( ! E ^ { #.{ =.;.{ { *.*.5.-.*.{ J ! ( E M ^ [ ( ! E M ^ E ^ [ ! c v x z y y v x z l l , z l x ~ ^ ^ ! Q ~ Q [ &.~ E c C c x c < $ K.P.P.u.P.P._._._.*X*X*X*X*X_._.).K.H.H.H._.K.K._.*XJ._._._._.].].*XXX*X*X_.`.H.K.H.P._.H._.H.H.H.H.H.K.H.H.H.K.K.H.H.H.H.J.H.H.P.K.K._.J.K.K.K.K.K.K.K.K.K.H.H.J.K.K.K.K.y.K.y.b.K.e.r.r.r.8.6.5.5.5.-.;.2.2.-.5.2.5.-.-.-.-.2.-.2.2.2.2.-.2.5.-.*.' ' [ ] { s { b.=.5.=.*.5.4.r.r.r.2.2.r.2.y.2.*.5.5.r.*.-.-.` Q ' { *.*.' { ' =.5.r.r.r.r.r.w.y.r.w.w.y.P.u.w.2.2.w.w.w.u.u.u.u.y.y.5.w.e.1.1.4.1.5.1.] ] ] <.1.1.] <.1.1.1.1.<.1.} ` L E Q Q W ] :.} T } *.=.] ` =.1.4.} _ _ m +.` ~ W n m m E U } q.4.` { } #.' ` <.] ] ` r h.t.[ ' [ { ` / / I P P P P Q / ( ' ' / ' / / I ` / Y / / / ` / ( ( / Y ( ` I / ` ` [ ` ` ` ` [ ` ' ' ] [ ` ( / Y / Y I Q Y ` ` / ` / ` ` ` ` ` { ] ' ` ` T ` ` ' ] ' ` ' ] ` ' ' ` ' ' [ ' ` ` ` Y / Q ` _ T Q ` Q Q Q U I Q Q I I I I U Q Q I / / I Y I P I ",
"x z d c u u x v y d v z y z x y r c ^ ^ J c x u d x x l c c l , , x x x M x x i x d x g ^ E E C f Q #.} -.#.-.e.-.[ } #.&.~ ~ E E E ( *.( ;.2.=.;.*.} 5.*.{ &.^ ^ ~ M M Q ( ~ E ^ n n ^ ^ [ ! c x u z w u z z y z z < y x x ..Q ) Q ! ( ~ ( ( ~ E f M M d f $ $ K.K.K._.K._._._._._._.K.K._.J.H.H._.H.).H.K._._._._.XX*X_.XX_.XX`._._._._._._.`._.H.H.P.H.P.H.H.H._._.H.H.H.H.K._.H._.K._.K.K.H.K.K.K._.K.*XK.K.K.K._._._.P.P.P.K.K.K.e.K.b.y.K.e.K.K.K.K.u.K.P.y.K.y.K.l.5.r.*.*.*.*.-.r.2.*.*.2.2.2.2.*.{ ' ( { { ] { { ( ' p | y.' ;.' } 1.2.r.w.r.2.2.5.r.y.5.*.2.2.e.*.*.-.Q / ` { *.*.{ ' [ ' *.r.=.r.r.r.w.y.w.w.w.y.u.y.6.1.2.w.w.w.u.w.u.y.w.w.6.w.6.4.4.1.1.6.1.] ] 1.1.1.1.} <.1.1.1.<.] 1.<.| W P Q Q I ] } ] ` } 1.' ' ' 4.1.} | ` Q U [ ) Q L n m E P W } 1.1.[ ` 1.} ' ` ] ` ] T t h.i.[ ' ` / I P Y / / ( / Y Q / Q I I I I Q / ` ` [ ` / / / / / / / I / Y Q Q Q I Q ` ` | [ { ] { ` ' [ [ ` ` / Y I P P P P P P / / / I I I / / / / Y / Y I / Q I / I / ` ` T Y / / / ` ` _ ` ` ` ` ~ ` Q U I I Y Q I I I Q Q Q ` Q ` _ ` ` ` ( Y / / ( / ' / ",
"x x v c l u c x y z x u u y x x l M c E J c l u x x c i c v y k y x x c M d x u u x M d E E g c f E | #.#.` 6.e.-.' } -.[ ~ L g ^ J { { Q -.-.-.5.*.*.;.*.*.` Q ~ ^ c M ~ ~ ~ Q E M n E ^ [ ^ B d x y w z x z y z z , y u x ^ ..[ ~ ~ ( ( ~ ~ ^ c x B c d f < $ K.P.K.K._._._.P.P.P.P.y.P.y.u.H.H.H.H.H.P.P.u.P.H.K.H.J.H.H._.]._._.J._.H._.H.H.H.).H.)._.H.K.J.K.H.H.P.b.H._._._._.H.K.K.J._.J.*XK.K.K.K.K.K.K._._._.K.K.K.K._.K.J.K.K.K.K.K.J.K.K.K.K.K.K.K.K.P.K.y.K.K.K.K.K.y.y.y.e.y.y.r.6.5.r.5.-.2.=.{ ' / ( / ( / I ^ u [ r.*.5.' *.*.4.r.w.r.5.r.r.2.r.*.=.r.r.r.-.*.*.Q / *.-.( { ` { ' =.w.r.*.r.r.r.y.u.y.w.w.w.y.u.t.2.6.w.w.w.w.w.P.u.u.3.2.t.6.1.5.4.1.4.1.] } ] } q.1.] 1.1.1.<.*.] } } ] W E P Q Q ] } } ' ] *.} *.} 4.} { } Q U Q Q Q Q W m M E W Q ] q.2.{ ` 1.} ] ` } } } ] r 8.e.] [ ' ` [ ( / / / / / / / I I Q / I / / / / Y / / ( I / I I I / / ( ' ( ' ' [ ` I _ ` [ ' [ ` ( / Y / ` / Y Q Q ` ` ` [ Q Q ` / / ` ` ` ( / ` / ` _ ` / ( ` ' / / / ` Q ` ` [ { [ [ } ' ` ` ` [ ' ` ` _ ` Q Q Q Q Q I ` Y I Q I Q ` ' [ ` ( / / I / / Y Y ",
"u x x l z x x v y z d x z y x x x c f M c c x w l x c x x x r , k x x ^ ^ x d l u d c c E E c g a E #.*.;.[ 6.8.-.{ &.-.&.^ L g W E } } ( *.-.5.;.=.=.5.*.{ ( ^ [ ^ f C ^ ^ ~ Q E g n M Q [ E c x x y , u v y y z y , y u J ..( X.~ ~ [ ( ^ Q Q g g B C d d # $ _._._.*X_._._.K.P.K.u.y.y.r.r.y.w.y.y.y.b.y.y.K.b.H.b.K.K.y.K.H.J.K.H.b.b.K.b.K.K.K.K.n.H.K.K.K.K.K.y.K.K.J.J.K.K.H.H.H.b.K.H.H.K.K.K.K.P.K.P.P.K.K.K.K.K.K.K.K.b.K.K.K.K.K.K.K.K.K.K.K.].J.J.K.J.K.*XK.K.K.K.P.K.P.P.P.b.K.K.b.K.K.r.e.r.r.K.r.;.-.5.-.4.} / p ) n.;.-.' =.*.*.r.r.r.2.r.r.r.r.=.{ 5.5.r.-.*.*.Q ( -.*.=.( =.-.{ -.5.r.r.r.r.r.w.u.w.w.w.y.P.P.w.3.2.t.w.q.w.w.K.w.u.w.3.w.6.6.1.1.1.4.1.] 1.} ] 6.<.] 1.<.1.] 1.] 1.<.' ( m E _ I ] <.} ] ] } 4.<.` 4.} ] | [ I _ W n L E m W L E U #.5.4.1.` } 4.] ` ] } } ] r 9.r.[ { { { { ' ( / I I Y / / ' / / / / / / / / / I / Y / ( Q ` ` ` ~ Q Q Y ~ Q I Q I Q Q I ` Q / ( / Q Y ( Y P P I ( ( I Q I I I P P P P P E L P L ^ L L L L L P I I I I Q I / Q I Q Q Q P U U U P P U I Q Q ` _ ` ` _ ` Q Q ` _ [ [ [ { { ` Y / Q I Q P P P ",
"x z u c J x d J z u x x x u d d c c M c d x l w u x c d x x r , y c d c M x d x u u x c E L M g u ~ #.#.#.{ 8.5.*.#.-.{ ( J ^ E ^ ^ } #.#.} -.5.5.=.-.-.=.{ I Q ( Q x g Q L ~ ^ E g g ^ ~ ~ M M u z , y z u z y z , , z z J J ( ( ~ Q ( ( L E E x x C c x f $ $ K.K._._.J._.J.K.K.K.K.K.b.y.J.b.H.H.n.J.K.K.K.K.K.e.y.r.y.e.r.e.y.r.e.b.u.b.b.e.l.b.b.K.J.b.J.H.b.b.K.J.K.K.K.K.H.H.K.y.y.u.y.K.y.K.K.K.y.P.P.K.y.y.K.K.y.K.l.e.e.r.e.r.b.K.K.K.K.K.K.K.K.K.K.K.K.K._.K._.K._.K._.K.).P.K.K.K.K.K.K.K.K.y.y.K.y.K.y.y.P.y.r.r.g +.b.=.-.' =.-.*.2.r.2.r.r.r.r.y.2.=.*.5.-.=.-.{ Q =.*.-.*.{ *.{ ( 2.r.=.r.r.r.2.w.y.y.w.u.r.u.y.w.3.2.w.w.2.w.w.K.u.w.3.6.w.2.4.4.*.1.6.1.] 1.} ] 4.1.1.1.*.] ] <.] } <.] Q g L _ L ` <.<.' ] 1.1.] ] <.} } ] [ _ _ L n n E a W E m Q :.q.1.1.' ' 1.{ { } ] } ] t | 4.} -.} { ( [ ] ] ' { { ' ( / { [ ' { / I Q / / ' / Q / Q Q P P L P U P I P Q Q W Q U W L L E L L L L L G G G L s G s s s q h s s g s G G E G G G L L L G g g n L I K U L L U L U U L P L L P W U I L W Q I Q Q Q I I Q Q Q I U I P I I Q ( I Y I P P P L P ",
"x u u x v J d x u u u x x u u d ^ E M c d x z w r x x f x l > , r c x c c x u f u u u c E M g n a ~ #.-.[ [ 6.8.#.{ { { Q ^ n E ^ J -.-.{ { -.-.-.*.*.-.-.( Q ( ( ^ a C ^ E ~ Q M g n E ~ ~ J M d v y y z z z z v , , z u J J ( ( ^ ^ ~ ( ^ W M g x c c x f $ $ H.P.y.r.r.r.r.r.r.r.b.b.y.K.b.b.y.r.b.b.b.b.b.b.b.t.t.y.e.b.b.J.n.b.b.b.y.8.6.4.r.l.e.K.y.r.8.r.6.6.e.e.r.r.8.l.r.e.e.e.y.b.y.y.e.r.r.r.r.r.P.r.r.r.r.r.r.r.r.r.l.r.l.K.e.K.l.K.P.K.K.K.K.K.P.K.K.K.K.K.K.K.K.K.P.u.P.P.K.K.K.K.P.y.r.y.K.K.K.K.u.u.P.P.P.w.y.E [ b.{ *.=.*.*.2.2.r.2.r.r.2.y.r.*.=.*.r.*.' -.*.G =.;.*.*.{ { ' ( 2.r.2.r.r.r.r.y.y.r.y.u.w.y.r.w.w.3.w.2.3.3.w.H.w.w.w.w.r.5.2.4.1.1.1.1.] <.} } 4.1.1.1.} ] ` 1.] } =.' Q s g I L ` <.} ] <.1.4.] ` 1.} ] | ' Q Q n n m M a L W s L ] 4.6.:.` ` } { { 1.] ] { t ~ 4.-.;.} { { { [ { ( / ` / Q Q P Q Q P / P Q ^ G ^ L L G G L n P L L L n g g a a a a s s g g g s h g G L E E L s g g G s p s s G g G L L g a s s h G g G g s s s h s G G L K L n m K s s m s a K L P U Q U W P U W U U L L U W I U P I P L G G L P P P Q P P ",
"z x z u z J x v u v x y y x y J ^ B M c x u u y r f x x x l y < y v x c g f u f d i e M E n M E g ( { -.[ ( 8.5.-.{ [ &.E L E ^ ^ J -.{ { -.*.*.*.-.-.*.{ ( Q ( [ ^ x n E ^ Q L E g E E ~ ! J c u z y , y x z y z k , y d J J ^ Q Q Q ! ~ Q W ^ x f C d f f < * y.y.y.r.0.r.8.6.6.8.e.e.e.y.b.y.v.r.y.y.l.r.e.8.r.v.b.H.b.e.K.b.H.J.b.b.y.t.v.e.r.b.l.e.r.e.6.8.8.6.r.l.b.n.K.b.e.r.6.5.-.6.y.r.e.K.r.r.r.r.r.r.r.r.r.2.5.-.-.5.5.5.2.-.-.;.5.5.e.e.y.y.b.b.y.b.y.K.y.K.b.K.e.K.y.y.y.y.y.b.e.K.y.y.e.K.r.l.r.K.K.H.K.P.P.y.y.E [ K.' *.=.*.r.5.r.r.2.r.2.r.r.r.2.{ ;.5.*.' *.{ P -.2.-.*.{ ' ' =.2.2.=.2.5.r.2.w.y.r.w.y.y.P.w.w.w.2.w.3.3.3.w.u.w.w.w.w.w.1.4.*.*.4.4.<.] } 1.] <.1.q.1.<.] T 1.] { <.' Q n s Q m Q 1.*.} 1.1.4.] ' 4.1.] } ` ` ` n m n m a W L p m { 1.4.<.' ( } ` ] 1.] ] { e ~ ] Q ^ Q P Q Q Q P Q Q G P Q / G J G G J G E G G g g s s g J n a g p p p 7 r 7 p a a a g n g s g E E L L L G L G P P L L L L E L L ^ ^ L P L L L P L G G G L E L E U ^ Q P ^ U P P L U s K s m m m s m m L m n L P U L s s m L s L s s s G s G s g L g G n L ",
"x x z u u x d u z x x y e x u d M M c c d x y y r l x d c l y < y M f x c x t d d u e c M g M W g ~ { -.[ ~ *.6.-.[ ( ~ L g n ^ ( Q -.-.-.{ -.=.*.=.*.-.*.{ Q J Q W f M E ^ ~ L n n E E Q ! ^ x u u , y z z z y z , , z z J J ^ ! ~ Q Q ~ ( ^ E x f f i C f $ * u.H.y.b.K.e.y.r.e.l.8.e.e.b.b.b.b.y.H.n.K.H.J.J.n.l.y.b.b.K.b.b.y.l.e.l.e.y.y.b.b.e.e.e.8.r.r.;.5.5.-.r.l.y.e.y.l.l.e.b.y.y.K.y.K.e.r.r.r.l.l.r.r.r.r.r.5.r.5.5.r.8.5.;.;.-.*.;.-.-.4.-.5.4.6.8.5.8.8.e.e.e.b.e.e.y.y.e.r.r.r.r.r.r.5.r.5.5.r.r.r.t.y.y.y.w.y.G ^ b.' { =.5.w.*.r.r.2.r.2.r.r.5.*.2.r.5.{ { *.Q I -.r.-.*.{ ( / =.-.5.5.r.3.3.3.y.y.w.w.w.y.y.3.y.w.6.3.6.2.2.t.y.r.w.w.r.r.*.-.*.] 1.1.1.1.} 1.] 1.1.1.1.<.] T ] } ] 1.` I P g L n I 4.1.} 1.1.1.] ` } 1.} } [ Q ~ g f m n a E L a s [ 1.4.4.' [ } / ' 1.} ] ' w +.#.E ^ J G J J J G G G G J P J G G s g G G G G G G G L L G G L s g g g g g g n g n g L n L n G G E G L ^ Q ^ ^ P P P E U U L G G L L L L L L L g g L s G g s g G L E L P L L L L P E U Q U g L L n P U U E W U U E E L E E L s G s G s G s L n L L L L g s s ",
"J x y u x z y z z d x e y u y x c c c B x e y u u y d d f y > < > c f c x f u y e u u c E g E E g ~ | -.[ ( -.4.#.( } [ M d g Q Q ( { { { { =.=.2.*.{ *.-.{ Q Q ^ W d n E E W E n n E E ! E M x z J y y y J y y z y y x d J ^ ^ ! Q Q ^ Q ~ ( M x g d i M f % $ H.b.y.e.b.K.K.J.K.b.e.e.r.r.l.e.e.e.b.H.b.J.K.b.y.y.6.5.r.5.r.e.e.e.e.e.e.t.l.e.e.r.-.5.-.;.r.r.8.r.5.e.e.e.e.-.r.e.r.r.y.y.y.y.r.e.K.e.y.r.K.r.y.r.r.r.r.e.8.r.l.r.r.5.5.5.5.-.4.;.-.-.-.-.#.[ ( { &.{ { -.-.r.e.r.r.r.8.r.r.-.2.5.r.r.r.r.2.r.r.r.r.r.r.2.6.g Q e.' { =.5.r.*.r.r.2.2.=.r.r.=.*.5.5.2.=.{ *./ / -.5.*.*.=.I ' -.2.=.r.r.3.2.3.y.r.w.r.3.y.y.2.w.w.3.6.3.3.w.u.u.w.w.r.r.y.2.*.*.] 1.1.] ] ] ] ] 1.1.<.1.1.<.T ] ] ] ] ` Q Q n m m I } ] ] 1.1.1.{ ` ] 1.{ ] ` U L P n m d a L n m m ] 1.q.4.[ } } ( ` *.} ] ' w +.#.G s s g g G g g G G J G G G G Q Q ^ Q ^ G E ^ E ^ ^ P Q E E L E E L G s g g g n E L L E Q Q ^ L L G s G E P Q L L P s n L E L L L L G L g s s h a a s s a p s s s G g g s L g n g s g m n L L W W n L K g n m s n L n G G n g g L L E ^ Q E P P L s s G G ",
"x x y d u u w w u u z y u d v J g g x c d u r r e l u e d y > < y x f c d x u w r i u C M g E E g ( { 7.( ( -.-.{ #.{ ` M d f ^ ( ( &.=.{ { -.( { *.{ *.-.=.( ^ E E x C n E E n g E L E ( L c x u z , , z d y y y k , z J J J J Q Q E ^ Q ( ~ g f f f C M x $ * b.K.y.K.b.J._.K.K._.J.K.J.K.r.n.n.n.b.b.K.K.n.K.K.b.b.K.b.K.e.K.b.b.l.r.r.e.e.y.e.b.l.e.l.e.e.e.8.e.r.l.l.e.l.l.e.r.b.y.e.b.e.K.K.e.r.K.r.K.r.K.l.K.l.r.e.e.b.l.r.l.l.r.r.5.r.5.8.6.5.4.;.-.4.| { #.{ { -.-.*.*.5.-.*.-.*.*.*.-.*.-.-.-.-.-.2.-.4.6.4.-.4.*.*.g ~ e.' *.=.*.y.2.P.2.r.2.=.r.r.=.=.=.2.*.' ] *./ ` *.-.*.=.{ ( =.2.=.=.r.r.2.2.3.P.w.y.w.w.y.w.2.y.w.w.w.3.2.w.u.b.r.r.r.2.6.3.*.*.{ 1.<.1.] ] } ] 1.] 1.<.<.] ` ] } ] ] / Q P P g n I <.] ` 1.1.<.] ` ] } ` ` ` P s W n m a s n L g P #.*.4.} } } 1.` ' } *.` ` > +.-.E J G ^ G J Q / ( ( Q Q Q Q Q Q Q Q P Q Q Q ^ Q E L ^ E E L E L E L E L L E Q E P E L P L E G E G G g s s s a g s s g s g s p 9 t e p 5 3 7 p 9 q p p p 7 p q 9 p j 9 p 9 7 7 7 p 9 7 9 p s a m n m a p 9 q t p 9 p 9 p p a p a h s s G s s s s s s s s s ",
"y v u z u u , , u x u y e d u J c g c E d i r z w y u u l u r < y c c c d i r y e u d M n f ^ E L } { -.~ ( *.-.{ { [ [ n f n L J { =.=.-.{ =.{ =.' =.2.*.=.( Q L x d M n ^ E L M E E E ~ E c x d v , y u z y z y , y z v J J J ( ^ E ^ ^ ~ Q M c f x f c d $ $ J._.K.J._._._.J.J.J._._.J.J.J.J.H.H.H.n.b.b.K.J.J._.].J.J.J.L.J.K.J.K.n.b.n.K.K.y.K.b.b.y.b.l.l.e.r.5.r.e.r.r.r.e.l.e.y.r.e.r.r.r.8.r.r.r.5.r.r.5.r.r.l.8.r.r.8.r.e.8.r.l.l.K.l.v.e.r.e.0.8.8.0.8.8.8.8.5.8.r.8.8.r.r.r.r.l.e.r.5.5.2.{ { ' { { =.{ } } =.} { a ( e.[ =.' *.w.w.P.2.2.=.2.2.8.-.=.2.5.5.] *.-.( ( *.-.*.{ { / =.2.=.=.r.r.r.3.3.w.y.w.y.y.u.w.3.w.y.w.w.2.2.w.n.y.r.r.2.2.6.-.-.} } ] <.] ] ] <.] <.1.] 1.1.=.] } <.1.` ` Q U Q g a I } ] ] 1.} <.' ' 4.] ` ` ` Q s ^ L m a f n n g P | -.4.' { -.#.` ` } *.` ` ; +.*.Q Q P Q Q J G G ^ P P Q G P J G P P J ^ G G P J G E ^ G g G g a s s L L L g n n L E E g g g g s g s L g g a a a a p p t 7 5 t 5 5 5 p a p d 9 p t 7 5 p n g a s g a a 7 p p p a s d 7 7 p p p q p t 8 7 7 7 7 t 7 t p 7 9 5 p 5 9 j p p p p a p a a a 7 p ",
"x x u i z u w > r x y r u z d c f c c f u u w u r e r r d y > < r d x C g i r r i i d E g a E L L [ [ } Q ( ;.-.{ Q ( ( g c G ^ J ;.=.;.=.{ =.( =.( ;.=.=.( / ( J J J J J J J J E E E E ( E c d z z w y l z y y l k > x f E P ^ ) ^ Q Q E E Q C c d c d c d % * J.K.K.].J.J.J.J.H.H.J.XX]._._._.J.J.J.J.].J.J.L.J.K.J.L.J.L.L.K.J.J.K.K.K.J.J.J.L.K.K.K.L.K.K.K.L.K.L.K.H.N.K.b.J.K.H.n.K.H.K.b.K.K.y.e.r.r.r.5.r.8.r.r.r.8.8.r.;.5.;.-.-.-.-.-.7.q.4.4.4.4.q.6.;.;.8.5.5.2.;.r.K.r.r.r.r.5.8.2.-.-.*.-.4.;.5.4.-.;.-.-.*.*.-.t ~ r.` *.*.5.*.r.P.2.r.2.2.2.2.*.=.5.2.4.=.*.} ~ ' 1.4.=.' { ` ] *.*.*.3.r.3.2.r.r.r.r.P.r.P.3.2.y.u.w.3.3.3.w.n.u.w.w.2.2.2.-.*.] ] } ] =.-.{ ' =.} ] 1.} ] 1.] } 1.<.] ' I I I n a Q } ] ` ] 1.1.] ` 4.' Q ` ' Q m P L f a a m n s L ' { 4.' | } :.[ ` } 1.] ' w &.4.Q E G E J G J G J G Q G G J J G ^ E E G G ^ Q G c G g a s g G g a a a a a p p p j p p 7 5 p a a a p p 7 5 t 9 7 7 5 7 t p 9 p p t p a g G n s p s a g g G L n L L L U L K L n n L s s m m m m n m n L n L n L L E n m s s a d n s s s a p s s q p s a g s ",
"x y u x e r > , y y z w r r d M g c f d e y w u z u y r i l > , y x d M x u y e u u d M c f E M E ~ ( { Q ( -.-.Q ( ( ( G J E E J =.( =.( =.=.;.{ =.=.=.=.=.( P J G 6 J J J J J g J L E ~ ^ c u y y y y l y y y y , k u d ^ E ^ [ Q ! Q Q E E c f d c x c x $ * l.e.K.K.K.K.J.J.N.b.N.n.l.b.e.t.b.J.K.J.K.K.].J.K.K.K.b.K.b.K.K.e.K.b.b.b.J.b.K.M.K.L.K.K.K.K.K.K.l.l.K.b.b.l.b.b.e.v.e.e.8.e.e.l.y.r.b.e.e.r.8.K.l.l.r.r.r.l.r.K.e.K.r.r.5.8.r.e.0.e.0.0.6.4.4.5.r.5.l.5.-.r.5.-.-.;.2.*.*.;.;.*.-.*.=.*.{ *.-.*.=.{ { { { [ d ~ r.{ *.=.3.=.y.r.2.r.2.2.3.2.=.=.w.4.*.} *.*.W | 4.;.} { ` { ] =.-.=.r.r.3.3.r.r.P.P.r.P.3.3.3.w.y.r.w.3.3.r.H.y.w.r.2.*.3.*.=.=.] } ] *.*.{ =.} *.1.} 1.] 1.} ] } ] ] ] I Q Q L a U { ] Q ] 4.1.<.Q :.] ` ` ` Q n W n a m a n g a n ' <.} ' | } | ' ` } *.*.( w +.( a 9 9 p a g G G J G P ^ J G G h G g g p a g h g s g a g h a p a p 5 e 5 p p a s E g g a p s g g L ^ Q L g W E W L n n G L P E E P Q Q Q I Q Q P L L L G s s m s h s s s m s L K s n s n m s m n m s m n n s s n U n h E L P L L I W U W Q Q Q L I P P P I ",
"x u x y r r , > w y y z r > d E f c c c e y y u u e y e y i > < y C i x x e e u u w d n f g E g L P / ^ Q { -.*.P ( { ( E G ^ ^ J { ( =.=.{ =.;.( =.;.=.=.( ( / J G J J J J G G g g L ^ Q ^ c i y , y z x y y l y , k u x ^ E ^ ! Q Q ^ E E E g d c c x d d $ * e.l.8.8.e.r.8.8.;.5.0.8.e.8.e.0.e.8.r.8.8.8.8.5.;.;.;.;.;.5.5.8.8.;.-.-.;.e.l.8.r.8.8.r.8.;.;.8.8.8.5.;.5.4.;.;.;.-.;.5.-.5.8.8.;.5.;.*.5.5.;.5.8.8.5.8.r.r.r.r.8.r.r.8.r.r.l.l.e.e.t.t.t.0.t.0.r.8.r.8.r.8.5.-.5.5.8.-.-.=.-.-.-.-.-.r.8.6.r.8.5.-.-.=.{ ( ' j ) r.' *.=.w.=.y.r.3.r.=.=.r.2.=.2.5.5.} *.1.{ P { 5.-.=.{ ` ( =.=.*.*.r.r.3.2.3.r.r.3.r.P.r.2.3.3.u.u.3.3.r.w.P.w.w.w.1.*.3.*.' ] ] 1.*.{ { ] *.*.*.} } <.] 1.} ] *.} ' { I I ` L s L ` ] ' <.1.1.} I 1.' ' { / ` U E L g n a E s p s [ } } ` { { _ _ ` *.*.} ' e +.Q g h h a a d h h h G g h j p p j p p j j p j h s g s s a s s s g n ^ L G s s s E L L E n L n s L G n L E P P L L P P L L s n L L U P W ^ L U P L L P L G L K L s n m s L n L U P s m L m s n n U L m n n L n n L W n m n n m L n L L L P U P U L L L K L L ",
"x e u z e y w ; > y y > r > v J d c d x y w e e l w r w u l r < i M t a x r y d r w f c f g E d g ( ( P Q { { { P / ` Q G ^ L E J =.=.=.;.{ ;.=.( { =.=.=.=.( ( J J J J J J J J c g E Q ~ Q g i y y , y y u e l z , r l c ^ E P ^ E E E ^ Q E C g B c d c d $ + 8.e.l.8.8.8.5.#.#.-.-.;.;.;.-.;.0.e.r.8.8.;.;.{ ;.-.;.{ -.-.-.;.;.;.-.;.;.&.;.;.;.;.8.5.;.;.;.;.;.8.8.;.;.} #.#.#.-.-.;.-.-.-.;.-.*.-.{ { { { -.-.*.;.8.-.5.;.;.5.;.;.5.;.;.5.-.q.0.0.e.e.i.0.e.r.8.5.l.K.z.K.e.l.r.r.r.8.8.5.8.5.5.5.-.5.*.5.-.5.*.-.*.*.=.-.p ( r.*.*.=.w.3.r.w.3.3.2.=.2.-.=.5.r.w.} } } ] n } *.-.=.' / { ] *.r.=.r.r.2.2.r.r.P.r.P.P.r.2.3.w.y.y.w.2.r.r.K.w.w.w.1.*.-.*.' =.} =.] *.=.*.*.} } =.] ] <.1.] *.} } ' ] Q ` ` Q g s ` ] ] ] } 1.<.Q ` ] { ' ` Q P E n s m g E g 9 s ] } ] I { ` U ' T { 4.} T 4 #.( s g g s s c G G G g h c G g c E G J G J G J ^ Q Q Q Q ^ ~ / Q Q Q / Q ( Q ^ Q Q Q U Q P E Q Q W U L L L P P L P L n g s a s s G L g s s s s p a a p a p q 9 9 9 a a p p 9 p 7 7 5 9 7 7 p m a a t 9 a s a a 7 p 7 7 9 p 9 7 9 t 9 7 p a s a p a p p p 9 9 ",
"u e z u e y y , y y y > > r x B f c f f u > e u d e r y i y y : d C f c d r e d r w f L f g W d J ` { ^ ^ ] -.*.Q ( [ Q c E ^ E P =.=.;.=.=.=.( ( =.=.=.( ( ( J J d c c c g ^ ^ c J ^ Q ( ^ c u y , y y y l y x y , z u g ^ E ^ Q P L E W W g f x c f d d d % * ;.h.e.9.l.b.l.l.h.8.z.M.v.m.b.l.l.e.v.v.8.8.8.;.-.8.;.8.-.{ -.;.8.8.;.;.{ #.;.;.8.;.;.;.;.8.8.8.5.5.;.;.8.;.5.;.;.;.&.{ ( ( ( ^ ( ( &.( ^ ( &.{ ( ( ( &.( &.( ( [ ( ( ( { ( ( { } #.#.-.4.8.-.;.;.;.8.r.r.r.r.r.r.r.r.r.r.l.r.r.y.l.b.b.l.e.e.e.r.r.r.r.5.2.r.G [ e.' 2.2.w.w.y.2.3.r.=.r.3.2.*.w.w.r.*.*.{ [ g } -.-.{ ' / / ] -.r.2.y.3.2.3.r.r.r.3.y.r.3.2.w.u.w.y.w.w.w.r.H.w.t.w.*.2.1.*.=.} } } ' =.] { *.*.*.=.=.] *.4.] } *.} =.' ` / ( ^ L s / ' ' 1.} ] } ` ` } ] | [ Q U Q L a n a E n p n { 1.{ / ' Q K ` ' [ 1.1.T 4 &.-.E E G J ^ J Q Q Q Q ( Q J Q ^ Q Q ( ^ Q Q ^ Q L L ^ ( [ ( ` Q Q P I W L U I P L P L L P P L n g K s G G s s h s h h p p 9 t 7 7 7 d a s s a 3 5 4 3 p p a p p p p 0 a a h a h s s m m L L n n g m m m s m E m a a a q a t 8 5 7 d m L m m p a g a h a q h ",
"w e x e r y z w r , > > > y x M d d d d e y w l u e w w u y , < x c d f f w u u e w f c c s ^ t L [ [ P ( { -.{ / [ [ E g L Q L J ( ( =.=.( ( =.{ =.( =.=.( =./ ^ u d c x g Q ^ c c P ^ Q E d l y , k y l y > l y > y l f ^ E ^ ^ ^ E E E E x d f c d d x p $ * #.| [ #.;.;.z.8.#.#.;.;.;.;.;.;.7.;.;.l.l.8.8.8.;.e.r.l.l.l.8.8.8.8.8.r.8.l.e.e.r.z.y.l.r.z.8.r.8.8.r.l.l.K.e.l.l.8.l.8.7.#.[ [ ( ( Q &.-.-.-.;.-.;.{ { ( { &.( &.[ ( ( Q ( [ ( Q ( ( [ [ { { { &.*.*.-.;.8.5.;.2.-.-.*.=.=.;.-.=.=.-.*.5.5.8.5.-.5.5.5.5.;.-.h ` t.=.*.2.r.w.w.2.r.2.*.r.r.-.=.2.w.r.1.*.` / K =.4.*.' / I / ] =.=.=.r.r.=.2.r.r.3.r.w.r.3.=.r.u.w.w.3.w.t.y.u.w.y.3.=.*.*.*.=.' 1.*.' { ] { *.{ { ] ] =.*.*.} { *.} ] { / / ' P L s I ] ' } <.*.] Q ` } { ] ` I W Q Q s g d U s p L { } } ` [ _ K [ | [ 1.} ` w #.-.P ^ L L P ^ Q P ^ Q G G G G G G G ^ ^ P J P L ^ E L L L L ^ W P L L n L n g s a s a a q 9 9 s s h s s L g g n L n L n s L L g g g G E g G g n a p a a a p p s s s m m m s s s K n m K K L U L U L Q W E U L U W L m m m U L n L L U I Q Q L K g g g L L K ",
"w w u u r y z w > y y , > r x E c d t d e y w u x e > y u y > , i C d x d > e u r w x g g g E a E ' [ L ( -.-.[ P ( [ g g n ^ n ( ( ( { ;.=.( =.=.=.{ ( ( P ( / G d x d u g Q ( c G ^ Q ~ J d d y y , y l e w l z , y d f E ^ ^ E E E Q E n f d f x u d x d @ o %.#.#.%.#.#.#.#.#.%.#.&.+.X.&.~ ( +.[ #.;.&.( ( { &.;.-.*.;.5.8.8.;.;.;.5.;.;.;.=.;.;.;.8.8.r.8.8.;.;.;.8.r.;.r.r.;.8.5.7.8.5.8.8.8.8.8.8.8.8.8.8.8.r.;.r.;.-.;.;.;.*.&.*.#.;.{ } } -.;.-.} #.] -.-.-.{ &.=.{ -.{ { ( ( / ( ( ( Q Q Q / ( *.{ ' ' ( ( { { ( { p [ y.*.=.2.r.r.w.2.r.r.=.y.r.*.=.5.w.6.1.{ ` Q U -.2.-.=./ I / ' =.3.r.r.3.2.3.r.3.r.y.y.y.=.=.y.t.w.w.w.y.w.u.y.w.y.2.=.2.*.*.' ] 4.] ] =.=.=.*.*.{ ' ] -.*.1.} ] =.] ' ' I / ( Q L s Q [ ] ' } } ] ` Q { ' ' _ Q L W Q m m q L L p m { *.} { ` ` I ` } ` 1.} ` 4 &.*.Q ^ ^ L G G G h G h g h h a a h h h G s a a s a p p p 9 a s a a s g s m m G g s s g g G s P L U W U I I Q P P P E U P L h g s G g s G L G G s K n g L L n L K L L m W L L I W L U L m n L W L L U K L m U L L L U U U U n P n L m U L L W U P P P g s n K ",
"e r u u ; , r > y > y r > r d c d d t u e e w i e e y > y y , , i g f g d w u t r w a g n g n a ^ ' ( ^ / ' *.' Q ( Q g g ^ Q n J ( =.=.=.=.=.( =.;.=.;.=./ / P J f d x e J ^ ^ g G P ^ ~ J d u z , y u z y y z e w u x c E P E L E ^ Q ^ n f d c g u i x u $ X 9.z.8.z.h.9.h.h.8.8.7.7.7.;.;.8.;.;.h.9.;.h.h.l.h.l.l.;.l.l.;.-.;.-.;.{ ( &.;.-.;.;.;.;.;.;.;.&.=.;.-.-.;.;.;.;.-.*.{ &.{ { } { { ;.{ -.&.=.{ -.*.-.=.-.-.-.-.-.-.-.*.-.&.{ #.;.;.;.9.5.9.8.0.8.8.;.;.8.8.r.l.8.5.-.-.*.( ( ( ( ( ( ( ' { ' [ ( ( ( ( ( ( / / e [ u.*.w.3.w.P.3.3.r.2.=.r.r.*.=.6.w.w.1.] Q Q I 4.*.2.*.( I I ' *.3.r.r.3.2.r.r.3.P.P.w.3.=.2.w.w.y.w.w.y.w.u.u.w.t.2.*.3.*.*.' ' 1.' { { ' ] *.=.' ' ] 1.1.*.*.=.[ ] ] ' P Y ( P P s ^ ' ] ] } =.] ` ` ' [ ` ] ` E L Q M g 7 L n q L } } 1.{ ` { ` ] ] ` 1.] T > @.( J G G G G G G J G Q G Q P G ^ ^ P P P ^ G L ^ E L P L E L n n g g E L L E ^ Q L I Q P Q I I Q I I ~ P I K K L U P L L s n s G L L L G g G E L E I L L s m L s n n m m m m n n n n m m m m s n n s s m g n E Q Q W n L L n n m m g n n m m m m n n s a s q ",
"w e u u ; ; y r r > > > w i x d d x u e e u e d t e e r y r > , x g f g d 6 e t e r a E L g a p P { ( G ( { *.Q P { Q G g E E L ( / =.;.=.=.( =.;.=.=.=.=./ / / G f d d u g ^ ^ G G ^ ~ ^ g d x u , , z x y , y > y d d c J E E g E Q E E g C f g f u d f t $ + 7.8.z.j.0.l.l.l.h.8.5.;.%.;.%.9.z.z.z.;.8.8.h.8.8.8.8.8.e.b.z.l.K.z.8.8.;.8.8.8.;.;.;.;.;.;.;.8.8.;.8.;.;.8.;.;.{ ( -.;.{ -.*.;.;.5.;.;.;.;.8.5.;.-.{ { *.;.;.5.5.-.*.{ { { { ( ( ` ( &.( ( ( [ { -.*.;.;.;.8.8.r.r.;.5.;.;.2.-.;.-.-.;.*.*.{ { ' ' ( ` / / / j =.P.=.3.3.P.3.3.2.3.=.=.r.3.=.=.2.r.w.*.{ ' E ( 6.*.-.' ( P P { =.2.r.3.2.3.r.3.3.r.P.r.3.=.=.3.w.y.r.w.t.w.P.w.r.r.3.*.5.*.*.Y =.*.' =.} ] ] *.=.' =.=.=.2.*.*.*.} } { ' L / / L P a U ' <.] ] } ] { ` ] ` } { ~ Q g U L g 8 n L p G } *.q.` ` } ` ' ] ' ' } Y 4 @.*.[ ( ` [ [ [ ( ] ( ' { / / Y Q / I I / / / ~ / ` / Q Q Q Q W L L L n L L U I Q U I I Q Q I I I P Q Q P P U P P P L E K s s g d f m a 9 p p p 9 p a p p t p p p p q t t 9 t t t m 9 t a 9 t p 9 t q p p p p p a a a a m a m m m t t 2 i a a f a m a n m m m ",
"w u u y , > y ; y > , , > x d d e x u e e e u d u e r r y r > > f M c f u 6 e u t d d E M n f g Q *.[ G Q *.{ ( E ( Q g E ^ E L ( / =.=.=.( =.=.2.=.=./ =.=./ P J f d d u J ^ P G g ^ ~ ^ g d x y , y y u y y y , u x d g ^ E E g E ^ E g f x g c f r d d d * X 7.f.7.h.v.l.l.9.8.8.;.%.%.%.%.;.%.;.8.f.l.l.l.8.l.l.b.b.l.l.l.l.8.l.8.8.b.r.8.z.r.z.l.r.z.8.r.8.r.r.8.5.r.;.;.;.;.;.;.;.;.;.-.;.5.;.-.-.{ =.;.;.8.8.8.8.-.5.r.5.r.r.r.8.5.;.;.;.;.*.*.-.#.( ` [ { ( { ( ( / ( / ( ^ ( ^ ( ( ( ( ` { { { { ;.-.;.5.;.;.=.*.{ ' e ' P.=.3.3.r.3.3.3.3.2.2.3.2.=.' 6.w.5.*./ ( P ` 5.=.*.' ` P ` =.2.3.r.r.=.2.r.3.3.r.r.r.2.=.2.w.w.y.w.w.w.u.H.w.w.r.3.*.2.5.=.Y { *.{ { ' ] *.=.=.' =.*.*.*.*.4.=.' ] ' ` P Y / P L p U ' } T } *.*.} ` [ / ( ` ` U g E g g p L L p L } 1.} ' ` ' Q ' <.' ' ` Y > %.6.( / Q / Y / / / Y I / I Q ( / / ( / ( / ( / / ( I ` Q I Q ` W L L L Q I I L L L m L n L U g s L m s s a d p t 7 d p p t t r 4 7 t t i a t p a d m a a a a a a f a m t t m n m m t a t p a p p a s s n s a n a m a q i r t r t t i t 7 t i a a m M m n U I ",
"w y u e ; , r w > > ; < ; x i u u c u w e e u d u w r y y w , r f g C g u w r t t d a E n m a g Q ] Q ^ ( =.=.Q ^ ( Q n L ^ E L ( ( =.=.=.=.( =.=.=.( / =.( / P L u c d d L L E J s L Q J g l u y , y y z w y y , e d d f E ^ L g E Q E c g f g c f u d d p $ X %.&.&.>.f.j.z.h.8.%.%.7.;.>.%.%.%.#.#.#.&.#.#.;.;.h.9.8.l.;.{ ;.8.8.8.;.;.;.;.8.r.r.r.8.8.r.8.8.8.;.;.-.-.{ { ;.;.-.&.;.-.-.-.{ { &.{ *.;.-.-.;.-.8.r.8.8.r.r.l.l.r.5.;.;.*.-.{ ;.;.;.;.;.*.;.;.;.;.-.{ { { { { { ( ( ( / ^ ( P Q Q ^ J J G / ( ( ( { ` ( { ' e ( P.2.3.3.r.3.P.3.3.2.2.r.2.=.' r.r.3.-.' ` P ` *.} ' ` Q L ' ] 2.2.y.r.2.3.3.*.3.r.r.r.*.*.w.w.w.u.3.w.w.w.H.w.w.r.2.*.*.*.=.` { *.{ ' =.=.=.=.=.=./ *.2.1.*.2.=.{ ' =.' P / I I L p L ` ' ] ] *.1.} ( ' ( ( ` ~ E n n n a p n L p L } *.} T ` { ` ` 1.` { ` Y 6 +.4.` Y / / ( I P I / I Q I I P Y I Q / / ( Q / Q ~ I W n L L L L n m L L m a a t 7 t 7 t d a 7 7 p d p s a a a s s g n s g s a a g g a p a a m n L n m n s g n f m s m m m m n E m s a a 9 a n s m L s a s n U L n n U n U U m m m n m n m 9 a t 9 9 p q t 9 ",
"e e e e ; w y r w w w & > c u e e d d e w e u d u w w e u > > r f m g d t 4 r t u t t E n n n a ( ( I Q ( { =.Q P ( L L E L n n ( ( =.=.( =.=.( =.=.=./ =./ ' J J a c d d E E L g s L ^ J d u u y , k y y , y y , u d d g G ^ E G ^ ^ E c d f c a u t d u d # o +.! .. .X.) %.7.f.9.f.%.%.&.+.&.7.k.k.f.&.%.&.#.&.[ +.&.;.;.;.&.;.-.;.8.;.8.l.8.8.;.;.z.8.z.r.8.8.8.;.-.-.&.( { { { { =.*.-.5.;.-.-.;.-.*.{ &.{ =.&.;.5.;.*.-.;.5.-.5.;.{ &.{ { ;.{ { { ( { [ #.{ -.{ &.-.&.-.-.=.-.{ &.( { { &.{ { -.{ -.{ { { { ( ( Q P J G e { P.3.r.r.r.P.3.r.2.=.2.2.=.=.' r.r.2.5.' ( ^ { } { ` ( Y I ' =.2.r.r.3.2.2.r.2.r.r.3.r.=.*.5.w.w.u.w.w.w.u.P.3.w.w.2.*.2.2.' ` =.*.=.{ =.*.1.*.=.=.*.*.1.1.=.1.] =.' T ` P I / I I s m Q ` ] } ] } ] Y ' ` Y / Q P s s n s d G L p L -.1.} Q ` ] ' ` } T { ] U w | 4.~ ~ ( Q E L I / ( / Q Q ( Q Q Q P I L E G a d d t t t t t p a d t t t d p a m n m M m n a i i a 9 t 7 g s s a a p a t 7 9 p p p a m s m m n s n m m m s L L U U W L U W U Q Q Q Q U n n L L n s g m n L U L L n L m L _ U U n U m m n m m m m m m m a a h ",
"u e r w ; w i e w w w , w x d r t d d r w t u d u w e e r > > r f M f d r ; w r t t d n s g s a / ] Q Q ( =.*.I I ~ L P n n W L / =.=.=./ ( =./ ( =.( =./ / / G g g G f c E E g g a L E G x e z , , y y y , y w > z d f g J E E L W ^ n x d f C x u d d t d $ X %...X... .......+.+.&.#.%.7.f.f.%.%.&.#.%.#.&.+.+.( &.%.{ +.&.#.;.;.;.&.;.;.;.{ &.;.;.8.8.z.8.r.8.5.;.;.&.-.;.;.5.8.5.r.8.8.8.8.5.-.-.-.;.{ -.( { ( ( ( ( { { -.=.{ ( ( ( / Q ( ( ' ( ( Q Q ( Q ( ( ^ ^ ^ Q ( ( ( ( ( P Q / ( ( ( ' { { { { ;.;.;.;.-.{ { ( ( 4 { K.r.r.3.r.P.P.r.3.2.3.r.=.=.' r.3.3.*.{ ` P #.{ ` ` / Q / ' *.-.2.r.2.2.w.3.2.w.w.w.w.=.2.6.w.y.w.3.w.w.w.P.3.w.w.2.1.2.*.' ' ] -.=.=.] =.2.1.2.=.*.1.2.1.=.1.*.*.' ' ' Y Q / Q ^ h G Q ` } 1.] =.] I ] ` P I Q L a g p h 9 L G h E *.} ] ` ` ` { ` ` Y ] } I & ) { g L n n n g J E E ^ s d a p a a p t u e u t i f f f M n W Q M n M a f n a a a a a g n g a m a t p a d p h L L G h a 0 G ^ I Q m E W _ ` Q [ [ ` Q L m n L I I I I E L L m L L K K n n W L s n s g s s a L U m m n m m m m m m n m m m a m m U U U U Q I U ",
"r e w e ; > x u w e ; > w d t u t u d e ; e d u e e r > y > > e n n g d r 4 w e r d g g t a f a ( [ Q ^ I -.[ I Q Q E W g g E L / =.=.( =.=.=.' ( =.=.( =.Y P J g a E h E L J g a a E ^ J d u z , , y y , y y , > u u g g J E J n ^ E n g u g g a u d d u u * . &.+.&.+.( %.&.+.X.+...X.%.7.;.%.%.&.~ +.%.&.( ! ! ..+.+.~ ~ +.#.&.&.( ( &.&.{ &.&.( ( ( ( &.-.-.-.;.;.-.*.&.-.;.8.e.8.8.r.8.5.;.8.8.&.( { ;.;.5.8.;.-.-.-.&.*.{ { { { &.( { { &.[ ( ( [ { { { ' ( ( ( ( ^ ^ Q Q ( ( ( / ^ / J P P Q ( ( ( ' ' { { ' / / Q / ( e { K.r.2.3.3.r.P.r.r.2.3.=.=.=.' r.*.2.*.] / Q ] { ` ` ' / Q =.-.r.r.r.=.2.w.3.r.w.w.2.5.=.2.w.w.u.u.3.w.3.3.y.3.w.w.2.*.*.*.' } { *.*.{ =.=.2.2.1.=.1.2.*.2.=.*.*.*.' / ( I I I P P s a K [ } 1.} ] } T *.` I ~ Q n s g d t 7 n G a G ;.*.} / ` Q ' T ] ` ` ] I w ^ Q g a d d r e e t t p a p t p d f g a g g g n E n M a m W L L L m s m L n L a a n m G g P Q I I P P P P K L ( / / I ` Y ' ` ` Q U ] ` ` _ I P P L s n P P P W W s s s g h a m K m K L U U U W U K L n U K L Q Q U Q W T _ _ _ ] ` _ T Q I ` Y T ` ] <.] ] ] ",
"u w ; e > ; r u t e w 4 r d t t t u r r 4 r d d w e w w e > ; u f m f d r ; w w t s g n t s g s / { Q G I =.[ G P I Q L s g p a / =.=./ Y =./ ' / ( ( ( =.P J G d d G f L L E a t g E Q g u y y , k y > , w y > > u d c G E E G L ^ E M a d c c d t d d t d * . #.&.%.%.f.7.7.&.%.%.#.&.%.&.%.%.#.&.&.f.7.%.%.&.X.~ ) &.&.&.[ &.&.&.( ( -.&.&.^ ^ ( ( &.( &.( J ( ( ( { [ ( &.#.#.7.f.l.5.8.5.;.8.;.{ ( ( ( &.-.;.-.-.{ ( { ;.;.;.( { -.{ ( { ( Q Q ~ ( ( ( [ ( Q ( ( Q Q ^ ^ Q P ^ ^ ^ ( ( ( ( ( ( / / / ( ( ( ( / ( Q J Q ^ w =.K.r.2.3.3.r.P.3.r.r.2.2.=.' =.y.*.*.*.} / P } { ( ( ` / Q *.*.*.r.3.2.3.w.3.3.w.3.2.2.1.3.w.w.w.w.3.w.u.y.y.2.w.2.1.=.5.=.' =.] ] *.{ ' =.*.2.=.1.=.1.2.=.2.2.-.*./ I Y I / P P P G p s { *.*.] *.{ T =.{ / / P L a n p e t n s a U } <.} ` I I ` ` ' ` ` ` Y ; ! ( E ^ ^ L L L n n g g h g s G g s E P n L L m n L n L E W L m s m n E L Q W L U U Q I I Q / ' ` ` Q / P P / ` Y ' ' ` ' ' ' ` U L U L m m n m s g n g s L m s U _ Q I I I Q ` _ ` Q ` I I I I I Q Q Q U U I I I ` ` ` ` ` T _ T T | ] ] ] =.<.<.1.<.<.<.1.] ",
"e w w e 4 w e w u e ; 4 u t i t t u 5 w > r d d 4 r e , w , , u f m g t 7 > 4 r e g g f 7 a g m [ { ^ Q / -.{ L Q / ~ L a L f f / ( =.( =.=.=.=.' =.=.Y / Y G G u g g s g n g d d h ^ ^ c u y r , , > , , , y w r e u g g E L g n E M c g d x g d d f x e t * . X.....O.&.%.&.+.&.+.&.%.&.( ~ ~ ) ..X.( &.&.&.#.#.&.~ [ X.( +.&.( { &.( ( ( ( &.&.( ( ( ( &.;.;.&.&.( ;.( Q ^ ( { ( { ( ( #.{ #.( =.&.&.&.{ { -.&.;.-.( ( Q Q Q Q ( ( ( ( ( ( ~ [ +.{ &.#.&.+.&.&.&.( &.( &.&.( ( ( ( / ^ / P ( J P ^ Q J Q / ( Q Q Q Q Q G G w -.K.r.2.3.3.P.r.3.3.r.r.2.=./ =.r.2.3.*.] Y P ] { ' / ` / ' *.*.w.r.3.r.w.w.3.3.w.3.2.1.1.6.w.w.y.u.w.w.u.w.y.2.3.2.1.=.*.=./ / ] =.{ =.=.2.*.2.2.=.2.=.2.2.=.2.2.=.' Y / Y / I G I G p g ` 1.*.*.=.} ` *./ ` / ^ E g s p e 5 L s p L } 1.] ` Q I ] ` ' ] T T Q ; ~ { Q Q L n g g a d p a G J g g s G E Q I W I Q Q ` ` | ` ` ` [ _ U Q I L m m U ` Q Q I Y ` / Q Y U K L I Q I I P I I I Y P I I U K I Q I ` ` / _ Q U U Q I Q U U ] ` ' I I T ` ] ` ' ] ' _ ` ' ` ] ] { { [ { <.<.} } ] <.] | ] T <.<.q.1.] 1.T Y T ] } } ] T ",
"t e e e ; w 6 ; d e ; w t d t t t t t w > 2 d i 4 w r > w : < e f m g 7 r w 4 r r n n a 7 m a m ' [ P Q Q -./ G / Q P G d L g g / =.=.=.( =.=.=.( =./ / =.P J J u g g g g L g u d h J Q d u u , , y , , , , e e , u u J J J J G L E g n i d g c d d d d e e + . #.%.&.p.%.%.f.&.&.;.%.&.#.#.( &.[ X.[ ) &.%.&.&.#.%.&.{ &.+.+.[ +.#.+.~ ~ ^ J E J ..;.;.&.( ( &.( ( &.( &.( ( &.( &.( &.( ( ( ( ( ( ~ ^ ( ( ( &.;.;.&.;.&.( &.( &.&.[ { { +.[ ~ ..( ( Q Q ! ~ ( { ( ^ ^ ! Q ( ( #.#.&.{ ( &.{ ( ( [ ( ^ L P ^ G ^ G s G G g J 6 { K.2.3.w.3.3.P.r.2.=.r.3.=.Y =.r.3.=.=.=./ P =.{ { ( / ( / =.-.w.3.3.w.w.3.2.w.w.3.2.=.=.w.w.y.y.y.w.u.w.u.3.2.3.*.=.*.5.=.' =.` =.{ =.*.*.*.2.*.*.3.2.2.2.2.2.*.=./ / / / I P G Q G j g ( -.-.*.*.] ( *./ / I Q P G s p p e s P a G } *.{ ` Q I ] T ] ] T ` Y ; ) } I ] ] _ _ Q Q W U L _ ` ` ( Q / I ` ] } <.] 1.] ] ] ] ] ] ] T T | | U T T _ ] _ ` Q U Y ` ' / K L s g U U I T T U R m U m U Q U U ] T I ` ] T I T ` T Y } ] } <.T T <.<.=.] ] ] ] ` U I U <.] ` ] ` ` ` <.] T ] <.] <.] | <.<.<.<.<.<.<.<.<.1.] 1.<.<.=.] ",
"p e d 4 w 6 > 4 d w 6 w r t u t r t u r ; w d u 4 w r w > : : u d g f r 4 : w 4 r n L d t a 9 m ( / G P / *.Q G P Q J h d E d d P / / =.=./ =.=.=.( / / / Y P J p x a a g g g e d h Q J d e z y , , , , , , , e e u e e J J J G E n f d u d M C x f t d u u $ . X...~ X.o.+.) ) &.&.&.#.;.&.%.&.&.+.+.%.#.#.;.#.#.%.%.%.7.7.;.;.+.~ ~ ( &.~ ~ ~ ~ ( ( &.&.&.&.( &.&.( ( ( ( ^ ..J P ^ ..( ( ( ( [ ~ ( ~ ~ ( X.( Q Q Q Q Q ! ^ Q ( ( ( ( ^ ~ ~ ( [ ( ( Q ^ E ^ ^ ^ J E J M ^ ^ ~ ( Q ^ Q Q [ &.^ ( ( ( ( [ [ [ ( ( ( Q ^ J J G ; #.K.2.3.P.3.3.w.3.2.2.r.3.=.=.=.r.2.=.=.=.Y ( =.{ { { ( ' / *.-.2.r.3.y.3.3.3.w.u.3.2.=.=.3.w.y.y.w.3.u.u.w.3.3.3.*.*.2.*./ ' { =.{ =.*.*.=.r.2.2.=.2.*.3.2.*.2.=.*.' / Y Y P P G P G G h / *.*.*.=.{ Y *.' / P Q P J G p e e g g s s { } ' U ` ] ] ] ] ] T Y ` 2 7.t.1.<.4.] } ' ` ` ` I Q I I ' ] } *.] } <.1.<.} ' ] _ ` ` _ T T _ ] U m m V U U U Q U L L G G L L s G U Y ` T T T T T U T T Q ' ] ] ] ] ] ] <.<.<.} ] T ] <.] ] ] ` T ] T ] ] T ] T I Y ] ` } } ] ` ` T ] ] _ ] ] <.<.] T | ] ` T T ` ] ] ] ] ] 1.q.<.<.1.] ",
"a e e 4 4 w 6 e p w ; e e e t t t t w ; 4 w t d w 6 r w > , : d p a p w > : e > 7 n n a t a t m ' ( G ( / =.( G Y / G d t E d m P Y Y =.=.=./ =.=.( Y =./ Y J G u E a f E g g u d h ^ ^ c u u , , y , , , y e , y u e J G J J G E n n d t d C x f d u u d e o . ;.g.f.f.;.;.;.;.#.#.&.[ #.;.#.&.&.+.) +.+.&.&.+.+.( ~ ~ ~ [ +.&.+.&.+.+.&.#.+.&.#.( ( ..( ( ~ [ &.^ ( ( ^ ^ ( J ~ ^ c ^ ~ ( &.^ ^ ( ( ( ( ( &.&.[ [ ( ~ ^ E E J E E ^ E E ^ E ~ ( ( ( ~ Q ~ +.( ( ^ ^ M Q ( [ [ ( [ [ ( ( Q Q Q Q L E ^ E ^ Q Q Q ( ( Q Q Q Q w +.K.r.P.w.2.3.P.2.=.3.r.2.=.=.2.r.=.=.Y ' P P =.{ ' / / / ( *.2.2.3.w.w.3.3.w.u.r.3.*.=.2.w.w.w.w.y.3.w.y.r.3.3.2.*.=.-.=./ =.{ { { *.*.=.*.r.*.=.2.*.=.3.3.*.2.2.=.T Y P / G P P G G g j ( *.=.] *.=.I =./ / G P / ^ G a 4 4 G s h g ' ] T I ` ` ` ` ` ` T Y I - %.6.] 4.1.4.} ] ] { Q I ` T Q U ` { ` ` ` I Y I U U W U W Q Y T T T T T m U T ` I K U U U U K L G h K P ` ] ] =.<.=.=.1.<.] ] ] 1.1.5.1.<.] ] <.` ] ] ] ] <.=.` T T K K U T T ] ` I I I ` ] ` ` ` Y T I I I I T U I T U I I I _ Y ` T T U _ T T I U I n T Y U ",
"h p 4 t 4 w 4 e t 4 ; e 4 w p u r w w w ; e e r w 6 w w > : > t t p d e : & r 4 r n m p t p 7 L [ ( G P Q -./ G P G G d p n p g J =.Y =.=./ / =.Y =./ P / P P J d n g g n g a t d d Q J d u y , , , , * , e y e e e e J G J J j n n f d r d M g d d d t u e + X [ h.8.5.8.8.e.-.-.;.;.%.#.;.;.;.-.9.0.e.h.9.0.0.8.9.h.;.+.&.( [ [ ~ ~ ~ ..( ~ ~ ~ ! ^ ! ! ! ! ( ( ( ( ..~ ( ..~ ^ J ^ ^ ~ [ &.( &.( ~ ! ^ ~ Q ( ..( ! ~ Q ~ ..( ( ~ ( ~ Q ^ ^ ^ ^ ~ ~ E E ^ ^ ~ ~ ~ L M ^ ^ ~ Q ( [ ( &.( ( ( ( ( [ &.{ ( ( ( ~ Q Q / ^ E J g ; +.K.w.r.P.2.3.P.3.2.2.3.2.=.=.2.P.=.=.Y ( P J =.' / / ' ' ' *.5.*.=.r.y.w.3.r.w.w.3.*.=.3.r.y.y.y.w.w.w.r.3.3.2.*.=.=.*.{ Y ' =.*.*.=.-.2.=.2.2.=.2.2.*.2.*.3.*.*.*.' Y / Y P P G G G G p Q *.=.=.*.*./ =.' Q G Q Q P ^ G p e s G G s [ ' ' / / ` T T T ` T T I - 7.2.] ] 4.] Y Q Q I I Y I Q T I I ` ' ] | ` ` ` ` ` ` ' ` ] ] ] ] T T <.| ] T ` | ] ` U Y Y T Y I ` ' ] ] ] 1.2.6.3.1.1.1.] T I ] 1.1.=.T T 1.] T ] =.] =.] ` T T ` T I Y T Y T T I T ` ` ` ] T T T Y T T ` I U T U T _ T T T T ` T T T T T _ T Y _ T ] _ T T ",
"h p p e d e 4 p t e 6 w 4 4 u t r 5 r w > r 4 4 w ; 4 > ; , : u t a 7 t : = r 4 7 n a p t t 4 m ] Q P / I *.Q G Q P h p p n s L P =.=./ =./ J =.Y ( / =.P P J G d L g g g g d t d s Q E d e y , , , * , y y y , w e e g J G J h g E a d r i n n f t d d i r + X #.;.f.h.8.;.;.;.;.8.;.&.~ ( ;.;.8.0.-.;.e.8.r.l.l.b.l.l.5.;.-.;.;.f.;.;.#.#.#.#.{ #.&.&.%.&.#.&.&.( ( ~ ..&...( J J ^ E J ~ ~ ( (  .^ ^ ~ ^ ~ ^ J J  .^ ~ ( &.( &.( (  .! ( +.+.( ( ~ ) +.~ ~ ~ Q ~ Q ^ ^ E E E ^ ^ ^ ^ ^ ^ ^ / ( ~ ^ Q ( ( ( ( Q Q Q J P J s & =.K.3.P.3.2.3.3.2.2.2.3.=.=.=.r.r.=.Y Y / P ' =./ / / ' / / =.5.2.2.3.3.w.3.r.3.r.3.2.=.3.w.w.r.r.3.r.r.r.r.3.2.*.=.*.=./ Y ] ' ] *.*.5.2.=.2.=.=.3.=.=.2.2.=.2.2.2.' G P Y G P P G G G h P =.=.=.2.=.Y { { I G Q I G G g h e h n s m ` } ' ` ` ] Y U T ] ` Y I - 7.y.5.1.q.1.=.] } } 1.] ] T ] ' ` T ] } ` ` ` I T ] ] } 1.<.] ] <.<.1.] 1.<.] ] ] ] T ] 1.1.1.*.4.*.1.=.1.2.2.2.3.3.1.1.] 3.] ] ] T 1.T T 1.<.] T T T T ] T I T T T T T T T T T Y ` T ] ] ] ` ` ` | T ` T _ _ I T Y Y T | T T ] ] ] ] ] T ] ` T T ] T T T _ T ",
"a p j 5 p p e t e 6 4 4 4 4 u t r 4 r 4 4 r ; 4 w w > w , ; w t t a t 7 : : r 4 t L p p 5 r 4 L { / P / / *.Q G Q Q G a f n a Q / =.( =.=.=.P Y Y =.P ( Y J G G a g d g g g d d d g ^ g u y w < , , , , y y y e e w e h G J J G g n d d r i u i i i f t a r o X %.( ( { #.;.8.l.e.8.8.;.#.&.%.#.;.;.-.;.-.7.7.9.7.5.9.5.7.-.;.#.#.{ } #.7.;.;.;.;.;.#.#.} #.+.[ ( ( &.~ ..( ( ..) ..~ ( ( X.( X.( ~ ~ ( +.+.( ^ J ^ ^ ^ ^ ! ! ! ! ^  .J ^ Q ( ( ~ ^ E ~ ( ( ( ~ ~ Q ^ ^ ^ E E ^ L L ^ ^ ^ Q ^ Q ( [ ( ^ Q ~ Q ( Q ^ ^ Q Q Q G 6 =.P.3.r.3.3.P.3.2.2.2.r.2.=.=.2.r.=.Y P / G / ( / P J ' / ( =.5.2.3.P.3.r.3.3.r.3.3.=.=.w.3.y.P.3.3.w.y.r.3.2.2.*.=.=.' Y / ] ' ] =.=.2.*.*.=.=.5.2.=.=.2.2.2.=.2.=.' / P Y Y P G G G J h P =.=.=.=.=.Y ' ' / G P Q G G G a 9 a s K m Q ] ] ` Y ] ` U T T ` T Y - 9.w.*.=.T ] T } 1.=.] ] ] ] ] T ] <.} ` ` T ] ] <.q.3.1.] =.1.] <.1.<.1.1.1.3.q.2.3.3.q.3.1.1.5.2.=.2.1.3.3.3.1.T ] 2.1.3.1.] 1.1.1.1.1.] ] ] ] ] ] ] } ] ] T T T T ] T T ] ] ] ` T T ] ` T ] } ] ] ` T T Y T _ T I I _ T T T _ ] ] ] T ] ] ] | ] T T I T T ] ",
"a 9 p 4 t p e p e ; 6 w 4 e t t w ; w 4 4 w - r w 4 w > : : ; r t m a 7 > = r 4 i n t a r 8 4 L { ^ Y / / =.Q G Q P P d L s s ^ / =./ =./ / G =.P =.P =.P G P G d g p g f c d u d L Q g d w > , , , * , , y e e u w e g G J G J n n i d r d a i i d d t u e + X %.;.;.8.8.z.e.-.;.;.-.8.8.8.8.l.8.;.;.;.8.h.l.l.7.0.v.v.e.e.8.9.0.;.-.;.-.-.5.5.8.l.e.e.6.-.8.8.h.;.;.{ ( ( ~ J J ~ &.&.{ { &.&.+.[ ( &.-.;.;.;.f.-.;.-.#.+.( Q ! E E J c J E ^ E c c c c ^ ^ E ^ ^ ^ Q ! ^ P E ^ Q J G J g J G E Q ~ Q ! ( Q ^ ^ ^ Q Q Q ^ J 6 =.K.r.r.=.2.r.3.2.=.=.2.=.=.' 2.2.' ' Y Y P / / / P G ' / ' *.2.2.3.w.P.r.3.3.w.3.=.*.*.w.3.3.P.r.3.3.r.r.3.2.=.*.] ' / I ` ' ' *.*.*.r.=.=.*.=.2.*.=.*.*.r.2.2.2.*.' / Y Y / J P G h G h ( =.=.-.2.=.G ' ' Q I / I G g J g p a L s s Y ] ` T T T T Y T ] ] Y U - ,.u.2.1.2.1.<.1.2.2.1.1.1.] T T T *.1.6.6.2.6.2.<.6.q.q.2.<.1.q.3.3.3.3.3.3.3.2.2.] T T =.<.1.<.=.1.2.1.2.3.3.3.1.] =.1.] ] <.1.T T ] ] ] T T | ] ] ] T T T ] T T T T ] <.] ] ] ] ` T ` T T ] ] ` T ] T ] ] ] <.<.T ] T T ] T T ] <.<.] ] ] ] ] ] T U T ] ] ] ",
"p a p e 5 5 e 5 4 6 2 e e 4 e r w : 4 > 4 e ; ; e 4 4 w & , w e p L p t : # 4 4 a m a a 5 w 8 U =.L P ( / =.P P / P P a s g s L / =./ / =.=.Y / P =.=./ P G P J g g g L h a p p a E E E d y ; < * , , * w e , e d w e c G G G J m s p d r f d d t i f i t t $ + 7.;.9.e.K.l.y.l.r.6.;.r.-.#.-.5.5.;.-.{ -.#.4.5.8.8.6.r.0.l.e.0.8.8.8.h.5.#.8.;.5.8.-.;.;.#.5.r.;.8.l.8.8.;.;.;.;.8.h.;.;.;.-.-.;.#.{ { { { -.#.;.{ ( ( { +.;.#.;.;.#.%.#.#.&.{ #.&.( ( Q Q ~ ^ E E ^ ( ^ E ^ c J E ^ E E J G ^ E E E P ^ E ^ E G ^ G Q Q ( G 6 2.K.3.3.3.3.P.P.3.=.2.r.2.Y =.2.=.' =.' Y J / / P / P ' / / =.2.=.3.w.w.r.3.3.w.*.3.*.*.r.3.r.r.3.3.3.r.3.3.=.2.=.=.' I / ' ] ] *.-.*.*.*.*.=.2.2.=.*.=.=.3.=.2.5.2.' ' Y Y Y Y ^ G g G G ( ' =.=.-.=.G ( Y ' / Q ^ G g G s j d L s s T ] ] T ` T ] T Y ] ] T U - q.H.2.1.<.] ] <.1.=.2.q.3.3.q.5.1.1.6.6.w.t.w.t.i.3.1.1.] =.1.] ] ] <.] ] ] ] <.] ] ] T T T 1.] =.=.] ] ] ] 2.T ] T ] ] <.3.3.1.1.2.<.] ] T T ] <.] ] ] ] ] ] <.<.1.<.] ] ] ] ] <.<.<.] ] 1.1.=.<.1.1.1.<.1.] 1.<.<.] ] ] ] ] ] ] ] ] ] ] <.] <.<.<.<.T ] ] ] ",
"j h p e 2 9 7 4 ; 6 e w e w r 3 4 : : ; r r ; ; 4 4 4 e - > - r a n t r - $ 4 4 f m a a 4 r 8 W ' P Q / / ] Q I / P G d G h g J Y =.=.Y =.Y Y Y ' { / ' G G Q f h g G ^ h d e d d J G G d , < , < , $ , > y w u u e p g j g G J g a d d r f i d d t d t i r $ X 8.l.z.K.M.K.b.b.K.b.b.b.e.;.5.-.5.e.e.8.;.;.;.-.;.;.5.;.8.r.8.y.e.e.e.e.e.8.0.e.e.8.;.#.{ ;.4.8.8.8.5.8.5.;.;.5.;.5.9.5.h.8.;.8.z.7.5.5.7.5.5.7.7.5.-.%.#.[ ( Q Q ( { ( #.{ { #.{ &.#.#.-.;.-.%.&.[ &.&.&.[ [ ^ Q E J E J g g g E ^ ~ ^ ^ Q E ^ E E G s G J G & =.K.P.3.3.3.r.3.3.=.2.2.=.' ' =.=.=.=.( / J ' Y J Y J ' / / =.2.2.3.r.r.3.r.r.r.3.2.=.2.r.r.P.P.3.3.3.2.r.2.2.2.=.' ( P ` ' ] ] *.*.1.*.=.=.*.1.2.1.2.=.=.2.2.2.r.2.' ' Y Y Y P Y G G G G / / =.2.=.' / Y Y ' Y P Y G G G h j h n g G I } ] T ] ] ] T ] ] T T I - g.H.6.w.6.2.=.<.1.] 1.3.3.3.1.1.3.] 3.3.=.<.1.<.1.1.] <.=.<.1.] ] 3.3.<.<.1.] ] ] ] ] <.] ] 1.1.<.] T T T T =.T ] 3.] 3.] 3.] 1.] =.=.<.1.<.=.] ] ] <.] ] T ] <.q.<.<.<.] <.<.=.1.=.1.1.<.] =.1.q.q.1.<.1.1.q.1.1.3.1.<.] ] <.<.] <.] <.] | ] ] <.<.<.] <.<.<.",
"p a 5 6 4 7 t ; & 6 e 5 5 e r w : : > ; 4 r 4 ; r r e e > > : r t a 7 t : = 4 4 a a t m 7 t t I ] P / / / { I L I G G g G h G Q Y =.Y Y Y Y / =./ / P / P G P h g d G ^ g g p d h G J J e < ; , , * , > > w , e t e d h d G G J s g d i r f i f f i i t t 5 X $ 7.;.g.g.l.l.v.l.b.8.8.l.l.K.K.K.K.J.K.K.K.K.K.e.e.r.r.-.;.2.-.-.;.6.;.5.5.7.#.} -.8.r.8.5.4.;.*.-.#.-.-.-.-.{ #.} ;.7.;.;.-.-.;.8.5.7.;.;.#.#.#.;.;.;.5.8.8.5.;.;.;.;.;.#.#.+.( } &.( ( ( ( [ ( ( ( ( Q ( [ ( ( { ( [ [ ( [ ( ~ Q ( ( ( ~ P G g g g c E J c G : -.K.r.r.3.3.r.3.2.=.2.3.=.Y =.2.=.=.=.=.=.P Y Y Y Y / Y P / *.2.2.3.r.3.3.3.r.3.2.=.' 2.r.3.r.r.3.r.2.3.r.2.2.=.=.' ' P ` ] } ' *.2.2.=.=.=.=.=.2.=.2.T =.2.2.r.2.2.=.' =.Y Y Y R G G G G P =.' =.2.=./ Y Y P P G P J G J j e p L s G I ] ` T ] ] ] I ] ] Y Y U - 9.P.3.2.2.6.2.q.1.1.] ] T ] ] ] <.] ] ] <.<.] ] ] ] <.1.1.3.1.3.] ] ] T T ] ] ] ] ] T T ] 3.1.1.1.1.] 1.1.1.3.3.1.1.3.1.1.1.] <.=.] <.1.] <.<.<.] ] T T T T ] <.] ] <.] T ] ] <.<.<.1.1.1.1.<.1.<.] <.<.<.1.1.<.<.<.<.q.1.<.<.<.<.<.] <.] ] ] ] ] ] ] ] T ] <.",
"5 h p 6 4 t t 4 & : w e 5 t e 5 : : > ; 4 4 4 - 2 4 4 r 4 > : 4 9 7 7 8 ; = > 2 n 7 t m 7 r 7 Q ( P ( Y I ' K L P G G t h G G G Y ' Y Y =.P =./ ' Y P / G G G h g a g E G g p t h g G c e & < < < $ < , w w > e e e d g d h J G a C i t u f t d f i f i t t X $ %.[ ) ~ ! ~ ) &.#.&.%.;.5.b.r.l.e.n.n.H.K.K.K.K.K.K.K.b.y.y.6.-.*.*.*.-.{ { } | ;.6.r.5.5.;.;.;.4.4.;.;.f.5.;.9.;.;.5.5.-.} -.-.&.{ ` [ [ ( ( } { #.{ { #.=.-.;.*.-.#.#.{ -.( { ;.g.;.f.7.8.;.;.;.#.#.#.} ( ( ( Q ^ Q ^ Q +.[ #.[ { { { } { } ~ Q ^ ^ I Q ^ G & =.P.r.r.3.r.r.2.=.=.2.2.2.' ' r.=.=.' ' ' G Y / / Y =./ Y ' 2.=.2.3.3.3.3.r.2.2.2.' =.2.3.3.P.w.r.r.3.2.r.2.2.2.=.' / Q ] ] ` *.2.4.2.=.=.] =.2.=.=.=.=.=.=.r.3.2.2.=.Y Y Y Y P G G G G H G { =.=.=.=./ Y Y Y J G P G G J j 6 j L s s Y =.] Y 1.] T U ] ] Y Y I : 0.u.w.w.w.3.1.3.3.3.3.1.1.<.<.] 1.1.<.<.] <.] =.<.] 1.1.<.3.1.<.1.] <.1.] ] ] T ] ] ] 1.1.1.1.1.1.1.1.] 3.1.=.] 1.<.1.3.] ] ] ] ] <.1.1.T ] <.<.] ] ] T T <.=.] T T ] ] ] ] ] <.=.1.<.<.1.<.<.<.1.1.] ] <.<.<.<.<.<.<.] ] ] T ] ] ] | T T ] ] <.] ] ] <.] ] ] ",
"3 a p 6 6 9 p 2 & : 2 ; r e w w : = : > 4 w r : 4 ; 2 r 4 4 : 8 a 7 4 r ; : : 4 n 9 a a 7 5 9 Q / G ' I Q { L s Q G G j j G G J Y Y P Y ' Y =.Y ' Y / / G J Q h p 9 s G J g p e e h J G e , > , , $ , > , > ; d e g h g h G G J a m t 7 t f t f a d i t t r + o %.#.%.%.#.7.;.#.&.#.+.#.&.-.;.-.;.-.-.;.;.;.8.l.e.l.b.b.K.K.b.n.b.b.e.e.8.8.5.5.;.-.*.{ [ -.-.4.4.-.&.( &.{ 5.4.;.7.;.5.#.-.5.;.8.5.} [ ( [ ] { { [ { -.#.;.-.{ #.-.{ { &.( ( +.( ( { [ { #.;.;.4.-.-.;.;.4.7.;.;.#.{ { #.{ } ( ( ( / / ( ( Q Q ( { -.#.-.} ( ; 2.*XP.r.3.3.r.2.=.2.2.2.=.=.' 2.' ' =.=.' J / Y / / ' / / ' 2.=.2.3.3.3.r.r.r.2.=.=.=.=.3.3.w.3.r.r.r.2.2.2.=.2.=.' / / } ] } *.2.*.2.' =.=.=.2.=.' =.' =.=.2.2.2.2.=.' =.Y Y Y J G G G G G =.=.=.=.=.' P ' Y G G J G J h G j J G s 0 I ] ] T ] ] U U T T Y Y U : 9.u.3.3.2.1.*.1.1.<.<.<.3.3.3.3.1.1.<.] ] ] ] ] ] <.q.3.3.3.1.1.3.3.3.3.1.1.1.<.3.3.<.3.3.3.] =.=.1.<.1.1.=.1.1.1.] <.] <.3.<.1.3.1.1.=.1.1.1.<.=.<.] ] T ` ] T ] ] | ] ] ] ] ] <.<.] 1.1.1.<.] <.] ] ] ] ] T ] <.] ] ] ] ] ] T | T T T | ] ] ] <.<.<.<.<.<.] ",
"5 a t 2 ; 7 q r : - 4 : 5 r 4 4 : $ : 4 ; r w 4 > ; 4 7 4 > ; r p t 4 5 4 = : r a t a s 9 5 j Q Q G { I ` { I K U s f 7 p s G L ' Y P Y ' ' ' / ' G Y ' P P G h p p d G G g d e d h J J e > > , , $ , ; , w w w t a h s s G J g a f r t i a i a i i t t t r + * 7.#.#.%.%.7.9.7.%.#.[ +.&.( ;.8.0.7.5.-.{ #.} [ { ( ~ [ #.| } -.8.6.r.t.n.K.b.K.K.l.b.e.6.5.-.-.#.-.{ &.[ { #.;.;.*.-.-.;.;.4.6.-.*.-.;.;.0.8.8.;.*.{ ] ( Q ( ' Q Q Q ( ( ( ( ( Q [ ( ( &.{ { &.#.-.#.} ( -.;.;.;.8.5.8.h.8.8.8.-.#.{ ( ( Q / ( / Q Q Q Q P L ; 2.K.P.r.=.3.r.2.2.2.=.2.2.=.=.r.=.=.=.{ ( / ' / P / ' / ' =.2.2.3.3.r.r.r.r.2.2.2.{ { 2.r.r.r.w.r.3.r.3.2.3.2.*.=.{ Q ` ] } } *.*.*.*.=.=.=.*.=.=.T =.' T =.2.2.2.=.=.=.=.=.Y Y Y G j J j J =.' ' =.=.' Y =.Y G G J G G G j j d L h s T ] ` Y T T U R T T T Y U - 6.u.1.=.] =.=.1.3.<.3.3.3.1.3.1.<.1.q.q.1.<.<.1.q.i.3.i.q.3.3.3.3.] =.3.q.3.q.3.<.<.3.] 3.1.1.] 1.1.<.<.] <.] 1.1.1.<.<.3.1.q.3.3.1.1.<.1.q.] ] | ] ] ] ] ] ] ] ] T T ] T T T T T ] ] ] ] ] | ] ] <.<.<.<.<.| T ] <.] <.<.<.] ] ] | T T T T T T ] ] ] T T T T ",
"p 9 5 4 : 5 7 4 = - > = 4 4 4 4 : $ # > : 4 w w - : 4 w w : - 7 p t 4 4 : : : 2 p 3 q a t e 9 / P H Q G / { P n L n a 7 p s s G Y Y P Y Y Y =.' Y H G Y G P Q j h p h G G s t e e j h j e > > $ * , , , w > w e d a d s p G c h 9 i r t 5 t d i 5 r t i t r + * 7.#.;.#.%.#.| +.&.&.-.#.-.;.{ -.} -.;.4.8.h.5.8.8.5.{ #.:.} } [ [ { [ [ { [ } 5.8.r.y.y.y.y.r.r.r.0.5.-.-.#.[ } { [ [ [ [ ( ( ` ( [ { [ { { -.-.*.;.-.-.{ ( ' [ -.} -.#.} { #.#.{ ( ~ ( { ( &.[ ( [ [ { { { ( { *.[ &.#.[ [ ] [ ( { { ( ( { *.-.{ ` / ^ L L P & 2.*Xr.2.=.3.2.2.=.2.=.=.=.=.=.2.=.=.=.=.Y / / J Y / ' Y =.=.r.2.3.3.3.r.P.r.r.2.2.' =.r.r.r.r.r.3.r.2.2.2.3.*.=.{ / Q ` } *.1.} =.=.=.' 1.=.=.*.=.=.=.' T =.=.=.=.=.=.=.Y Y Y G Y J G j H J ' { Y ' =.Y P =.Y P G P G G G G d j s h h Y ] T Y T U U Y U T R Y I ; 6.w.1.=.1.1.1.<.q.3.<.<.<.<.<.3.3.i.3.q.<.1.3.3.q.3.q.i.3.i.1.1.1.<.1.3.<.q.3.3.<.3.<.1.<.] 1.] =.] ] 1.3.1.3.q.q.3.3.3.q.3.<.<.<.1.1.<.] ] } ] ] ] ] ] <.] <.| T ] ] T ] T T T T T T T T T ] T _ ] ` T ` ] | ` T T _ T _ I U T _ _ T _ I T Y U U U m R T T m ",
"p a 5 w 6 4 5 3 ; 4 4 - 4 4 w 4 4 % : ; : ; w e > : 4 w 4 ; ; t p t 7 r > : > 8 t r 7 t p 7 s [ Q G / P { } Q U P g s p s g s G / P P Y =.Y =.G / G J / P Q G h h s G G s s p e G G J d 6 y > ; $ , ; , w ; u w p h d g a s s f t i r r y t t i t t t t t r * X #.[ +.} #.:.;.#.} } #.#.{ #.{ &.&.` Q [ { { } } } ;.#.#.:.} } #.*.;.;.} -.-.#.-.{ -.-.=.*.{ { -.=.5.*.] ;.*.-.4.6.8.4.*.-.[ { -.} #.} { } { #.{ } ;.#.{ { -.{ -.#.*.} } ;.} -.-.;.#.{ ;.{ ( #.{ { ( ( #.-.#.-.-.{ { { ( { { { { ( { { { { =.{ -.*.*.{ ' ' / ( % 2.K.r.3.2.3.3.2.=.2.=.=.=.' =.2.=.=.=.{ Y P J G J / J ' =.2.r.3.3.r.2.r.3.2.2.2.=.=.2.5.2.r.r.r.r.r.=.=.r.r.2.' ( ( Y { } ] 1.*.*.] *.` =.=.' =.T =.T =.' ' Y =.=.=.2.3.=.=.Y H Y J H G j J / ' Y Y =.' P Y G P P G j J j J 6 j s q 9 I ] T Y ` U R T T T Y Y I - 7.3.2.3.6.1.2.1.] ] T T ] <.3.1.3.<.<.] <.] T <.<.] <.] <.<.3.1.1.<.3.<.<.q.3.3.<.<.] 3.] <.1.] ] ] 1.<.] <.1.1.1.] <.] <.] <.] ] ] ] | ] T Y T T Y ` T _ ] ] T ] T _ T ] m _ _ _ T T T _ I m T I n U T m U _ ` _ _ T T T T Y T _ T T _ T T U U m m m m m m T ",
"@ @ # # @ @ @ + + + # + # @ + + + X + X + + + + + + + # @ # # = # = # # @ + # # = # # # % # & 5 1 1 5 4 7 7 2 2 ; - - = - - - 6 1 1 j 1 j H j j j 1 1 H 3 4 3 1 6 6 6 1 - 1 6 & & 1 & @ @ @ @ + @ @ @ @ % @ # # & & & & & - ; & = - = = = = - = # = # # + + . < f ; w > > 4 4 r w w e w 4 4 4 e e e e e e e t t t p t t t t r i 7 t d d p a a a d h h a a j p 7 p e w 4 4 4 7 e p t t p p t p p t p a a s g G g G g G s a d p p p p a p p a p a p p p p p h p p a p p 5 e p j d p g g h d h g s g s a a a p p j e d j e r w 2 = 5.2.J G G J G G Y G G G G H J G J G J G G G G G G G G G G J J G Y Y Y Y Y Y G / G G Q / / ' / / ' T Y Y Y Y Q G G s s Q I Q I U I I U U I U P P U U R K H G G Y G Y G G H H H H H H 6 j j j G G G G J H H H G G H G 6 6 6 6 6 6 5 4 4 d n m s m m m m 0 0 0 0 0 : L Q _ U L L K C m m m m m m m m m m m m C m m m m m m m m m m m m m m m m m m m m m m m m m m m m m m m m m m U n U n m m m m m m m m m m m i m t r m m m m m m m m m m m m m m m m m y m m m C m C m m m m m C m m m C m C m m m m C m n m m C m m m m m m m ",
"a.F a.a.a.d.d.d.,.d.d.d.F d.F d.F F d.F F d.a.F d.d.F F d.a.a.F ,.d.,.d.d.F d.d.F d.d.F d.d.,.d.d.d.d.d.d.d.d.d.d.F d.d.d.,.d.d.d.d.d.d.d.d.d.d.d.d.d.d.d.s.d.D.d.s.d.d.s.k.d.k.D.d.s.d.s.a.d.a.s.a.s.s.a.s.a.d.d.,.,.d.,.F O.a.,.,.F ,.,.F ,.F ,.,.F @.Z F 9.,.Z D b b b b b b k k k b k S b S b k z b b b z b b b z S z S S z l S N S N A Z A N N N B N B N B N N N v l z l N l l N l l x C N l l c l c x i C B M c v C l x v l f C C l y z z z k y y y k y y , y y y , , > , > y , > > > > y k r r w y y y y y , y y y , > ~ M r , , , , > y > y > , , , > , < < < , , , , , , y y > , > > > > y r r > > r > > r > > r > > t y y r > r r r y r y r r > r > > > > > > > , > , , > < < * < < $ $ < < < $ < < < < < $ < < $ $ < < $ < $ $ $ < $ $ < = < : < < : $ $ < < < < < < < = $ : $ < < : u , * $ o o * X o X o o X X X X o X o . X X X o X o o X o X X o X X . X . . X . X X X . X * X * * $ $ $ * * $ $ * * $ * $ $ * * * * $ $ * @ * * * * * * * * * * * * $ * + $ $ X * + + $ * $ + # * * # $ X o X X X X X X . . . X X . o . X .   o   o X . o o X X ",
"IXIXIXIXIXIXIXJXPXPXKXIXIXIXIXKXIXIXIXIXIXIXIXIXIXKXIXKXIXIXIXIXLXPXKXKXKXIXIXKXKXKXIXKXLXPXIXIXIXKXIXIXKXLXKXKXKXPXKXKXKXKXKXKXLXIXLXIXIXIXLXPXLXPXKXKXDXKXLXKXDXGXKXDXSXPXGXDXKXPXPXKXLXLXLXLXLXLXLXLXKXLXKXKXKXKXKXKXPXPXBXGXIXJXIXIXIXLXIXLXKXKXKXPXKXPX<XC d.G.G.d.d.d.d.d.d.d.d.d.d.d.d.G.d.a.d.d.d.s.d.D.D.D.d.V.D.s.k.D.V.S.V.S.S.R.S.Z.S.D.c.S.S.S.S.S.S.S.S.Z.R.V.C.C.c.Z.Z.S.k.Z.Z.Z.c.m.m.k.V.f.s.Z.Z.S.D.j.Z.m.c.j.Z.V.V.V.s.s.D.s.d.o.a.A Z A a.O.a.a.F a.a.Z F Z A A F A A  .Z a.F O.a.a.O.a.s.o.p.$.$.s.g.s.j.L m d.a.O.O.a.o.O.o.o.o.O.o.o.O.O.O.o.O.O.O.$.$.o.O.$. .X.O.V O.o.O.o.$.o.O.O.o.O.o.o.O.O.O.O.O.O.O.o.$.$.$.s.s.&.O.o.o.O.O...B ! X.! .. ...!  .Z A N N l v N v v N N v v v l z l N N S v N l N l l N l l N V V C V V V V B V B N N N C N C V N V V V V C C C c f . S A y > > > > > y > > > , > < < < : < , : < , < : : , : < , > > > , , < , < : < : > , > > y > r r > y u r r w e u u e u e e e e e u e e e e y e e e y e e e e w w w w > r r r > r > > r 4 r > 4 ; > w > w > > > : , < < < < = < < < < = < < < < < > : < , > , ",
"%XyXuXiX2XiX0X0X$X+X+X+XE.+X+X$X+X+XE.+X+XU.`.+X+X+X+X[.+X+X+X+X`.`.+X+X+X+XE.+X+X+X+X+X+X$X$X+X$X$XOX+X$X+X+X+X+X$X$X$XOX$X+X+X+X+X$X+X#XOX$X3X3X3X#X$XOX$X@X{.{.@X{.`.{.`.`.{.{.{.`.`.`.{.{.+XOXOX2X1XOX2XyXyXyX$X$X@XOX$X$X$XiXiX2XiX$X$X+X+X>X+X+X+X+XI.<.m M x f M N c x d M c z z n C ^  .! M c ^ ^ E L +.+.[ ~ ( ) ~ ~ #.| +.#.@.#.;.;.+.| | ( [ | #.#.;.-.-.( { { | | { Q / [ | [ ;.4.;.#.[ [ [ ( ( ( } } &.Q | :.;.| [ 9.4.4.4.! N  .! M C y y l > C z y y z y z l l l y y N y y v c x i x ^ ! ! ) ! W E c g [ 7.} 7.g i o.N y C C B f V V M M X.V f x C ^ f C V ! ! ! V W M M V m n M V ! X._ V W ! M V X.B ! V ! ! C n C ) #.[ #.7.~ L n n E W _ E n M n M E E n c u w e w , > r e w w r u e u e & < y y r > , > y > r u y r r x d n c g n M x f f i > i r u d f i n n m n i s a m u   k l < : : : = = # # = : = < : : = : : - : : : : = # = $ # # # # # # $ = # = $ # = $ = $ % % % $ $ # = : & : : 6 & 6 & 6 & ; 6 6 6 & & & 6 6 6 & & & & % % % % % # % % = # # # = # = # = # % # # # + + + # $ $ + + + + X + + + $ # X $ + + @ @ $ $ $ $ $ $ $ $ ",
"jXkXkXjXiXyXyX$X@X+X`.`.+XU.U.+XE.U.[.U.U.U.U.U.U.E.+X+X+X+X+X+X@X+X@X+X+X+X$X$XiX+X+X+X+XU.`.+X+X+X+X+XU.U.U.U.`.@X+X@X$X$X+X+X+X+X+X+X#X$X1XOX$X#X#X1X$X+X%X$X2X@X#X@XOX$X3X$X@X{.{.].{.*X+X+X$X@X$X%X%XOX$XyX%XyXyX%XiX+X+X$X$X2X2XOX@X$X$X@X+X+X+X`.+XI.| m B d M ! B B x f c c x c E M W ~ ~ ^ g ^ Q M n +.%.( ( +.+._ ` | [ | [ [ | 4.#.} | ( [ } #.| { ;.-.#.` { { } } { / ( [ { ` ;.4.;.#.` / [ / ( [ &.{ &.^ ` 7.4.-.} 7.4.4.;.W x ! X.M l r y i > l C l y y w l v l c l y y , z E c f u f ^ ^ E ~ ~ ^ g g L [ 4.#.4.s f +.C y r l ^ f s W M n ! n d d M ^ f n W ! W _ _ Q ^ M ^ m M Q W _ :.+.! Q ) n W ) M ^ _ _ _ E m n [ %.} 7.8.[ W E g P ~ ` E n Q n n ^ E n E d > e r : e u w w w e e u u w & , y i r w : w u > u u u r w i i i c M M n M f C y r y u i d C C n Q n n n f g L t   k > = $ = # # # : = = = : # : : = : > > ; : : : = : $ = # # # # $ # @ $ + $ $ $ X $ $ + @ + + @ + + X X + + @ @ @ @ @ @ @ @ @ @ @ & & % & % @ @ % @ @ @ + + + + X X . X X X X X X X $ X + X . . . X X X + X X X X X + + # # + # X $ # # # # # $ $ $ $ $ $ $ $ ",
"yXjXjXkXcXkXjXjXyXyX%X@X+X+X+X`.+X+X$X+X+X+X+X`.+X`.`.+X+X$X$X$X%XyX%X@X%X@X%XyX$XiXyXjXyXyXyXyXyX%XyX%XiX$X$X$X@X+X`.`.`.+X`.U.U.U.n.n.).{.#X{.U.n.I.{.#X#X%X].+X+X$XyX%X%XyXyXyXvX%X%XvX&X*X@X+X*X`.*X@X&X%XyX%X%X%XyX%X%X@X@X+X@X&X%X%X$X%X%X&X$X@X&X+X`.<.m M f n M M d n g c C g n ^ E E ~ ~ ^ M n E n n ) #.[ ~ [ [ E ( [ ~ ( [ ` } ;.-.} { ( ( | } } { 4.4.} [ ' ' &.{ } I / ' ( [ *.-.-.[ ' ' ( P / ( [ ( [ Q { 4.;.#.} 4.4.;.*.^ i ! ! B i y y u r x c u y y y r i x c y y y > i V M c u a ^ P L ( ^ ^ L g E } -.=.;.G d +.C y r c M f f ! n n ^ a d d ! ^ x M E E W Q Q Q Q ^ E m W ~ _ _ $.+.~ ~ ) W _ _ M Q X._ ) ! m V ` q.*.-.0.| E L g Q ~ ( P n W n n E E s g d w w w ; w e e w w > t t e w : > d d w w > r t 4 u r u w r t m C f M n M n f n r r u t i i C f n V M m n n f m t   k r % = = < # = - > : = : - - - : - : - 4 8 > 2 > ; - = = : : ; & % # # $ + + $ + + $ + + + + + + + + + + + @ @ & @ @ @ & & & & % & & @ & & % % % % % @ @ + @ + + + + + + + @ + # + + + + + + + + + # # + # # # # % = & & = = = # = = = = & = = = = & # $ X X ",
"jXyXyX%X%XyXyX%XyXyXyXyX%X$X$X+XU.+X$X$X`.+X+X$X@X@X$X+X+X$X+X$X`.`.@X@X`.@XyX%X$X+X$X$X%XyX%X%X@X$X%X$XyX$X$X$XjX%X%XyXyX%X@X$X@X+X{.{.+X+X#X@X{.N.J.n.n.N.t.b.u.u.{.@X$X%X%XyXvXvXjX%X&X#X&X&X@X@X*X@X$X&X@X+X@X@X@X%X$X@X@X@X*X+X@X$X&X%X%X%X%X%X&X@X@X+X<.8 ^ f g ^ n t f g c g g g Q W L ~ ~ n g n E n M [ | ( Q +.( E ( | ~ ( [ [ } 7.-.{ { [ ` } { -.-.4.-.} ( / ( { { { Q I ( ' { -.] [ { [ [ [ / Q Q [ ` ( Q { -.4.-.} 5.;.-.-.^ i M ! c i u y l r f x l y y > y l x x y > y > r V c g d g E Q E [ ( ^ E J E #.-.' -.g d +.C i u x g u a Q E g E d c f ! M g L E M E L ! ^ Q E ^ E W ) Q Q :.+.+.~ _ ^ W Q n ! ) _ Q ^ n C | 4.-.4.6.[ Q n J Q ~ ( P n E n L W J h c e ; w w ; e e e w ; 4 t u e 4 & > u t w 4 4 u u 4 r r r 4 > t C m n n n W n a n r t t t d i n n n W m m m a a f t   k y = = : > ; ; ; - = = = : = = = : - 2 ; : 4 4 4 4 w 4 4 2 ; 6 3 ; = = & & % # = & % % # @ % @ % % % # @ @ @ @ @ @ @ @ @ @ @ @ @ @ @ @ % & & % % @ @ @ @ @ % % % % % % & = - = - % # % & = = = - - - - - - - = & - - - - - - - - % % % % % % = & & % = # # # ",
"%X$X$X$X+X`.@X@X@X$X$X$X%X%X@X`.+X+X+X+X+X+X+X+X+X`.+X+X$X$X$X+X@X+X`.+X@X@X+X@X+X+X$X$X+X`.+X*X+X@X$X$X@X$X$X+X@X@X%XjXyX%XjX%XyX%XyXyXyX%X$X@X$X@X#XXX].).).).U.`.U.U.U.*X`.`.&X&X%X3X%X@X@X@X%X$X&X%X&X%X%X&X@X`.@X*X@X@X@X@X$X&X%X%X%X$X@X%X%X%X$X@X+X`.<.8 ^ f g W n a f f M g g M ~ E n Q ~ L g n W n L ~ [ ( Q ( [ Q ( [ [ [ ( | } -.-.#.} ( ` { -.4.*.-.*.} { / ` [ #.] ( Y ( [ [ *.-.' ] [ ` ` ( ( P ( ( / ^ } 4.4.*.} 5.-.*.} ^ y g ~ ^ i y r u e d x e y > y l x x x > > i > y M s n u g ^ ^ Q [ [ L ^ G ( *.-.*.;.G d +.l r r f f t n ^ n E E d c C ! c c E M a M m Q W E Q E L ^ ) ~ ) @.) [ ~ ) Q ) Q Q W Q Q ) W n E :.q.} 4.6.( E E L ^ ( ~ E G E E L Q ^ h g w ; w > ; e u e e w 6 r t t 6 : ; d t 4 6 4 t u w t 7 t r 5 C n n m n V U m f g r r i t f C C n n V n m i t n m t   k y > 4 ; 2 ; ; ; > : - ; : ; 2 ; ; ; : : - - 4 4 4 4 r 4 2 2 3 1 3 6 - - & - 2 : - % % % & & & & & & & & % % & & @ & & & & & & & % % & @ @ & % % @ % @ % % % @ @ % & = - - - - = & % = & & & = - - - - - - 2 1 1 1 1 1 1 2 - - - - - = & & & = & % % # & - # ",
"%X%X$X$X%X$X%XyX$XyXyXyXyX%X%X%XyX$X$X+X$X$XyXyXyX%X+X+X$X$X$X$X%XyXyX%X$X@X+X`.U.+X+X$X$X$X%X@X@X$X+X`.`.`.+X+X@X%X%XyXyXyX%XyXyXyXjXyXhXyXjX3X3X3X%X%X@X3X3X$X@X@X@X*X`.U.`.+X{.`.`.`.).`.@X*X`.@X&X%X@X*X*X@X`.`.`.`.U.`.@X`.U.P.`.`.*X`.*X$X@X@X$X@X$X{.<.r ! f n ^ n d f n g g a E ) E L ^ ~ E g L E g E L ( ( ^ [ +.~ ^ [ ` [ Q ' #.#.*.{ } ` ~ } *.-.*.} *.{ { ' [ ] { { ' ( ' ' ] -.-.[ [ [ { ( / Q Q ( / ( / } } 5.| } 5.4.5.=.^ l M ^ ^ i y r u u d f z y > y r i x x r , y r u M n x d M ^ E ~ { &.G s s ( 5.6.-.5.G p X.C r u d d t f ^ g n M g g f ^ g M M ^ a n n M Q E E W L W _ Q ) #.[ ) ) ) W _ W M W Q W ) ^ m U 7.q.' 4.6.[ Q L g L ` ( ^ J ^ E L ! J g d y ; y ; ; t d e e w w u p r ; & 4 d t w 4 5 d d 4 u r r w y n C C n V m M a d g r 4 t u f n n C n m m m t m i a t   k r = % # % & & % = & % = : = = : ; 4 4 4 4 w ; ; - ; 2 2 ; 2 1 3 6 2 1 6 1 6 8 2 2 - 6 1 & 6 6 - - & & 6 & & & & 6 & & & & & & & & & & & & @ % @ % % @ % % @ @ % % & = = = = % % % & = & % % = - - - 2 2 2 - 1 - - - & & 6 2 - - - - = - - - = & = & = = = = ",
"+X$XyXyXyXjXjXjXjXjXyX%XyXyXyX%X%X%X%X%X%X%X@X@X%X@X@X@X$X$X@X@X%XyXyXjXyXyX%X@X`.`.U.U.`.$XyX$X`.+X+X+X`.`.@X$X@X+X@X@X@X@X+X+X@X%X%XyXyX$X&X@X@X#X@X@XyXjX3X3X%X%XjX%X%X*X`.@X@X@X%X@X*X*X@X*X`.*X`.`.`.`.`.`.U.`.`.@X@X@X@X@XU.U.`.U.*X@X@X*X*X`.`.@X@X`.T m ^ d n E n d a m g g a n ) L n ^ [ E s g E g n E ~ Q Q ( ( Q Q ( Q ~ Q { } ;.4.} | [ ' } -.-.-.] *.*.{ ( { { ' ' ` { ' ( { } *.( ' ( [ / I ^ P Q / [ Q } -.4.} -.4.4.-.-.V i W E M i w > u u x x u w > y w l u d y > y > d M g g d E ^ ^ ^ #.&.L p s +.5.5.5.5.s t +.x r r d d d n ^ m n n d f g M f n ! n a M a n Q E E W n E _ W [ #.[ Q Q ) ^ U W V U ! n ) E n Q ;.6.=.q.6.~ Q J G J { Q P G W L n W E s d 4 , e w 6 u t 4 t 6 w t d e ; & w d t 5 w 4 d d 7 t r t r t M n n C n m n a a f r > t p t n m d n C i m i t n a 5   k l : % # # @ # # # # # # @ # $ % # & = - = = & = : = - > 6 - = 6 - ; - ; 6 4 6 6 6 6 2 2 6 6 6 j 1 & - & - 6 & 1 1 & & 6 & & 1 2 1 1 & - & & 6 & & & & & & & - & = - - - - - 1 & - = % % & & = % % % % % & - - = - & & & & & % & % & & = = - - = & % @ # % @ ",
"`.+X+X@X+X+X$X%X%X%X$X%XyXyXyXjXyXyX$XyX%XyX$X%X%X@X$X%X%X%XyX%X%X%X%XyXyXyXyXyXyX%X@X$X@X*X+X+X%X%X$X+X+X`.U.@X+X@X`.`.+X@X@X$X%XjXyXjXyX%XyX&X@X#X{.{.&X$X%X3XyX%XyX%XyX%X%X%X%X@X%X%X%XyX%X%X%X$X@X*X+X@X`.*X@X*XU.U.U.u.`.$X%X@X@X@X*X@X@X@X+X`.`.U.`.U.T 8 B n m M n a d a n a g n ) L n W ~ L g L ^ s n P [ ! Q ( / ^ L [ Q Q I } -.} 4.} } ( ( { { *.-.{ [ *.{ ( { } ( ( [ #.` ' ' { { / { ' { ' Q L Q ( ` ` I #.-.7.} -.5.*.*.} W f M M M l y w u e d c u u , > > l e u y y u w u M M C d L ^ Q ^ } } Q a g [ 8.6.*.5.G t ) x i d f f a E ^ g f n r d c f m M M M a n a g ^ ^ E E L ~ Q Q @.) [ ! Q ) E _ ! n _ _ W ~ Q M W | 6.4.6.5./ Q ^ J Q Q ^ ^ Q W L P W E L d ; ; r 6 w d e e u 5 e t u e ; & 6 p p e w 4 d t w t t r r t n n n n n n n a n f r r d t r f M a n m m i 8 m C q r   z l w ; 4 > 6 ; - = : : # # # # # % # # # # $ + + + # : % & # @ $ # @ + @ @ % & & 6 & & & & 6 6 6 6 5 6 6 1 1 & 1 1 1 1 & & 1 1 & 1 1 - - 1 - & 6 & 1 6 - & & 1 1 - - - - 2 - - - - - = & & & & & % % % # @ + # % & % @ @ @ @ + + + + X + @ @ @ @ @ + + + @ @ ",
"`.`.`.`.`.U.+X$X$X%XyXjXyXyXyX$XyXyXyXyXyXyXjXyX%X%X%XyX%XyXyXyXyX%X%X%XyXyX%X%X%X$X@X$X@X%X%X%X%XyXyXyXyX%X%X$X+X+X`.`.`.U.`.*X*X+X@XyXyX%XjXyXyX3X3X$X{._._.$X%X%X%X%X%X%X@X%X%X*X@X@X@X@X*X*X@X@X+X@X@X*X+X@X`.*X`.`.`.`.@X@X@X@X@X@X@X*X@X@X`.@X@X`.+XU.] > V f n L E n i n M a g E ~ L m E ~ E a L E g L E [ Q Q [ [ Q U ( ( P E | } 1.4.4.] Y / ] } { { { ] #.` ( [ [ / / [ *.` Q ` { } ( { [ -.{ Q L I / / ` ( { #.4.` 4.5.-.*.#.^ i Q n g l w r u u d M u u y : w u e x y u y r d M M f u ^ ^ ^ Q #.} ^ s g } 6.0.*.r.s d ~ u i d f a c ^ Q g n g e a g f E M M M a n a a L E E W L ^ Q Q | ( ) W E ~ L W W V W L W _ W W P | q.4.6.5.' ` Q J P Q J P J P L L Q E s p ; ; u 4 e e e e d w r t p e : : ; d t 5 r 4 t t e t 7 t 5 m n W n n m f m n m i r r d i d f n i n m m m r t C t r   k u > - ; : - - 4 6 6 ; 2 6 ; ; - 4 4 ; ; - - : # $ % % $ + + + @ + + + + $ # % % % # # $ # % & & & & 1 - 1 1 6 j & 1 1 1 6 & & & 1 & 6 1 6 & & & 1 & & 1 - - - - - - 2 1 2 2 - 1 = = - - & & = % & % % @ + . . X . . . . . . . + + X X + # + + + + @ + + + + ",
"$X$X$X@X+X+X+X+X+X+X$X$X$X$X%X$X%X@X%X%XyX%XyXyXjX%X%X$X%X%X$X%XyX%XyX%X%X%X%XyXyXyX%X$X$X%X%XyX%XyXjXyXyXyXjXyXyXyXjXjXyXyX%X%X%X$X$X$X@X%X@X@X@X#XXX`.`.XX{.{.%X%X%X%X@X@X%X@X%X%X%X%X%X%X%X@X@X*X`.@X$X`.`.*X@X@X%X@X$X%X%X%X%X%X%X%X%X%X%X%X@X@X`.+X+XU.| 8 C n n W E n t a n m a P ~ n g L ~ G g E E g E L [ Q / #.` ( Q ~ ) L L } 4.4.1.1.-.^ ( [ ( } } { [ } ` / ( ' ( ' [ *.` I / } *./ ' ` [ ( Q L W ( ` ( Q #.#.4.` 6.5.5.*.4.^ u ^ ^ f i w > i u x ^ u z y , y l e x i i r w f M f f t L P Q Q #.#.E a E | 4.r.*.6.G p ^ i i u f f E ~ ^ n n d r x g f ^ E n g n E a a n L L ^ P ^ W ) @.~ [ W L ) E L _ n L W W _ U Q I { q.5.0.7.] / ( G Q Q Q Q G L E ^ ^ L p d w : e 4 e t e e t 4 t p d e & % 6 d p e 4 4 t r 5 d r r r i C n m n m a f f a t r t t t a f f m V m C m C m n m w   k u 4 ; - ; = = - 6 3 5 2 2 4 4 - = 4 - - = = & = = = & : % % : = : = # # # + + + + + + + # % @ @ @ @ @ # @ @ & 1 & & & @ & & & 1 1 1 1 1 1 - & & 1 1 6 - 6 1 - - - = = - - - - = = & # @ + @ + + @ + + + X . + X X + . . + X . + # @ @ @ # # @ % @ @ @ @ @ @ ",
"jXkXkXcXjXjXjXyXyXyXyXyX$X%X+X$X%X$X@X$X%X%XyXyXyXjXyXyX%X%XyX%X$X%XyX%X$X$X$X%XyX%X%X%X$X$X%XyXjXjXjXjXjX%XyXjXjXjXjXcXjXcXjXjXyXyXvXyXyX%X%X&X+X&X&X%X3X%XjX%X%XjXjXjXjXjXjX%X%X%X@X%X%X@X&X&X&X&X@X%X%X%X%X%X%X$X$XyXjXyXyXyXjX%X%X%XvXvX%X%X%X%X@X$X%X@X3.8 n n n M E n 7 i f m m M ) L s E ~ ^ g E E g E W { ( ` } [ ( Q Q Q Q L } 1.4.*.*.} Q ( { ( ' } ` / *.( / [ ' ( ' [ ] ( / ` -.4.[ [ [ ' [ ( G U ) [ ( Q } #.q.` 4.r.5.-.-.E d Q ^ c y > w d u f B i r z > x d d x i x w w f f g x u n ^ Q Q } | P a E | 0.e.5.4.s d ! i u u i a E _ M n E t r f n f W E d g W W m d g L L ^ P Q ~ ) +.[ ~ W W ) W W W m M _ Q Q W E Q *.4.q.0.6.| / Q G Q ^ P Q I L L E Q E a f w ; w 4 r t e r r 6 r d p t & 6 w p t 4 w 4 a 7 r m t r r m m n m n n m m m a r t t i i i f n t M n n C t i n a r . < r > 2 4 4 4 4 5 e p 7 7 1 2 8 ; ; 2 4 4 - ; 6 6 - 4 ; - ; = = = = & = ; ; : & & % # % @ @ # @ @ + @ @ @ % ; 6 & 6 & & & % & & & 1 6 1 1 & & & & & @ % @ @ & & % # # @ @ + % # @ @ + + + + + + + X + X X + + + + + + # + # % & - - & = - - ; = & = & = - - - ",
"jXjXjXyXyXyX$X$X%X$X%X%X$X+X`.`.`.`.@X`.`.+X%X%X$X%X%X$X$X$X$X%X%X@X@X@X@X@X@X@X%X%X%X%X$X@X$X@X%X%X%X%XyX%XyX%XjXjXjXjXjXjXjXjXyXyXyX%X%X%X%X%X{.*X&XvXyX%XyXyX%X%X%XyX%XjX%X%XyXjXjX%X%X%X%X&X@X$X%X%X%X%X%X%X%XyXyX%XyX%X%XyXyXyXjX%X%X@X%XvX%X%XvX%X$X@Xq.r M a C M M n d n f p n Q Q n g E Q W m n E m L L | ( ( #.[ / [ E ^ ` Q { *.1.*.*.' I ( { [ ( -.{ / { ( / [ ' ( ( ' ' / / { 4.4.` [ ] [ ' Q P Q Q [ ` Q #.{ 4.Q q.l.6.*.*.V f Q W f l > y v w f ^ u r r w x x d u d x y l c d M x r E ^ Q Q &.( E a E | 0.0.1.6.s t ) f u t f f n Q E g n t t n n C Q n t n ^ E f a s g g E E Q ~ [ +.[ [ Q ^ [ L W _ n n W E W Q W ` -.4.1.6.6.' / Q J Q P P ^ ^ ~ L L Q n g a r > w r r t e 4 w ; e p d e : 6 e t p 4 4 r d w r i y 5 t i m n n m m n n a d 5 r i d i a f n f E n n i 8 p n a i   k u 4 ; 4 4 4 4 2 3 2 2 - 6 6 2 5 5 3 2 2 5 4 2 ; 2 3 4 2 4 6 4 - = & ; - = - = - - ; = - = = & & & & ; & % % % @ @ & % % @ @ @ & & % % & & @ @ + + + + + + + + # @ @ @ @ + @ @ + + + + + + + @ # % % @ @ # @ & % % & = & & - & & - & & - - 1 - & & = = - 1 1 ",
"+X$X$XyXyXyX$XyXyX$X%X$X$X+X$XyX$X$X`.@X%X$X$X$X@X$X%XyXyX%X%X$X@X+X$X%X@X$X%X%X$X$X%X@X`.`.*X*X+X@X$X%X%X%X%X$XyXyXyXyXjXjXjXjXjXjXjXjXjXjXyXjXjXyXjXvXyX%XvX&X%X%X&X%X%X%X@X%X%X@X@X%XjX%X%X%X%X%XyXyX%X%X%X%XyXyX%XyX$XyX%X%X%X%X%X@X%X%X%XvX%X%X$X%XyX+Xq.8 M f n E n n i a n a a Q W n m E Q Q g L n n ^ E [ ( ` } ` [ [ P ~ ` ~ } } -.*.-.} / ' ( ' [ { [ ' [ ( ( ] { ( ' ' [ ' / } 1.2./ ' *.[ ( ( Q Q Q [ ~ Q } | #.' 0.i.6.4.=.M d ^ M f u , r x e i ^ d z > r d i d u i d e u c x C f r n ^ ~ Q | Q G a ^ -.6.6.4.5.s d _ f u r n g M E E n g t a E M n L n i n ^ L f a g g n L E E ~ ~ ) [ ~ Q ~ _ ~ _ W W n W m n L Q ] #.1.} 0.6.` / G G P L L Q ^ Q G E ^ L s g w w w t r r 5 w 4 ; r d t w & & e p r 4 4 t d 4 r i t 8 r C m n n f a n m f f w 4 i t a f n i m n n n m t i a t 5   k u 4 ; 5 4 4 4 2 4 - = & & 6 ; ; 2 4 3 2 2 2 4 4 6 6 6 4 2 4 ; 2 ; - 2 - = 2 6 - & & = - & - 6 1 6 1 1 6 1 - 6 & & & & & & & % & % % & % @ % % @ @ % % # + + # @ @ + % % & @ @ @ + @ @ @ @ % % & - - - & 1 1 - - & & = - - - - 1 1 1 1 - 1 - - - - - & & & = ",
"$XyXyXjXyXjXjXyXyX%XyXyX$XyXyXyXyXyX%X@X@X%X%X%X%X%X%X%XyX%X+X*X@X@X$X$X$X$X%X$XyXyXyX$X+X`.`.+X@X$X@X$X$X*X$X%X%X%X%X%XyXyXjXjXjXjXvXjXjXjXjXyXjXvXjXjXkXyXyX%X*X*X&X%X%X%X%X%X%X%X@X%X%XvX%X%XyXyXjXyXvXvXjXyX%X$X$X%X%XyXyXyXyXyX%X%X%X%X%XvXjXjXjX%X$X$Xq.8 V f n M n n t n n i n W E n n W ^ ^ L ^ n g Q Q [ / ( | [ | [ L ( ( [ #.*.-.*.-.] ` ( ' ( ] ] [ [ ' / ' { [ ( ' ] { { / { *.4./ / *.[ ( ` Q I Q ` ` ` } -.-.[ 0.0.6.-.-.W i E ^ f u > r u w u ! d z y e d d d u y y > r f x M f d n Q ~ Q } ~ s a ! 4.8.5.0.4.s d ! i r r f n E ^ E Q E r f n n L M n f M n E m s n n n W g Q ) Q [ | ~ Q ) P ) ) W E M W n W L W [ ] 4.} 6.8.` ' Q J ^ E G P ^ Q E ^ Q n g n w w e t d r r u w ; u t t 4 % : e a r r t t t 4 r a i r w m n n n n a m s s i r w a t i y m C m M m m i t t m a w   D i ; - ; ; - - : ; : 6 4 5 5 7 7 8 2 1 - = - ; 4 = % = & = 4 2 2 4 4 2 5 5 7 3 2 6 ; 6 - 1 6 - 1 1 2 2 j 1 6 1 & 1 1 1 1 1 1 1 & & 1 2 & & & & 6 - 1 & - & % - = & & & % & - & = = & % & & & - - - - 1 & = - & = 6 6 = = = & & & - - 1 - - - - - 2 - 1 1 2 1 ",
"$X$XyXyXyX$X$XyX%X%X$X@X+X$X+X$X$X%XyXyXyXyXyXyXyXyXyXjXyXyXyXyX%XjXjXyXjXyXyX%X@X%XjXyX%X%X%X%XjXjXyXyX%X@X%X%X%XyXyXyX&X@X@XyXjXjX@X$X$X%X%X%XyXyXjXjXjXhXjXjXjX%X3X%XjX%XjXjXvXvX%X&X&X&X&X&X%X%XjX%X%X@X@X@X@X@X%X%X%X@X%X%XjXjXjX%X%X%XvXjXjXjXjX%XjX&X3.R V n f m n n a m n a m M Q n m W E ~ E ! g p Q ~ } ( ~ } ( ` } P P Q #.{ } 4.5.4.{ / { { ( { { [ ' [ ( ' ( ' ( Y ( ( ' ` / -.-.' { *.[ ` Q / I Q ` [ | } | 4.[ 0.6.4.1.} ! u m E f x > y x w e ^ x u , r i u l e e z ; r d f n x u M W ` Q #.Q a 9 _ 7.6.5.0.4.s d W i t r d m W L n E E r n ^ E n W n i f L n E m n n n E g Q [ E [ &.` ~ Q Q _ ( Q E W W n E U Q ' { 4.} 6.6.[ { E L ^ G G E I Q P P Q L n g w w t r a r e t > ; r p e ; $ : 4 p e e 5 r r 2 7 i i 5 r a m f m s a n n a i 4 w t i a t m m a m n i t n i m i t   b f 4 4 2 t 3 4 6 - - - - 6 ; 2 - ; 2 - 4 4 6 2 4 4 4 ; - : - - = 6 2 2 - 6 3 3 3 4 2 1 6 3 1 2 3 1 2 1 1 1 - - - 1 6 6 6 2 2 1 1 1 1 1 1 & 1 1 & 1 1 1 1 1 & 1 & - & = = & - & 1 1 - & % % % - - = = 1 = & & = - - - - = = - = = % % = - 1 - 1 2 2 - 1 - 1 1 ",
"jXxXjXjXjXyXjXjXyXjXjXjX$X$X$X&X@X$X%XyXyXjXjXyX%X%X%X%X%X%X%X%X$XyXyXyXyXyXjXjXjXjXyX%X$X@X@X@X%X%X%XyX%X%X@X@XyXyXjXjXjXjXjXvXjXjXjXjXyX%XyX%X%X%X&X%X3X3XyXyX3X3X%X&X&X&X&X&X%X%X%X&X&X@X%X%XyX%X%X%XjX%X%X%X%X%X%X%X%X%XjXjXjXyX%X%XvX%XvX%X%X%XjXjX%X*X3.m n M m M n m m n m i n n W n f E P ~ W Q n g E Q [ [ [ } I ~ #.^ L ` } ` } 6.5.*.*.` ( { { ' -.{ ( ] ] ' ' [ ( / ' ' ` / / } -.{ } } ] [ / _ Q Q ` ` [ #.{ #.` 0.6.q.4.4.^ i M n f C > r u e r B x r > u d u d u y e < w i x i i d L Q Q ) | L m t Q 4.6.5.6.4.s t E i r i n m M E n W ^ t E M L n W n i m L Q E E E a s ~ L ^ [ E | [ ~ Q W Q ) [ ^ E E W W E E ~ ` #.4.1.4.6.| ' Q ^ P P Q J ^ ^ ^ E E E n g e r t u a t r t ; > w e 5 : # : 7 a e e t 8 r ; t i t r 8 d n n n a n n n n i 4 > i i i 7 i C m n n C t i y m m t . z E g a p p p 9 9 p 9 5 3 2 2 2 2 2 4 5 4 2 4 2 2 4 4 5 5 5 4 2 6 - - - = - 1 & = - ; 6 6 1 6 & = 6 6 1 - 6 6 2 5 3 4 2 - 2 2 1 1 1 1 1 & 1 & 1 1 - - & 1 1 1 2 1 2 1 1 6 & 1 - 1 & & & & & 1 - 1 2 2 2 3 2 2 2 - - - - 2 - 2 6 - = & = = = = = = - = = = & & ",
"jXjXyXjXyXjXjXkXkXjXjXjXuXyXjXyXyXjXyXjXjXjXjXjXjXjXjXjXyXyX%X@XyXjXjXjXyXyXyXyXjX%X%XjXyX%X%X%X%X%X%X%XyXyX%X%X%X%X$X@X@X$X%X%X%X%X%X%XyX%XyXyXjX%X#X%X%X#X$X%XjXjXjXjXvXjXvXyXvXvXvXvX&X&X%XjXjXyXyX%X@X%X%X%X%XjXjXjXjXyXjX%XjXjX%X%X%X%X%X%X%X&X&X*X+X`.3.m n n n E M i a n m d m m M m m W E ) W Q n a Q Q [ ( / #.` ( } ~ E ~ | Q ] 6.5.-.=.` ( ` ' { -.] ' { -.( [ ] Y ` [ [ / / / *.*.' 4.*.' ` ` _ ~ I [ ~ _ } | { ` 0.4.1.1.1.^ d E E f x r r u w r M u r r u i u d d e e < w f f t d t n W ~ ~ Q n f t _ } 6.6.6.4.p t M d a i f n L n m Q n u n n g E W n i M W ~ L E Q m n ~ P E [ Q &.` Q ^ ~ ~ ( ~ ^ E n E Q _ E ~ Q } 5.4.6.6.] [ L U ^ ^ ^ G E W Q ~ Q L n a r r e d d r w t 4 : w 4 5 & + : p a 3 4 p 7 r ; t a i t 5 g n L n m a m n n t r w i a t r t i a V m i t a a m m i   z ^ s g g h s g s G h h p j 7 5 5 2 2 5 7 5 7 t 2 - 4 2 - ; - - 1 - 6 6 6 6 - - = = & & % = = & & & - = & & & & & & & & - - - 1 1 & - - & & 1 & & & - & 1 1 1 1 & - & - & & 1 1 & - 1 1 6 2 2 1 1 2 2 - = = - - = = = = - - - - = - - - = % # % # # % # # % % ",
"cXcXcXjXjXyXjXjXjXjXkXkXjXjXkXjXjXjXyXyXyXyXyXjXjXjXjXjXjXjXjXyX%XjX%X%XjXjXyXjXjXjXyXyXjXjX%X%X%X%XjXjXjXyXjX%X%X@X+X@X%XjXyXyX%X&X%X@X@X$X%X%X&XjX%X5XyXjXjXvXjX%X%XyXyX%XvXjXjXjXjXjXjXvXvX%XjXjXjX%X@X%X%X%X%X%X%X%XjXjXjXjX%X@X%X%XjX%X%X%XjX%XjXjXyXyXq.8 M n M E n m m M n n M m W m t W E ~ ^ Q M c ! Q [ ( ` | ( / | ~ Q [ { P ] 6.5.-.;.' ` { ' ] { { / *.-.( ' ' / [ ' / / ( Y } *.( 4.} { / Y [ Q Q [ ` U ` | ] [ q.1.*.q.} ^ x L E d x r > d w u M u r y u e u u d e w , r x f t i f L Q ` ~ [ L f d Q :.4.0.6.q.s r n f i u i n M L n V a t c n m n E f f n Q ^ E P E n E ~ Q ~ ~ Q | ( ! ^ Q ( | ~ L E L g Q ) L ` Q ~ 6.1.6.6.{ ' P s P E E L L ~ Q E L E n a 4 t r t d 4 4 u ; w 4 e r : $ ; d g 6 6 d t 4 > t i u 7 r g n n L f a m n m r t 4 y a i r m i t m n a t m i m n r . k Q L G L G G L P L P K L G H s s a p p h 9 j 5 3 3 5 7 7 7 7 5 9 3 5 3 3 2 3 5 5 2 4 2 1 6 6 6 2 2 1 2 1 6 - - = - - - 1 4 - & & & & & - & 1 - 1 1 1 1 & & & - - - 1 - & & 1 & 1 1 1 - - = - - - - 1 - 1 1 6 - - - - 2 - - - 2 2 - - - 2 - - - - - = - - - - ",
"cXcXcXcXcXjXkXyXyXjXjXjXyXyXjXjXyXyXjX%XyXjXjXjXjXjXjXjXjXyXjXjXyXyX%X%X$X$XyX$X%XjXyXjXjXjXjXjXjX%XyXjXjXjXjXjXyXyXyX%X$X$X%X$X%X%X%X%X@X%XyX%X&X%X%X@X&X&X%X%X%X%X%XyXjXjXvXvXvX%X%XvXjXjXjXjXjXjXjX%X%X%XyX%XyXyXjXjXjXjXjXjXjXjXjXjXjXjXjX%X%X%X%XyX$X%X3.m C n L ^ n a f W n n m m C n a M W ~ Q Q n f _ Q ( ~ Y } [ Q { [ Q ` ( L [ 5.5.-.*.{ ` ` { { { =.` } } { ' ' Y ' / ' / / / { =.' *.} ' ` ( ` Q Q [ [ P [ } [ { 0.4.4.1.4.^ a P ^ a x r > i e r M d ; r u e u r u w e > y c x w i f L X.| &.[ Q g 9 ) :.6.0.0.4.a r E f u i d m W n g g d r n E E E n f n L W Q W ^ n E ~ ~ Q ~ ( Q +.[ Q M P ) [ W E E M n Q ) P ` [ ` 4.4.6.6.' / I G L ^ P g E Q ~ L g n n a r 7 t d t 4 4 u > 4 4 r r : $ : d h w - a t 4 2 t i t w r s L E n m a m n d 4 i r r m y m C r r m a f t m i n m m . D I U G L G L L K K P K G G P K G G L L G H s s s s s s q m L K G K s 0 0 h q 9 9 q 0 p a h q q q q p q 9 7 5 3 5 2 2 2 3 3 3 2 3 3 3 j 5 9 9 j q 9 9 j 9 7 9 8 8 2 1 1 3 1 1 1 - - & - & - = 1 6 - 1 1 1 1 3 3 3 2 2 2 3 - 3 3 2 2 - - 2 - - - = - - 2 2 - 1 ",
"yXjXjXyXjXjXjXjXjXiXyXyXyXyXuXjXjXyXyXyX%XjXyXyXjX%XyX%XyXyXyX%XyXjXyXyXyX&X+X%XjX%X%XyX%X%X%X%X%X%X%XjXyXjX%X%X%X%X%X@X@X$X@X*X@X@X@X%X@X%X%X%X&X#X@X+XXX@X#X@X%X%X%X%X%X%XjXjXjXjXjXjXjXjXjXjXjX%X%X%X@X*X@X@X@XyXjXjXjXyXvX%X%XjX%XjX%X%X%X%XjXyXjXyXyXyXq.8 C m n ^ M a m W n n m a n n a n Q Q W ! n M Q ~ ( P Q #.[ ( | ` [ { [ P { -.-.*.*.{ ` ` { =.-.{ ' *.4.{ ( } ' [ ( / / / Q *.{ ( #.{ ` [ ' _ Q U ` [ I { | | ' q.6.4.1.} ^ f E E i v > > u 6 u c d , r y r r r i e r r u f d r i a E [ ) [ [ U M p [ -.6.6.6.5.a w L i t f m L W E g d r a f W g n a t a W E ^ n Q E L U ^ ~ Q ( Q [ ~ E g W ` Q m W E m n Q ~ ^ | ` [ q.6.5.6.` { P L ^ L E g L I Q E s L n d w r r d d ; w t - ; 4 5 w = $ : p h 4 4 d i w ; i d t 7 t f n W n m a f m p r 7 r r m m i m m y m m i i m m n m t   D U 0 h s s h 9 9 9 9 9 h 0 0 0 s h G s s G s K L K G U U K U K K L U L U L L L L s K m K K s G G s K G G L L L s s h 0 q 9 a q 9 a 0 h H H 9 q q 9 j q 9 q 0 0 9 j 9 9 9 9 3 3 3 2 6 2 7 5 3 8 7 7 3 8 8 3 5 8 8 8 q 9 q q 8 8 8 3 2 2 8 8 8 8 8 9 9 7 7 3 3 ",
"$X$X$XyX$XyXjXyXyXyXyXyXyXyXyXyXyXyX%X%X%XyXyX$X$X$X$X@X$X@X@X%X$XyXyXyX$XyX%X%XyX%X%X%X%X%X%X%X%X%X%X%X%X%X%X%XyX%X%X%X%X%X@X+X%X%X%XyX$X@X@X%X%X%X%X3X3X3XjX%X%X%X%X%X&X&X%X%X%X%XvXvXjXjXjX%X%XjXjX%X%X@X*X@X*X%X%X%X%X%X@X$X%X%X%XjXjX%X%XjXjX%XyXjXyXyXq.8 C m n Q M m m Q n a n t n n i n Q ~ Q Q a n Q Q ~ E ~ } ` [ [ [ [ ` [ / =.-.5.=.-.=./ =.=.*.=.*.Y *.} { ` } ` ' ( ' / ( ' *.=.( =.[ { } ` ` I P ' ` ` | { } _ 6.i.6.1.} M f ^ E u d > w d w u c u > e r u r w u x u > i f x r u n W _ ` } ( W M a [ 4.7.*.5.6.a w W r r f i M _ L n d r f a n g m f r n Q E E E Q ^ E ~ Q ^ E ~ ^ [ Q E g ^ [ ~ n m E m E Q ~ I [ _ ` 4.4.6.4.` [ Q G E G Q G E P I L g L m i 4 r t d u 4 w t ; ; 4 r 7 : $ : p g e e d 7 4 : i f t 7 7 a n L n n a m a p r r r m y r m 4 r m r m a n a m n m m . z P G s s s q h 9 j j h h 0 G G H 9 9 j 9 j 9 9 9 9 9 0 0 0 s H 0 s q 0 G s H s s 0 0 q q q q 0 a h 0 h h q q 0 0 s G s G 0 s s s 0 0 0 H G s H H G q 0 R G K K s s 0 h 0 q q q q q q 9 9 9 q q h 0 s H 0 0 0 0 m m m 0 q q 9 q q 8 q a q q q 8 q m q q m q q ",
"$XyXyXyXyXyXyXyXjXyXyXyXuX$XyX$X%X$X+X$X+X`.`.U.`.+X`.+X+X@X@X@X$X$X&X@X@X@X$X%X%X%X%XyXjXyX%XyX%X%X%X%XyX%XyX%X%X%X%X@X@X@X%X@X@X%X%X@X@X*X%X%X%X%X@X&X%X%X%X%X%X@X&XvX%XvX%XvXvXvXvXvXvXvXvXjXjXjX%X%X%X@X@X@X@X%X%X%X%X@X@X@X@X%X%XjXjX%X&X%XjXjXjXjXyX$Xq.r C n m _ n m E W m n m i M m i m M Q Q ! f f Q ( ( L [ } / _ { ' } { ( [ *.5.-.=.-.{ ` { *.-.-.*.` *.-.} ' } { ( ' ( / / *.;.{ ' 4.[ } } / ~ Q W [ ~ / -.4.} [ 0.0.1.<.} n f E E u x , > f u u g t , u r u l > r u w > x d i r u n Q ) _ | ) Q n n | ;.q.6.0.4.a r ^ r t m n W _ Q M g r d f n f i n n n Q E L ^ W E W ~ ) Q P ) Q [ ~ g L Q ) ~ n L E n L Q _ W ] ~ ' -.4.6.4.T ] P G E Q ~ g G ^ ~ n n M n t 5 7 t d d 4 w t ; 6 t t r : # : p h t t a r - ; i a i r i f n L m n a f n a r 7 r y m r m 7 r y m m i n t a m n y   b P g h 9 h h h s h s q q 9 9 j 9 p j 9 9 9 j j 3 3 9 9 j j 9 j 9 j 9 q q h q q 0 s 0 q 0 s s q q q 9 9 9 9 j 9 8 j 9 5 3 9 5 9 q j j j j q q 0 q q q q 0 s h 0 0 0 s s h 0 s 0 s s s s q q q q 9 q q q q 8 8 8 8 8 8 q q 8 0 0 q 0 m m q 0 q m m q q q q q q ",
"+X+X+X$X$XyXyX$XyXyX$X$X$X$X2XyX%X+X$XOX`.].].).`.U.U.`.U.U.U.`.`.).`.`.`.`.`.{.$X$X$X$X$X$XyX%XjX%X%XyX%X%X%X%XyXyX&X&X%X+X%X%X%X@X%X@X`.`.`.$X$X@X$X%X3X@X&X&X%X%X%XvX%X$X&X@X&X$X@X%X%X%X%X&X%X%X%X%X%X%X%X%XyXyX%XvXvXvX%X%X&X&X%X%XvX%X%XvXvX%XjXjX%X@X1.m W m E _ M s E W n m m t M m i n Q Q Q W f a Q ) Q G [ #.` ~ } { -.} Q [ *.4.4.*.4.} ' ] *.*.;.{ ' *.-.} ' [ ] ( / ' / I { -.*.' } ' ] ] ( / P Q [ / / ' *.} [ q.0.1.1.| M f L ^ d i , > x u t g r > d d d r > u i r , i g u r t f M Q ` | Q E n L [ 4.4.0.0.5.a r E w i i n _ ) M Q n t f C g d d m n E Q E E Q E E ) ~ ( ^ ~ &.) [ +.n W W ~ ~ n Q n n Q ~ Q W } Q { 4.1.1.} / { P G L P W m L Q W n g L n t e w r t t w 4 e ; 6 t d r = $ > p a 8 7 m r : : a t i t p a n ^ n n t m f i t r t m r m r r m m > m t m i m i a m . z Q s s G G s s G L G s q h 9 q q q s s j 9 3 j 9 9 q h 0 h G s s s 0 q q q q 0 q q q 0 0 q q q q 9 9 8 8 9 3 2 3 9 7 3 4 3 7 5 j j q 9 3 j j j 3 3 1 2 2 2 2 2 2 2 3 3 3 5 3 5 7 9 9 9 5 9 j 7 7 7 9 q q j 9 j q 8 q 8 j 8 8 9 8 3 3 3 8 3 8 8 8 8 q 9 8 8 q ",
"`.`.U.U.`.U.U.`.[.I.[.`.`.`.[.{.+XOX+XOXOX2XuXiXyXyXyXyXyX$X$X$XyX2X$XOX+X$X+X#X+X{.).U.U.U.`.+X@X*X@X@X+X+X`.`.{.`.`.`.`.`.@X#X@X%X%X%X@X%X2X%X@X%XyX%X%XXX#X@X@X%XvX%X@X@X@X@X+X`.{.{.{.{.#X&X%X%X%X%X%XyX%XjX%X%X%XvXvX%X%X@X@X*X@X*X@X@X@X@X@X%X*X@X@X@X] 2 ! n W W n m E W n m a a n a d n W E ~ ^ a m Q _ Q Q [ } [ / ' } { ] / [ ' *.5.*.*.' [ *.*.-.*.*.] *.-.} { ' [ ' ' ( Q Q ] 5.] { ] } [ ' ` ( E P ` ( / [ } #.` q.6.4.6.} E f E Q d u > y f r r ^ u > f d x > > u u r r x f d u t n L ~ ( +.E E n W | 4.7.4.6.4.f u ^ r i d g ~ ) n E f t f a a d d m n E Q n n M E E Q ) ~ Q +.#.Q | Q s P P ~ Q L ~ n n W ~ W Q { Q | 4.} <.` T { ^ g P P ^ m L _ Q L g L n r e w 7 p t 4 4 e 4 6 t 9 5 : # 4 a a 4 a t t 4 : t p i 7 d s W W n n a m f t r r t r m r r r 8 m r m m n m a m m t . S P q h s s G G s s G s h q s G G s s h q q q 9 9 q 0 q 0 0 G G 0 0 G 0 s 0 0 s s s R m m 0 0 h h 0 s 0 q 9 9 q 9 9 9 9 j 9 9 9 h j q q 9 q q j 9 9 3 3 7 9 9 9 7 5 3 8 2 2 3 3 3 5 3 2 2 1 1 2 3 2 3 7 8 j 8 8 3 j 3 3 3 3 8 3 2 2 2 2 - 2 2 2 2 2 2 - 3 3 8 ",
"+X+X+X+XU.`.+X`.`.[.[.I.U.U.U.i.i.i.t.u.n.U.N.n.U.U.U.U.U.i.U.U.n.v.N.U.U.).[.).).{.[.Y.U.B.U.+X@X*X*X*X+XU.+X*X{.`.[.`.{.{.{.{.+X+X*X+X`.{.+X#XOX`.`.[.[.[.{.{.{.$X&X&X@X@X+X{.*X{.`.{._.`.`.).*XP.U.U.`.U.*X@X@X@X@X@X*X`.$X%X$X$X%X@X`.`.*X`.*X`.U.U.U.U.] 2 M L L M a n E ^ n n m C m i t m W W Q U d n ~ ` W E ' } ] [ *.} ] =./ [ *.*.w.*.-.' ( =.=.-.-.*.[ *.*.} [ { / ( { { / / [ *.{ ( -.] [ ( Q Q P Q | Q Q { 1.{ ` 1.6.4.4.} ^ f E M f u > w u w u E r e f d d , , t t u > x C u i i i W _ [ +.L L g Q #.#.8.q.*.5.g r ! r i d d W Q n n f t a d a t d a n E E L m m m n ^ Q Q ~ [ { E [ W f E P ) [ E ~ n n n ` ` W [ Q } #.#.-.` / } E G E E E g Q ` E g g g g r 5 5 5 p e 6 4 p 6 4 t t w # # ; t a t m i t ; 4 t t t r p a W E L m s m n i w 4 t r m m r r r m r m i n m i m n y . D U 0 h h q 9 9 9 q q 0 s G s L G s 0 q q 0 0 H K K G K K G q 9 q q q q 9 3 9 9 9 j 9 8 9 9 j q 0 s m K G H h 0 p 9 9 9 9 9 9 9 q 9 9 0 H 0 0 H q q q q 0 q q 9 3 5 9 7 3 2 3 3 3 3 3 2 8 3 3 2 3 3 9 9 8 8 3 q 8 q 8 j 8 8 8 8 3 3 3 3 8 8 8 8 8 8 8 8 8 3 3 ",
"$X$X$X$X$X+XU.+X`.[.{.{.[.+X+X{.{.`.)..X).U.[.].+X+X+X+XU.U.U.U.N.N.n.n.n.n.n.v.n.t.u.t.v.u.u.u.U.`.U.u.u.i.u.u.v.U.`.#XyX$X$XOX+X+X+X*X{.+X#X$X$X@X{.[.).[.[.I.[.I.U.`..X+X X{.`.n.`.#X%X3X+X`.u.u.u.u.u.u.u.U.).`.`.`.*X`.@X@X%X%X%X@X@X+X@X@X*X*X`.`.U.U.<.> W E E E m a ^ Q m m a i m i i m W ^ Q W a L Q Q Q P [ { [ { *.*.{ [ / ' *.*.5.*.-.] [ *.*.=.*.=.=.' -.} ' ' ' / ( =.Q / { -.' { -.{ { / / Q U ~ | ` / } *.#._ 4.0.1.4.#.^ a L E f i > r i e t L r u d d d : > u u r > t n d t i a E _ Q [ E L a ~ { -.8.q.4.6.g r ^ r i i a E E f n i i g a g d a d n Q M n n n a E ~ Q Q Q | &.~ Q n g Q E | _ Q _ E E U ( Q ~ ` ~ } -.4.} ` ( ( G g E Q P L ^ _ P g g m g e 2 4 r t r 2 4 e 4 6 e j 4 * + 4 7 f 7 t a t - > t t t t 7 a W E n m f n f a 5 4 i m m r 2 4 m r 4 m m m i q m m t   S P G L G G G G s h 9 q h q h q h s G s s m G G s s 0 0 0 s s m s h s 0 G s s 0 q 0 0 0 0 9 9 0 q 0 0 q q h s h q 9 9 j j q q q q q q j j 9 9 h h s q 9 9 9 9 q 9 9 9 p q q q q q p p q q 9 9 q 9 9 9 9 9 9 q q 8 q 8 8 q q 9 8 q 9 8 7 8 8 8 3 8 8 q 8 8 3 3 ",
"U.U.U.`.$XjXjXyX$XOX+X+XOX+X+X#XOX2X{.+X#X[.).+X$X$XyX%X$X+XI.+X].@X+X+X+X+X@X$X+X+X{.`.`.`.+X+X*X+X+X@XU.U.`.U.).).).n.n.N.n.B.u.i.u.U.U.U.I.U.n.U.U.U.U.U.n.N.n.i.i.x.B.N.).`.`.[.`.{.{.)._.].[.U.n.t.i.u.U.+X&X%X@X@X@X+X@X@X@X@X@X*X`.`.U.).).).U.u.t.u.<.8 ! E n n n m W W C m t m m u u a n ^ Q E a n Q Q I U _ { ] } *.} *.[ P ` *.*.*.-.5.=./ *.=.*.' { ' ' =.{ { { / ' / { / ` { ;.` { 4.` Q Q ~ I Q Q [ ` Q } -.} I 4.6.1.} } E d L E d i > r u r f c e u d d u : w u u r > u n u i i d E ~ ~ ~ E P a ( ' | 8.8.9.6.c w E r i u n E f g a t f g d g g f a n E E g n W m E ~ Q Q ^ [ | ~ ~ a M W E +.Q Q ) ~ W ^ ) Q Q ` [ | #.-.[ / / ` G s L Q L L Q / P g a g a e e w 5 p j e 5 e 6 6 5 5 w . X 4 t a 7 i t r : 4 t t t t 7 m M W n m m m r t i 4 t t 7 m > : i m t m m n i m m m r . z Q L P L G L G G L s 0 s s s s s G K U K m K K s 0 0 0 0 0 0 0 0 m K K 0 0 9 0 0 s K L 0 0 s 0 q q q 5 9 h h 0 0 q q q 9 q 0 q 0 q 0 9 9 9 H q h q 9 9 9 9 q 9 q q 9 9 0 q q q 9 9 9 9 q q q p q q 9 9 q 9 q q q 8 q q q q q 8 3 8 8 8 8 8 8 8 8 8 8 9 8 8 q ",
"`.`.U.U.U.U.U.+X[.{.[.).[.`.]._.{.`.+XOX#X$X#X#X@X@X+X+X+X+X+XY.#X$X#X#X@X@X#X$X3XyX$X3XyX%X$X%X%X$X%X@X$X+X$X+X#X@X{.{.`.`.]._.I.I.U.`.U.U.U.U.).).`._.).[.[.`.I.U.n.B.i.n.n.n.U.U.n.).).).).b.t.t.n.).`.u.i.U.U.`.*X`.U.u.u.U.u.U.U.U.U.`.U.U.u.[.{.`.).U.<.> Q W a n n m _ L a i t m n i i m m U Q L d P Q I W Q Q [ [ { } 1.{ ` Q ` { *.4.*.-./ ' *.*.{ ' ' ' { =.{ { { / { ' Q P { { -.` { *.Y Q Q Q Q ~ Q ' ~ ` #.*.} _ 4.i.4.} | M t n n g i , e u e M c e u d t w , u u r u > w i t i t a P ~ Q ~ E E n ( [ -.0.0.q.4.g > M i f r M M n c r t g f f n n n f n n M s g n g ! Q ~ Q ~ +.~ W Q a n Q ~ +.W ^ Q _ L W Q W ` [ { 4.*.*.=./ / ( L G L L E L P Q G g s g t 5 w 6 4 t t 5 e e 6 4 5 5 6 X X > 7 m t d 7 8 : 4 t t r t 7 m n W U m m 7 m a i w t i m m > r r m t m m n a t n m r   v I P L G K s s s s q 0 K s G K G K K K 0 0 s s K s K s s 0 s G 0 0 0 0 0 0 9 8 9 q 0 q 0 a 0 q h 0 q 5 9 q q 9 q q q q s G s q 0 0 0 H H 0 0 9 9 q 9 9 9 j 7 3 9 8 9 9 q q q 9 9 q 8 8 8 8 9 7 q q 9 q q q q q m m m q m q q m q q 0 q 8 q q q q q q m 0 q q ",
"yX$X%X%X%X@X+X+X`.`.`.[.`.`.).).[.#X#X$X$X#X$XyX$X@X@X`.`.@X$X$X{.{.`.{.].`.#X+X#X3X@XXX*X%X%X%X$X$X%X@X@X$X$X$X%X%X%X%X%XyX%X%X%X$X$X$XOX$X&X$X$X%X%X%X3X%X%X%XOX$X$X$X$X+X+X+X X{.`._.`.{.+X#X{.{.`.`.$X+X`.+X*X`.*X*X`.U.U.`.*X*X*X@X%X@X@X@X*X@X`.`.).U.] > W W m n M n V m m i t m n m i a s Q Q P p L I W P Q ~ [ U [ #.} } ` ~ ` } } -.*.*.' ' *.-.=.( { { [ =.=.=.[ / { { Q P / *.-.' -.#.Q ` Q Q L Q / ` Q ` *.4.#.Q 4.0.1.} } c u g n f l > u e w E g e y d u w w i u i r w u f u i i f L ~ E [ ^ E E Q ( -.0.8.4.4.g > ^ y x t ! n d f w d L n f n f n a M L n n n f f Q ~ ^ n ~ ) Q E W n n ^ Q [ E ) Q _ E W Q ~ _ ( | 4.} *.{ / / [ L G E L G L Q ^ g p a g p e 4 6 5 e e j 4 e 6 6 t p 4 + X : 7 s t p t r = 2 t y t t 7 m n n M m t m t r r 4 t m t m r 4 r m t a n n t q m m r . D n s s s h s s p h q s m s s s G K G s m K s 0 0 h s h 0 s 0 0 0 m 0 0 m 0 0 0 q q q 0 0 h 0 0 q 0 j 3 3 9 j q q q h 0 h h h 0 q s 0 h 9 0 0 9 9 0 s 0 0 h 9 9 9 9 9 8 8 q q 9 h 0 s 0 0 q q 0 a q 0 0 0 0 q q q q m q q q q q q q q 8 m q q m q q q q q q q ",
"$XyXyX%X%XyX%XyXyX3XyXyX%X$X$X2X%X3XjXyXyX2X%X$X$X@X+XU.`.+X+X+X$X{.).).U.U.).].#X@X%X%X%X%X%X%X$X@X@X@XyX%X%X%X%X%XyX3XyXyX3X3XyXyX%X$X$XuX&X%X&X%XjXjX3X&X@X+X`.+X+X@X@XOX#X.X{.).n.).{.{.].`.).).).+X*X@X*X*X@X@X&X&X@X@X*X@X$XyX%X%X%X%X%X%X$X$X&X@X`.).] ; ! M n E m n M m m m r m L d t d g _ ~ E p g Q I I Q Q [ P ` 4.} -./ U ` { } *.*.2.' ' =.=.{ ' { { ' { { { ( / *.( ' I / -.-.{ =.-.I Q I ~ L P Q [ Q I #.{ } _ 4.i.:.} [ g u a M g d > i u w E c e d d l r r i i r > y u f t f i n W Q P ~ Q L Q ~ I -.6.-.6.-.a w M r C d W n d d r f M n g f m a s E n n n n f m n L E L ) _ n E m n E ^ Q ) W ) Q E E W Q ` / ~ | 4.#.*.[ Q ' [ E s E P g E Q P L s a E j 4 4 6 4 p 5 e 5 4 6 6 t p 7 # X : p h t t 7 > : 8 t a 5 t 5 m n W n m m m 7 t m 4 r i n t r 4 7 m a t n n m a m m r   N W P P L s 0 q j 3 5 9 9 9 9 9 q p s m s 0 s h 9 q 0 q s K U K 0 m s K 0 m K s K G G 0 0 0 0 s s s s h h q h s q 9 h q q q q q q 9 j h 9 9 9 0 s 0 s 0 q 0 q j 9 q q 0 q q j 9 9 7 9 0 0 s q q q q q 0 q q 9 q q q q q q q 8 q q 8 q q q q m q q m q q q q q ",
"@X@X+X+X@X*X`.`.+X@X@X%X$X%XyX%X$X$X$XyX+X$X#X#X#X#XOX$X`.U.U.`.[.+X`.{.@X$X@X@X%X%X%XyXjXjXjXjXjXyXjXjXjXjXyXjXjXjXjXjXuXyX3X%X$X#X+X].XX#X&X#X%XvXjX3XyX@X+X].+X#X+X@X@X3X3X2X%X%X%X&X#X@X`._.{.@X&XvXvX%X%X%X%X%XvX%X&X&X&X*X&X%X@X@X%X%X@X%X@X%X%X@X*XP.T m M m n L m n n m n m i a n C 5 a a _ Q ^ p m Q P E ` ~ ~ U Q 4.*.{ { P Q ' ' { *.*.=.=.*.*.{ { ] { { ' =.' / / { ' ' / { -.-.{ { *.Y ( P Q L L ( ( P Q { | | ~ 4.0.4.| { n r n n C f > x u r n n > u f u r i u u r > > i d t f n C E Q L Q Q L E Q Q 1.q.*.-.2.d r M u C f ^ n i i r n f g a a E a n E M m n n g ^ n W n n Q Q n n m n n n ) ) Q +.~ n E _ Q [ ~ U Q 0.| *.| I ` ' s s Q P s L P I n a g g p w 6 6 e p e 4 4 e 6 4 e p p & + : d a 7 r t r = r p t t 5 7 f n E W a s m t q i 4 t m C r r 8 7 m m m n n m r m n r . i Q m G g s s h s h s s s 0 0 q a q h s m m m m m K s m m K K K L m m K K m K K K 0 m 0 K 0 m 0 0 q q a 9 j 9 q j 9 9 9 q q q q 9 j 9 j 9 q q 0 0 0 0 0 q q 0 9 9 q q q q j 9 9 q q q 0 0 0 s q a s q s s s 0 m m 0 m q q q q q q q 0 8 8 q q q q q q q 8 q q ",
"@X@X+X@X@X@X@X@X+X`.`.`.U.`.`.U.*X@X@X+X`.`.`._.).U.n.).U.u.t.u.w.t.t.t.u.U.U.U.U.).`.`.`.{.*X*X%X%X%X%X%X%X%XjXkXjXzXjXjXjXhXhXjXhXhXjXyX3XjXjXjXjX%XjX3X$X$X$X$X@X#X@X@X#X@X#XXX#X@X$X@X@X@X&X@X&X%X&X%XvXvXjXvXvXvXvXvX%X%XvXvXvX%X%X%X%X@X%X%X%X%X%X%X*XT 2 C n V W m E M g f f p m n a i a K _ Q P p m Q Q Q W Q I L ] [ } { { I I ( { { =.-.{ *.*.-.{ / ' / { ` { { P ' =.{ { / { *.=.{ =.' Q ` ^ Q E P Q / ^ I ` { ] Q 4.t.q.| } g w n n a u > d r r M n u i d t u f u r u r , i f i d C n L Q G ^ ~ n L Q ( -.*.5.-.=.t r ~ d f a ^ g i d d m g f t f E a C M L W M g a W n n a L W n d n n i n W ) Q ) [ Q E W _ Q ) Q L ` 7.} -.| I ( [ s L ^ P g g P P L h s s p w w 6 j p 6 6 5 j 4 j p p p : @ $ 5 a d 8 i 5 - t t p r 5 4 a n E L a a s t r r w i r m m 7 i i m t n n n m i n m t   D _ L m h s s s h m s s m L U U L U L K U U U U U U K L K K U U I U Y U U U U U K K K R 0 H 0 0 q q q q j 9 q j j 9 8 9 9 h h q 0 0 s 0 9 9 0 q 9 9 9 9 9 9 9 9 q q q 0 0 0 q 7 3 3 3 3 3 7 5 8 8 j 3 9 q q 0 0 0 0 m m m m m m m R m m m m q m m m m m m m q ",
"@X@X@X*X*X@X@X@X@X@X*X`.`.@X@X$X@X@X@X@X$X&X&X@X&X@X+X@X@X@X+X`.*X`.+X`.+X@X@X@X*X*X+X`.`.`.`.`.).`.`.U.u.u.n.n.n._.XX#X.X`.+X{.].).).U.J.U.).[.XX#X@X%X@X%X#X#X#XoX+X{.].n.n.U.).n.v.n.).).u.U.`.).).`.K.`.*X`.*X*X&X*X*X&X*X&X%XjXjXjXjXjXjXjXjXjX%X%X$X+X] 2 n a L W n M m m m m t m m i t a n Q Q P a n Q Q Q P P E L [ I } { ' Q J / ' { { *.*.*.*.-.' / [ ` *.=.{ { P / { { { P { =.{ ' { ' / Q P Q P ^ Q / Q U / [ | Q } q.<.} | g r n g f x > d r r m f r i t r u d t u r y > i f i f i n P Q G ^ ( L a Q { -.} *.-.=.e u Q c f g ^ a u f n M n g d n M a L n L E E g a n n s g g E g t i m d m W _ W ~ ) L E _ W _ [ Q W [ } 1.*.#.Q Q / s L ^ P s L P L L a s s e 4 4 6 e j 6 6 e j e 4 p p p = @ & 7 7 p 7 7 4 ; t t t t 5 r a n E E m a a i r 8 w r i y C r w m t m n m m m m a n t   z Q L L s L n Q Q I I Q U U U I U I Q I U Q Y Q I U / I I Q Q U I I I U U U U U K K K K U K U K K U m K K K m s K H H 0 q q q 0 0 0 0 s 0 q 9 j 8 j 9 j 8 8 8 3 8 9 9 9 q q q 9 9 9 9 5 9 7 9 9 9 7 3 5 3 3 2 3 3 3 8 3 3 8 8 8 8 8 8 9 q 9 9 8 q q q m q 8 q ",
"%X%X%X%X%X@X`.U.U.U.U.`.`.`.+X@X%X@X%X%X$X#X%XyX$X&X$X@X@X&X&X&X$X@X&X@X@X&X&X@X@X@X$X@X@X@X@X@X&X%X%X@X#X@X{.[.).).H.).).[.+X{.{.+X{..X_.[.).H.H.H.n.U.n.n.n.n.b.t.n.t.t.n.t.u.v.v.q.i.n.n.U.U.).n.u.H.K._._.P.*X*X*X*X*X*X*X*X*X*X*X%X%X%X%X%X%X@X%X@X+X+X| : C m E ^ n n a s n m t m n q i a s ~ ( P p L I ^ E L L G E ` Q } ] ( Q Q Q ( =.*.*.*.*.-.*.=./ [ ( *.-.{ { / / ' =.{ / *.*.( =./ ] Y Q L P ^ P P ( ` ^ Q ] ] Q | q.7.} ` f r L a f d > r t r f f r i t u u i i t r u r u i i n t g ^ ( P P Q L g W | *.} *.-.' e r ! d a n E f t M E g M d f m a m V n n L C m L g g p f E G a r i n a n W n E [ ~ L ^ _ E Q [ U W ` #.{ { -.` Y Q g s P L g L L E P a g s j 5 e w j t 4 6 j d 5 5 p 5 e : @ % r 8 d t r - 4 7 t 7 r 5 7 p m L n t a 9 t r 4 > m m m t t r t r m n q r q q m n t   y p 7 7 9 7 7 q p h a a a s g s s L G K L L m K K m I I I Q Q U L U I U P U U U U K m 0 0 0 K U s G K 0 s K K U U U U K U L U U K K m 0 0 0 0 0 0 0 H 0 q q 9 9 9 j q 8 8 8 8 3 3 3 3 3 3 7 8 8 8 7 3 j 5 5 9 7 9 9 7 8 q 9 8 8 8 8 3 8 8 2 8 8 3 2 8 - 3 2 3 ",
"U.U.`.`.`.@XU.U.u.U.`.*X`.`.@X@X@X@X@X@X+X`.`.@X#X@X@X+X&X#X$X&X$X%X%X%X%X%X%X%X%X@X%X@X&X&X&X*X@X$X%X@X{.*X*X@X3X$X&X$X&X&X@X@X@X$X&X#X&X%X@X$X$X#X@X#X@X@X#X+X{.].{.*X*X{.+X+X{.#X#X@X@X*X@XXX*X*X*X`.*X*X@X&X&X*X&X*X*X*X&X&X&X@X@X@X*X@X@X*X`.`.).U.U.u.T 2 g a M W n n g m n n a m m r a m g I _ ^ s g Q P Q s ^ L ( { ~ | { ( Y L P ( =.*.*.*.-.=.4.*./ ] ( -.=.{ { G ' ' { ( ' *.{ ( ' ' { ( ^ P Q Q Q P [ / Q ` [ ] Q | 6.:.] [ n w n m f i > 4 r r f d u t t u u d r i i r > y t f d i g Q [ / E Q L g W } { ] 1.*.=.w r Q d d g E f 4 n M n n d d L p n n g C n g n W m a a m g g d t i n a n W m W [ W n _ _ n ` ~ I W Q #.-.` } { Q ( s G ^ G g G E P ^ s s s j e 5 j e e 6 2 7 d 7 j t 5 7 ; @ % w t a 7 r - 4 r t r 3 7 r p L E g p q t t r 4 r t y m m i 8 t m m L a t 7 a n m f . k m r 9 7 7 8 3 3 t 5 3 2 3 5 3 5 p j 5 9 3 5 8 5 5 5 7 7 7 9 9 9 q m m m L U U U L U U U U U U L K K K K L P U U K U K K U Q Q I U Q U K U m K m K 0 R 0 q 0 0 0 0 0 0 m q q 0 q 9 j 8 q q q 9 7 8 8 3 3 5 5 8 3 8 3 8 8 8 8 8 q q q q 9 9 8 7 7 m 7 q q 7 q ",
"`.u.u.u.u.u.u.u.u.u.u.u.U.`.U.`.*X*X`.U.H.u.u.U.U.u.u.`.*XXX@X@X@X@X*X*X`.*X+X&X%X&X%X&X%X%X%XyX%XyX%X%XyX%X%X%X%X&X%X&X%X&X&X$X&X@X&X%X%X&X%X&X3X&X%X@X@X@X@X`.{.*X+X*X@X@X%X&X&X&X&X@X*X*XXX`.`.`.`.*X@X*X*X*X*X*X*X*X*X*X*X*X@X@X&X@X@X*X*X@X*X`.U.u.u.i.] : C s n g m n a a n n q m m t t a n Q Q P a g Q E E L Q P Q [ I ` *.( Q L G Q { =.*.-.=.-.-.*.[ / / *.-.=.' ' / ' ' ' { =.=./ ' / ' / G ^ Q P G Q / Q P [ ` | I <.6.*.[ ` f w L n f d > r u w C f e u u t u i w u r r > t f f f d n ( [ ( P Q L a E *.{ } *.-.*.t > L t n n g t r n s n n d n Q f n C g f f g ! n n a t m g f p d a a f n n n Q ~ ^ n W W n [ ~ Q Q ` -.-.' [ / / [ s G Q G G g G P Q J s s p e j 4 4 4 4 4 t a 5 5 9 5 5 ; % % 5 q t 7 w : 4 t 7 r 5 7 7 a g L g t a 9 y 5 : r t m m r r r i i m n t t 7 m n m a . z m m q 9 9 9 t p 3 3 7 a p p 9 9 9 p 9 q h p 9 7 3 2 5 7 8 4 4 ; 2 2 8 8 7 8 7 7 9 9 9 q 9 9 q 0 q 9 q q q q s s m K 0 s K K K K U m m U U K U L K U m K s 0 0 0 K K 0 R m R s s s 0 0 0 0 q q a q q q q 0 h s q 9 9 q 8 8 8 8 3 3 8 8 8 q q 8 8 8 8 7 7 8 7 ",
"`.`.`.*X`.`.U.`.*X`.u.`.u.`.`.U.`.P.`.P.u.U.U.K.H.n.H.u.u.).`.`.@X+X*X`.P.u.P.P.H.*X`.`.`.`.`.`.`.`.`.`.`.@X@X&X%XvX%X%X3X%X%X&XvX3X3X%X@X`.@X@X@X@X{.@X@X`.).`.@X`._.`.*X@X%X%X%X*X*X#X@X%X@XXX*X`.@X&X@X@X@X*X*X*X*X*X*X*X*X*X@X@X*X@X*X*X*XP.H.P.P.U.U.U.] : C s g n f n s a a n t i m t a q g Q Q P a n U E ^ g Q P I [ L ` ] ( ^ L / / ( =.=.2.8.-.*.-.{ ( ( =.-.=.' G / ' { ' ' *.' Y =.' { I G G Q P G Q Q Q P ` ' | _ 4.4.4._ ` f w n M f i > r t > W f e r r u u i w t y > > f a d i i g ( { [ ^ Q n a P } } 1.} } =.r w M d m n g r t M m g m d m M f M n n C m m _ L m m 9 d a d d p n d g g a E Q ) E n W M E _ I W I Q ;.} [ ] Y ` / s G G g G h G E I G J g p 5 t 4 e 4 2 3 t a 7 t p 9 4 6 # % 5 a t t 4 - w t p 4 8 t 7 a n n n q 9 t 5 r w w t i i t 8 r r m m n 7 t 7 a m L a   k m t t 8 8 8 p 7 5 5 p p p q a p p p 9 9 7 7 9 t 7 p 7 9 5 3 8 8 t q 7 8 8 8 3 3 3 2 2 2 2 2 1 3 3 3 6 1 3 3 j 9 q q j 3 q h q h q 0 0 0 0 m L K U L U s G H m U s s m m K K K K m 0 m m m 0 s s 0 q s q s K m K 0 s 0 0 q q q q 8 8 8 8 8 8 7 8 8 8 7 7 2 7 ",
"`.*X*X*X@X@X*X*X`.`.*X*X`.u.`.u.H.U.P.P.H.`.`.`.`._.).P.n.H.u.`.`.`.`.`.*X+X*X*X*X`.`.*X*X*X*XU.U.U.u.P.P.H._.).`._._.).)._._.`.K._._._._._.*X`.`.*X{.].`.`.`.*X*X*X_.).P.).`.`.H.H.`.K.P.U.`.`.*XP.P.P._.`.*X*X*X*X*X*X*X*X*X*X*X*X*X*X*X*X*X*X*X@X*X*X`.U.] : m f n n g m f a n a 9 m n t a a n U ~ Q g g U P Q P ~ P I [ L ' } ` Q U ( / { ' =.2.r.-.-.*.{ { Q { -.*.{ / / ( ' P ' { =.' { { =.Q E I Q Q ^ Q ( Q Q ` [ | I 4.6.-.` ` n w L E g i > t r r n f r w e t d i w i u > > i n i d d g Q ] [ I Q n a n #.*.-.*.1.} r > E d L n u 5 f m a d n f E n n E n n n f W Q M n f d g t p d a M n n n g n ~ ~ E E Q W E _ I I Q ` -.{ *.[ ` } ( g E E s J h g U ^ G g s p 5 p 4 5 4 6 2 7 t 7 7 a t 3 6 # # e t q 7 ; : ; 7 q 4 8 t p a s g g t m 9 r t : w t m r r 8 t w m n m 9 i p a n m a X k n 8 8 4 4 4 2 2 2 5 2 5 7 3 7 3 5 5 5 t p 9 7 3 2 3 2 3 5 7 8 q 7 7 7 7 t 9 9 t 7 7 7 3 3 3 3 8 3 j j 3 3 6 3 3 3 2 3 2 1 1 1 2 8 7 j 9 j 9 9 q q q s 0 0 G 0 0 0 0 a 0 0 q m 0 0 0 a 0 q s s K m m 0 0 m s s s m K m 0 m q q q m q 0 q 0 q m m m 8 m q 7 q ",
"@X*X*X&X%X@X@X*X*X*X%X*X@X*X*X*X@X*X_._.K._.P.`.).`.`.*X).U.H.H.H.`._.`._.`.`.`.P.*X*X+X*X*X*X*X*X*X`.*X*X*XXX*XXX*X].XX`.`.`.*X`.*X_.H.H._.P.K._.K.*X`._.K.`.).).).).P.`.`.*X`.XX*X`.*X`.XX*X`.`.`.P.`.*X*X*XXX@X@X@X*X*X*X*X*X*X*X*X*X*X*X*X*X*X*X*X*XK.P.T 3 f n E n s L f m m n t m m 7 t a g Q Q P s m L P Q U Q W Q ( U { } / ^ / ' ' ' { =.-.*.*.*.-.*.=./ { *.=.{ ( / ' ( / ' =.{ / { { ' I ^ E ^ W I Q I Q P [ ` { Q 4.6.4.` ' f 4 E L m t > r t r i n 4 > w u i y r u r > > n f i i a n ` [ } E ^ s p n -.=.4.*.-.=.r > M a E L r r g n a M f a ^ a f E M n f E W E n g d m f 7 t a n n n n M m L ) ) m E Q W Q W L I Q | :.{ *.' [ } Q s L L G J a G L P G g s p 4 t 4 4 3 6 4 3 p 7 5 a j 3 6 @ @ 5 q a 7 : - ; 7 7 5 r 9 p a g g g 9 i a 8 5 ; 8 i r t r 8 C 7 m n m r m t a g m d   k n 8 3 2 2 4 4 ; 6 6 6 ; 4 2 4 - : 6 6 2 5 4 7 7 7 7 5 5 8 2 2 8 8 7 7 7 7 8 7 8 8 7 5 2 2 8 5 7 9 7 9 p 9 3 5 7 7 9 7 7 2 2 2 - 2 2 2 6 3 3 3 7 9 q q 0 9 q 0 0 0 0 q h h 0 h h s 0 m 0 h q q 0 q s s s 0 0 0 0 m m m m m m m m m m m m m m m m m m m m m q ",
"*X*X*X`.*X*X*X@X@X@X@X*X@X@X@X*X*X*X*X*X*X*X@X*X*X*X*X*X*X{.*X*X*X&X*X@X@X*X`.XX*X*X*X*X*X@X*X@X*X@X&X@X&X@X@X*XXX*X&X&X&X&X*X@X@X&XXX*X@X@X*X*X*XXX*XXX*X`.*X*X@X*X@X*X*X*X@X@X&X@X*X@X&X%X&X&X&X&X@X&X*X@X@XXX*X&X*X@X&X&X&X&X&X&X&X&X&X&X&X&X@X@X@X*X@X*X<.- n n n n a W m a i a q a f 7 m p g W ~ L g s E ` ^ W L K I I U } *.' Q *.' =.' =.*.-.=.=.=.=.5.-./ { ;.=.=.' / ' ' Y Y =.' ' =./ / I P L U P ` E Q I P ( ` [ Q 1.6.4.I [ g r E E i y > r r r m f r w r r 7 w > u u > > a i t i f g ( ` ` P P p d P } { 4.8.*.] t w E g E n e a C g f c g M n t g n n m m W ^ E m m a a s t t a n g n n E n M ) ) n E Q P Q L L I ] #.' } #.` ' 4.Q s L G s s h s P L g G h p j j 3 4 5 1 4 5 7 5 9 d p 5 6 % @ 6 t a 8 ; 4 : 7 7 5 t p 7 g g L s a m 9 r r : > t r 7 r i m 7 m n m : 7 m m s a a . , n p a 7 r 7 5 7 5 5 3 7 e 2 7 4 4 4 ; 2 2 6 4 2 2 2 2 2 2 ; - ; - - - - 2 ; ; 2 2 2 - 2 5 3 3 3 2 3 2 3 3 1 2 2 3 3 9 7 p 9 9 7 7 9 9 9 9 9 9 5 j 8 3 9 9 5 9 8 5 5 2 2 2 5 3 7 q s m K K K s s 0 0 s h 0 q m m K K U m m m R m m m m m m m m m m m 0 q m m ",
"U.*X*X@X&X%X&X@X@X@X*X@X*X@X%X@X@X@X*X@X*X@X@X*X*X@X@X@X@X@X@X@X@X@X&X@X*X@XXX*X*X+X*X@X*X@X*X*X*X_.*X*X{.*XXXXX`.XX`.XX*X*XXX*XXX*X_.`.*XXX@X@X&X&X&XvX%X%X%X%X&X&X&X&X@X@X&X%X&X@X*X*X*X*X*X@X*X@X*X@X*X&X&X&X@X@X&XXX&X*X&X&X&X&X*X&X&X&X&X*X%X@X@X@X*X*X] ; n L E m g E m a p a p a a t a s s Q I P n a ^ ` E L g L ^ I ` ' ] ] ( *.2.*.=.=.' ] ] ' / *.l.-./ =.-.=.=.' / ' ' Y ( -.=.' =.' / P L G U Q / P P P P { ` [ ` 4.q.} Q Q a r U L m r : r r r n f w w r t t r w t r > > f i i t a L [ / ` P L p d E } ' 4.6.-.' r w E a g a w f g d f d d n n t E n n M m Q _ ^ m m a d f m t n n s n M E L n V ^ L ^ W ^ ! n n _ | #.' | 4.` ` 4.( g L L h G h s E G s G s h 3 p 4 1 5 6 2 7 7 4 5 d j 4 j % % e 7 a ; ; 4 : r 7 r 9 p 7 s n n s a a a t r : 8 y 4 C t a t r i m m r 7 m n g m a   k n a p 7 3 2 2 3 t 3 5 4 3 2 2 2 5 ; 2 2 2 2 2 5 5 2 2 2 5 2 4 2 - 4 - - = : = = - 2 2 - - 2 2 2 2 3 6 1 3 1 - 6 2 2 2 3 8 9 7 9 a q a q h 9 3 q q 0 q q q 9 9 5 3 2 2 2 - 2 5 5 3 3 3 3 7 7 7 9 q a q 9 7 7 8 9 0 m m m m n m R m m m m m m m m q m q q q q ",
"*X`.*X@X*X*X@X@X@X*X@X@X%X@X*X*X*X&X@X@X@X@X@X&X@X@X@X%X@X@X@X#X@X*X*X@X*X*X@X@X@X@X@X*X*X*X*X`.*X*X*X@X@X@X&X@X@X&X&X&X&X@X&X&X&X%X%XvX%XvX%X%X&XvXvXvX%X%X%X%X@X&X@X%X%X%X%X&X&X&X@X@XXX@X&X%X&X@X*X*X@X&X&X&X&X&X&X&X&X&X&X&X&X*X&X*X&X*X*X&X*X*X@X*X+X*X<.; M L n m p M n a a a p p d 7 n f n W Q L g h P [ ^ s L g P Q | ] -.*.] 5.r.-.*.-.` / [ { / =.r.r.' =.-.*.{ Y ' ' T P ' *.' / { ' ( I G g U ( Y L I I P [ ] ] I 1.4.] ' ` d t W L i r : > > t L d 4 r r t t r 4 r u : r f f f t i L [ / Q P Q a t P -.' 5.6.2.' r w E f g r w n M 7 g d g n f d M m a n Q ) Q E g g a a s a f m n n n n W E Q E U Q Q W P ~ n L [ { -.{ } } ` ] 1./ s L L a s h s P G a L h a 5 5 2 6 5 3 5 5 5 2 3 7 5 j e & @ 4 q t 4 : ; 4 4 7 7 7 9 9 g L n p a a 7 t w ; r t r n t a r 8 m m m m 8 t m a a a . k ^ s g s s h a a a 7 8 7 p a f a a a p p p 9 7 7 7 7 7 7 7 3 8 3 8 2 2 8 2 2 2 2 6 - - - = & - - 1 - 1 2 1 1 - - = - - - - 2 2 3 3 7 9 9 q 8 7 9 5 j 3 5 5 3 3 3 7 3 5 8 3 7 7 7 3 3 8 7 7 3 8 3 3 2 2 2 3 8 8 8 2 2 8 2 m 8 8 m m R R R m m R m m m m m q q ",
"*X`.`.`.U.U.`.U.U.`.`.`.*X`.`.`.K.P.H.`.`.`.*X*X*X`._.*X`.*X`.`.`.`.U.`.`.`.@X@X@X*X@X@X@X@X*X@X&X&X&X&X%X%X&X%X&X@X&XXX@X@XXX&X&X&X%X%XyX%X%X&X&X&X&X&X%X%X&X&X%XvX&XvX%XvX%X&X&X*X&X%X&X%XvX&X&X@XXX&XvX%XvX%XvXvXvXvXvXvXvXvX%XvX%X%XvX&X&X&X@X@X&X&X@X*XT ; E L L p p n n p p a m a t 5 g s n W Q P g s E ( P s g G ^ I } *.-.=.*.2.e.*.2.-.` ^ Y / ( ' r.r.=.=.-.2.=.' ' ' Y P ' =.' / =./ Y I L g P _ Q L I Q n ` [ | U 4.6.<.` Q a r W E i r : > 4 t E d w r t d t r > r 4 ; w n f d t a M [ ` Q U Q s t Q } ] 4.6.1.` 3 r E d g w a W P n C a f M t a ^ m m n ~ [ ~ L g m n E n n n n n a m n Q L W M n M W W I Q n E ` { 4.} } ;.` ] ] ` G P L G a h s E G g G a s j p 4 1 5 5 4 5 5 3 2 9 3 5 3 & % 6 9 t 4 ; ; ; 2 7 2 7 p 9 n g n p a a t t 4 w r t 7 a 7 t 7 7 m m 7 m 7 t m a a a   k V m g n g s g s a p 7 7 9 p a p a m m a a a a 9 p p p s g p 7 9 7 7 9 q t 8 7 7 q 7 8 7 3 4 2 3 7 2 2 2 2 2 3 3 5 2 2 1 - = = 2 2 2 2 3 1 3 2 2 3 3 3 3 3 3 2 1 1 1 6 3 2 3 3 5 5 3 7 7 8 j 9 p 9 7 7 8 8 7 9 7 8 2 - 2 2 - 2 2 8 8 m 8 8 8 8 8 8 2 3 8 8 8 ",
"3.u.u.u.U.U.U.`.`.U.U.U.u.`.`.u._.).H.*X`.)._.`.*X_.H.).).`.`.`.*X*X*X*X*X@X@X*X@X*X*X*X*X*X*X@X&X&X&X%X%X%X&X&X&X&X&X@X@X*XXX&X%X%XvX&X&X@X&X%X&X&X&X*X@X*X&X&X&X&X%X&X%X&X&X@X&X@X@X@X&X%X%X%X&X*X*X@X*X&X%XvXvX%XvXvXvXvXvX&X&X*X*X&X&XXX*X*X*X_.*X`.`.H.] ; n g M p p n m p 7 t m i t e n g n L I Q L a L ~ P L s L P / =.*.-.=.*.5.r.r.r.5./ n L E ' ( 2.r.-.=.2.-.{ / ' ' / Y ' *./ ' =.[ ' P G L P ( I L Q I U ` ' ` Q 4.5.} I _ d r L n a r > > r r L f w t r r t r r 7 r > > d f i t a Q [ ` Q P Q f p Q } ] 4.6.1.` r y E d f w d M L g g f c a e g M f m Q ) ) Q g s n n Q L L E n Q n a n W M W n g n E W ^ E L Q ` ( ;.} ' *.` { { ( G I L G a a G G L G G h s j 5 1 1 5 5 3 5 5 6 6 5 t 3 5 & # w p 2 - ; ; ; ; t 4 7 d a s m L p 9 a t t : : r q a t t 7 2 m t m m m m t m m m a . < f 7 t u p d d a p p p d t q p 7 9 q a a m s s d p 9 p a p q 9 7 7 7 t 7 7 3 3 2 4 8 3 3 3 3 3 3 5 5 2 3 2 2 3 2 5 2 1 1 - 2 1 - = - - - 1 - 1 2 1 6 2 6 3 3 2 1 1 1 1 1 1 - - 1 1 1 2 3 3 3 7 9 7 3 8 2 2 3 4 q q q 8 2 8 t m 8 8 8 8 4 8 4 4 2 2 : - - - - ",
"+.| | } <.q.3.u.u.u.U.u.U.u.u.U.).H.).P.K.P.P.u.H.`.`.*X`._._.`.{.`.`.*X*X*X`.H.`.U.`.H.K.`.*X@XXXXX*X_.XX&X@X&X&X&X&X&X%X#X&XvX%X%X%X%X&X%X%X&X&X%X%X%X%X%X%X&X&X*X@XXX*X@X*X*X*X*X*X@X@X@X@X@X@X*XXX_.XXXXXX*X&X&X&X&X&X&X&X*X*X&X&X&X*X*X&XXXXX&X@X*XXX_.] : g g n a a n n 7 t 9 m t 7 5 g g L G Q ( E s L P P L g / I Y =.*.*.*.*.=.5.l.r.=.Q g d p ^ / =.5.r.=.=.-.=.=.' ( Y G ( =.Y / ' ' ( Q L L W ` Q s ^ I L ` ` _ ' q.5.' ` [ a r L m p r : > > r E f 4 t t r r w 4 y r : r i t i t a ^ ` Q P L Q a d Q 1.4.<.4.1.( 5 u J u t t d M n L a a g d t L L g g Q [ [ E s n E L L W Q Q E E W L E g n L n n n Q W P L E P [ ' } #.{ ' ' { { / G ^ L J a s s G G L g h s p 5 1 1 j j 3 5 5 & - 5 9 5 2 6 % 6 t 5 - 6 ; : ; 8 4 7 p a g g n 9 9 9 q t : 8 7 t m 8 r r 4 t m m m m t m a a m a   < > = % % : % - ; - - ; ; 4 4 5 5 r 7 t 7 7 t q a a a a 7 9 p 9 a a a q 9 7 9 7 7 7 8 7 8 t 7 8 4 7 7 7 q 7 7 5 2 - 1 1 - 1 = - - = - - = - - 2 2 3 3 3 3 3 3 j 2 3 1 3 1 1 3 2 1 1 - = = - - - 2 2 2 - - 2 3 2 - 8 8 7 8 8 7 8 m m 8 m 8 2 m m 2 m 2 4 8 2 4 ",
"i.i.9.q.q.q.q.<.<.<.<.] 3.3.3.3.t.u.u.u.K.K.H._._.P.u.t.t.y.n.n.U.u.U.u.P.).`.`.*X*X*X*X*X`.H.`.`.*X*X_._.P.K.*X*X*X*X@X@XXX@X@X&X&X%X%X&X%X%X&X&X&X&X&X*XXX*X@X*X*X*X*XXX*X@X*XXX@X@X*X_._.).H.`.*X).H.H.).K._.*X*X*X*X*X*X*X*X*X*X*X*X*X_.*X*X*X*XXXXX*X`.` : g n L s a m m q a 9 a t t 2 a n L g ~ Q E g g G ^ L p ^ ( P { 5.=.=.' ' -.5.*.{ L a d u t / =.2.r.*.=.=.' ' { / ' G ' =.Y ' ' ( Y P L P P ` / s I Q U Q ] ] ` 1.4.| } ` a t n a m r > w e e L f e t r e r 4 r t 4 : 4 t i i 7 i P Q [ Q U _ a p Q 1.1.1.5.*.( w u E t t f g s g n a a E p d E L g L Q +.~ E g L ^ E W ~ _ W Q m W ^ n n m n W W n ! Q L E Q Q [ { } -.{ | ` ' { / H Q L P h h h g G g s h a p 4 6 1 j 4 6 5 5 6 & 5 9 5 2 ; @ = p 4 ; 4 4 : : 4 ; 7 p a g s m t 8 7 m t : 4 i i m w r 7 8 C m t i m m m a a a a   < w % # % % % : = = = : = = = = # % = - : - : - : ; ; - : - ; ; ; 2 ; 4 4 ; 4 ; 4 r 2 2 r 4 5 5 7 7 3 7 q p q p 7 p 8 2 2 1 4 2 2 2 1 1 1 - - - 4 2 3 3 j j j j 3 j 3 2 1 1 3 3 3 3 2 2 1 1 & = - - - - - - - 2 2 2 2 8 8 8 8 2 4 2 2 2 2 2 8 2 2 8 8 4 2 8 8 ",
"q.q.6.6.0.0.6.t.i.0.e.e.6.6.4.1.1.1.6.t.w.u.u.H.H.H.H.b.u.y.0.6.2.i.0.0.6.i.t.t.t.u.y.H.H.).H.H.P.H.H.).K._._.)._._._._._._.].`.*X_._._._._.H.H.H.H.H.K.P.).`.K._._._._.*X*XXXXXXX]._.H.H.n.t.b.J.n.r.8.h.r.r.H.P.H.P.P.K.K.H._.*X*X*X*XK._.K.P.K._.H.`.`.H.T 2 s ^ L g g a a s p p p 9 a 7 a g G s Q Q Q g g n ^ L h ^ Q P =.r.=.' I / } { ` L a t m m > n ] 6.r.*.*.=.' / ' / ( P ' ' P T ' / ' P L P P ` ( K U Q L ` { ' ' 4.1.} { _ p t n a n r w e e t g g 4 d e e w ; w t > : w t p r r a E ) ~ Q P I t a Q 1.q.1.4.} / 4 r M r n f n g n g a g L t M L ^ L Q | [ Q L s g s E ( ( Q ~ P ^ _ m f m n n ! Q E n E n E ~ U } } #.5.' [ ' } ' / G ^ G G a p G G h h G h h j 2 6 1 3 3 4 5 3 6 ; t 9 5 5 - % 6 j e 6 w 6 = 6 4 - 7 p a s s E e 5 s a r 4 4 t m C 8 r 2 7 t t t a n E n s p s a . < > % = = = : : % # # # # # = # = % : % = & % # # # % # # # # = # # # % % @ @ # % # % & % % % & = ; 6 2 4 3 3 2 5 5 j 7 3 2 2 3 5 7 8 8 8 8 2 2 5 8 8 8 8 8 8 7 7 9 7 5 5 3 2 3 3 2 2 1 1 1 1 - 1 3 2 - 2 - 2 8 8 8 8 8 8 2 8 2 2 2 2 - # - = - : 2 = - : 2 2 ",
"u.v.n.t.t.t.6.6.6.t.t.t.y.y.r.6.1.6.r.y.K.y.u.K.y.y.t.t.y.y.b.b.t.n.b.n.n.u.y.t.n.n.U.).).H.n.n.u.H._.`.`.*X*X*X*X_._.K.H.).J.H.K._.K._.]._.`._._.J.n.K.H.H.).`._.`.*X*X]._.J.H.H.K.K.e.r.e.0.t.l.e.b.H.H.H.K.K._.K.K.).K._._._.*X*X*XP._._._.K._.K.K.P.P.).] ; E E g L s p p a p p t 5 a r p s E s P ( ^ L g G I P h P Q P =.5.{ ( P =.*.I U m a f a m t m ] 2.*.=.5.=.' / ' / ' P / / R Y ' { [ I W U Q ~ Q G U Q W ` | ] ` q.1.<.{ Q p t n a n 4 4 r w 4 g a r t w 4 w ; w t ; : > t d d 5 i W ` ` L W g t s ` 1.4.<.q.1.` 4 u n r M a a E E g d n g p L P L L ^ [ [ E G g g G E Q Q ~ Q Q Q n a d p n n Q ~ Q ^ L a Q ~ Q } } #.-.( ] { { / I G P G G p p g G a h G G h 9 6 & 6 6 9 3 5 5 6 6 5 3 5 2 6 @ & p e ; 6 w - w 6 6 r p p a g G 3 5 h a 9 4 ; 7 m m 8 8 m 8 m a m s L E g 9 p s p . * i ; 4 ; : : : - - : ; ; - - : = % - > = = & & = = = - = & = = = = % = = : & # = % @ @ & & % % % # # % & % : ; 6 1 6 4 3 5 2 2 2 2 ; 4 2 4 8 8 ; - : : - - 2 2 3 7 7 j 9 j 5 j 5 j 2 1 1 1 2 3 3 3 1 3 2 - - - - 2 3 2 2 8 2 2 2 2 2 - 2 - - 4 - - - - - = = ",
"7.4.q.6.e.t.t.t.t.t.y.y.b.y.y.t.r.4.4.1.2.w.y.y.y.y.t.y.t.r.t.t.6.q.0.r.t.e.t.i.t.n.b.J.u.u.u.t.w.w.u.n.H.`.`._.`.`._.`.*X].`.*X_.H.).`._._.J.).H.K.K.H.J._.J._.n.b.H.y.t.t.0.6.r.y.b.K.t.r.r.y.H.H.H.K.H.K._.K.H._.K.H.K._._.H.P.P.P.P._.`._._.)._.K.H.n.u._ ; g E M G s a a p t p 7 p p 4 p a L g P Q Q s s s L Q s J ^ G *.w.*./ ' *.} Y s d 4 : : r m U ] 6.=.2.-.{ / / ' P ( P ' Y P Y / { ' P L P I Y Q L L Q U ` | [ ` 5.1.} { ` d t m a g w 4 e 4 w g a w r e 4 e ; 4 t 4 : 4 p p t i a Q [ _ L L L t s _ 1.4.:.q.} { r t n i n 9 i L E g a n 9 p P I P P [ [ ` L s L ^ ^ E Q Q n Q ~ L a a p d V W _ _ Q _ E L Q I ( #.[ -.-.' { #.[ / I H G G G a p G G s h s s p j 3 1 1 6 5 6 5 3 4 ; 5 3 3 4 6 $ & 4 5 ; 6 w 4 4 6 - 7 7 a a g G 4 9 p p t 4 4 t a t 8 4 8 t m m a f n L n 7 p s h   k l w r ; ; ; - : ; ; - - ; 4 : & % : = ; ; = = = % % % = & : = = = - & & & = - = = = & % = = = & % % % # % # @ # # @ @ # # & = = - - = = = - ; ; - - ; 2 2 - - - - 2 3 3 7 5 3 5 3 1 & & 6 5 3 3 3 2 3 2 3 2 3 - - 2 - - - 2 2 2 : = - - 2 - - 8 2 8 2 2 2 - ",
"4.:.:.} <.q.6.0.t.6.q.6.6.e.t.6.6.r.e.w.e.y.K.H.K.u.u.u.b.b.t.t.i.6.0.q.4.q.7.4.-.4.4.4.2.i.i.6.6.t.n.t.u.n.H.u.n.b.u.y.y.b.y.b.y.y.w.y.t.y.y.r.6.5.;.-.5.6.r.w.w.r.w.3.r.e.t.y.y.b.y.y.H.y.y.H.H.H.H.H._.H.K._.*X_.K.H.H.H.J.K.P.P.3.P.y.r.y.r.w.y.y.y.w.i.I 4 E G L E g a h j 9 p 9 p 7 2 t p E G L / Q s g s P / G G ^ P ' 5.=.' { *.' Q d 6 5 r = > P I ' 6.2.-.*.=./ / Y P Y P ' Y K Y / / ( P L U Q ~ W G P _ U ` } ` Q 4.1.} ] ) i u L a g 5 w r 4 ; g d 4 t e e r ; 4 u 4 ; > r d i p m Q [ Q L ^ g t a U <.4.4.4.' ' w u n r C q a W L n a n r a E P Q Q { / ( L G ^ L G G Q Q Q Q Q g a i d d m n E U W W Q Q L Q / { [ } ] / [ { { Y Q G G G G h j s s h p G a h j 6 - & 3 5 2 9 2 2 - 4 5 5 4 6 ; & 3 e ; ; r 4 4 ; ; 5 7 7 p L s 5 p p q t 4 4 t a m r 4 2 4 m n i a L L n 9 p g a . < i ; 5 4 4 5 4 4 8 4 7 4 4 4 4 ; : = % % = 4 4 > - - = = & = - : = - = % & : - = = = & : : = % # $ % # # # % # % % % & # # @ # + + X + # # # = = - - - - ; 2 2 2 - - & & = & - 1 1 1 3 3 3 3 3 3 2 2 2 2 2 2 2 3 2 2 - - 2 - = : : : - - - - - - - - - 2 - - ",
"0.q.4.4.4.4.<.4.4.5.4.4.4.*.4.4.6.6.r.5.2.6.y.u.P.b.H.H.y.H.n.r.r.e.r.e.t.v.v.t.0.0.5.6.6.6.6.5.6.6.w.t.y.t.e.b.y.b.v.t.b.r.l.e.e.t.e.b.b.b.b.b.n.y.y.y.e.y.u.y.u.K._.K._._.).H.K.H.K.n.u.b.t.t.r.e.b.K.H.n.P.y.P.H.y.y.K.H.H.J.P.P.u.H.u.b.K.y.t.e.y.b.y.t._ ; E L L E s p p 9 7 p s p - 4 t 9 g E L ( P s s p P Q g g g G ` 2.*.' ' =.( P 7 : : : : p Q I *.6.5.*.*.=.Y / ` P I / ' Q P Y Q / ` L L U Q Q I L I Q L ` ] Q Y 6.<.1.] I t r m a a r 4 7 4 : g p w t 6 e r ; w t 4 : w r i r i a Q [ Q n P g e g U } :.} q.*.} 5 e M u a f W Q n p p a 7 L Q W ^ ( [ / ( L L I Q L Q Q L [ P g g f a f 7 m W P W Q E Q Q W ^ ` ` { | } Q { Q ( / P G G H s h j h g h a s s p j j - & j j 2 5 p 6 : 4 3 5 2 4 # & e e 6 = 3 e 5 - ; 3 t p h s h 5 j a p r 2 4 7 t 7 7 r 2 t m U a a n L a p s s a   < r : - ; ; r 8 2 ; 2 : 2 4 2 4 ; : = = : ; ; ; - : - - - - ; ; ; ; 2 4 ; 2 4 : - = - % % % - - = = = % & & % % # # % & = = = % # # @ + X X + + % - = - - - = - ; 2 2 8 2 - = & % @ % % % & ; 6 1 - - - - 3 2 3 2 2 2 8 8 4 2 2 2 - 2 2 2 2 - - - 2 - 2 2 - 2 ",
"t.t.e.y.e.t.y.y.y.r.w.6.2.5.r.r.K.u.r.r.e.w.r.y.r.y.H.K.K.H.H.H.n.r.b.b.n.H.H.y.b.y.u.n.y.y.n.b.y.H.H.n.H.H.b.r.t.r.r.b.u.b.b.K.H.J.K.H.n.n.u.b.K.H.H.K.J.K.K.J.K._.K._.K.H.u.b.b.u.y.b.u.e.r.0.e.0.r.y.H.H.H.H.K.K.K.H._.K.H.H.P.*X_.{._.`.H.H.H.H.n.H.n.w.I ; c G L E s p p p p p s d 2 6 p s g G L Q ^ G g p L Q L s E G [ 5.*./ / ( I K p e ; 4 4 G P Q =.6.5.=.*.=.I / / L P Y / Y P / Y Y Q L L Q Q ~ L L Q Q m ` ] ` _ 4.1.:.[ Q t 7 m a t ; 4 r w w G e 4 w 6 4 e ; w p > : 4 r a t t t P ` Q g E g r g Q } :.} 8.4.} t r n d d C Q E n p t i 7 s P I L Q ] / / L G ( ^ Q ~ P U / Q L n n a n f m M E E L E Q W Q I Q [ [ { [ ` { P ( / Q G G G J h 9 a h h a G s h j 4 1 & 1 4 2 7 p 6 & 4 4 5 6 - % % 5 4 ; & 4 4 e ; = 3 9 9 a a p 5 9 p 9 p 5 e 8 r m 4 8 2 a a n m s L s a p g s a   < > : = # = - : ; ; = = 2 ; : = = = = = : - - = : - : ; 4 4 5 2 4 8 2 2 4 2 2 8 ; - ; - : = = % % - - & & % $ % # @ @ @ # = = & % % # # @ + + X X + $ # = : - - - = - = - - - 6 & & % @ @ @ @ # @ @ # # # = = = - 2 2 8 2 4 3 2 2 2 8 3 2 2 3 3 8 8 8 8 - - - ",
"e.y.b.b.y.y.y.y.b.y.y.u.y.n.K.K.y.K.y.b.b.K.H.y.u.y.t.y.y.b.u.H.J.H.K.n.H.H.J.H.K.H.u.H.H.b.y.u.n.H.K.H.u.w.y.y.y.y.y.n.n.b.n.e.b.b.H.n.b.n.b.n.y.y.H.b.K._.K.K.H.).H.H.H.y.e.0.6.8.4.q.8.8.e.v.b.H.n.J.H.b.y.y.y.b.K.H.n.b.e.e.*XP.P.u.K.b.e.y.n.y.n.t.0.t.U : g G L L s p p 5 7 p s s p 6 9 p s L K P I G s a L I ^ s L L { *.5.=.Y G K s s a p 9 p L P / *.4.5.=.4./ P / / G P Y / I Y T Y Y I m L Q Q Q n m Q I n ` { Q [ 4.1.1.` _ t t m 7 r 4 4 t 6 6 g t w w 6 e w : w t 4 : 4 t a r t p W _ W g Q n d s I :.} :.7.1.' 7 i n u d M E L m a i 7 5 g ^ P P Q ' ( Q L G [ P / P P [ ~ Q n L L g L E f s E L E Q E ~ ~ Q U ` } } Q ` { Q Q Q Q G G h s h a h a g p g s p j 3 1 & 1 j 2 5 9 4 & 4 6 4 2 6 % # w 5 6 : 4 t t - - 7 p j a s p 3 9 p 7 t 4 4 r 8 7 t r 8 a a L s s n s 9 s s p a . * : $ # X + + + X + $ = = : = # $ + # = : - - ; 8 ; 8 8 4 8 2 2 8 8 4 8 4 r 2 8 8 8 ; - - - ; = - - - - - ; & - = @ % # # # # # # # # % # # # # + + + + X X + # # # = = = = = & & 6 = = & & & # # @ @ + + + # + + # # # - 2 - : - 2 2 2 8 3 8 8 3 3 3 3 3 8 2 ",
"b.t.u.b.b.b.u.n.n.K.K.y.K.y.y.K.P.b.K.b.y.u.y.y.y.w.t.n.t.b.b.b.H.n.H.b.H.y.K.H.u.y.y.u.y.H.n.H.K.u.u.y.P.H.H.H.J.H.H.H.H.H.H.H.b.H.b.H.J.n.n.e.e.e.e.r.r.b.u.y.w.e.e.e.v.e.i.t.e.e.v.v.n.n.H.n.b.e.6.0.e.b.y.y.b.H.H.b.e.v.v.8.3.u.w.i.q.7.7.%.:.:.#.#.@.#.f : s G E ^ a p 9 p 8 p g s p 2 5 p s g L P ^ G a g G I ( s s g ` *.*.*./ L s p s s h p G Q I [ =.*.*.*.*.P P / ( G P I ' I / / Y Y I s U I I Q m L _ U L ` { ` ] q.1.} ` W u r m t e ; 4 t 4 w s t 6 w w w e : e p 4 : r p i r t d Q | Q n Q m d a ) q.} :.8.} ' r d M t d n W L m p 7 i t E L Q P P ( ( / P P ( Q / ^ Q I P n a g L W W L n g 9 n Q n W U ( Q U _ #.{ I Q ' G / / Q G G G G p p h h h a s a j 5 3 4 1 6 5 2 5 8 - % 2 2 5 4 2 # @ 4 e 2 - w t 3 1 - 5 9 p s h p 3 5 p p e > 5 4 7 7 8 i 8 a a L h g n s a s g h a   < > # # $ # # $ $ + + X X + $ + + + # $ % $ = # : : ; ; : 4 ; - 4 4 w 8 4 8 2 4 4 8 8 7 7 4 2 4 4 2 - ; 2 6 6 2 2 = = = & % - = & # # # # # # + # + # # # + + X X + X # # # # % % % % - = = - - 2 ; - - : = - - # # # + $ # # # # # = = = - - 2 1 2 2 8 8 8 8 ",
"4.8.8.5.5.5.5.6.5.6.5.e.b.l.N.n.b.y.K.H.H.b.K.J.H.H.H.H.n.u.H.n.J.n.H.n.H.n.H.H.H.).).H.K.J._.).H.H.H.n.H.).J.H.H.n.b.H.K.H.H.H.K.J.J.J.J.J.b.l.e.e.r.r.e.e.y.b.H._.).).J.H.b.t.0.0.0.t.t.n.n.0.v.0.v.t.t.t.r.t.b.b.y.l.0.7.7.@.+.#.@.X.X.~ ) _ ) ) +.+.| @.p : g n P L h p p 9 5 p s G g 5 3 9 h L G P Q L s a P Q ( K L s P { *.5.=.Q J h h h s L I Y I { ] ' *.*.' P P Y P G I ( ' I ` I I I U G L P P Q K G I L U [ { Q ] 4.4.1._ Q r 5 g d 7 ; > t 5 p a 4 4 w e 4 e ; 7 p ; : t p d 4 r p Q [ U E W a i m [ >.} :.8.<.` 7 d n i i a E L n d 7 t d m U P L P Q ( P G ^ G ( / P P Q E a p L L Q ^ P L n r t m E L Q [ _ U Q ` Q I ` I U Q / Q G G G ^ 9 p h p s p h a 5 j 3 8 = 2 8 2 7 5 ; % 2 2 r 3 6 & + 6 5 w ; 4 j t 2 - 7 q p h s p 6 7 a t 5 > 5 4 r 8 8 8 8 m m m q q a q q m m 0 a . < # X X X X $ $ $ $ X X # $ $ # + # # # $ X X + + + + # + # + + + @ $ # @ # : # # # # & = : & = - ; - : - 4 4 4 8 8 ; - 2 - : - = = # # + # = # # # + + # # # # = = $ X X X $ + # # = # % = % % = = - - - ; 2 - - - - = # # # # # # - # @ # # @ @ # @ # % & & ",
"4.4.;.6.4.6.7.7.-.#.[ &.} #.-.;.0.l.v.b.e.v.y.e.t.e.t.b.n.b.b.b.b.n.n.b.n.0.0.b.e.b.y.y.v.0.r.8.t.v.b.y.t.t.t.t.6.e.y.b.b.K.H.)._.J._._.K.b.n.N.n.v.l.n.n.n.H.H.).H.H.H.b.b.n.v.n.n.t.b.t.v.b.n.n.N.n.v.0.0.e.e.7.%.#.@.#.#.&.[ +.+.+.&.#.#.#.7.g.8.0.0.i.4.n ; g E n g g s 9 9 j p a h s 3 5 p p s G K P L G a L P / Q G g L / =.-.*./ P G s h L I T ` ' { ` } *.' ( P G Y P P I ' ` P ` U T ` P s L I U Q L g ^ K U { { Q ` 1.1.1.{ Q r 5 g a t 4 ; p r 5 p e w w 4 e e ; r p ; , r t u 4 d s ) ` L W Q n t L ] } <.7.9.{ I p d Q m d a n L n s p 7 7 n L L L / / ' / I Q / Q Q L g n f p n W L I I Q P E s p d n E Q _ Q U I I Q / I P s Q I / G L G ^ a j s p g h a a j 5 5 2 = ; 3 2 5 7 4 % 4 2 7 4 - % + - 6 5 4 2 7 3 2 6 j p h a h q 6 7 9 9 4 2 t r 8 8 r m 7 r m m m m t 8 t m a h a   k y : = $ # # $ $ # # # # # = % # # $ X $ # $ # + + + X X X X + X . + X + + # # # @ + X + + # + + + % % % % @ & - ; : - 6 ; - : = # = = $ = = = = = = # # # # # # = = = = # # + X + + + $ # # & # # = - = - - - ; - ; - - = = - = - - = # @ + # # # = % # # # ",
"5.5.6.0.0.0.5.6.6.-.-.*.| } &.} &.{ [ &.#.} #.#.&.| | %.-.#.;.5.7.5.9.8.8.8.7.8.0.0.8.7.9.5.7.;.[ %.9.8.0.0.8.0.0.e.e.0.e.l.J.n.b.n.N.l.l.v.v.e.0.t.v.b.v.y.b.y.b.H.H.).H.H.y.y.y.y.n.v.b.v.b.v.n.v.x.0.8.h.7.%.~ ^ ^ ! [ 7.7.e.v.v.v.v.l.v.v.t.n.v.t.t.0.;.g ; L L J G G g 9 t p p a G p 5 3 p s s s L I P G d G P / / L g g Q =.*.-./ P G h G P / ' ] *.=./ ' =.' / P / / G G / } / I I Y ` T P s L U P ~ L G Q L U | [ I ` 1.1.2.} _ t r n g t > ; t 4 r a r 6 w ; e t ; e d w ; u p r 2 t a I _ E Q Q m t W ] ] ] 7.6.' U t d M f a a n L E g p a 7 n n L E Q Q / ( / ^ Q L E g d p t a P W P I Q I P P L a 9 n n U Q I L W U _ ` ^ K G Q I I P P s P h 9 s a G a p s 5 5 3 3 - - 2 2 5 7 4 & ; 5 3 3 6 # + : 6 4 6 6 r 7 4 - 9 p p s a p 2 7 t p 4 ; 7 8 4 r 8 m m 9 q n n m p 8 q m s a a   < r : = : = = : = : : : - : = = = + # = # # = = = # # $ # $ # + + + + + + + X X + + + + + + + + + + # % # % # # # % = # # @ + + # + # # # # # = : = - = = = # # = # = = = = = - # # + + X . . . + # # # # # # + # # % = = # # = = - - - - # = % % - - - - & % ",
"#.#.| %.4.7.8.0.8.q.8.6.6.8.5.4.;.#.} #.;.*.;.;.5.4.;.-.#.&.} &.#.-.#.#.#.+.[ ~ ) @.#.%.#.&.#.#.[ [ #.#.#.%.7.0.h.l.0.h.l.9.l.l.l.e.8.9.0.8.8.l.v.b.v.t.v.e.b.v.b.b.v.N.n.v.t.v.v.v.v.0.g.7.,.+.$.%.+.&.#.+.+.) +.#.%.;.>.7.9.0.0.e.0.t.t.e.t.t.e.e.0.8.q.{ g ; g n L s s g 9 7 p p p G p 3 7 p p h G K P P ^ a g Q I ( G g g P } *.*.' Q G G G ` ' =.-.4.=.=.T ' / Y P Q / H Q ` } ` I Y / ` Q L s L P P Q g s U L I { ] I ` ] 4.1.] Q r r g m t 4 4 7 8 r m r > w 4 4 r ; t t ; 6 e r r 4 r a W [ L Q Q m i E [ _ ] 4.6.' P t d W a d a E L n g s a t s L L P Q I / Q Q G Q Q L t w r t n I P ^ ^ G L Q I ^ L p g Q Q W P L L m | ~ U L s I Q Q P L s L h p G h G p a s 5 5 3 4 - - 4 2 5 7 4 % 4 7 3 3 6 & + & 4 5 4 ; 7 8 4 - 9 h s s a p 3 q a t 2 w t 4 4 m 8 r t 9 m L n m a t p m s s a . k y = : : = : : - : - : 2 : ; : - : ; 2 : 4 2 ; ; ; ; : 2 - : 6 ; & % # = # # # # @ @ # + + + + + X X X . X + $ + # + @ $ @ + X X X . X + # # # # # # # # : - 2 : - = = # = # # - = = # # # + X . . X X X # # # # % # = # # # + # # # % # % = = = = - = % % # ",
"[ ~ Q ^ E ^ ! ( ~ [ +.#.#.-.;.;.} -.-.;.8.8.9.8.9.8.8.7.8.8.4.4.5.g.8.8.7.7.;.| | +.| %.} 7.9.9.4.%.;.%.4.4.7.%.%.#.7.%.%.;.7.7.7.7.g.g.7.7.7.%.9.k.7.7.9.8.7.7.9.7.%.&.+.%.%.#.%.+.+.+.+.~  ...X.+.+.&.%.&.%.7.;.%.-.#.#.7.7.5.7.6.8.0.e.e.l.0.0.8.5.5.;.| a ; G g L g a a 5 j p p a g p j 7 p p p s G P I L a s Q I ` g g g K [ =.*.{ I G G Q ( =.{ *.;.*.*.' ' / Y P I P K Q ` } ` I T T ` Y G G L P I P g G L n Q } ` U ] } 1.1.] Q r 8 n m p 4 w 5 4 e n r ; 4 ; 6 e 4 t p 4 w t t e 6 r a W ~ ^ W ` m p L ` _ ` :.q.` U 7 u W d p a n L E g g g 5 p G L Q ( L L Q Q s G ^ L a d d p W I P P ^ G g I ^ Q L a s Q ~ E K L L L ) U L G G P I Y P s h L g 9 s s G q a a 5 9 3 2 - - 4 2 8 7 5 = ; 3 8 3 ; = @ & 6 5 4 - 8 8 ; = q h s a s p 3 t p t 4 4 t ; 4 r 9 9 p 9 q n m a q a m m a m p   o > = = = = = = = - = - = ; 4 4 ; 8 4 4 r 4 ; 4 8 : 8 : 2 : 2 2 6 - - ; ; - - & & = = & # + + + X X X . . .   . . . . + + @ + + X + X X X + # X # # $ = - = = = = - = = = = = # # # = # % # % # + + + # X . .   . X + + + @ @ # # # = # # # # + # # # # # # # ",
"5.7.;.;.#.} [ Q Q E E L E L ^ Q ! ~ +.#.{ #.#.#.} | ;.9.7.4.7.6.5.;.7.4.4.;.5.7.5.4.7.8.7.q.4.4.7.4.#.#.+.[ &.[ [ [ ) ) ) [ +.[ &.) ~ [ &.) +.) ~ ) +.%.%.%.%.+.~ M C c M ! ! Q ) #.%.,.%.%.#.&.#.#.%.#.&.#.#.#.#.[ [ #.;.4.-.;.8.8.8.7.7.;.:.#.+.&.( ( Q Q a ; E P s g a a 9 5 p p h g s p p p h 9 h G P P E h s ^ L ( G s L s / ' *.{ / P G { =./ =.=.*.=.-.' ' / / I L U K U T ' T T ] ` _ T G s L ^ P ^ G s U G I { I I ] *.q.1.] I t ; m m t ; 4 5 4 4 a t ; 4 ; w e ; t t 6 ; r u w ; 4 d Q ` Q P L m i L ] ' ] q.1.` I 4 t L a p s s n L g s g 9 p s G ^ ( P G G E g g g n n m d 7 E Q W ^ L G L L L G g a s W I G n n g L Q L s g L P P Q L G G G s p s p g q p a j t 3 ; - ; 8 ; ; 4 2 = - 8 8 3 4 = # % - 4 4 - 8 8 ; - 9 s p s a 7 8 q a t 4 4 t 2 4 7 t 7 a t q L m a q 7 m m s K p X o # $ $ + # = # = = = = # # = : ; - : - ; : 4 4 ; 4 4 8 4 4 8 4 3 2 - 4 2 2 ; ; 6 ; = = % # # @ + + + + + + .   . .     . + + + + + + + X + # # $ = = # # # # # = = = = - : 2 - = = - = % & # # = # + + + X . . .   .   . . X X + # # = # % % = = = = # = = = ",
"-.-.r.e.r.0.6.6.5.6.;.4.#.#.} ( ( { { { [ &.} +.+.+.( [ [ [ [ &.&.} #.4.8.8.6.4.;.4.;.4.4.-.;.7.7.4.7.7.7.:.;.%.7.7.>.;.#.#.+.+.+.+.&.+.[ X.X.~ ..) ..~ ! ! ~ ! ^ ! ~ ~ ~ ! ~ [ %.%.;.#.#.-.%.#.#.#.#.#.#.#.#.#.;.7.;.5.5.9.9.;.#.#.+.~ W M ^ ) [ +.[ [ [ { h , L Q G J h 9 9 9 p a h g g p 7 a s p p s P P L s a P K ( P L n s _ { } ] / I G Y =.( ' ' { =.-.=./ / / I P L U I ` ` I ` ] ` Y ` L G L P P U g g s K Q ] ` I } ] q.<.] Q t 4 m m 7 4 4 r ; 4 d r ; 4 ; w e ; t 5 ; w e f 5 4 w g Q [ ~ P U m d U | ` } q.4.` I r r L a a s g s n g g s p 3 a L Q P P G E L g s g L L s s a g ^ L E g g n G L s L a L ~ I ^ L L s n ~ L s g L L P Q L G L s g 9 h s h p h p 7 p 3 4 - - 4 - 2 2 r = - 2 8 3 3 = @ % - 5 6 = 8 8 ; = q s q q a 7 2 9 a 9 : w 7 - 4 2 9 9 p q a L m 0 a 7 a s s m p   < k $ X X X X o $ # $ $ # # = = # = = = = = : = : : 2 : : 2 2 2 4 2 6 2 4 2 - 6 6 2 - = = & = = % # # + + + + X X . . . .   . . X # # + + + X X # = = = = = = # # # # = # # - 2 - = - = = & % = # # # # + # X + X . . . . . . . X + # # # # = = # = # # % % % ",
"6.5.8.r.8.6.8.r.0.r.r.t.r.e.6.8.5.5.g.;.;.#.&.{ +.{ &.&.| #.| [ } &.&.*.4.4.4.4.;.} -.#.4.7.-.-.4.| #.| #.+.#.#.#.#.#.@.+.[ ) X.~ ) #.#.&.[ ~ ^ ^ ! ~ ! ~ ) +.+.+.@.+.+.X.) ~ ~ ~ [ #.+.+.&.[ +.+.[ | #.#.7.8.0.8.5.;.#.#.+.) ! ! E ! _ ) +.#.;.4.-.5.-.;.;.g & E Q E G a j 5 9 a s s s s a 7 p p 9 s s L P L h p Q I / ^ E L h Q ' ] ' / P G P ' =.( =.{ =.-.=.' ' ' I L P U ` ] ' Y ' ` Y T T K G P P P U g s s L / ] ` I ` ] 5.] ' I r ; n m r 7 4 r 6 5 f 5 ; u w 4 w 4 t r ; 6 t a r 2 r s Q [ / U L f i U ] [ } 7.1.] I 8 u L p a a s g n L s a p 4 p G L G ^ E G L L g L n g G n a s L s L g g ^ G g W G n ( Q Q L g n g L Q n g a L L L P L s G s s 7 h s h s g 9 p 9 5 8 - 2 4 ; - 2 5 = : 2 7 2 3 - + # ; 2 6 : 4 8 4 = p s q 9 a 7 2 7 a q ; 2 t 2 > 8 a 7 t q 0 K m a a p p s m m q   < r = = # # # # + X X X + X * $ X + $ = = : # = : - : : 2 2 : 6 6 4 4 2 4 8 4 3 2 - - = = = - - - - = % # @ + + X + X @ X .     . X X $ + # + X + # # # = = = # # # $ # $ # = 2 - - - - - - = = # # # # # # + + + + + + X X X + X X X X X X # # # # # # # % = ",
"r.r.l.e.0.r.e.r.e.t.v.b.e.b.r.r.r.-.5.-.6.8.6.-.%.4.4.q.6.0.0.6.6.0.6.q.4.1.-.q.4.6.8.4.} #.} 7.7.8.7.#.#.#.#.%.#.#.#.#.#.#.#.#.&.+.! ~ [ ) ) #.#.+.[ @.+.#.@.| [ +.[ +.! ~ ) ( +.( &.&.&.#.#.%.7.9.8.h.l.9.;.#.+.~ Q ^ W ! ! ~ +.;.7.7.;.#.-.4.} 4.5.-.-.-.G : L W P G s 7 5 s g g g p p p 5 9 p 9 s s L L G s s Q U P I W L s ^ ` ] ] / P G P =.=.' =.*.-.-.=.] ] ] Q P I U ' { ` I T T T I I P L P Q P P s s s K T ` T I ] *.4.] ' Q r 4 a a r 4 e w 4 4 a e w 4 w 4 w 4 t e ; 6 t t e 4 w g Q | | L L m t Q ] ` <.q.4.' Y 4 u L p a a s a n L s L g 2 7 s g ^ P L E ^ G g L L s G E L s a g n g g L L ^ P g E [ Q P E n s s Q Q s n h L L U L K g L s s 9 a L p s g q 9 p 8 5 - - 4 2 - 2 r = = 4 8 3 8 - + + 6 2 2 = 3 8 4 & 9 s p 9 p 7 6 9 p p ; 4 t 2 4 5 7 7 p p a L s a p 7 a q m a t   < > # # # # % % = = # # + + X . . . X X + $ + + # = : ; 2 4 4 4 8 2 : 2 - - = 2 - - - - - 2 - - - = # # # # # + + + + + X . . . . . . . X + + $ + + + + # - = = # # + + + + - - - - - - - - = - - = & % @ @ # % # # # # + + + + . . . .   . . . X + # = - - - ",
"r.e.e.e.e.e.8.r.0.r.r.e.e.e.r.r.e.r.6.8.4.-.4.4.1.6.6.6.4.4.1.q.q.0.8.0.0.1.4.1.4.4.4.4.;.-.#.#.-.-.-.7.;.8.0.v.0.g.8.9.7.7.%.#.%.+.+.[ ) +.&.&.) X.+.) ) ^ ~ ~ +.-.-.;.;.-.8.9.8.;.;.4.;.8.8.l.h.8.7.#.( ~ ( ^ ^ Q ~ [ | ;.5.8.6.4.-.-.-.#.-.;.#.6.6.5.8.6.c & U P E n s 7 9 s g g g h 9 9 5 5 a 9 s G G E P s h ^ P g Q I P g U / =.[ ' I G I / { ' =.*.=.*.-.] ] ' ` I U Q ] ] ] Y Y T T ` I P g P P P ^ s L s m Q ` ` I } *.} ] ' / r 4 a p 7 4 4 5 ; 5 a r ; - e e w 4 p 5 ; 6 e t 5 w 5 a Q [ ` P L a t L | ` ] 4.1.T Q e u E p p a a a s s n s s 7 4 p s L L L Q Q P L g E L L E Q n g n L E g P E E E P P Q Q E L n g s ~ W n s h L m L L s L L g h 9 p m s G g q 5 7 7 4 ; = - - 2 2 8 - = 2 3 8 2 - # + 6 6 6 & 2 7 3 = 9 s 9 q a 9 3 7 9 7 ; - 7 4 5 2 7 7 7 9 s P m m p 7 a m a m 9   * w # % % % = = = = = : # # + + X X X X X X + + X # + # # : - - : 2 2 8 4 4 : = = = # = - : - - - - % = = # + # @ + + + + X X X X .     . X + + + + + + + # = = = # # # + + # # = - - & = & = - 2 - - & % % % # @ # # # # + + + + X + X X . . . . . . X X X # ",
"e.8.r.e.0.r.r.;.8.r.r.r.e.r.5.2.r.5.5.r.4.2.5.1.4.*.4.6.6.6.6.1.*.*.<.1.1.1.6.4.5.6.6.8.6.8.8.q.4.-.4.4.4.6.6.e.v.0.8.8.7.7.7.%.#.#.+.@.~ ! ! B M B ^ B ! ( &.#.;.8.;.5.6.-.5.5.6.8.4.7.8.7.-.#.{ ~ ~ Q ^ ^ Q ~ [ { -.;.5.-.-.4.;.7.4.5.4.5.6.9.8.-.-.*.4.-.a : L W P L g 5 p p L s g p j d 9 2 5 9 s s L L L s 9 L P s Q Q P s K / [ ' Y I G I ' ' / ' -.] *.*.] ] ] T Y I Y ` T ] Y ` T T T T P G P P Q P h s h m Q ' ' Q } 1.] ] ` Y 9 4 g p 5 e 4 e ; 5 d 5 4 6 4 e 4 4 p e 6 - 4 t t t e a Q ( I P U n 8 L ` ] ] 7.4.Y I 5 r E d 9 p p a s p L s a a 6 5 a g U P ^ ) P E s L L G P Q L L L L L G ^ L L L L g Q W L s n a g ~ Q n g g L G n L s K P g h 9 q K h m s p 7 p p 8 1 = 6 - - 4 8 = - - 2 8 2 - = + & 6 - = 6 5 5 & p a 9 9 a 7 2 5 t 7 4 6 7 2 e - 7 t 7 9 s U s m q q a m q a a . o r - = = % % % = = = = # # = & # # # + + # + X X X + X + + # # $ = : : - - 8 : - = = # = = = = # % = = = = % # # @ @ @ + + + X X . . .   . X + + + + + X + # # # # % # # # X + # # = = = & = - - = - & = % % # @ @ @ @ @ # # # + + + X . . X . . . . . . . . ",
"r.r.8.5.6.0.r.5.4.8.8.r.r.r.r.5.r.5.5.5.5.5.-.-.4.1.4.} 1.:.4.1.4.4.4.1.4.6.4.4.4.1.8.e.e.r.e.r.r.0.0.r.8.8.0.6.0.7.7.;.;.%.( +.[ ) +.~ ! E C f M M ! [ { #.-.*.5.;.;.7.5.;.;.5.;.-.&.[ ~ Q ^ ^ ^ ( ( ( [ } &.*.-.-.-.#.&.} -.4.4.4.4.4.-.-.-.{ } } } #.Q x w : P Q W L G 9 9 g g g g h 9 9 t 3 j p s G G L L G p L I s Q I Q s L Q ' ' Y I h Q / =./ ' =.*.*.{ ] ` ` ` / ` ' ] ] T T ` I T ] ` P G L P P L s s q K ` ' I Y *.1.*.<.' ( 5 w g p t w 6 r - 4 s 5 4 4 4 4 w 4 t e ; ; 4 w 7 a 5 a W [ ~ L U a t L _ | } 7.4./ I 4 r P a s p 7 p n s L n s s 3 3 e s n m U Q L P W E g L s Q W E L L L ^ L G ^ L g P P E g p g s n U E L s s g P P L s U P s s p 9 L s s L h 7 p 9 7 6 = 1 : - 2 r : - ; 2 2 2 - : + = 1 - : 6 5 5 - j a 9 9 a t 5 5 5 3 6 4 7 3 e 2 7 p 3 9 m U s a a a m a a m 9 . o ; = - = = # & = = = = = & = = % % # # % % % # # + X X X X + X X # # = # # = : 2 2 2 : = = # # + # # # = = = = % % @ # + # + + X . X . .   . + # + + X X X . X # % & = # # X X X + + = - = - - - = = & & = = & & % = % % = % + + + X X X X X X X X X X . . . ",
"6.r.r.-.r.5.5.*.4.r.8.6.6.2.5.r.e.e.r.5.6.-.5.5.5.5.4.4.1.4.q.6.6.6.6.4.4.0.6.6.2.4.4.4.4.6.8.8.e.0.0.r.e.0.e.0.6.4.%.| +.( ) +.X.~ ^ ^ V x M ~ +.#.{ ;.{ #.#.#.-.-.;.5.7.5.-.+.[ ! Q ! M E ^ ( ( { { ( [ { -.} { #.[ Q [ ;.8.5.4.2.-.-.} { { } *.| _ n y l r ; Q W U s L 9 7 s s a n s 9 7 7 3 5 a g G s K P G p L ( G I I Q s G P ` ' Y Q G G Y ' { Y ' =.=.{ ] ` T ] ] ` ] ] ] T ] T U T T T I G P I L K p n a L ' ( I Y 4.1.<.] ' Q j 4 g e t e ; 4 & 5 g 5 5 4 w 4 e 6 d 4 ; 6 e r t p e s I ~ Q I ^ g p L ] | ] 7.4.Y I 5 w E m m 9 p q g s L n n h p 6 3 p g L L P W L Q Q n L s Q Q Q n L E L P L L g L P L g s a g s n L E m s s P Q L K G ^ L s h q p s 0 K m p 9 t 7 4 4 - 2 - 2 8 8 - - - 1 8 5 = & + : 6 ; & 4 7 5 - 5 h 7 p a 9 5 5 5 4 4 5 8 4 7 5 7 t 3 p m L K s 0 q m m a a 9   o y = # = % = = = = = - - - : = = % % & = = = = = # + @ + X + X X + # # # # # = # = = = - - : = # # # + + # # % = & % @ + + + + X + + . . .   . + @ @ # # X . X + + @ = # # # + + + + # - 1 - - - - = = - = & & = - - - = % % @ + + X X + + # + + + . . X . . ",
"*.*.*.-.-.5.r.;.*.*.-.-.-.*.5.r.-.r.-.r.w.4.5.6.q.4.1.1.1.6.t.0.6.0.6.6.6.6.6.w.6.6.w.5.6.0.r.8.4.q.4.4.} -.q.7.7.#.+.~ ~ !  .~ ! W ^ M C x ^ +.#.&.( ( ( ( ( { #.-.} #.#.#.) ^ ^ ! ^ M n W Q Q ( ( Q { { } { #.[ ( [ *.-.-.*.{ } } ] ' ( ( #.{ [ ! i y l x r ; U Q E s n p p g a p a f 7 7 5 3 9 s s G G K P L q L Q L Q I Q s L P ` ' Y / G G Y / ' ' ' ' *.*.] ] ] T ` ] ] T ` U ` T Y T T U P P P L L K h s h L ' Y I Y 4.4.1.] ' I p 4 a p 7 5 6 6 & e g 5 t 4 4 w 4 5 p w = 6 t 5 p t p p P ( Q I L g 7 L ` | ` q.:.` I r > n a d 7 d d s s L s s s d e 2 9 t s s s L L ~ Q L G g Q W Q E P L L Q P L s L E L g g s s g P L L h a s n P L G L L L q 9 9 h m s L L h 7 p 7 8 ; - ; ; 2 2 2 = = - 1 3 2 - & @ : - - = ; 8 7 - 3 d 7 p s t 5 4 t 4 6 r 2 e 7 3 9 9 3 q L U m 0 a m m m a a t   o : : - = = = = = - - - - - = = = = - - = = = = # # # # # + + X X X X + # # $ # $ # # # $ # # = = % = % + + + @ # % # % % + + . X X X X X .     . # % # @ + . X X + + # # = = = # # # + % - - - - 1 1 - - - - - = = = = & = # # # + + + X X X + X X X X X X . ",
"-.=.*.*.*.*.5.4.5.-.*.5.5.4.6.r.8.e.r.r.6.6.r.6.6.5.6.4.1.0.t.e.w.w.t.t.t.e.e.6.6.w.e.w.0.e.r.8.4.6.6.0.6.4.4.;.{ [ [ [ ~ ! M c ! ) ~ B f c ^ [ { &.{ ( ( ( { #.;.{ +.( ^ Q ! M ^ ^ E M g E ^ Q { ( ( #.} { { ( ( } #.} *.*.} } } ] ( [ [ ( ` ` E y k y M C r ; I U ^ g n 7 p s a 9 p a p 7 7 3 5 p s G G L P P s K ~ n P U Q G G I / ` Y / G G I / ' ' ' { =.{ ] T ] ] ] } ] ] T I T T U T T Y P P I L L s q n a I ] Y U I 1.<.*.} ` I j e a p p e ; 6 - 5 s 7 p 2 6 e 4 4 e 6 & 6 t e t 7 t p U ( I P P g 7 L ] | | q.} Q ` 4 w g a s 7 a a g n s g h s p p 2 8 7 p s n G L ~ ~ W s G Q E I P L L L Q E L L Q E P L s g s s L P L a a s K P U 0 P s G p 9 9 p s m m K h 9 9 3 5 ; - 2 ; - 8 3 1 & = 3 3 5 - & # - 2 - = - 7 5 6 3 9 9 p a 7 8 3 e 4 4 r 5 5 7 7 9 7 7 9 E L K a q a m a a q 7   o : = - # % = & & = = - = = = - - - 2 - 2 1 = = % = = % # # + # + + + X + $ X + + # # = = = = # # % = # # + X . X % % @ @ + X .   . X + . . .   . # @ @ @ + + X + + + + # = = - = # # # # = = - - - - & - & - - - = = - = & # # # # # # + X X X X + X + . . . ",
"r.r.r.r.6.5.5.5.2.6.r.e.0.r.r.r.r.e.r.r.r.w.e.6.0.6.6.6.6.0.t.t.b.t.y.t.r.t.t.w.t.e.t.e.r.e.r.8.6.0.6.5.6.0.r.8.5.-.#.&.+.~ E B ^ ..) M C C ~ &.*.;.&.#.#.{ #.{ -.#.&.[ ( ~ ^ E ! ~ ^ E n ^ Q [ { ( { { #.[ ( ( } &.] } -.-.*.#.( ( ( ( ( / ~ E i > , C ^ C w : Q I L L s 3 p p a p 7 g d 7 5 3 9 p s G 0 G U E L K Q P ^ P Q K L U / ' Y / G a P T ' { { =.*.} T ] ] T ` 1.] ` T T ` T T T T I K P P P U s p s h Q ' ` I U 1.1.} } T I e 5 p 5 9 5 6 ; ; p s 5 p 6 6 t 4 5 t - % 6 p e e 7 7 s L ~ Q Q P g 7 m @.` ` 7.[ I ` 5 r a d g q a m a g n s 9 a p s 5 5 p s L L g s W ) Q L L P Q Q P E E L I Q L L Q E L g g g a s ^ W L q s L K L L G L G s p 9 q h s s L n h 7 d 8 2 ; 2 ; 2 - - 2 - & & 4 2 3 - & # - ; ; & 4 7 7 6 3 7 7 p p t 2 4 5 4 - 5 5 3 7 a p 7 8 p L L L m 7 m m m a a 7   o = = = = # # % % # & = - - - - 2 ; 2 2 1 = = = & = & % % % # # # + + X X X X X X $ # $ = = # # # # + @ + + + X . # % % @ @ + X . . + X + X .   X @ # % @ + + + + + + + = - - = # # # # % = 2 - & % & & - = 1 - = = & # # + + + + # + + + X + + + + + + + + + ",
"2.5.2.r.r.r.e.v.0.e.6.0.e.0.4.6.8.6.6.0.t.e.r.e.e.0.0.6.6.6.e.b.b.y.y.t.b.y.t.y.r.t.e.e.r.0.5.8.6.r.e.e.e.0.0.6.4.-.#.[ &.| ~ ~ ^ M M ! ^ M ^ { &.;.;.;.;.;.;.;.;.{ [ ( ( E E ^ +.[ ^ E g g Q [ #.{ { ( [ ' ( } { -.4.} *.4.} } ( ( Q E ^ Q E a i > , l V C r : U L L L n 7 7 p a d 7 g a 5 9 j p j s s q H G P G L P P Q U I m L Y T ] ' / G h G Y Y ' ' ' ' ] T ] ] T ` ] =.] Y T T Y T ` ` / H I I P G G a G h Q ' T P U } ] ] ] T / 5 5 s 5 p 5 & 6 6 j s 5 4 6 6 j 4 4 e 6 % ; r t 5 5 7 g ^ Q P Q P a d U [ [ ` 7.' U ` r y m 7 n p p f s s g s p a a s p 3 7 s g g g g L Q P L L n P Q L I L s P K U W I P g s s s g g E ^ K p s K n K I P K s s p 5 a G s s L s 0 9 p 3 2 ; 2 4 - - 4 2 - & - 6 2 2 2 = @ : 6 6 & - 7 7 1 2 7 p p 9 t 2 e 5 4 4 1 5 j j h 9 7 5 p G m K m 8 8 m m t 7 7   o : $ $ $ # # # # % = = - 6 2 8 2 2 2 ; - - = - - = = - & = & # # @ # + + X . . . + $ = = = = # # # # # + + + . + # & % # + +   . . + + . . . . + # % % # + @ # + # + @ # - - & & @ + # & = - = & & % % % % & & & % # + + + + + + X X X X . X . . . . X . + + ",
"r.r.5.;.5.6.4.6.q.6.e.6.8.r.6.6.6.0.6.4.5.6.0.0.t.e.0.6.6.0.0.e.t.t.t.t.t.r.t.t.r.t.t.r.r.r.e.e.0.e.v.e.v.e.e.e.0.5.7.-.#.( Q ! ^ ! ! M X...~ ! [ #.;.f.8.;.-.-.&.#.&.&.~ ^ E ! Q ( | ~ ^ L ^ ( { { { ( ( ^ Q #.;.-.4.*.*.2.=.{ ( Q E L g E E c C , y l f f 4 > L U L L L 9 p a a g p L p 9 9 5 9 j s G q G L L s G n P L U U L P I I ] ' / K 9 G I Y ' =.' ' ' ] T ` ] T =.} ] T T ` I T T ` ` G I P I P G s g a I ' Q P U 1.] ] =./ Q 5 e g j j 4 6 w 6 a h e 4 2 6 e 6 4 t 6 % 6 t 5 5 t 7 n ^ / U P P a 9 Q ] ` ` q.[ Q ` r r m t a a 9 a a g s s a a s p d t 3 p a g s g E n E E L G P Q L W P g P L n U W P g a a s s g P I K h L L U s Q Q s s G h 9 a L s K m s a 9 p 5 8 ; - - - - ; 5 - & 1 1 2 2 2 = + - 2 6 = - 8 5 2 6 9 p p p j 4 e 5 e 5 6 4 3 5 p 9 9 5 p g s K q 8 m m m m 7 m   o = $ $ # $ # # # = = = = - - 2 - - = - - - = = - 6 - - = = & = # # # + + + . . X $ $ # # # # = # # + X X + # + # # # + # + X . + + . .   . . X + # % % @ # # # # + + # = = = = & % % % - = = & & & % & & & % % @ + + + X + + + + X X X X . X . . .   . . . . ",
"r.5.8.r.6.0.e.0.0.q.6.5.4.*.q.4.6.6.0.8.6.6.6.0.0.0.6.8.0.6.0.6.0.6.6.6.6.e.0.e.r.e.e.e.e.e.0.r.l.0.e.l.v.e.0.0.8.6.4.;.-.} [ ~ ~ ~ ! Q ( +.[ ~ Q ~ [ #.%.;.-.-.#.{ +.[ +.) ~ ! ^ ~ [ +.[ Q Q ( ( ( { { [ Q ( ;.-.4.4.5.6.4.4.{ ( Q g n E Q ^ M x y > r u f 4 ; L m L L L d a s s s 9 n p 5 p j 9 j s G h s L G m s s U L U U L Q I U ' ' Y P j G Y T ' ' =.' Y ] ] ` T ` ] 1.} T T Y Y Y I ' T P P P G L g s g h I ` / P U } } } ' ` P 4 d g 3 j 3 - e & p j 2 4 6 6 4 ; 5 3 6 & ; r 7 e t p g I ( K P L a p Q { ` ' 4.` U _ 7 u n 7 a a 7 p p s a s s a s h a p 7 7 p h g s L L L L L g E E G P E L L P L L P L g p s L g g L U L p G L m K Q Q s p s h p p s m G U s a q 5 3 2 - - 2 - - 2 8 - - 1 1 1 2 2 - + & 2 6 = 6 7 3 1 - p p p 9 5 2 j 6 4 4 4 e 3 2 p 9 p 3 p s s m m 7 m 7 m m 7 7   o < $ # # # # # = - = = - - - - - # = & & = - - - = & & = & & # # # # + + X X + $ $ $ $ $ = = # # X + X + + # @ # # @ + + X . + + + . . . . + + @ % % % % & % # # + # = : = = % % = - - - = = % % % % % % % % % + + + X X X X X X . . . .         . . . . . . ",
"{ { -.-.4.q.0.q.6.7.4.4.1.} { { } ;.*.4.4.6.0.e.e.e.0.q.6.6.q.4.6.-.4.7.7.4.4.4.:.4.4.q.q.0.t.0.r.0.6.6.6.0.0.6.6.6.6.4.;.-.#.{ | ) ~ ( ~ +.#.#.&.[ ( ~ ( +.#.;.;.7.#.&.~ ~ ~ [ ( ( ~ ( +.{ ( ( ( ( { ( { [ ~ ( ` { 4.4.-.*.*.{ ' ~ E g E E ^ L f x i r > i r ; L s h L s 7 p a a a p g p 5 j 5 9 j s s h H L L K s s W m L L U I / K ' Y Y I j G P T ' / Y =./ T ] T T ] 1.*.*.Y T Y Y Y Y ' T G P I P L s g G g I Y / L L *.*.' ' ' L 3 j h 4 j 6 6 e 6 p j 6 6 4 6 6 - 3 t ; & 3 t r t 5 p L P ~ L Q L p 9 I ] _ ] q.` U / r r n 7 t m a g p p d 9 a p s h a a p 3 p a s s g L n g L g L G s L P n U L E L P L s a s s L g L U s p K U s U Q I s p s s 9 h s s L L s q 9 9 2 2 ; - - - - - 5 & = - - 1 1 6 - + & 4 6 = ; 7 7 2 6 9 9 t 3 7 2 3 2 4 4 6 5 5 4 p h p 2 h s n L m r t m m 8 7 8 X o : = # = # = = % = = = - - - - = - = & = - - - 1 = & = = = # + + + X + X + # # = # + # # = # # # + X + # # # # # @ @ + + + + + . .   . . + + @ % % % @ # % % # # - ; - - = = = = - = % % # % % % @ # @ @ @ @ @ + + + + + + + X X . . .   .   . . . X . X . . ",
"( ^ ~ ` [ | } #.-.4.4.;.} :.} 4.4.:.#.#.#.#.4.4.4.4.7.4.:.4.4.4.4.4.%.:.4.:.4.:.7.<.7.4.#.0.0.0.0.x.0.e.0.e.6.0.6.0.e.r.6.8.8.6.;.;.#.} [ &.4.#.%.7.+.| +.+.) ~ [ +.#.%.;.%.#.+.X.~ ~ ~ ~ { [ { ` ( ( / ( } { { #.~ ( ] -.-.-.{ ( ( ^ G E Q ! ^ M c c f 4 r - : L g s L n 8 9 t p a p a p 3 5 5 p 3 h G h 0 K K K h a I L m U L I I K ` T Y L h H U T ' ' / =.Y T ` T ` ] 1.=.] U T U U T Y T ` H P P L G a s G n W I / s K 1.1.' Y [ L 4 p g 4 5 3 6 4 - p j 6 6 5 6 6 6 5 p 6 = 4 r 4 5 t p L I ~ P W L a 7 U ` I ' q.` U I r > n 4 7 m n g a a d 7 p a s s a a a 5 5 7 p s n n L n n g g G s s P n L P Q W L g s p s g P L K G s h L L L K / P G q h q 9 a h m L G s p 3 3 7 8 - : - = - 2 2 - & - & 3 6 1 = @ % 4 - = 2 8 5 3 2 5 9 7 7 7 4 3 r - 5 6 5 e 2 p a q 3 a m m 0 q t q m m 7 7 q . o < = = # # # % % = = = = - - - - - - - - - - - & & & = % # # + + X X + # # = = = # = = = - # + + + # # # # # @ # + + + . + + . . . . . + X + @ % & % @ @ @ @ = - ; ; = = = = = = = = & & = % % @ @ + @ % @ # @ @ + $ + + + + X . . . . . . . . . . . + + + . ",
"[ [ | | } ;.q.7.7.q.7.:.#.#.#.%.@.) Q Q ~ ~ ) [ [ | #.| +.+.[ @.#.#.| #.@.:.#.| #.#.| | #.%.#.7.7.8.0.0.0.t.t.t.e.r.e.v.e.6.6.8.r.r.8.5.5.;.-.;.;.4.;.;.;.;.;.;.7.;.#.| +.[ &.[ ~ ! ^ ^ ^ ~ ~ +.#.] { ] [ ( ] [ } | [ ( ( [ { ] [ ` ( E g E ~ ~ E n n ^ M M : : L s U g s 7 7 8 t q 7 p 5 5 p 5 9 9 s H h q L L L s a U n U U m I Q K ` Y Y G q s U T T ' Y Y Y T T T ] ] 1.] 1.U T U U T Y T Y G I P G G s g G L U I I m U 1.1.=.' / L 4 j h 5 j 6 6 4 6 p 5 6 4 4 4 6 - 4 e & % 4 7 2 w 9 a m I Q L U m p 7 U ` / ' 4.} I Q 4 > a 7 t n s s a 9 a 9 7 a s g s s a p 7 3 7 p g E n g s G s g h a E L L Q Q P s h a a s g G L g G s h L L K L Q P g h s 9 p s q m K K h 0 3 5 8 8 - - = = 1 1 2 & & - - 1 1 1 - @ % 6 - = - 5 3 3 6 5 9 t 3 5 6 2 5 ; 4 2 3 e 2 a a a 7 a 0 s m a 8 a m m r 7 t X o : # # # # # = = = = & & - = = - - = - - - - & % % # + @ + + # # # = = = = = = = = = = = # + + # # # # = = # @ + + + + + + + + . . . X + + @ % & % @ @ @ % & ; ; - - - - - = - = & & & % % % & % @ @ # @ + + + + + X + X X + X X . . .   . . + . + + + + @ @ ",
"| 4.4.:.:.:.7.7.7.7.} | | [ ~ ~ Q ! W V M M M _ ! ~ ) _ ~ ! M ! ! C M C ! W ^ ^ E M ! ! Q ! Q ! ) ) +.#.#.0.0.e.y.e.l.b.l.e.t.e.b.e.e.e.e.e.8.8.4.6.4.8.8.;.7.5.7.;.4.7.%.#.&.[ +.[ ~ ~ ! v x M ( { #.#.-.#.[ [ ( ( [ +.( ` ( ( [ | [ [ ( ~ Q ~ ( ~ E L Q ^ > : s K L L s 8 7 7 a p 7 a 5 3 9 p j 9 s h j 0 G L L m s U U U U s U I L ` T Y P 0 0 P Y T T ' Y Y T T T ] ] *.=.T Y U T T Y Y / Y G P L G G g h s L U I P K U *.1.' ' Y G 4 p h j 5 6 & 4 6 9 5 6 4 4 4 6 6 4 9 ; = ; t 4 8 5 d L P ~ K P n p 7 P / I ] 6.{ Q U ; < m 4 q m a m m p p 7 p p g g a p s 9 9 7 9 7 a K n s L L s s s p L L L U Q L n h a a s L G L K m s h L L m U Q U s p h p q q 9 s U G 0 q 9 2 8 4 - - = & - - 6 % % - - 2 2 - = @ @ 6 4 2 6 3 3 8 - 5 7 p 3 7 6 6 e 6 - 4 2 5 6 p s a p q q m m m r a m q 8 7 q . o : # # # # = % = = = - - = - - = = = % % = # % @ + @ + @ # - - - = - = = = = = # # # + X + # # # # # # # # + + + + + X X X . . . . . + % & % % @ @ % & : - 4 2 - ; - - - = = = % & % % % @ % # # # @ + X . .         . . X . X X X X . + X + + + @ @ @ @ # % ",
"#.;.4.%.} 4.%.} #.| [ | | ) [ ) _ ) ) ~ ! ! _ W ! W ! ) Q ! _ _ E ! W ! ! ! ! V V ^ C C n V ! ! ) ~ ) ) [ | | %.%.4.4.q.8.r.6.r.e.n.b.e.y.e.y.e.l.r.0.l.0.6.6.7.4.;.7.-.;.-.#.#.+.@.+._ ! V B M ^ ~ &.;.-.*.*.-.*.} [ [ [ | [ [ Q ( ( { { +.{ ~ Q | [ ! G g : # s L L g p 7 7 7 a a 7 a 7 5 5 9 q 9 s G 9 0 K P L s m U L L U s P Q K ` ' / G H 0 U Y T T ' T Y ` T ' *.=.} T =.R U Y Y ' I Y Y h P L G G h h g L L U I s I *.*.' ' / G 4 5 h 2 j 6 ; 3 6 p j 6 1 2 5 6 & 2 j & # : 8 4 4 r 9 s Q ` s U L p 7 L ` U ' 4.{ I I ; : a 4 8 a a s a p p p 9 p g g a p s d 9 5 7 p p s n s L G L s g s L K L E U L s s a s h L g g G K s s K K m L Q Q a 9 p p a s 9 s s L s h 9 8 8 3 - - ; & = - 6 % % - - 6 2 - = % % & 2 4 = 5 2 3 ; 5 8 7 7 3 6 5 5 4 4 2 4 5 1 7 a a 7 a 8 m m m 7 a q t 8 q t X o : = = # = # & = = - - = = = # % # + + + + # @ @ @ # = = - - = - = - = : = = # # # # = # # # = # # # # # # + + + + + + . + + + @ @ % & % & & - 6 6 ; - - - - 2 ; - = = = = = = & # # @ % @ @ @ + X X . .       . . .   .   . . . X X @ # # % % # & & & % & & ",
"} #.#.| | ,.#.@.#.#.#.| #.#.+.| #.#.%.>.| #.7.:.#.%.#.#.#.>.>.4.#.@.+.+.[ ) ) _ _ ) _ ) ! ) @.X.+.@.,.>.>.#.#.) [ [ ~ | #.#.-.#.-.6.0.v.v.e.v.l.t.v.b.b.v.v.v.0.t.0.7.q.8.8.7.%.} ( X.~ ^ B B M c ^ ~ [ | | { #.-.} #.#.[ ` [ } } [ [ { [ [ { } ~ [ } } [ ( 4 % n P L s 9 9 7 p a a 9 p 3 5 p 9 7 9 s K 9 q L L U 0 m U U K U G I Q L ` ' T P s G G T Y Y T Y Y Y Y =.] 1.] ' ' P I Y Y ' Y Y P 0 G G G L s p s I L U W h Q 1.1.] ' Y s 2 5 h 1 5 - & 4 5 h 3 & 1 3 3 6 - 3 7 = @ ; 3 2 e 2 p g W ~ K U g p 7 P ` I ] q.{ I K > > m 2 8 a 0 m a p p 7 9 7 a m s a m p q 5 9 t p s g n g L g s s s L L K P P L s s s s 0 L s h G h m K m G K L W ~ q 5 p a a h 9 m K K s 0 j 3 3 1 - & 6 & - 6 6 @ % 1 - 2 2 - = $ % % 2 2 - - 2 3 2 5 5 8 7 7 1 4 r 4 ; 8 2 2 4 9 q a 8 t 2 m m m 7 q m 7 8 7 9 o o 4 = = = = = = = = = # # # # + + + + + + + % = = = - ; 2 ; ; ; - - - = # # = = = - = # = # # # # # # # # # # X X + X X X # % % & - 1 6 1 - 1 1 - - 1 - - = - = - = = = # # = & # # + + + . . . .                         . . X + # = & & & & & % % & & & % @ ",
"[ +.~ _ E V V W W W ! ) _ ) [ #.#.7.4.4.%.4.4.7.9.7.7.7.7.:.#.#.:.:.#.| @.+.+.| @.| +.[ [ ) ) ) ~ _ ~ ) +.&.#.%.%.%.#.%.%.4.-.#.#.#.} | } #.4.8.0.6.h.t.l.b.v.n.B.b.t.t.t.e.6.6.4.#.[ [ +.X.! ~ B ! ! Q ~ Q [ #.;.-.#.{ } { ( | } [ { ( [ { } ( [ } } -.-.&.u $ L P n h 7 7 p a m f p a 3 9 p q j q 0 K q q K P W a a L Q L K m U I K ` ' Y P 0 H P Y Y Y Y Y Y Y T ] ] *.' ' ] K Y Y T T U Y P 0 P G G K G q p I G L P s ` 1.*.] ] I s 4 5 p j 5 6 & 6 5 9 2 ; 4 1 3 6 ; 7 7 = # - e 4 6 3 q ^ U I G U L 9 9 U Q I ' 6.1.` K ; > m ; 8 t a m a 7 p 7 p 7 t f m g n p p j p p s g G L n s s g s L n L L P ^ G G p p s s L s h s s K U s s L I U Q q 3 9 h a q q 0 s K m 0 q 2 2 1 & & 6 - & - - @ @ & - - 3 2 % # = % 4 2 : 2 3 5 2 2 7 7 r 7 2 8 8 2 : 2 ; ; ; 9 a m q 9 t m m m a a a 7 8 7 t X o : $ # # = # # $ # # $ $ # # # = % % = = & & % = ; = = - - - - = = = = = = = - = = # # # = # # # # # + X + X X + + # = : = = & 6 6 4 j 6 6 - = = & = = = = = % % # # # # # + @ + + + + . . . .   . .           . . X @ # @ & = = = = & & & % % % % % @ @ @ @ ",
"~ Q _ ! ^ W M M C M n f M _ [ &.[ +.| | | %.%.#.[ | | | @.#.%.:.@.#.#.#.&.#.:.4.9.8.9.8.8.g.7.>.:.&.X.~ W V ^ ) [ [ | [ ~ +.#.@.#.&.} &.#.| #.7.:.:.4.7.7.4.8.8.6.7.e.v.t.e.r.0.8.7.;.#.} [ [ [ ) +.+.! [ ! ^ ) ( &.-.-.#.} -.} ] [ ( ( Q ( ;.} #.;.} [ [ [ 7 $ L s s s 8 3 p g m a 7 a p h q 9 8 q m 0 0 0 m K U s q L Q L U m Q Q K T ' Y Y H G G Y P Y Y T U Y T =.=.=.T ] ' R Y Y T ' Y Y K q P G G L s p h L K P P m _ ] ] ] T I s 4 j a 5 4 6 % 6 3 h 6 - 2 2 2 6 - 7 w & # ; 4 4 5 2 p ( Q Q s L s q 9 L I I ' 4.} I U ; r m 4 8 p s m s 7 7 9 a 7 9 n m g g s 9 9 9 p s s g L s s s g s s L U s n P G s p h h h P h h s s L L g m K Q P ~ 9 3 p h h s 9 s s s G 0 9 2 3 - & & 1 & & & - @ @ & & = 3 2 & # # % 2 ; - ; 3 4 2 2 8 7 a 7 6 7 : 4 8 2 - 2 8 t q a t 9 7 m m a q a q 9 8 7 9 X o = $ # $ # # $ # # # = = : 2 - - : - = = - = & % & % % % = = # = # # # # # = = = # # # % # @ X + + # # # = = : : ; 2 - - - - 1 6 1 - 1 = - & & & & & & # # + @ + + + + + + X + + X X . . . . . . . . . + + + @ # & & - & & % & & = & & % % % @ @ + + + + @ + ",
"i.h.6.q.q.7.7.#.>.#.@.@.| @.[ [ [ [ +.) | | [ [ +.) _ ^ W W Q _ [ ) ~ _ [ @.| [ | } #.%.%.9.h.9.8.g.7.>.X.) ) ) ) [ ) ( ) [ [ +.| | %.#.%.%.@.@.+.:.#.@.#.#.#.@.#.#.#.#.;.7.9.9.;.4.;.7.;.%.| #.} | | } [ ~ [ [ ( ~ ~ ~ [ { } 4.;.-.#.} [ [ } -.-.*.#.{ ` ` w : L s G s 5 7 p a g a 7 p a a 9 j 3 q s s q s L L L a q U Q U K K U Q m Y Y Y P G G G P Y Y Y Y Y T T T T ] ' ] ' Y U U T T Y Y H h P G G K s 9 a L L / U m ] =.] ] ' I a 3 4 p 2 3 ; & 6 2 9 6 & 4 3 6 - = 7 7 & % - 5 3 4 2 q ~ Q U L U m p 9 L ` I ` q.| I K 4 r m 7 7 7 h n h 9 7 7 a a 9 t m a s g 7 3 9 a s s g L g s s n s s L W L s L s s p 0 h s L h s s s L L s h L E n I 9 7 p a q s 9 s h K G s 9 2 1 2 & & 1 - & - - @ % & - = 2 5 & # # % 2 2 = - 3 2 - 8 7 7 p 9 2 7 - 4 2 4 ; ; 8 9 a t q 9 8 m m m 9 m m t 8 8 t X o = $ # X # $ = - = - : - 2 : - = & & = = = - = & % % % # = # = = = # # # # # # $ # $ # = % # = = : : = 4 : : - - - ; - - - - & & & & = % % # @ @ @ @ @ + + + + + + + + + + X . X . X X + + + + + # # % % & & - = - & & & & & % % & & % @ % % % @ @ @ @ @ @ % ",
"v.n.v.n.t.t.t.6.q.0.q.0.9.0.0.i.x.i.t.v.v.v.v.x.8.g.9.:.>.:.| #.:.%.#.#.7.:.7.:.#.} #.#.} %.4.4.#.#.| | +.#.#.#.%.:.#.@.~ [ [ [ ) [ X.+.[ ) _ ) ) _ +.+.[ @.#.| @.) +.[ [ | +.#.#.| } } #.;.-.-.#.#.| &.@.} &.#.#.| | [ ( [ Q ~ ( { { { } { #.-.4.0.e.8.-.} a # a s n s 8 8 p a a t 7 t s s j 9 j j 0 s q 0 n L s q q U Q ` U K I Q G Y Y / I H G P Y Y I Y R Y ' Y T T ` T ] T R Y Y T Y Y Y L H P G G G s 9 s L P I U 0 ] 1.] ] T Y h 6 j p 3 3 - & 6 5 p 6 1 2 5 6 - - 5 e & % - 5 2 - 2 p P Q I n U K d 7 L _ Y ] 4.] U U ; y m 7 p 7 s m h p p 7 d 7 p 9 s a h h a 5 j q g g G E s h a G G p G Q E L G s p q q s G U q h s 0 L G s a G P P G 9 t 9 q 5 h q 0 0 H H H j 3 1 - & & 1 - & = - @ @ 1 1 - 1 1 % + @ = 2 6 = 1 1 2 - ; 8 7 a 9 2 8 - 2 4 8 - : 2 7 7 7 q 9 8 m m a q m s 7 5 8 9 X o = + $ $ = = = - = - = = - = - - # = = - = = - % # # % # # # # # # # # # # # # = = - 2 ; 4 ; - : - = - : - : - - = = # = # # % % % @ @ @ + + + + + @ @ @ + + + + + + X X . X . . + + # = = = % & & & & & & % & - - 1 1 & & & % % % & & & & & & & & & & & & & ",
"e.0.0.t.t.t.t.i.t.0.0.t.t.b.v.t.t.t.t.t.i.t.n.n.n.n.n.N.N.b.n.n.i.0.0.0.0.0.i.0.0.i.0.t.0.8.7.7.8.7.0.7.0.8.q.<.4.#.#.| [ [ ~ | [ [ ) Q ~ _ ) _ ! _ _ _ +.+.+.#.:.#.%.@.#.#.#.7.| [ ~ ~ ~ ~ [ } #.4.4.-.4.4.4.-.1.4.4.5.7.4.4.#.} { ( [ ] Q } } } *.4.4.q.#.a $ s h a s 7 8 p a a 7 3 p s p 9 9 3 9 s G q 0 K U a s a Q Q I U m U I G Y T Y Y G G H G Y Y Y R Y ' Y =.=.T ] ] T R Y T T Y Y Y G G L s G G G p s U I I U G T 1.] } T I p 6 5 9 3 4 - & 4 j 9 1 & 2 5 2 : = 7 5 # # ; 4 4 - 2 9 W Q U h K L a 7 U Q T ` 4.| U U > y L 7 t 7 a s a 7 9 p p t p 3 g h p a a 5 9 p s G g L g a a g s q L Q E L s s p p p G L s h s g q m G s a L P I g 3 j p p 9 h q h 0 h G q j 3 1 & % & 1 1 1 1 - @ @ & & - 6 3 & + + & ; 6 = - - - - 2 8 3 d p 3 8 - 2 : ; 2 - 2 t 7 8 7 i q m a q q m p 7 2 7 t X o < = = = = = - - = = = = - = = - = # # # = - # # # # + # # % = = : - - : : 2 2 4 2 4 2 4 2 2 = - - = - - - - # # $ $ + # # # @ + + + + @ # + @ + + + + + . + X + + @ @ @ # @ % = = - 1 1 1 2 6 & - & 1 & 1 & 1 2 3 1 1 1 2 1 1 1 1 1 1 1 3 1 1 1 1 1 1 1 1 1 ",
"t.t.0.6.0.4.6.v.t.v.i.v.n.v.v.n.v.i.t.0.0.0.t.0.0.0.0.t.0.i.i.t.t.6.q.q.7.q.i.t.i.i.i.0.6.6.0.4.q.0.i.n.B.n.n.n.n.v.e.7.#.| [ #.h.0.4.>.%.) ~ V V n V ! Q ! ) ! [ #.4.7.7.#.7.0.7.:.| | &.[ [ ~ [ +.} #.;.-.-.7.-.#.;.-.4.-.4.} 4.4.*.6.:.4.} [ [ [ { [ ` ` d $ a g a s 7 7 p a a 8 2 7 s p 7 3 3 9 0 s 9 0 n P m q m I Y I K K I I G Y Y / I H P G G I P P R Y T T T T T T =.Y U U T T T Y Y H h L H G G s 9 s L P Y K 0 ] 1.] ' T I h 6 3 9 2 j & & 4 j p 6 6 4 3 4 - 1 7 3 % @ ; 3 2 - - 7 I I U s s s 9 7 I ` ` ] <.] U U w r P 9 9 p p s q 7 p 9 a 9 7 j s a a p p 3 3 q s G G G G h h s s q L Q L G g h p p s L L K h s G s s s s a G G ^ L 5 5 j 5 9 h q h j h G q j 3 1 - % & 1 2 1 1 - % @ 1 1 = 1 2 % + + % 2 - & - = - - - 3 8 q p 8 3 - - - - - - ; 8 q 8 8 m t m m a m m q 7 2 8 9 X o 2 = = = : = = = = & = = = - = # # # # + # # % = = - = & - 2 4 : 2 - 2 2 = 2 = - - = - - : ; - - = # # + + + # # # $ # # # # @ + @ @ @ @ + + + . + . . + + + # % = 1 = - - 1 1 2 1 1 - 2 1 1 1 1 1 - 1 1 1 1 1 1 1 1 1 1 1 1 1 2 2 2 2 1 3 2 3 1 1 1 3 1 1 1 ",
"J.n.n.n.n.n.b.t.n.v.0.6.6.0.i.t.t.t.i.t.6.4.6.0.e.x.0.0.0.h.0.0.0.7.q.0.0.0.i.q.5.q.4.<.] <.1.5.6.v.t.t.t.v.n.t.v.y.n.t.q.7.0.8.6.q.6.8.4.q.#.#.| ) _ X._ ) ! W _ ) [ | } >.4.q.;.4.;.4.7.5.;.#.7.;.[ | [ [ [ [ } } #.-.4.0.6.4.4.4.1.1.4.4.4.q.5.4.#.] [ ` p $ a a p 9 9 d 9 a s 7 2 9 g 9 8 9 3 q 0 s 9 s K U m s m Q Q U K 0 I I G Y / ( Q G P H I P Y R U T T Y T T ' T ' T U U T T T Y Y R 0 G G L L 0 9 g U P I R m ] 1.} ' Y P s 6 5 j 6 6 & & 4 5 9 1 6 6 - - - 6 7 2 % @ ; 5 3 - 2 p P Q U s L s p 7 U ] Q 1.<._ U I 4 y L 9 a p a a p 7 p p d p p 5 g 9 9 q h j 9 q s J G g G a s s s h L ^ E G h s p 9 s L G s h h L L h s s a G G E L 9 q 9 j 9 q q 9 j H H H q 3 3 6 % & 2 1 1 2 = @ @ 6 1 = - 2 & + + = - - = - & - = = 5 5 9 t 2 8 2 4 - 4 4 - 2 7 q 2 2 q 9 m m p a m t 7 2 7 t X o > : = = = = = = = # # = # = = = # = = = : 2 ; 2 ; - = = % = : - = = # # $ # = = # # + # + # # # + + + + + # # # # # # + # + + X . X . . . X + + + % @ % - 1 1 1 2 2 1 - 1 2 2 2 2 2 2 1 1 3 3 3 3 2 2 1 2 1 1 3 1 1 3 1 1 2 2 2 3 3 1 3 1 1 1 & & 1 1 1 & & ",
").J.n.b.b.n.n.n.b.t.n.v.v.v.v.n.N.n.n.b.v.v.v.v.n.n.n.n.).n.N.n.n.b.v.t.t.0.0.t.v.B.B.N.N.U.B.n.n.v.n.N.n.v.n.0.6.0.6.q.0.t.v.e.0.0.0.0.q.q.-.7.4.7.%.4.4.7.>.9.9.>.>.#.%.:.#.%.| #.| #.#.4.7.4.8.8.0.q.;.4.%.} %.| } } [ &.#.#.<.7.6.e.6.6.6.4.q.6.4.-.4.| d # a s 9 9 7 p 7 a g 9 5 7 g 9 7 j j q q H j q G P n q K Q I U U K I I L I / / P G P U P P Y R U Y Y T Y Y T =.T Y H Y Y Y Y Y Y H h K K G K h 9 G U I I K K ] ] ] ] Y Y q 2 7 j 2 3 = & 6 5 p 2 - 6 ; - ; - 7 4 % + - 5 2 6 2 7 P _ U K U s 7 7 U ` ` 4.<.` U U 6 u L 9 p s p 9 t 9 9 p a 7 t 5 g 9 9 a p 9 3 9 g G G g G h h s s s L ^ P G a h p 9 s L L h a s L G s a s s s m K L 9 9 j 9 j h q j j H h j j 3 1 & % % 1 1 1 3 & % % 1 1 & 1 1 % + @ & & = = - & = - 2 2 2 7 9 8 5 8 - - ; ; - - q m 2 8 a p m a 9 a q 7 4 2 8 7 X * w # # # # = # = - : - ; - = = ; - ; - - - : - - = = & & % % # % % # # # # # # # # # # # # # # # # # # # # @ + + X X . . .   . + + + + @ & - - 1 - & - - 1 3 3 3 2 3 1 1 2 3 2 2 - 1 1 1 1 2 1 1 1 3 1 1 1 1 2 2 2 3 2 1 1 1 1 & & & @ & @ % & & @ & @ & @ & ",
").[.).).N.n.B.U.n.).[.I.).).v.n.B.n.n.v.y.t.b.n.n.N.n.n.n.N.).n.n.n.N.n.v.n.n.n.n.n.n.n.U.n.N.n.n.).).).J.).N.n.v.t.0.t.t.v.n.t.v.v.t.b.t.0.6.4.5.7.#.#.:.#.4.7.8.0.0.0.8.9.q.| [ [ Q ^ ) ) [ +.#.#.%.4.0.x.v.v.v.0.0.q.-.[ #.#._ [ | #.} <.4.0.0.6.0.6.7.} t # s a p 7 3 7 9 s g t 7 7 h 9 7 q 9 q s s 9 s K P s a n I I I U K I T U U I / P H K I P K P P U T Y Y Y T T T ' Y H Y Y Y Y U Y R n P K L s s 9 G U P I G K ] =.T T Y U 0 6 9 j 2 4 & = 3 5 9 4 2 6 - - - - 3 4 % @ - 8 5 2 2 7 P Q L m U g 9 9 K ` ` <.] ' P m ; u L p a s q 5 9 p s a a 9 7 3 s s 7 h p j 3 q G L s g s q s h s s P Q L G a a p p s U L h q h s s G h s p K s L L h h j 9 9 q h j H H H 0 j 3 1 & % % 1 1 1 1 1 % # & 1 & 1 2 % @ # = & = = - % - 1 - 3 2 7 p 2 2 ; 8 - 2 : - - 7 7 8 2 q m m m 9 m m 7 5 2 8 p X < ; = : - : ; ; ; - ; 2 - - = = % = # # # # # # # # # % % % & & # # % = # % # # # # # + # + + + # # # + X X X . + + + + + @ & = = - = 1 1 1 1 1 1 3 1 2 1 3 1 6 1 3 2 1 1 1 1 1 - 1 2 2 1 1 - 1 1 1 2 1 3 1 2 2 - - = & & % @ & & & & & & & & & & 1 1 1 1 1 & ",
"b.n.n.v.t.n.n.t.N.[.[.[.[.).).n.U.[.).).).).J.U.U.J.).U.n.n.).).).n.N.n.n.N.U.B.t.n.v.n.t.t.t.n.n.v.t.v.t.t.n.n.n.B.n.t.t.v.v.v.v.n.v.v.t.t.v.t.t.t.0.0.0.7.7.0.6.9.q.0.6.i.t.h.0.0.7.7.:.#.} :.#.&.[ [ [ | #.q.0.0.0.e.0.0.8.6.6.;.*.| @.| | } | | } [ ` Q 7 # a a 7 7 7 7 9 m s p 9 9 a 9 7 9 q q s G j q s U s q K I U I P G I I U P I Q U G U I P P U R U Y Y Y Y Y T T T Y R R Y Y Y Y Y Y K U H K G q j s K U P G U ] ] ' ' Y I h 6 9 3 6 6 & = 5 9 5 - 1 2 - - - 4 5 2 % + = 5 2 2 2 8 P Y K m K s 9 p P Q ' :.] [ U L ; r E 9 a a p 3 7 q p s p 7 t 5 s g 9 s p 5 j h s G s s s h h a s h E Q E s s h 9 p s U L s q 0 s s s s G q G s G ^ h h 9 j 9 h 0 j j j H h j 3 1 & & & 1 1 1 1 & % % 1 & & 1 1 % @ # = - & - - % = ; 2 2 2 3 p 8 2 2 : - 2 - & 4 t 7 2 8 a a m a q s q 7 5 2 2 7 . < t 2 ; - ; - = = = & = % # # # @ + + + # # # % & = = % = % % # + + + + + + + X X . . . . X X X + # % & = % = @ - - 2 - 1 1 1 1 1 1 1 1 1 1 1 3 2 1 1 1 2 1 1 1 1 - 1 - = - 1 - - - - 1 1 2 - 1 & 1 - & & & % # # # % @ % & = & 1 1 1 1 & 1 1 1 1 1 1 & 1 & 1 ",
"n.N.B.n.n.v.v.t.n.t.t.v.t.n.t.0.t.t.N.n.U.).).).[.).).).I.n.n.U.U.).U.n.n.n.n.n.U.).).).).[.[.).).n.N.v.n.t.t.v.N.n.n.n.v.t.t.v.v.0.t.t.t.t.t.t.t.t.y.n.n.n.n.n.n.t.n.t.v.t.0.q.4.6.0.6.t.0.i.0.6.4.8.:.&.| } [ } :.:.7.q.7.0.0.t.e.0.0.4.8.t.0.8.q.#.[ Q ` i # d p q p t 7 t h a q a 7 p 9 5 q q 5 q G j h n E s q m ` I I P G U ` K K Y I U G L I P K U Y U Y R Y Y Y Y Y Y Y Y R Y T Y Y Y U K U G K s q j s K P P K U ] ' ] ' Y P h 2 h j 1 6 % = 5 j 5 - 1 6 & - & 6 7 6 @ + & 2 1 2 3 7 W I U m K m 9 9 ( _ ` } | ' Q P 6 u P 9 s s 9 7 7 7 9 p d 7 9 5 p L a s p 9 9 0 s L s s s h h s G s P P G a a g 9 9 n Q K m 0 q s s s s g a G s K U p s q 5 9 0 s H j j H 9 j 3 1 & & % 1 1 1 3 & % @ 1 1 % 1 6 % # # - - - & - & - 2 - 8 - 5 p 2 2 2 - - 4 - % 5 q 9 3 2 a m m s q a a 8 8 5 2 5   < t : 2 - = = = % # @ + # # = : : & = = = = = % % # # + + + X X . . + + X + @ # # # = - - = - - - - 2 2 8 3 2 1 1 1 1 1 - 1 & 1 - 1 1 1 2 3 2 1 1 1 1 = - - 1 1 1 & & & - - - - & & % @ % # @ @ @ @ % # % % @ = - - - - - - - & & & & & & & & 1 & 1 & & & & & ",
"6.0.i.v.v.v.v.n.).N.).U.J.U.N.).N.b.t.n.v.u.u.n.).].{.[.].[.).).[.[.J.).).U.n.n.J.).).[.).[.[.[.).[.[.).J.).J.).).).).n.n.n.J.).n.N.n.n.N.n.b.b.n.t.b.n.n.N.H.N.).n.U.[.).).I.J.n.n.n.v.t.0.0.q.0.0.0.7.0.0.0.9.7.} #.| _ [ ) | 4.9.7.4.4.:.4.7.r.8.4.7.9.q.d = a t 7 a p 8 q a 9 9 p 8 p t 7 9 q 9 0 s 8 0 K L m q L Q Q Y I G P Y H U I I U s U I L K U I U Y Y R Y Y Y U Y Y Y R P T T P Y P s K U K H h 5 s K U U K U ] ] ] T Y U p 4 p j 1 6 % - 4 j 5 6 6 2 & 2 - 1 5 1 @ X & 2 6 2 2 a I I L m m L 7 q [ ' ` | { ( / K 2 u L q m a a p 3 p 9 p p 5 9 j 9 g 9 p h j 9 0 h G s s s h s s G s P E G h h a 9 p m U K s q 0 m s h s s h L s s L q h s 9 9 s 0 H 3 j H H j 3 1 & % & 1 1 1 3 1 @ % - 1 & 1 1 % @ @ - - 1 = & @ = 2 2 8 2 8 p 2 2 - 2 - 2 ; & 2 q 7 3 8 m m L s a a q 7 8 2 5 5 . o r = # # + X + # # # # # = = & % % % # @ # + + X X . + + + @ @ % = - - - - - 2 1 2 6 2 2 - 2 - 2 2 - 1 3 3 7 3 3 2 2 1 1 1 1 3 2 2 2 1 1 1 & 1 1 - - - 1 = 1 - - & % & % % @ @ + @ @ @ @ @ % = - - - - - - 2 - 2 - - 1 & & & & & & & & & & & & % & & & & @ @ ",
"9.} [ ) | ) :.q.0.v.0.t.t.t.n.v.v.b.t.n.N.N.n.n.b.n.u.n.U.n.n.).n.).n.n.n.t.n.N.v.t.b.v.n.n.t.t.v.n.n.n.N.J.[.[.].].{.].[.).J.n.n.n.B.u.b.).).)._._.).U._.).).).).U._.`.).).).H.n.n.H.n.n.n.n.n.t.q.6.q.0.t.0.t.v.0.0.9.q.#.#.} +.) ) [ ) ] [ | | | q.q.4.#.d # a q 7 a p 8 a a q 9 t 3 p 3 7 9 7 q q s 8 0 s K L 0 U / I Y P G P I G K I P K G U I K L U P R Y T R U Y T R Y Y Y R Y T T Y Y P K K K K s 0 j G U I I K K ] ] *.T U R 9 6 j j 1 ; @ = 3 5 9 - 6 1 - 6 - 6 j 1 + + & 1 2 1 3 q Q Q U m 0 n 7 p ` ] ' | ' I P U 6 u L p m s h 7 3 5 p a p 3 5 5 9 s q q q 9 9 h g U s s h h a s s h P L G 9 j 5 p p L U m L h h s G h s s h m 0 L L 9 s h 5 9 G h H j H j H j 1 3 & & & 1 1 1 1 & & % - 1 & 2 1 % # @ - 2 - = = % & - - 2 5 8 7 8 - - - 2 - 2 = 7 7 t 4 8 a m m 0 h 9 q 9 7 3 3 4   < : $ # # # = = % = = = = # # % @ @ + + X X + + # % = - 1 1 2 2 2 1 2 2 6 3 2 2 3 1 2 2 3 2 2 2 2 2 3 2 2 2 2 6 & - - - 1 2 2 2 1 2 3 1 & & & & & & % # & % % @ @ @ @ % & & & = - & & & & & & - - - - - = - - - - - - & & % & & & & % & & & & & % & & @ @ @ @ ",
"4.| ) ) ) +.| | [ ] <.:.:.4.0.9.6.5.6.0.q.q.q.6.0.t.t.v.B.u.n.n.N.).).n.B.n.n.t.n.n.t.n.t.t.b.t.B.n.n.n.n.y.n.b.n.n.).n.J.).J.)._.).).n.n.N.n.).n.).).J.).).).).).n.).).'.)._.).U.U.n.B.U.n.n.n.t.t.v.0.0.6.6.6.q.6.q.2.4.4.7.:.4.9.} :.:.#.%.#.] #.q.q.7.:.a = d 9 p 9 p 7 a 0 p 9 7 3 9 5 3 3 3 q 0 0 7 q q h G p L / I Q G H U Y K G Y I U s L I K K I U U I T Y R Y Y Y Y U U Y Y Y T P Y P H U P L 0 q q 0 P I Y R U ] ] 1.' Y K 9 6 j j 1 6 @ - 3 9 9 6 - 2 - 4 & 6 3 - + + % 2 2 2 2 a Q Q I s s m 7 a ] ] ` } ' I I P 6 r L q m 0 a 7 2 5 7 p p j 5 5 5 s p p p q q q s L s s q h s s s s P L s p 9 9 p a L U s h h h L s 0 h s h L h G P 9 s 9 j j q H H j j H j 3 1 3 & & & & 3 1 3 & % % - 1 1 1 1 & % @ = 4 1 & % % % ; 2 2 2 3 7 2 - = - - 2 2 - 8 7 7 4 9 m m m m s j 9 8 8 3 5 3   < : = # = = = = # # # # + + + + @ + $ % = - - = 1 1 2 3 3 3 2 2 3 2 6 3 3 3 2 3 3 3 3 2 2 2 2 - 3 3 2 2 2 2 - - - - 1 & 1 1 & & & & % % @ @ @ + @ % % % & % % & = - 1 & - - & - & & 1 1 1 & % = = & & % % # # % % = = & & & % % & @ @ @ @ @ @ @ @ @ @ @ % & @ ",
"#.| ) ) _ W Q E ~ ! [ @.` +.} #.#.| | [ | | :.9.:.:.:.<.#.:.q.q.4.4.9.t.t.t.v.t.n.t.n.n.N.n.v.n.b.N.n.n.).N.U.n.N.n.n.n.J.).).[.).).).).).).).).).`.).).N.n.U.n.n.y.U.).J.).).).).).n.U.).U.n.v.t.t.t.i.t.n.v.t.i.t.t.0.0.6.4.4.:.<.:.0.0.4.4.:.4.4.4.1._ Q t = s a a a 7 9 s a 9 9 9 3 9 3 5 j q h s 0 3 s q h s q P / I Y G H I I K K I P G H U I K K U U K U T Y Y R R U U Y U H H ' Y U P H P Y U K G h 9 G K U Y U U ] =.] ' / I j 6 5 5 1 6 @ 1 6 5 q 1 2 - = 4 & 6 5 - + + = 2 3 2 2 q I Q U s m L 8 s ` #.` ] ] K P P 4 u L q s q q a 8 3 9 s p j 7 p j s a p h p q h h P L g a h s h s g P G s 9 j 5 p a L U s s q 0 K s s 0 s K L h L Q q G q 9 3 j s j H j j H j 1 3 & & & 1 3 1 3 1 % # & 1 - 1 1 & & # - 2 1 = & % & ; - 3 8 r 7 2 - = - - 2 2 - r q 7 3 q q m m m s 8 9 j 3 3 7 2   $ : $ # + # + + + # # # % # = = - - - 2 2 1 1 2 3 3 3 1 2 1 1 2 1 2 3 3 4 2 3 3 3 3 3 2 3 2 2 2 - 2 - 2 - 2 - 2 2 1 = & % % % & % % @ @ @ % @ @ - - - - - - 2 1 - - & & - & 1 - - 1 & & & & % % % % % % % # @ @ @ @ @ % @ % % @ @ % % & @ @ @ @ % & & & & & & ",
") Q W ! W Q _ Q _ [ ) ) ` [ ~ ` _ _ ` Q Q ) | ] @.| ) +._ %.7.:.:.#.] #.:.#.#.4.4.:.q.0.t.7.<.} :.q.4.q.7.4.9.4.q.7.4.q.0.t.v.n.n.n.b.n.n.N.J.U.).).).).[.).).).).).n.n.n.).n.U.U.n.t.t.n.).).n.t.v.0.t.n.n.B.n.U.n.n.n.t.n.t.6.i.q.q.4.1.q.4.6.6.0.q.4.#._ 8 = s t n a 2 9 0 q 9 q 7 3 7 3 3 7 9 s a q 3 0 q q 0 q U I I I G G I I K K Y K H s I I K K R K U U Y P Y P K H P I U U U Y Y Y R K P I P H H h h s L U I R P =.1.] T Y U 7 - 5 3 6 = # 6 1 3 9 - 2 4 - 2 - - 8 - + + - 5 5 2 2 q I Q U s s m q m ] #.' ] ` K U K 6 u P q s a q s 7 3 7 a a 7 7 7 p s p 9 q a q s s P K s s q h h h s L L s 9 9 j p a L K s s 0 s s s q s s m K q K Q q h 9 j j 3 0 H j h q q 3 1 3 1 & & 1 1 1 1 1 & % & & & 1 3 & & # = 1 - & - % = 2 - 4 7 8 7 2 1 & = - 3 1 - 3 7 7 8 a q s m s 0 j j 9 5 3 5 3   o = $ $ $ # = - = = : - ; - - 2 - 3 2 2 2 2 2 3 2 2 1 1 1 1 1 1 1 3 3 2 3 2 2 2 1 2 - 2 - 2 - 2 - - - = = & % % % % % % % & & - 1 1 1 1 & - & - 1 1 1 - - - & - & 1 - - 1 - = & % % % % # # = % % % % % % @ @ # # + # # = & = = - 1 2 - - 1 1 1 1 1 1 1 1 1 1 ",
":.#.%.,.:.@.7.9.q.0.6.0.0.9.q.q.4.} | @.#.| #.:.:.} ] | | ] +.[ ` ) ) ) | } } %.} :.4.:.| @.@.| @.#.@.[ [ | @.@.#.[ %.:.:.7.0.6.8.q.q.8.7.4.6.0.t.b.v.n.N.U.n.`.)._.].).).n.).).).).).U.N.J.n.n.n.n.u.n.t.n.n.n.t.t.e.0.t.0.t.6.i.w.t.t.t.i.0.6.0.6.4.#.{ ` t % a p a p 3 9 h a 7 7 7 5 3 3 3 7 h h q q 9 h s h 0 q U I P U H H I U K K Y U G U I I K K U R P P U Y P P H H K Y U K R Y Y T Y Y Y P Y R H h j s U K Y K I ] ] 1.] T U 3 ; 5 5 2 - % - 1 3 9 - 2 2 - - - 4 7 - # @ - 2 5 2 3 a U Q L K m 0 9 m [ } ' ] Q K K P 6 r L q h 0 s q p 5 7 9 p p 9 9 a s p p q s q a s L L h p p s s h s L G g 9 p 7 9 q m L m s q s K 0 q m s K s 0 K ( L 9 9 j 9 9 0 H h h q H 3 1 j & & & & 1 1 1 1 & @ % & 1 1 1 & & # - 1 = % = = # - : 5 8 2 t 2 - & = 1 2 1 & 2 3 7 9 s q 0 0 0 0 8 q 3 3 5 j 3 . , : = - - - - - 2 2 8 2 3 8 - 2 ; 2 2 1 - - 2 6 2 2 1 1 3 2 2 1 3 1 6 1 & & % & % # & & = = & % & = # & = = = 1 & 1 & - 1 1 1 1 - - 1 1 - - - = - & 1 = & & % % % % @ % @ @ @ % % % & & = - = = = & 1 - - & 1 - - - 2 2 - 1 2 1 1 1 1 1 & - & - 1 & 1 1 & & % ",
"q.7.9.q.9.6.q.t.0.t.t.t.t.v.0.t.t.t.6.0.q.6.q.0.6.0.q.:.:.:.<.<.<.@.} :.:.7.#.| [ | [ +.+.] [ +.[ ) [ [ | [ [ [ ) [ +.) @.:.>.:.:.>.9.9.8.9.8.x.0.9.4.7.q.8.0.0.e.i.0.0.t.n.B.n.n.n.n.n.t.t.v.t.e.n.n.n.u.i.t.n.t.n.v.t.i.t.t.q.6.q.6.6.6.t.y.y.u.n.n.t.0.6.m $ d 9 p 7 3 q a a 2 3 7 8 3 3 3 3 h q 9 q 8 q s s q j K Y P K H G U U G K Y G K K P P K K P H U R U Y I P G H P Y U R R Y Y U Y Y P U R R H h j H s U Y K U =.1.] ` T U 3 ; 2 3 6 - % - 4 3 7 - 2 - - : - 2 8 - + @ 2 2 2 2 2 a L U L m s s 7 K ] } ` ] Q m K U w d L p q q q s p 5 7 7 p a 7 p s g p 9 a s s s s L n s q 0 h s p a L s G 9 p 9 p q h K m s h s s m 0 0 s K 0 0 m Q K 9 9 j 3 9 q H j q j j j 3 j & % & 1 1 1 1 1 & @ % & 1 1 1 & & % = - - @ - - - : - 5 7 r 7 2 - = = 2 2 6 - 2 2 7 j 0 9 0 0 0 0 8 9 9 3 9 5 5 X < 8 2 8 2 2 4 2 - 2 - - - 2 2 - 2 - 3 3 3 3 3 3 1 1 - = & & & % @ % @ @ @ % % & = = 1 - 2 2 2 2 3 2 2 - 2 2 - & & - = & & % & & % & & & = & % % % % @ # @ + @ @ @ @ % % @ & & & - = - = - - = & & % & - - 1 - - - - - - 2 - - 1 & & - & & & & & & 1 & & 1 1 & ",
"n.B.v.v.t.t.0.q.<.4.:.4.4.1.4.6.q.6.0.6.t.0.i.0.6.0.q.0.q.q.7.q.q.7.4.q.t.0.i.i.x.x.0.i.0.v.v.v.v.i.v.x.i.0.7.7.#.:.<.@.| [ ) ) ) ) _ _ _ ) @.| @.+.) +.@.4.0.h.8.7.4.>.7.:.:.@.:.:.7.9.8.0.0.0.t.n.n.n.U.t.t.t.t.v.n.U.n.n.n.n.n.t.t.t.t.w.t.t.n.n.t.t.b.v.U # p p 8 7 8 p h q 3 7 5 8 3 6 3 9 h a 9 9 9 q s m 9 9 U U Y P H G K U G P Y K G K P U K K I K R P U U P G H h G I Y P R U Y Y R Y Y P U U s p j s K U I K R T ] ] ] I P 5 - 2 2 - 6 & - - 7 7 = 2 2 4 - - 4 8 : + @ - 2 8 3 2 a U I m K m q 3 m | #.' ` ' U K K 3 t L 9 q q a s a 7 5 7 7 a p p g g h 7 p p g s h m s G a h s s a h G s g 9 p 9 p 9 s K s s q s m s s s 0 U m 0 K T s 3 q j 1 9 j H h H q j j 1 j 1 % & 1 & 1 1 1 & @ @ & & 1 1 1 & % = - = % & & - : - 8 8 8 7 2 1 - % - 2 2 1 2 3 7 8 0 8 m H 0 0 0 q 9 3 j 5 2   < 7 8 : 2 - 2 2 - - - 8 2 - 2 2 2 - 8 3 1 6 & % % % % & & & = - - - - - 2 6 1 2 ; 2 2 2 - 2 - = - - - & % & % % % % % @ % @ @ @ % % @ % % @ % @ @ @ % @ % & & & & - - & - - 1 - 1 - - - - - = % % % & - - - - - - - - - - - 1 1 & & 1 1 & 1 - & 1 1 1 3 1 3 1 ",
"6.0.x.x.t.b.v.v.0.t.0.0.6.6.0.0.6.6.4.} #.| #.[ | [ [ | { | <.#.:.<.4.q.:.<.4.:.q.q.0.0.v.v.n.b.n.n.).J.U.N.n.n.B.n.v.v.0.7.7.q.7.>.#.@.| @.@.+.) _ W _ ) [ +.+.@.+.:.:.%.+.@.+.) _ _ X.) +.@.#.:.7.i.x.t.n.v.t.t.t.i.0.t.n.N.n.u.n.n.H.).).).).n.u.t.t.t.b.L # p a 7 7 7 p h q 7 5 3 p 2 6 3 q 9 9 q 9 9 h m q 9 s U P I P G H R U K U Y P G K U P K P U U K P U Y P H s s G Y Y U P P T Y R Y R Y Y U H 9 j s m U Y H m T T ] ` I K 4 - 2 6 - - & 1 - 5 3 - - 2 4 - - 2 5 & + @ - 8 5 5 5 a L U K m s a 8 m ' } { { | P G G e u L 7 9 s s a q 7 7 9 9 a 9 p a s q 7 p p g s h s K s h a h m 9 a s G s j 9 j a q s s s h 9 s G 0 0 s m U 0 m K P G 9 j p 5 j 3 G h q j j j 3 j 1 % & 1 1 1 1 1 & # @ % & 1 1 & & % & - = & = = = : 2 8 8 r 8 5 1 6 & = 2 1 1 3 7 7 3 h 8 0 H 9 0 q q 9 3 j 8 3 . : 4 2 2 2 2 8 2 - ; - = = % # # = % @ & & - & & 1 1 1 - 1 1 & - 1 - 1 - = - = = = = & = & = = = & = % % = # % # # # % = = = = % % & & = = - - = = - - 1 - 1 1 2 - - - - - = & & & & % $ = = = - - 2 - - 1 - - 2 - 2 - : 2 2 : 1 1 1 1 1 1 1 1 1 1 3 3 3 3 3 2 ",
"' [ | | | [ [ ] } [ | | } -.4.-.4.7.4.#.| [ ) ] | [ ] } #.} } | | [ +.| ] [ ) ) [ [ 4.7.4.:.:.4.q.9.0.h.0.v.t.0.0.v.t.v.v.i.x.0.0.t.v.i.i.i.t.0.0.7.:.:.#.| | [ +.) ) _ ) ) X.! ! ! ! X._ | _ ) ) | +.| | ,.7.q.i.x.0.v.i.t.U.n.t.t.i.t.t.t.H.)._.H.n.t.t.t.L $ p a 9 8 7 9 q 9 3 5 5 9 3 6 5 9 j j 9 j 9 0 s 9 3 h U P Y I G G H P H U Y K G K R K K P U U U P Y Y I H H 0 K Y P P R Y T Y U Y U Y P U h 9 j G 0 R I R R ] ] ] T Y R 6 ; 2 6 - - % 6 1 5 3 & - 2 2 2 - 5 5 % + @ 4 2 8 2 2 a U U L K s 9 8 n ' } ] ] ] G P P 4 t L 3 9 0 h q q 5 5 7 t a 9 9 a s 3 9 p 9 g s q 0 n s h s s h 0 h s G g 9 9 9 p q s h h h 9 a s q s 0 m L K 0 K P H 9 j q 3 3 3 H j j H j H 3 j 1 & & 1 1 1 1 1 & # # & & 1 1 1 & @ % = % # % = = - 2 2 8 8 7 2 2 2 & - 2 1 1 3 9 7 2 0 9 0 0 0 q 9 q q 8 j 9 2   < 8 4 = = = = = % # # @ @ % % - - - - 1 2 1 3 1 1 1 1 - & & & - = & & & & = = & & & = = = & = = = = = = - - - 2 - 1 2 2 2 2 4 2 2 3 2 2 3 2 2 2 1 - = = = = = - & & & = - = = - & 1 2 2 2 2 2 2 - 2 2 1 1 2 3 8 8 8 2 8 8 2 8 3 3 8 3 3 3 3 3 3 3 3 j 3 j j 3 ",
"q.4.4.4.#.:.#.#.[ ~ ~ | [ | } [ | } } | | | } } #.} ] :.] <.:.:.4.<.4.:.:.) [ +.+.#.;.0.9.7.:.#.4.9.9.0.0.0.0.0.i.t.0.t.x.n.B.n.n.v.n.t.i.i.0.0.0.7.q.6.6.7.0.0.0.9.0.0.0.x.9.7.:.#.@.+.) ) ) _ _ W W ! ! W W _ ) #.@.>.#.#.7.0.q.t.t.t.r.t.t.t.u.y.t.t.u.0.a # p a p 7 7 9 h 9 6 7 5 7 3 2 5 3 8 9 7 3 7 0 h 7 3 0 H U I P G H H I G I Y G m K U G G U U U U I Y I I G H s R P U P R Y T Y U U R Y P P s 9 9 G q R U m m T ] ] T U m - ; 3 - - - & 1 2 3 2 % & 2 2 - - 4 5 & + # 2 2 4 2 2 a U U m K s 9 3 m ' #.[ } ' H P P 3 r m 7 7 q s a 9 3 5 3 p a 7 9 n s 2 5 p 9 s a 9 q L g q h 0 s q h s G g p 9 j a p s h q q 9 a s 0 s s K U K m m U 0 j j h 3 2 3 H q j j H 3 1 j 1 & & 1 1 1 1 & & # @ 1 & & 1 1 & + & = % # & - = : 2 : 4 3 8 2 1 2 = = 2 2 1 3 p 7 2 0 9 9 0 0 8 q q 9 9 9 3 4 . < - - - = = - - 2 - 2 2 ; - 3 2 - 2 2 1 1 1 1 1 & & 1 1 & & & = - - - - - - - - ; 2 8 3 5 2 5 3 3 2 8 2 3 8 8 8 3 8 3 8 2 8 8 3 1 1 - & = & & & & & & = & = - 1 - - 1 - - 2 - 2 3 2 7 2 2 8 8 8 8 8 8 8 3 8 8 8 8 8 8 8 8 2 8 3 8 3 8 3 3 3 3 3 3 3 3 3 3 3 3 ",
"0.6.6.6.5.4.4.7.6.7.6.q.q.4.q.q.6.6.l.t.y.b.v.r.t.0.0.q.q.q.4.q.q.e.0.e.q.#.#.@.| | | #.4.4.7.q.7.9.4.9.9.9.0.0.x.x.i.t.x.x.i.i.0.0.6.i.v.t.i.i.t.v.v.e.v.v.0.6.q.0.0.0.0.0.0.0.q.:.q.7.#.#.:.#.@.%.+._ +.+.+.X.) ! Q ~ ! ) ) [ #.#.#.:.:.7.6.4.4.q.i.i.v.t.a # 9 a a 7 7 9 p 9 3 7 5 3 2 2 7 5 3 7 7 8 9 s q 3 2 0 P P Y P G H K / K I I H 0 0 G H K U U U U Y Q I L K s H H P Y P P Y T Y R U R Y P P h 5 9 s m R U m U ] ] ] T U 0 - - 8 1 - 6 % - 2 7 6 @ % 2 2 - - 2 2 & + % - 5 7 3 2 q L U m m a p 3 n | } ' { { K G P e t L 7 9 a h s p 5 3 5 9 a 9 p s p 3 9 p p a 9 q q s s a h a h a q 0 G s 9 9 j p 9 a h a p 9 q s q s q m K m K U K s 0 0 h 3 3 3 j H H 3 H j 3 3 1 & & & 1 & 1 1 & % @ 1 & 1 1 1 & # % = % # = = # = 2 2 5 8 8 - 2 3 & - 2 1 1 3 q 7 2 q 9 9 q H 8 q q 9 9 q 8 2   < 7 - - - - 2 2 2 - - - - - - - = % & & & & 1 1 1 1 1 1 2 1 3 3 3 3 7 7 8 7 8 8 3 8 8 8 3 8 8 2 3 3 2 2 2 3 2 2 2 2 3 3 2 2 2 3 3 1 2 2 2 2 2 1 2 2 3 2 - - 2 1 1 1 3 3 8 8 2 3 8 3 3 m 8 8 8 7 8 q 8 8 3 3 3 8 8 8 8 8 8 8 8 j 8 8 8 j 3 3 j q 8 j 3 3 3 3 3 ",
"e.q.6.4.q.0.0.q.0.8.9.5.0.t.t.t.n.t.n.v.n.t.n.v.n.u.n.t.y.n.n.n.n.U.n.n.n.i.0.q.7.q.8.6.q.4.4.4.#.:.} } } [ | _ ] | } @.| #.:.7.q.9.q.i.v.0.t.t.i.0.6.q.t.0.6.#.6.v.0.t.n.v.v.t.q.7.q.q.4.7.0.6.1.4.4.4.#.#.:.4.>.:.:.@.@.+.@.| #.| @.[ [ ~ ) _ [ +.| } 4.] p # 7 a q 7 9 p p 5 3 j 5 3 1 2 5 5 9 3 3 3 9 s 0 9 2 0 U U I R H H Y / K Y P G H s G 0 K K U I I I I I U K m s G U Y K G Y Y Y U R R P R P h 7 8 s 0 s U 0 K T ] =.Y U s - ; 3 2 - 6 & 6 2 3 - # & 7 4 - 2 3 - % + # 2 4 8 8 2 m n U m m q 7 8 m ' } ` } | K H I 4 r K 5 9 p h h a 3 3 2 p p 9 p h p 3 p 7 a s 9 9 s s m p s q h q s s s s 9 9 9 p j p s p a j 9 h h s 0 0 K L H G P s s q 0 5 2 3 H q q j q j 3 3 & & & 1 1 1 1 1 & % @ 1 & & 1 1 & @ % % # % & = = = 2 2 4 8 7 2 1 2 & = 2 2 1 3 q 8 3 q 7 9 q 0 8 q q j q q 3 4 . < 8 - - - - = - & & = = = - - = - 2 2 3 3 8 3 j 3 j 3 9 9 q q 9 9 7 7 3 3 8 2 2 2 2 4 5 8 8 8 7 8 3 8 8 7 q q 8 8 8 8 8 8 9 q a q 7 9 9 8 9 8 8 8 q 8 8 3 2 3 3 3 2 3 3 2 3 2 3 2 3 8 8 8 2 2 m 8 m 8 m 8 2 8 2 2 2 8 8 8 2 2 8 8 8 8 8 8 8 8 8 8 8 3 8 8 q 8 ",
"} } ' _ _ Q _ ' ` _ [ ] [ { } 7.#.:.4.4.} } 7.4.q.q.8.q.4.6.6.6.t.v.t.u.t.q.t.t.n.n.b.n.n.n.t.0.0.0.0.9.0.7.7.:.} :.:.q.4.q.4.4.:.{ | } :.7.4.7.0.0.9.0.6.4.} 4.0.0.0.0.0.0.0.t.v.e.v.e.6.0.0.0.q.4.4.q.9.q.0.6.0.0.0.t.t.t.t.0.6.0.q.<.4.#.#.] ) [ [ _ ) ~ t # p h 9 8 7 9 q 9 3 j 5 3 3 3 5 3 8 9 3 3 7 s m 9 2 0 U K Y K G H I ` R Y K s 0 G K s m K I U U I I U s K R 0 K R Y P P Y Y Y U Y P P P H 0 j q s 0 K K 0 K T T ] T I s - 6 3 2 6 6 = 2 2 8 6 % = 3 3 = ; 8 2 # @ = : 4 8 2 8 7 U E m q m 7 3 K [ ] I } ] K G P 4 r L 9 9 9 p s q 9 5 2 p 9 9 9 h p 2 9 p p p p 9 a m s q q a h h s G L s 9 9 9 p 5 h p p h 9 9 0 s m s m U P K P P K K q 0 5 1 j q q j q j q 3 1 1 & & 1 1 & 1 1 & # @ 1 & & 1 1 & % % & @ # & = = = = 2 2 8 t 2 2 2 & = 2 2 1 8 9 8 3 q 9 7 q 0 3 j q 8 8 q 3 2   > 9 8 8 3 3 3 2 3 2 2 3 3 2 8 j 7 9 9 7 9 9 q j j 9 j j 8 3 3 3 j 7 7 9 9 a 9 8 q 9 9 7 q q q 9 9 7 q 9 3 3 8 8 q 9 7 9 8 9 q 9 9 8 3 3 2 2 8 3 3 3 3 3 8 3 3 8 3 8 8 3 3 8 8 8 8 8 8 9 8 m m 8 m 8 8 8 2 2 8 8 8 8 8 8 8 8 m 9 9 8 8 m 8 8 8 8 3 3 3 8 3 8 8 ",
"<.{ ) _ ^ Q M n Q W Q ^ ! ~ ~ Q Q Q W ! Q _ ) ) ~ Q _ Q ~ ~ _ ` [ ] #.} } 7.:.{ <.q.7.q.6.q.6.v.n.U.n.n.v.t.0.i.e.t.v.n.v.n.v.B.n.v.t.0.9.q.1.<.| } ] { | ) ~ W P _ [ | :.4.:.4.1.6.6.0.0.0.0.i.t.B.n.t.n.t.t.w.0.i.6.t.q.0.6.q.6.6.6.6.6.6.t.i.6.4.4.1.} { p # p s 9 3 7 8 q p 5 j 5 3 3 6 3 5 j j 3 3 7 0 0 9 3 K I K Y Y G G U Y U I K G 0 G G 0 m K U I U I I L s s 0 G G K I P H U Y Y Y R R P P H q 5 a s 9 K U q U T T ] Y U s - 6 2 2 6 6 - 2 3 5 - # - 8 2 = ; 2 2 # # = 2 2 8 2 2 q m U m m q 7 3 m ` | ` } ` U G P 4 t L p p 3 9 s a 5 5 2 d 9 9 p 0 9 3 e p a p p 7 s a s a q 9 a a s g L s p j 5 9 5 p h a h 9 q 0 0 s s K L U K P U K s 0 H j 2 3 q q q j j H 3 3 1 & & & 1 & 1 1 & % @ 1 & & 1 1 & @ % & # @ = = # = - 2 2 4 7 8 2 2 % & 1 2 3 3 9 3 3 q 8 j q q 3 9 q 3 j q 3 2 . : m q q q q 8 q 8 j 9 8 9 7 q q q q q q 9 q a 0 q q 9 9 q q a a a s a a p a q 9 q q 9 7 a q q a q 0 a q 8 3 3 8 7 7 8 3 3 8 8 8 7 8 8 8 3 8 8 3 3 8 8 8 8 3 3 8 3 3 3 3 8 8 8 8 8 8 8 8 8 8 8 8 8 8 8 8 8 8 2 8 8 2 8 8 2 2 8 2 2 2 2 3 2 8 8 8 3 3 3 3 1 3 1 ",
"| ) M n C M W _ ) +._ L Q [ ~ ) ) ~ Q W Q W Q Q Q ~ [ [ [ +.| | | #.| | } | | ) W ~ Q ~ ) Q ~ [ #.#.} :.q.9.q.7.4.:.:.7.q.6.6.t.t.0.v.n.t.v.n.n.b.B.B.v.v.0.q.4.#.} <.#.} #.} [ [ _ ) ( _ { } } } 1.6.0.0.e.0.0.0.0.0.0.v.i.t.t.t.t.t.n.t.q.6.6.6.t.6.t.i.0.n % p h 3 5 9 7 5 q q 5 3 2 1 3 5 5 9 1 3 3 9 q 0 9 3 K T R Y I H H Y Y I I K s 0 G K 0 K U I U U U U P 0 K 0 G K K Y I H U U R Y Y P P P K h 7 q s q U P s Y T T T U R 0 - 6 3 5 2 1 = - 2 3 - % 2 3 3 - 2 ; - # # - 2 8 2 2 - 7 U K R m 8 7 3 m ' } ] } ` U s U 4 e G p h 3 9 s q 9 5 3 5 5 p h a 5 3 9 p a t 9 9 s s s s a q q q s L L h p j 5 9 5 q p q a 7 q a s s h K K U H P U q 0 0 h j 3 3 j q q H q q j 1 1 & & & 1 & & 1 & % @ 1 & & 1 1 1 @ @ & # @ = = = - = 2 - 2 8 8 2 - & & - 2 3 7 7 3 3 9 8 8 9 h 3 8 q j q q 3 -   r m m q q q q q q q 0 m m 0 m 0 s a 0 q s 0 0 0 j q 0 q q h q q a p 9 q 7 7 q 9 t t q q 7 9 j 9 9 9 q q q 9 9 q 9 9 q 9 7 q 8 7 p q 7 8 8 8 8 3 3 3 3 3 3 3 3 3 8 3 8 8 3 3 2 2 3 3 3 8 2 2 8 2 2 2 2 2 2 2 2 - : 2 2 2 : 2 2 8 8 8 8 2 2 2 2 2 2 2 2 2 2 2 2 ",
"E W M n n V W Q _ [ [ ` ` [ ` [ _ [ [ [ [ [ { [ [ [ [ ` [ [ [ [ #.:.7.0.9.4.4.:.4.4.@.[ ) _ ) ) ) _ ) ) P ~ :.#.[ ) ) Q _ [ { | } :.4.5.q.6.8.0.0.t.e.v.n.v.t.i.t.t.t.t.n.t.v.i.8.7.7.q.q.0.t.v.i.6.4.4.4.1.:.| | [ [ [ 4.0.t.6.e.6.t.n.n.t.t.t.t.t.t.i.q.6.g # p a 2 7 j j 5 8 9 7 3 3 1 3 3 5 j 6 3 3 9 q 0 7 5 P Y U Y R H G Y Y I U K s H K R 0 K U I I K I U K q G G G s U I I K K Y R Y Y R P P H h j 9 h 9 U P H I ` Y T U Y 0 = 2 7 8 - 6 & - 2 3 ; = - 3 8 = 2 1 1 @ @ = 2 7 7 2 2 7 m K m m q 7 8 I ` ] ] ] ` U K U 4 t n p s 9 s a p p 5 3 5 7 9 s q 8 8 9 a s p p 7 p a m g a 9 q p a L L h q 7 5 9 5 h 9 9 q 5 q q m 0 0 K G P P R U j 9 H h 9 q j j q j q j j j 1 1 & % & & 1 & & & % @ 1 & & & 1 - @ + & % + % & - - - - 2 2 7 2 1 - = & - 2 3 3 j 3 3 9 j 8 q 0 3 8 q j 9 9 3 4 . y Y R U m R R m R m 0 0 m 0 0 0 q 8 9 9 q q q 9 q q 9 p h q 9 q 9 7 8 8 7 7 7 8 7 q 9 q 7 9 9 q q 0 0 q q 0 q 9 9 8 9 8 8 8 8 8 8 8 8 8 3 2 2 1 2 2 2 3 3 3 3 1 2 2 2 2 - 2 - 1 - = - - - 2 - 2 2 2 2 8 2 8 2 2 2 2 2 2 2 2 2 2 8 2 2 2 8 8 2 2 2 2 3 1 1 1 1 ",
"` ~ Q ! Q _ _ Q W Q ~ _ [ [ _ ` ` Q _ Q [ [ ` | ` ` ) W Q W E W U W W Q ] #.4.| [ | #.#.#.:.4.4.} :.| | ) Q [ | Q E ^ W Q _ ~ Q W Q L ~ [ | | 4.q.4.7.q.4.q.0.6.0.t.n.y.n.t.n.n.b.n.n.n.b.t.b.n.n.H.n.b.H.b.n.b.b.v.0.0.0.t.i.0.0.6.6.6.6.q.q.6.6.4.0.6.e.<.7 # p q 8 7 9 j 9 j 9 j 5 3 6 3 3 5 j 1 7 3 9 h 0 3 3 P Y U T R H R Y Y Y U K 0 s K 0 0 R U I I K P G H q s K K 0 G I P G U T Y R Y R P P G q 9 9 s 9 R P H Y ' Y ] T R s & - 2 3 - & & - 2 3 = % 2 2 2 - 2 1 1 @ + # 8 8 8 4 3 q m m 0 m q 7 8 U I ] T ] ` I m K 4 t n 9 p 5 a p 9 5 3 3 5 t p s 9 8 7 t a a 9 p 7 q a a s s q p p q n s a a 7 5 7 5 p 9 9 p q s h m 0 0 U G G H P H j 0 q h j 9 j j H q q j H j 1 3 & @ & 1 & & & & % @ 1 & & 1 1 & + X % @ + # & - - # - - 2 8 2 1 1 & % = 2 2 3 8 3 3 j 3 8 9 q 3 j j 3 3 7 3 - . > R m m m m m m m R m m 0 K s m q 9 q 9 j j 8 8 j 8 8 a h 9 7 7 q q 7 9 9 q 9 q q 9 9 8 3 8 8 7 9 9 j 9 9 9 8 7 8 8 - 2 - - 2 3 3 3 3 2 2 3 - 2 1 1 3 1 1 1 1 3 1 2 1 - 2 - - - - - 1 2 - 8 8 2 8 2 2 2 2 2 2 8 2 2 : 8 8 8 8 8 9 8 9 8 8 8 8 8 8 8 8 3 3 2 1 ",
"4.*.{ ] Q [ { :.} ] | { { 7.:.:.7.} { { | [ { } | | [ [ [ Q [ | [ [ ` _ [ | 4.:._ W ) ] [ ] | | _ [ [ | | #.[ | +.| | #.| [ _ ~ [ _ _ } #.4.4.@.| [ _ [ [ [ ` | } @.} | ] :.4.4.6.6.6.6.6.6.6.i.v.t.t.b.y.t.t.t.t.y.i.0.0.6.t.0.t.6.t.t.t.t.i.2.} 1.*.} ] ` d $ p 7 9 3 3 9 3 9 9 j 3 2 6 3 3 9 j 3 3 3 9 0 0 3 8 Y Y U Y U H K Y P I U K s 0 K 0 K K K I I P L 0 q q H K K 0 G Y U H U Y R R R R U R H s j 5 s 9 U K 0 I ' T T U U 0 & 6 3 3 - - & 2 2 3 = % - 2 - 2 2 1 - $ + = 5 8 5 8 ; q K m q m q 9 8 U T ] T ] ` U K K 4 u s 7 q 7 p p j 9 3 2 7 p q m 2 7 t t m m 9 9 t q m a s s p p q a s s a q 7 7 7 3 9 5 j q h h s s s 0 K G H H P R 0 q q 9 q j j j j j H H j j 1 1 & % & & & & & & & % 1 1 1 1 1 & @ . % % + @ & - - = - - - 8 - = 1 % % - 2 2 3 3 3 3 3 j 8 q q j 8 3 3 3 8 3 -   > m m m q m m 0 0 m 0 0 q 0 0 q q 8 q q q q 8 q 8 j 8 9 9 8 7 9 7 7 8 8 3 7 7 7 7 8 8 3 2 2 3 3 3 1 1 2 2 2 2 2 8 4 2 - - - - - 2 - 2 - - 2 2 1 2 1 2 3 1 1 3 1 - - 1 2 2 2 = = = - - - 2 2 2 2 2 2 2 2 2 2 8 2 8 8 m 8 8 8 8 8 8 8 8 8 2 2 8 8 8 3 3 3 3 2 2 ",
"} } } } <.:.} ] ] <.<.4.] ` { ] ] } <.4.1.4.4.1.5.4.6.0.4.} 4.4.4.q.9.4.#.| | | ] ] 7.:.:.:.} :.{ ` | } } 4.#.} | _ Q ~ [ | | [ Q ~ ~ [ [ } #.#.#.| | | | ) [ [ [ | | | #.:.4.} { | [ [ ` ) [ ' | q.6.6.0.0.6.6.q.q.0.6.q.:.6.6.6.t.q.i.t.6.6.6.6.6.6.6.q.1.d # p 9 a 3 3 9 9 5 q j 3 5 3 3 3 5 3 1 7 3 q 0 q 3 3 U Y Y Y K 0 R Y I U K K G G U H 0 U U U P H U H q 0 s K K s 0 I I R R Y Y Y U R Y P H q j q 0 j U U q Y ' T ` K K q & 5 3 2 6 6 - 1 2 7 = & - 2 2 2 2 6 - + + = 8 8 8 8 - q m m 0 q 8 8 7 U Y ` T ] T K R R 2 i q 9 a 5 p p 3 p 3 2 3 9 a h 3 7 a 9 m a 7 q a d m s h a 9 a 9 q s s s s 7 7 9 j q j j h h s K m 0 0 K H H H P G 0 0 0 j q j 3 j j j j H j j 1 1 & % & & & % & 1 & @ & 1 & 3 1 & % + @ % + @ & - - = - 2 - 3 4 & - % & - 2 3 1 3 2 1 3 3 8 q 0 8 q 3 1 3 3 3 1 . y n m q m q q q q 9 8 8 3 3 8 3 8 9 q q q q 8 8 8 3 3 3 3 3 1 2 2 5 2 2 5 2 8 8 8 4 8 3 2 2 2 2 2 2 2 2 - - 1 2 8 3 8 3 2 3 2 2 2 2 2 - - = - 1 1 1 1 2 3 2 1 1 1 = 2 2 1 2 2 - - 2 - - 2 - 2 2 2 4 8 2 8 8 8 8 2 2 2 2 8 8 8 8 8 2 8 2 8 2 2 8 8 2 2 1 1 2 2 ",
"] ] ` ` | } q.1.:.] ] ' ] } ' Q ` ] :.6.q.0.t.t.e.t.b.t.0.q.1.6.6.1.1.1.:.] { | :.<.<.q.:.} 4.] { :.7.4.4.:.7.:.:.4.#.| [ [ ] ` [ [ | | +.| | { } :.| [ [ ] @.| | ) [ ` [ | #.[ [ | #.} #.#.#.4.#.:.} } } { [ [ Q Q [ | | } 4.4.6.t.e.t.t.0.t.t.t.t.t.v.t.4.t $ p 9 p 9 3 8 j q 9 3 3 3 j 3 3 9 3 1 8 j 0 H 0 3 q U Y Y G H H U I I U H K K K K H G L K K P H R K 0 0 K H K 0 0 I I U R U Y R U R U P H q 9 q 0 q R R q T ] T T U K q - 2 5 2 1 6 - 2 1 3 = & 2 2 2 2 2 2 - + + & j 3 3 8 2 q m m m 0 8 8 q m T T T T T U K K 6 u a 7 9 8 p 7 5 9 2 3 3 q 9 s 5 7 p a q a 7 q q a m i 0 9 3 q 9 q s h s s j 3 5 3 q j j q 0 s s 0 0 s K G H H P K q 0 q j j q j 8 q q 0 q q 3 1 3 & @ & & & % % 1 & # & 1 & & 1 & % . + % + @ % - - = - 1 1 1 - & - % & - 2 3 - 3 2 - 3 j 9 q 0 q q 8 2 3 j j 2 . r U s h q q q 9 8 8 7 q 9 9 9 9 7 9 7 8 9 9 8 8 8 8 2 - 3 2 2 8 2 2 2 2 2 8 2 - 2 8 2 2 8 - - - - : 2 2 : 2 2 8 2 4 2 2 : 2 : - 2 1 1 1 1 2 2 2 3 8 8 3 8 3 2 - 3 2 2 2 2 3 8 2 2 2 - - - - - - : : : 2 2 : 2 > > 8 2 2 8 8 8 8 2 8 8 8 8 m 8 8 8 8 8 2 2 8 2 ",
"4.<.| | | ] | <.4.q.:.<.<.} } { } | { 4.0.1.1.6.6.6.6.0.i.t.6.t.6.q.t.6.:.} <.| } 4.4.4.4.4.} ] 1.:.} #.| | ] ] [ { 4.:.:.:.@.7.q.1.-.} } } 4.} 4.4.:.} { [ [ | | | ' _ ` [ Q ` _ I ^ _ } #.} #.| #.4.#.} #.| | | [ [ | [ [ ) [ [ _ ' [ { { ] <.1.1.1.1.4.*.t + 7 p t 3 j 9 9 9 9 8 3 7 j 3 3 9 1 2 8 j q 0 q j H Y Y R P H H Y Y K P K K P P K s K U K P P G H 0 q 0 K H s q q U I K K Y R R R R U R H q 8 9 m q U m q T ] T T R 0 7 = 6 3 6 2 1 - 2 2 3 = % - 2 2 = 2 - - @ + & j 3 7 8 2 m m m q 7 8 8 8 R T ] ] ] T U P K 3 t p 7 7 8 p 5 5 9 6 6 9 9 q g 3 q 7 a s q q a a a m a p q 7 p 9 a m s s h 3 j 9 9 q j 9 q s L K 0 0 0 K H K P I H h j 9 j j 8 j j 8 q q q q 3 2 1 1 @ % % & & % & 1 # % & & 1 3 & @ + + @ @ @ & - - = - 2 1 2 2 = - % & - 3 3 2 1 1 1 3 8 9 q q q q j 1 3 3 3 2 . w s p q 3 3 3 8 3 3 3 8 7 3 5 7 3 2 2 2 3 4 3 2 8 8 8 3 - - - - - 2 2 8 - 2 : = = - - 2 8 8 8 8 8 2 2 2 2 8 8 8 2 m 2 8 8 2 2 1 - - - 6 2 2 2 3 3 3 3 3 8 3 8 8 8 8 2 8 8 2 8 2 8 2 8 2 8 8 2 2 2 2 2 2 2 2 2 8 8 2 2 8 2 8 8 8 8 2 8 8 8 2 2 8 8 8 8 m 2 8 8 ",
"] ] | _ ` ] <.q.4.q.1.4.4.] <.1.} 1.1.4.6.4.] ` ' ] #.{ <.} 1.q.q.i.i.t.t.i.t.t.t.v.t.t.i.i.6.q.4.1.*.} :.*.1.7.q.4.:.} 4.} 1.4.q.6.4.} ] <.4.6.1.q.6.0.1.} [ { ' | } :.| } #.[ [ | [ ' ( ` [ ` ( [ #.4.4.7.4.#.#.:.#.} } #.| #.#.| | ] | ` I [ q.6.*.{ ' Q r # p p 7 3 9 9 q q 9 8 3 9 j 3 3 9 1 3 3 3 q 0 j 3 H Y Y Y Y H q G I P K G P K K R 0 K U K K K H G 0 9 0 m H 0 0 q P I P K P H R R R U P H q 9 j s 0 U m q U T T T U s 8 & 2 3 1 2 - - 2 2 8 - = - 1 1 = - = 2 @ + = 8 3 8 8 3 m K m 9 8 7 8 7 U T ] ] T Y Y R R 3 u q 8 t 3 t 5 7 3 1 3 5 q p p 3 9 9 s h 7 t q 9 a m a p p 7 a p q s s g h 8 5 q 9 9 9 8 q s K s 0 G 0 K K U P P K 9 0 9 3 q q 8 8 q j q j q 3 1 1 & % % @ & & & & 1 % % 1 & 1 3 1 & . + % @ @ % - 1 % = 1 2 1 1 1 1 & % = 2 3 2 1 1 1 3 9 9 q q 0 q 8 3 3 3 3 3 . > 9 3 3 5 5 7 2 3 3 2 2 7 3 3 2 - - 1 2 - - 2 2 2 2 2 3 2 2 2 2 - : 2 2 2 2 : - 2 - 2 2 2 2 2 8 8 2 2 2 2 8 2 2 2 2 2 2 2 2 2 2 3 3 2 2 2 3 3 2 3 2 1 2 1 2 3 8 8 8 2 2 2 2 8 2 2 8 2 2 2 3 2 2 2 : 2 2 2 2 : 8 2 8 8 2 2 2 2 2 2 - 2 2 2 2 2 : 2 2 : - 2 2 - ",
"] | ] | ` Q ` :.4.<.q.4.1.} <.q.6.q.1.1.1.} [ _ [ } 4.4.1.6.1.1.1.2.q.i.6.u.i.6.i.6.6.6.6.w.i.i.6.t.i.i.i.4.<.<.4.q.4.} 4.7.q.q.4.6.t.0.4.:.` #.0.6.1.} <.4.| ] { :.<.} | ` ~ ` _ } } [ | | | | | ` ` _ [ 4.q.#.| } | <.:.} ' ~ ` #.7.9.4.#.| ' } | [ Q ` Q 2 $ p 9 3 j 8 q q j 9 j j 8 9 3 j 9 1 1 3 3 q 0 j 3 H T Y Y R H H Y Y K H H P K P K 0 R K K R G H G q q 0 K K s q 9 P I P H P H H R R Y R G 9 5 9 G m U m m T ] T T R K 7 % 2 5 1 2 2 6 2 1 - = - 2 6 - - 2 = - @ + = 5 5 5 - 2 q K K q q 8 4 8 m T ] } T Y Y R K 3 t a 3 7 7 7 2 7 6 1 3 9 7 q 9 3 9 7 s a p q p 9 q s a a 7 9 p p h s L s q 5 3 9 9 q q j 9 s K H s U 0 s H H R I H 9 9 9 3 q 0 j q q q q q q 3 2 1 & % @ @ % & @ & 1 % % & % 1 1 & & + + % @ @ & - 2 = = 2 1 2 1 1 1 = % - 2 8 8 1 - 1 3 8 q 0 q q q j 1 3 3 3 1 . > 9 3 1 1 1 2 1 2 2 3 3 2 3 3 3 8 8 2 2 - 8 8 2 2 3 2 2 3 3 - 2 : : 2 - 2 2 2 8 2 3 8 2 2 8 8 8 2 4 8 8 8 4 8 2 : 2 : 2 2 2 2 3 2 2 3 8 8 3 2 2 2 1 2 1 2 2 2 2 8 2 8 - 3 3 2 8 8 - 2 2 2 2 2 2 2 2 2 2 2 2 2 : < < 2 8 : 2 : = # = = = 2 : = : : : : - - - - ",
"} <.q.1.q.q.q.q.1.q.} 1.q.q.6.u.t.t.t.t.0.1.Q I ` ` 1.q.6.t.t.t.i.t.6.i.i.t.u.U.U.t.i.i.q.2.0.q.1.4.q.q.<.4.q.6.q.4.q.-.4.0.0.0.t.0.6.1.] :.} ] } q.q.q.4.4.} } 4.#.{ { *.[ ` [ } | { } { <.:.<.%.#.} [ } -.-.} #.| [ [ ` } | #.[ | | [ } #.4.%.:.:.| ] | ] 4 * a 9 3 j q q q j 8 8 j 3 j 3 9 9 1 3 1 j 0 q j 3 H Y Y P P H G Y P R H h L K K K H H P P P P H 0 0 9 0 K G H H 3 K I L K K H H R U U R H 9 7 9 s 0 U m q T ] T T K K 5 % 2 8 2 2 1 - = 2 2 = - 4 - & - 6 & - + + = 3 4 2 ; 2 m m m q a 7 2 8 m _ ' <.T T U R U 3 u q 3 7 t p 3 5 1 1 6 p 9 p 7 3 p 9 s 9 t 9 9 j q g s p 7 p p p s m m s q 3 j q h q q 9 8 0 K s G U s 0 K H R Y H 9 R 8 3 q 9 j q q q 8 j j 3 1 1 1 @ @ @ & & % & 1 & % & % 1 3 1 & + + % @ @ & - 2 - - 2 1 1 - - 1 & % = - 3 j 1 & 1 3 8 q q q q q 3 1 3 3 3 3 . , 3 - - = 1 3 3 2 3 3 3 2 2 1 2 2 3 3 2 2 2 2 2 2 - 3 - 2 - = : : : : : : 2 : 2 2 2 2 8 2 8 8 2 2 8 8 8 2 : 2 2 2 2 2 8 2 2 8 3 2 2 2 2 3 3 5 2 3 2 2 3 3 8 7 8 8 2 8 2 2 2 2 - - - - - - - - : = 2 2 : 2 : 2 : : : 8 : 2 2 2 2 = = : 2 : : : - - - - - - 2 - ",
"Q Q ` Q ` ` ` ` ` ` ` ] 1.q.q.q.6.0.e.i.i.4.4.q.1.1.<.<.1.6.4.4.q.q.q.6.6.6.i.t.t.u.u.n.n.n.u.t.6.6.<.` Q Y | 4.8.4.4.4.] } 6.q.4.6.q.1.] ] ] } -.=.] <.1.<.-.9.} ' 4.<.} :.1.1.4.} :.:.+.] [ } 4.} -.| | } } ;.q.4.4.4.%.4.[ ` | [ ` [ } :.#.` ~ ] #.7.:.` w + p 9 3 5 q q 8 8 j 3 q 3 3 3 9 3 1 3 1 j 0 0 3 3 K Y R U Y H H H U G q 0 K G K 0 q H H R H P H 0 j 0 R K G H 0 3 K I P H P R H U R Y R H 9 9 5 s R U 0 0 T ] T T U K 5 % 2 2 3 2 1 1 = 1 - - - - & % = - & & + + = 3 8 8 ; 2 q K R q 0 8 2 8 U T ` } T T U U R 8 t a 3 7 7 7 3 3 2 1 2 p p p 7 5 9 q s 8 9 q q 8 9 a h q 9 9 q p s m G q q 3 3 9 9 s h 9 9 m U 0 0 K 0 K K 0 H U 0 0 H j 9 q 0 j j q q 8 q j 3 1 1 1 & @ @ @ & @ & 1 & % 1 % 1 3 & & + . & @ # & = 2 - - = 1 1 - & 1 - % & - 3 8 1 - 1 3 q q q q q q j 1 1 3 3 2 . , 8 - 1 - 1 3 2 3 3 8 3 1 - 1 2 2 2 - - - - - - - - - - 2 - - : : = : : 2 2 2 2 2 2 2 2 2 2 2 8 8 2 4 2 8 8 2 2 2 2 2 4 8 8 2 2 8 5 5 5 8 8 8 2 3 - 2 2 1 2 8 2 2 2 : 2 - - = - = = - % = - - : 2 2 2 2 2 2 2 8 8 2 2 2 8 8 2 2 2 2 : 2 2 2 : - - - = = = - = ",
"| ] ` | | | | | ` _ | | | } | ] ] ] ] ] 1.q.6.<.<.<.<.| ` | ] | ` T _ T } } <.6.q.q.6.q.q.q.6.i.t.0.6.:.<.4.<.q.t.0.0.i.0.1.4.0.t.t.0.q.4.1.6.q.4.2.6.1.} 1.4.6.q.q.4.<.' q.6.4.4.4.} } } 4.7.} *.-.*.4.-.{ } _ ] 4.} :.} } #.4.| ~ [ | q.-.#.4.| { #.4.{ ( 4 $ a 9 j j 9 9 8 j 3 3 9 3 3 j q 3 3 3 3 9 q q 3 j U Y R Y G H H G U R q H K K K H 0 0 H P R P G j j 0 G G H G 0 j K I K H U H H P R P R H 3 j q 0 R U 0 0 T T ] T Y H 5 % : 8 2 3 - - = 2 - = - - - % - - & & + . = 3 5 8 ; 2 0 m m q 0 7 2 8 m I ] ] ` T U Y U - t a 8 p p q 5 2 1 1 3 p a 7 3 3 3 9 h 7 q 9 j 9 9 q 7 5 7 q 9 h s s s h j 3 j j j H 9 q 9 0 K s 0 K 0 0 0 m R U H G q j q q q q q q 0 j j q 3 1 3 1 & @ + @ & % & - & & 1 & 1 1 & & + + # % @ % - - = - - 1 1 - % 1 - % % - 3 8 1 1 1 3 8 q q q q q 3 1 1 3 3 3 . > 8 - 1 3 2 1 1 - 1 1 1 2 2 2 - - 2 - 2 - = - = = - - 2 - 2 2 2 : 2 8 8 2 8 2 2 2 2 2 2 2 2 2 2 8 8 2 2 2 2 : 2 2 : 8 8 2 8 8 8 8 8 8 2 2 2 2 - - - 3 3 - - - 2 2 2 2 2 2 2 2 - - = = = - 2 - - 2 2 2 2 2 2 2 : : : 2 2 2 8 2 2 2 8 8 2 8 8 8 2 - 2 - - - = = ",
"| ] _ <.} | ] } <.<.<.<.| U T | Q _ [ :.q.} ` ] <.q.q.] _ ` | Q _ Q _ V U _ ` } } <.:.} } ] ] } <.1.*.] 1.1.4.4.4.6.6.0.t.t.t.6.t.i.t.t.v.t.t.n.t.t.t.1.0.q.6.4.4.1.} } :.*.4.-.] { -.4.:.4.*.4.#.] } | } -.} ` Q [ #.4.#.*.4.4.} ' Q ` | } -.| [ } 4.| ] [ 6 + q j 3 8 9 9 9 3 3 3 9 2 3 9 9 3 j 2 1 9 H 9 2 9 U Y R U G H G G R U 0 0 G K K 0 0 H H R P K H j q 0 K G G H H 3 s U H H U H H P R P R H 9 7 9 0 K K R 0 T T T T U R ; # 2 2 2 7 1 - = 2 2 - = - - % & & & ; + + = 2 2 - - 8 m m m q q 8 8 7 U U ` ] T T T I R 8 u m 8 p p 7 2 2 2 1 3 9 g 9 2 3 9 9 q 8 p 9 j 9 9 a 9 3 9 9 t p m s s p j 3 3 j q q q q 9 s K K s K s U 0 K G U 0 q q j j 8 0 j j q 0 j q j j 1 3 1 @ @ + @ @ & & 1 & & & & & 3 1 & + + @ % @ & - - & & - - & & @ 1 1 & @ = 3 8 1 1 1 8 8 j 0 0 8 q j 1 1 1 3 2 . < m 7 3 2 1 1 1 2 - - - - - - - 2 2 2 2 2 - - - - - 2 2 2 2 - 2 2 2 2 2 2 2 2 - 8 2 2 2 2 2 : : 2 2 8 8 2 8 2 2 2 2 2 2 2 2 2 2 3 2 2 2 2 2 - 2 3 - 3 2 8 8 2 2 2 2 2 - - - = - - - - = = = & = = = = = 2 : : : : : < = = = = 2 : 2 2 2 : : 2 2 2 - - - - - - ",
"U Q ] } | _ I ` | :.} | | ] _ T ` | ` ] 6.4.<.| } #.<.q.:.<.<.+.W U _ _ T _ _ _ U _ _ Q ] | <.q.} 1.<.| ] 1.1.] [ | <.| <.<.4.q.0.6.6.t.0.6.0.0.6.6.6.6.6.0.4.1.6.1.6.0.6.q.6.q.4.] { [ ' [ | { } q.4.<.} ] | #.] ) ` ] %.-.} { { | 7.} } #.[ ` { 4.<.{ } ] > $ q 7 8 3 q 7 8 3 2 3 9 1 3 q j 3 j 2 3 q H j 1 q Y R H P H H H G G H 0 0 H G G H 0 0 H R Y P H 3 j G G Y G G H j H Y G G Y H H H R U R H q j q 0 H U 0 0 Y Y =.T U G 6 % 2 3 3 3 1 & & 6 1 % & - 1 % % & - = . . = 3 5 2 - 5 0 m m q q 3 2 q m I ] | T T U U U 3 d s 5 9 H 3 3 1 1 1 3 p a j 1 3 9 9 9 3 q 9 8 9 9 h 9 9 9 9 9 s s s h a 7 3 2 9 q q q j q H K s G s 0 G H H H P H 3 j 9 j j 0 j j j H q 8 j j 1 1 1 % @ + @ @ % % = - & = & & 1 & 1 @ + + @ @ & & 1 % & & 1 1 & @ & 1 & % & 1 j 2 - 1 3 j q 0 0 8 j j 1 - 2 3 2 . < 8 2 2 - - = - 3 8 3 - - - 2 4 8 8 8 4 8 2 - 2 2 2 2 2 2 8 2 2 8 r 8 8 > 8 r r 8 8 8 8 8 2 2 7 4 8 2 2 2 2 2 2 : : : : : : 8 8 2 2 2 2 2 - 2 - 3 2 2 2 2 2 - - 2 2 - - - 2 - - - = = = = - 2 - - - - - - - - : 2 : - - 2 2 2 2 2 2 2 2 : 2 2 - 2 2 2 2 2 2 : ",
"m L W Q | ` | ] } ] <.<.<.} <.<.:.:.q.q.4.<.<.q.q.0.1.<.} <.q.q.q.:.<.:.<.| | | | ` Q Q ^ W Q _ +.} } <.:.<.<.| ] | +.` ` _ [ } 4.q.4.} } | [ ] ] :.<.#.| } <.4.<.{ 4.t.6.t.0.q.7.<.7.4.[ Q Q W Q | 4.4.4.*.-.*.4.{ ` | -.4.4.4.} 4.4.4.q.| | | q.7.7.} | ` ; $ a 8 3 9 q j j 1 1 3 j 3 3 q j 3 j 2 3 q q j 1 H Y P H Y H H H Y P H 9 H G G G j 0 H H R R R q j j G G G H G H j H H Y H H H H Y U R U H j j 9 0 H U 0 0 U Y T =.U 0 - @ 2 j 3 3 1 & % 1 1 % = = = # % & 2 % . + = 2 2 5 = 2 0 R m q m 7 - 8 m I T ] ] _ Y R R 4 t h 5 p j j 3 1 1 1 2 h h 5 1 j 9 9 7 3 9 5 9 9 9 p 9 q 9 p 9 a 0 s q 9 9 3 3 9 j 0 q j 0 H K G 0 G 0 s G H H P K j q 9 3 8 q q j j H j 8 q j 1 1 1 % @ + + @ % @ - - & - - & 1 & 1 % + @ @ @ @ 1 & & % & 1 1 & @ 1 & % @ & 1 3 3 1 - 3 8 q 0 q j 9 8 1 2 2 3 2 . > m 2 8 8 3 - 2 2 2 8 8 3 3 - - 3 ; 2 2 2 2 3 2 3 8 2 2 8 t 7 8 r 8 2 8 8 8 2 8 8 > 8 8 8 : 8 2 2 2 : : : = : : : : : : : : : = = = = = - - - 2 - - 2 2 2 2 2 2 8 8 2 8 8 2 2 2 2 2 2 2 2 - - - - - - - - - - = : : 2 : : : 2 : 2 : 2 8 8 8 8 2 2 2 2 : : : 2 ",
"q.<.} ] | ] ] ` } | T _ | :.<.<.q.q.q.q.q.q.q.<.q.6.6.q.q.<.| <.<.<.] ] | | | | _ ` | _ _ W _ Y Q Q Q ] | ] ] 7.| Q I _ _ | @.:.7.q.4.q.#.| +.) Q Q | } #.` | } 1.q.0.6.4.<.<.| I _ ) Q ` +.` [ ~ Q [ 1.4.1.4.} <.} ] 4.q.4.4.1.4.4.4.4.} [ | q.:.4.<.[ | ` 2 $ q 7 j 8 9 8 j 2 1 2 3 3 3 j j j 3 1 j q q 3 1 H Y H H H H h q G R H j 0 H G H H H H H U R H q q H G H H H G G q H G H H Y H H R U R R R j j q 0 H R H H U T T T Y H 1 % 3 3 3 3 & & % 3 - % - & & # & & 2 % + + # 2 2 2 = 2 q m m 8 q 8 2 3 m U T T T T U m R 2 d 0 3 9 j j j 1 1 1 3 h q 3 - 5 q 3 3 j 9 j j 8 q q p q 9 9 s q 0 K 0 q j 2 j 9 j 0 q j q H H G G 0 0 H H P H P K 9 9 9 2 3 q q j q j j q q j 1 3 & @ @ + + + % % & 1 & 1 & & - 1 1 @ + + @ @ @ 1 & & & & & 1 1 # & 1 & % & 1 1 3 1 1 3 q q 0 q j q 8 2 2 2 8 -   y m 8 8 2 2 - 3 8 7 7 8 7 8 8 3 3 8 4 8 8 r 8 8 7 5 r w 8 7 7 8 8 r 2 8 8 2 2 2 2 : 8 < : : : 2 2 = : = : 2 : : : : : 2 : 2 2 2 2 2 8 2 2 2 : - - - 2 2 2 2 2 2 2 2 2 - 8 - 2 2 - 2 - - = = = - = - - - - - - = 2 2 2 2 2 2 2 8 2 2 r 8 2 8 r 8 2 2 : 8 2 2 : ",
"i.i.i.t.i.i.q.q.<.<.<.` T W | | | <.| } ] | q.q.:.} :.q.4.<.:.<.<.| | _ | ] | ] #.<._ U _ ` | | } q.q.q.4.q.1.q.} } | <.] Q _ <.-.0.4.7.q.#.] | #.:.q.4.<.q.4.4.#.} ] { { ` ` W I _ Q _ [ } 7.} ` } 4.4.<.] ' ' | ] 1.1.1.-.4.1.4.} ' [ [ [ 4.4.{ 7.] _ #.[ 5 $ q j 3 9 j 3 q 3 1 1 3 3 j j j 1 3 3 3 H H 3 3 H Y Y H Y H H H H K H j 0 H G G H H 0 H P R H H q H G H H H H H 0 H H H H R H H Y R R R Y j 3 0 9 H U R 0 Y T T T U 0 6 & 3 1 3 3 & - & 2 1 # & % % % - - 2 # + $ # 8 2 2 = 2 q H m q 9 8 2 3 m T T ] T I Y m m - r 0 j j h 3 1 1 1 1 1 9 9 3 - 9 j j 3 8 j 5 8 j q h q q q 9 s q s m a q j 2 3 q j j H j q 0 0 G K s 0 h H H H P R q 9 q 3 3 q q 3 j H j 8 j q 1 1 1 @ + . + @ % % & 1 - - & @ - 1 1 & + + + @ @ 1 % & & & & 1 1 # & 1 & & & 1 3 j 1 & 3 q q 0 q j 8 j 2 1 2 2 2 . > 8 2 2 2 3 8 t 9 q q q 9 7 8 8 3 8 9 t 7 7 7 8 8 8 5 8 8 8 8 2 8 2 2 : : : 2 2 : 2 2 : 8 8 2 2 4 8 2 8 8 8 8 8 8 8 8 8 8 2 2 8 4 2 8 2 2 2 - = = = = % = - - - 2 - 2 - - 2 - - - - - - 2 2 : - 2 - = = = - - : : 2 2 2 2 2 2 2 8 8 8 2 8 8 8 2 m 8 2 2 2 2 2 ",
"i.U.t.u.i.i.u.i.q.] ] | ` q.>.q.q.9.q.q.:.:.:.<.<.:.<.<.} <.q.q.q.q.q.i.q.q.} | ` | ] :.} <.<.<.<.1.q.<.<.q.1.<.<.| | _ | | ) } } } #.:.{ } 7.6.i.4.1.4.6.t.t.6.} ` Q [ :.9.#.` _ Q ^ #.7.q.-.{ } 1.1.1.1.} 1.} 4.1.1.4.4.*.} { { | [ ` ` :.q.<.4.4.:.#.} ` 4 $ 0 8 8 q j j q 3 1 1 1 2 3 j j 1 3 3 j q h 1 j G Y H U H H H H Y K H j 0 H H H H H H H U R H H H H H H H H G H H H H H H R H H R R H R H 0 3 h j H R R H U T T T U R 2 = 3 2 2 3 1 & % 3 1 @ = % @ @ & & 2 % @ @ # 8 3 6 & 2 q m m 9 7 8 - 8 m T T T T T U K G 6 d s 8 q j 3 3 1 1 2 3 q 9 3 1 9 8 j 3 j j j 8 3 h 0 a q 9 9 0 0 s s 0 9 j 2 3 9 3 q 0 0 0 0 K s 0 G 0 q G P H G H j j H 2 1 0 j j H H H H 1 H 1 1 1 @ @ + . @ @ @ & 1 & & % @ & & 1 1 @ + . @ % & % & 1 % % & 1 % & & 1 & & 1 3 j 2 - 1 8 0 H H 8 j j 1 - 8 3 2   > 0 7 8 9 9 9 9 9 7 8 9 7 7 3 4 8 8 7 q 7 7 7 2 2 3 3 2 2 8 2 8 2 8 8 8 8 2 2 2 8 2 : 8 2 : : : 8 2 8 8 2 r 8 2 2 2 : 2 2 : 8 2 2 8 2 2 : - = = = = - & - - - 2 2 2 2 2 2 2 8 2 2 - - - - - - = = : = - - - - 2 : : : : 2 2 2 < 2 8 : 2 2 : 2 2 2 2 2 2 2 : : ",
"i.i.i.t.t.u.i.i.i.<.<.@.} | | <.q.q.q.q.t.t.i.6.6.q.q.2.<.| | <.<.1.<.<.1.1.q.1.<.| ] } ] <.] <.<.<.<.q.q.1.<.<.] | ` _ W W Q _ Q _ ` _ _ [ ] q.6.6.1.} } 4.<.] | ] _ ] #.] { Q U E | q.4.<.| { :.q.6.6.1.] 4.0.1.} ] } } { [ / { 4.%.` [ | #.#.] :.{ [ :.I 5 $ q j j q 3 j j 3 1 1 1 1 3 j j 1 1 3 q H q 1 j Y Y H H H H H H R P 0 j 0 H H H H H H R Y Y H H H H j H j H G H H H H H H Y H H Y R U Y Y q 3 q j R R R R T T =.T Y R 1 = 2 1 3 3 1 & % 1 - + = & % @ & & 3 @ + @ = 2 3 - & 2 s m m 9 8 2 2 2 K Y T =.T T I U 0 6 r s 7 q 3 3 3 1 3 1 3 q 9 3 2 9 j 8 3 j q j 3 j h 0 q q 9 9 0 0 s H 0 j j 1 3 9 3 9 0 j q m K 0 0 K q 9 H G H H H j j j 3 1 q j 1 j H j j j j 1 1 j @ @ . + + @ @ & - % - & @ & 1 1 1 @ + . + @ % % % 1 % % 1 & @ & & & & 1 1 3 j 3 1 3 j 0 0 q j q 3 3 - 2 3 2 . r 9 8 q 7 7 9 9 q 8 3 2 2 3 3 3 3 8 8 8 8 8 8 7 7 7 7 7 7 7 8 8 r 2 2 : : 2 8 2 : 2 : 2 < : 2 : : 2 8 2 8 2 2 8 : : 8 : : 8 2 2 2 8 2 2 2 2 : - 2 - - 2 - 2 2 2 2 2 - - - = - - 2 - 2 - 2 2 2 8 2 8 2 8 2 2 2 2 2 2 2 : : 2 2 2 : : : - = = = = = = = = = : = ",
"] ] <.<.1.q.i.q.6.i.i.q.:.:.:.` | <.:.:.q.q.i.i.t.x.i.q.i.:.<.q.<.q.6.q.q.1.1.q.q.2.q.1.2.<.=.<.1.<.] <.<.<.q.1.<.1.<.| | ` _ L Q #.` | ] | } <.1.1.} #.} *.4.1.{ } | ] ` | [ _ Q ) #.4.1.} { <.1.4.4.1.] <.<.1.5.*.' ' ` [ ` [ ` ` / [ } #.} Q _ Q ` | :.` r # q j j q 3 j q 3 1 1 1 3 3 j j 1 1 3 q q j 3 q U R H H H j H R Y H q j H H H H H H H R R H H H H H H H H H G H H j H H H Y H H Y Y R U H H j h 3 R R R R T T T T U K 2 & 1 3 3 3 1 & % 3 - + - = @ @ % 1 3 @ + + = 2 3 - & 3 m m q 8 3 2 - 8 U T T T T U U U 0 6 t s 3 9 3 3 1 3 3 1 3 9 9 3 5 j j 8 3 j 9 j j 9 q 0 q 9 9 j 0 q s h 0 9 3 2 3 j 3 9 0 q 0 G K 0 G G 0 q G G H H R H H j 3 3 j j j H H H j 1 H 1 1 1 & @ . + @ @ % & 1 & & % @ & 1 1 1 @ + + + @ % # & 1 % % & 1 % & & & % 1 1 1 8 3 1 3 q H q j q q j 3 2 2 8 2   r q 8 j 8 8 8 3 8 9 j 7 8 9 9 q t 7 8 8 8 7 7 9 7 9 7 7 8 7 3 8 2 2 2 8 : : : 2 2 8 8 2 2 8 : 8 8 2 > 8 8 r 8 8 8 8 8 8 2 2 2 2 8 : 2 8 - 2 - 2 8 2 3 2 2 2 - 2 - - - - - : - : 2 2 2 2 2 2 2 2 2 2 8 2 2 2 2 2 = : = : : : 2 : 2 : : : - - : : : = 2 : = : 2 ",
"` | ] <.3.6.i.i.6.i.q.q.1.<.<.<.<.:.} <.| | <.<.q.q.i.i.i.q.q.<.<.1.1.q.<.1.<.2.6.6.q.q.1.1.q.2.q.q.q.2.q.3.q.q.1.q.q.1.:.<.} +.] [ ] ] ] 4.1.4.} ' ' } 1.6.4.q.7.} ] Q Q [ [ [ } 4.*.} } 1.6.6.5.1.1.] ] ] } } ] } { ' ' { Q Q [ ` [ *.} ] | Q ` <.} <.4.` 2 $ q 8 j 0 3 j j 3 1 1 1 3 3 j j 1 1 1 q j j 1 H P U R P H j H R R H q j H H H H R R R R Y R H H H H H H H H H H H j H H H Y H H H Y R H H 0 3 0 3 0 R m R T T T Y R R - & 1 2 3 3 1 1 & 3 - + - & @ + % 1 1 @ + @ - 3 3 2 & 3 m m q 8 8 3 - 8 U T T T Y R Y U 0 - p G 8 q j 1 3 3 3 3 j 9 9 3 3 9 3 j 3 j q q j j 0 q q h q j 0 q h 0 q 9 j 2 3 j j q 0 q 0 U G 0 H H H q H H H H H q q q q 3 q j 1 j H H 1 H 1 H 1 j & @ + + @ @ @ & 1 & & & + & & 1 1 @ @ . + @ % % % 1 @ & & & @ % & & % & 1 1 j 3 - 3 8 0 q q j 8 j 3 - 2 8 4   r 0 3 8 8 8 3 3 3 3 3 8 9 9 9 8 8 8 8 3 8 7 9 j 8 7 5 7 5 5 5 2 8 2 8 2 8 8 2 2 8 8 r 8 2 8 8 8 8 8 2 2 2 2 : 2 : : : : : 2 : : : 2 2 - 2 2 2 2 2 2 2 2 2 2 2 2 2 - - : - : : 2 2 8 2 8 3 8 8 3 2 2 2 2 : 2 : : = : : = : : 2 : : : 2 - - 2 : : - : : : 2 : = "
};
