/* XPM */
static char *Wood_128[] = {
/* columns rows colors chars-per-pixel */
"128 128 251 2 ",
"   c #370E02",
".  c #3D1102",
"X  c #441402",
"o  c #4C1A03",
"O  c #4A1B06",
"+  c #531E03",
"@  c #581F02",
"#  c #562004",
"$  c #5C2403",
"%  c #5C2609",
"&  c #59250A",
"*  c #5A2A14",
"=  c #562914",
"-  c #612704",
";  c #632A05",
":  c #6A2D06",
">  c #642B0B",
",  c #6A2E0A",
"<  c #612708",
"1  c #6D310C",
"2  c #693008",
"3  c #73350D",
"4  c #76380E",
"5  c #78380D",
"6  c #642E12",
"7  c #672F13",
"8  c #663114",
"9  c #6C3314",
"0  c #65331B",
"q  c #6C351A",
"w  c #6D391D",
"e  c #6B381A",
"r  c #733612",
"t  c #753914",
"y  c #7B3C15",
"u  c #71371A",
"i  c #743B1B",
"p  c #7B3E1A",
"a  c #783712",
"s  c #6C3A22",
"d  c #693924",
"f  c #743C22",
"g  c #7A3E22",
"h  c #743F28",
"j  c #7D411C",
"k  c #7B4019",
"l  c #744225",
"z  c #7C4323",
"x  c #75422C",
"c  c #7B452A",
"v  c #7D492C",
"b  c #7E4825",
"n  c #7C4A33",
"m  c #784935",
"M  c #7D513B",
"N  c #6E4335",
"B  c #7A5242",
"V  c #803F14",
"C  c #803F19",
"Z  c #803E0F",
"A  c #834215",
"S  c #83431C",
"D  c #89471C",
"F  c #8B491E",
"G  c #87481C",
"H  c #914E1E",
"J  c #94521E",
"K  c #834522",
"L  c #884722",
"P  c #854A25",
"I  c #8C4B23",
"U  c #844C2B",
"Y  c #8B4E2A",
"T  c #824629",
"R  c #914E23",
"E  c #914F2A",
"W  c #8D522D",
"Q  c #8A5029",
"!  c #945224",
"~  c #9A5526",
"^  c #9B5826",
"/  c #94542C",
"(  c #9A562A",
")  c #9C5A2C",
"_  c #95582D",
"`  c #834D32",
"'  c #854F36",
"]  c #855134",
"[  c #8C5432",
"{  c #83523B",
"}  c #8B543B",
"|  c #8E5836",
" . c #925632",
".. c #955A34",
"X. c #9C5C33",
"o. c #91563A",
"O. c #955B3A",
"+. c #9B5E3A",
"@. c #995731",
"#. c #A25D2C",
"$. c #A85F2B",
"%. c #A25E33",
"&. c #A15F39",
"*. c #9E6136",
"=. c #9D613B",
"-. c #96613E",
";. c #9F602F",
":. c #A4612E",
">. c #AA622E",
",. c #A46234",
"<. c #AB6534",
"1. c #AD6936",
"2. c #A4643B",
"3. c #AA663A",
"4. c #A6693D",
"5. c #AC6A3B",
"6. c #B26A35",
"7. c #B26D3C",
"8. c #B16833",
"9. c #B5713D",
"0. c #BA733E",
"q. c #AD703E",
"w. c #8C5A43",
"e. c #9C6343",
"r. c #9A6747",
"t. c #9D6C55",
"y. c #A46642",
"u. c #A46944",
"i. c #AC6C42",
"p. c #A46B4A",
"a. c #AC6E4A",
"s. c #A66744",
"d. c #B26E42",
"f. c #B16E48",
"g. c #AD7143",
"h. c #AD734B",
"j. c #A7714B",
"k. c #B47343",
"l. c #BA7543",
"z. c #BC7A45",
"x. c #B4744B",
"c. c #BA764A",
"v. c #B57A4C",
"b. c #BC7B4B",
"n. c #B57846",
"m. c #AD7452",
"M. c #A97557",
"N. c #B27651",
"B. c #B57A54",
"V. c #BB7C53",
"C. c #B87D5A",
"Z. c #A56F52",
"A. c #AB7C69",
"S. c #C27B45",
"D. c #C27D4B",
"F. c #C07743",
"G. c #C17F52",
"H. c #BE814C",
"J. c #BD8253",
"K. c #BC835C",
"L. c #BA865C",
"P. c #BC8563",
"I. c #BD8A6C",
"U. c #BA8767",
"Y. c #BC8C72",
"T. c #B68A71",
"R. c #BC947B",
"E. c #C4824C",
"W. c #CA844C",
"Q. c #CC894E",
"!. c #C6854B",
"~. c #C38453",
"^. c #C98653",
"/. c #C68954",
"(. c #CB8C54",
"). c #C3845A",
"_. c #C58B5C",
"`. c #CB8C5B",
"'. c #C88659",
"]. c #D18E53",
"[. c #D18F5B",
"{. c #CD9156",
"}. c #CD925C",
"|. c #C7905B",
" X c #D39256",
".X c #D2955C",
"XX c #D4995D",
"oX c #D99A5D",
"OX c #D89559",
"+X c #D08B4F",
"@X c #C38B63",
"#X c #CA8D63",
"$X c #C38D6A",
"%X c #C48964",
"&X c #CD9363",
"*X c #C5936C",
"=X c #CB946C",
"-X c #C89567",
";X c #D29563",
":X c #D49A63",
">X c #DA9D63",
",X c #D49B6B",
"<X c #DA9E69",
"1X c #D29668",
"2X c #C18F71",
"3X c #C49274",
"4X c #CA9673",
"5X c #CD9B74",
"6X c #C3967A",
"7X c #CC9C7B",
"8X c #C6987C",
"9X c #D29D74",
"0X c #D29E79",
"qX c #D08E60",
"wX c #DBA165",
"eX c #DCA46B",
"rX c #DAA46C",
"tX c #DCA573",
"yX c #DEA972",
"uX c #D4A37B",
"iX c #D9A67B",
"pX c #DCA97D",
"aX c #D6A276",
"sX c #E1A66D",
"dX c #E2A568",
"fX c #E3AB74",
"gX c #E3AE7A",
"hX c #E2A871",
"jX c #E6B27C",
"kX c #E9B47C",
"lX c #E09F5E",
"zX c #C89D82",
"xX c #CEA286",
"cX c #DBAC82",
"vX c #D9AD8C",
"bX c #D4A888",
"nX c #DEB18A",
"mX c #DCB393",
"MX c #D7AE90",
"NX c #E5B382",
"BX c #E8B681",
"VX c #E3B68B",
"CX c #EBBD8B",
"ZX c #E9B987",
"AX c #E6BC93",
"SX c #E1AE81",
"DX c #EDC08E",
"FX c #ECC494",
"GX c #EDC69A",
"HX c #F0C697",
"JX c #F1CEA2",
/* pixels */
"MXbXxXMXMXxX8XMXxXzXR.R.MXmXnXnXpXuXuX5XuXaX-X-X6XR.U.Y.Y.I.4Xm N.G.G.C.G.G.G.G.F.f.f.F.d.d.7.5.5.d.3.d.7.7.7.3.&.7.7.%.<.<.8.E ). X.X{.{.}./.H.H.9.H.H.!.!.(.!.z.Q.!.z.z.z.q.:.q.:.;.;.q.n.H.q.v b k b b k b b I P b k i j I G ;.! j k 2 l b G b 2 k b k 8 k k ",
"MXbXxXMXMXxX8XMXxXR.R.R.MXmXVXnXpXpXuXuXuX5XR.-XR.*XU.I.*XU.R.m C.G.G.G.G.G.G.G.G.f.D.F.k.k.d.d.5.3.3.,.&.3.%.%.%.&.%.%.%.%.3./ @X XXX{.{..XH.H.H.H.H.H././.{.!.n.H.Q.H.z.H.q.1.9.1._ _ 4.n.H.q.M b b J b b J b ! Q j b l k Q b ;.^ b j 8 8 b J b 2 k J k 2 k l ",
"mXMXbXMXMXxXxXbXxXR.R.R.MXmXmXuXuXnXuXuXuXuX5X5X-X5XT.R.7XY.*XM C.SX1XG.G.G.G.G.c.D.G.c.b.c.c.c.k.i.d.d.7.7.3.3.%.%.%.@.%.@.( L -X.X:X`.}.XX/.H.H.n././.|.!.{.(.n.H.{.H.H.H.q.q.q.4._ _ q.H.H.n.M _ b b b b b b W Q P b l b P P ;.^ j b k k P Q k k b b k e k b ",
"mXMXMXMXbX8X7XbXxXR.R.R.MXmXAXvXpXcXpX5XaXuXuX5X6X6XT.Y.Y.I.*XM G.G.G.G.G.G.G.G.c.G.F.c.l.c.l.c.l.l.7.d.3.<.7.3.7.8.3.3.%.<.<.( -XXX:X(.:XXXQ.H.!.n.{./.{.H.{.(.H.H.{.{.H.!.q.q.n.4.-.;.q.H.H.q.b ;.b b b J J b Q / P I i j W Q ;.;.b k k b G I k l b b b 2 k b ",
"mXbXvXmXbX7XxXbXzXzXR.zXvXAXVXnXuXnXpXuXuX5XuXR.4X6XI.3X*XI.3XM C.G.G.G.sXG.G.G.D.G.D.E.D.D.F.F.F.f.l.0.7.7.7.7.8.7.7.3.3.<.%.~ L.XX:X}.:XwX/././.H././.{.|.{.{.H.H.|.H.H.H.n.q.n.q.;.;.n.|.|.q.| ..v W Q Q Q b P _ P Q k l *.Q ;.;.P k e b P b b b J b b 2 l b ",
"MXvXMXmXMX7XbXbXxXzXR.R.mXmXVXnXuXnXuXuXuX5X5X5X6X6XI.6X4XI.*XM G.G.G.SXG.G.G.G.^.~.G.D.D.G.D.V.F.F.l.d.d.d.l.F.F.7.d.8.7.7.7.%.U.XXXX}.XXwX{././././.{.{.}.XX{.{.H.{.{.H.H.n.q.n.q.-.;.q.|.L.q.| *.b W _ Q Q J Q ..W Q l b ;.| ,.;.b j k Q _ b b b b b k e b b ",
"MXMXMXMXxXxXxXMXxXzXR.zXmXAXnXnXuXnXuX5XuX5XuXR.4X8XI.6X3XI.5XM C.G.G.G.G.G.G.G.D.b.~.G.D.D.F.F.f.F.F.d.F.F.l.d.F.d.7.d.7.7.7.%.|.XXXX.X:X:X_.J././.|./.|.}.XX}.|.{.{.H.|.{.n.q.H.q.;.4.q.|.L.q.-.-.b W _ Q Q Q P _ *.W l b _ W 4.;.b j k Q Q b b b b _ b e b ^ ",
"vXvXMXMXxXR.zXxXzXzX6XzXmXAXAXnXpXnXuXuXuXuX5X7X5X6X3X8X3XY.3XM C.0XG.0XG.G.G.C.V.G.G.c.G.c.x.F.F.f.d.d.7.d.7.<.&.<.<.&.%.%.&./ I.wXXXXXrXwX_./.H./.{.|.|.:X}.XX{.{.{.{.{.{.H.q.n.n.;.q.q.|.|.n.-.;.v Q | _ b Q Q W ..W P l ;._ ,.;.Q j k Q Q Q b ^ b b b e b _ ",
"bXbXvXvXxX6XzXxXxXzXR.zXVXAXAXVXcXpX9X7XuXuX9X7X8X6XR.5X4XY.5XM t.C.C.C.N.N.N.f.f.s.a.a.f.f.s.f.f.3.y.&.&.&.&.@.&.&.@.@.@.@.@.T -XrXXX}.yXrX}._.~.J.}.|.|.XX}.XXXXXXL.{.{.XXH.q.H.n.-.4.H.|.L.H.-.4.b [ | W P U Q W *...U U *._ q.;.J l b _ Q b b J b _ l e Q _ ",
"vXvXvXvXxX8XzXzXxX6XT.zXmXAXAXmXvXcXuX5XcX9XuX7X7X3X6X4X6XY.8XM Z.A.N.Z.N.Z.Z.f.Z.t.s.s.s.s.s.e.y.y.+.&.@.o.&.+.o.@.@.@.@.@.&.Y -XgX&X}.rXrX|./.J.J.}.|.}.}.XXXXXXXX{.XX{.{.n.n.n.H...q.n.|.L.H.r.=.v Q / W / U Q Q ..W b Q *.*.q.;.b k b Q Q l b _ Q Q b e b ;.",
"vXvXvXvXzXzX8XzXxXzXR.zXmXAXnXSXuXnXuX5XuX0X0X5X7X8X4X3X8XY.6XM Z.C.C.C.N.N.N.f.f.a.f.a.f.a.f.s.&.y.&.s.&.&.&.&.@.o.o.@.Y Y T g -XyXXXrXrXrX:X).H.J.{.&X}.}.XXXXwX:X|.XX|.{.n.q.H.H.*.q.H.|.|.H.r.=.Q ........_ W W *.O.] v =._ q.;.b e b Q Q Q Q Q -.| l l | _ ",
"vXcXbXbXzXxXxX0XzXA.R.zXmXmXVXnXuXcXcX5XiX5X7X3X5X7X6XY.4X2X6X{ A.C.G.C.N.C.C.N.G.N.N.m.f.a.f.s.s.a.s.s.s.&.w.+.+.+.+.@.@.o.@.h -XrX&XrXwXrX:X/././.XXXX}.:X:XXXrX:XXX:XXX|.H.n.H.H.4.n.L.XXL.H.j.4.v ....*.....| W ..*.W b -.;.q.;.b b b Q Q b _ _ ;._ l e Q _ ",
"vXcXcXzXzXzXzXbXzXA.zX6XMXAXcXnXcXcXcX5X9X4X$XT.I.7XI.$X4XY.4X{ t.C.C.G.C.G.N.N.N.C.G.f.N.N.f.f.s.s.y.&.3.s.&.e.&.&.@.+.@.o.E T -XrXXXwX,XrX:XE.|./.:X}.-XrXXX}.rXXXXX-XXX|.H.h.H.q.-.H.H.XXXXH.j.*.v | ..*.X...W W [  . .v _ -.q.;.b b b Q | Q | _ _ _ l l Q -.",
"vXbXbX8XzX8X0XxXxX6XzXzXMXAXSXcXnXpXuXuX9X4XA.A.3X8X$X4X4X$X4XM A.G.C.C.C.C.N.N.f.Z.f.f.f.f.f.f.s.f.s.s.3.s.&.&.&.+.e.@.o.Y T T -XrX&XrXyXyXXXb.H.J.|.wX:XwX}.XXwX:X:XXX|./.H.h.H.H.-.H.J.:X:XL.j.q.Q  ...=.*.| ..| *.[ Q v -.-.q.-.b b Q Q _ Q | _ ;.-.b l _ ;.",
"vXcXxX6X8XxXcXxXzXT.6X6XvXAXVXcXnXpX5XuX5X7X6X*X5X3X2X3X4X$X7X{ t.C.m.C.G.C.N.C.N.G.G.N.F.s.f.f.s.3.y.&.+.@.e.o.w.} E o.Y ` Y T *XrX:XyXeXhX/.E.q.H./.XX}.rXXXXXwX:XXX{.{.{.H.H.H.H...H./.:X:X/.j.4.] -.-.,.X.O.*.[ 4...] v | =.q.;.b _ _ Q _ Q ;.-.q._ b b _ -.",
"cXxXR.8X7XxXxXiX6XT.8X3XvXAXVXcXpXpX5X9X=X9X5X=X7X3X3X3X4X2X7Xw.t.A.Z.Z.N.f.N.Z.s.Z.s.s.s.s.&.s.s.s.s.&.e.o.} E o.&.@.E E E T T -XrXrXyXeX:Xn.n.q.H.L.}.rXwX}.XXwXwXwX{.|.XXH.g.H.H.-.q./.:X:XJ.j.q.Q -.-.*...4.=...4.=.] v -.*.n.q.;.b Q Q | | ;.;.;.-.b l _ -.",
"zX6X2X2X0XcXxXzX3XT.3X6XmXAXVXcXuXuX7XaX=X5X9X9X4X3X2X4X4X$X7X{ t.C.C.C.C.G.N.G.N.N.N.f.f.f.f.f.f.f.&.&.&.w.&.3.&.&.E T o.@.E T 5XyXyXgXyX{.q.=.q.H.}.:XrXrXXX{.wXwX:X|.{.XXJ.n.H.n.e.n./.rXrXL.g.i.] =.+.+.X.4.*.-.u.4.] v -.4.q.4.;.b Q Q ..=.*.;.-.*.Q l ] *.",
"A.Y.Y.3X0X0XcX7XR.T.Y.3XVXVXVXcXcXpX5X-X*X=X9X5X4X3X$X4X$X$X5XM t.C.C.G.C.C.C.C.C.G.f.N.N.G.f.f.f.f.f.s.s.&.&.&.&.&.&.@.E E @.T -XyXgXjXrXH.| ] n.|.XXwXrXwXwXXXwXwXwX{.}.XXJ.H.H.n.y.z./.rXwX/.h.4.[ =.=.=.=.4...[ 4.u. .b | =.q.-.;.;.W W -.*.;.*.;.;.Q l Q -.",
"zX2X3X7X0X0XxX0XY.T.Y.Y.vXAXVXiXpXcX9X5X=X4X9X7X5X3X$X4X$X$X4X{ M.%XC.C.G.G.C.G.N.G.G.f.f.f.f.f.s.&.s.f.s.s.&.&.&.&.&.&.&.E E T -XyXgXyXeX!.*.*.g.}.XXrXrXrX:XrXwXwX:X{.}..XJ.H.J.z.4.n./.&XrXJ.v.4...=.2.X.2.5.*.[ =.4.| v W =.n.;.-.;.| _ *.*.-.*.-.*.[ l _ _ ",
"8X8X0X7X0X7X4X0XY.I.2XT.VXVXVXiXpXpX-X5X=X=X4X9X4X*X$X3X$XU.$X{ Z.G.C.G.G.C.N.N.G.f.N.N.f.G.f.f.f.f.s.&.&.&.s.3.3.s.@.@.@.&.%.E -XyXyXyXeX{.k.n.H.|.:XrXrXwXwXrXrXwXwXXX.X}.H.J.E.z.u.H._.{.}.L.v.i...+.2.=.2.4.-.O.-.q.[ v =.=.q.4.;.-.W _ _ *.;.*.;.*._ l | *.",
"0X7X4X9XzX4X4X0X2XT.2XU.AXSXnXiXpXuX1X9X=X4X1X4X=X$X$X$X$XU.2X' Z.).V.).G.V.V.N.N.G.f.F.N.f.f.f.F.f.f.s.&.s.&.&.3.&.3.&.&.&.&.E *XyXrXyXyXXXE.E.{.}.:XrXrXwXwXrXrXrXwX:XXXXXJ.J.).n.4.z.{.L..XJ.B.4.*.-.4.2.y.y.*.O.-.g.-.U =.4.g.q.*.*.| Q *.-.q.| -.4.| l | 4.",
"0X7X0X0X2X2X2XzX$XI.3XA.VXNXSXpXpXuX9X9X=X=X5X=X=X$X$X$X%XU.$X{ B.qX'.`.#XG.'.^.G.G.G.G.G.G.G.f.F.x.F.f.f.f.3.f.s.3.&.&.&.&.<.@.-XgXrXiXgX:X/./.L.XXrXwXwXwXwXdXyXrXrX:X}.}./.H./.z.g.H.{.:XwX|.m.=.*.*.2.i.i.4...| ..i.[ b -.q.q.4.4.*.| _ *.*.4._ Q *.| l | *.",
"4X4X5X4XT.A.T.4X4X2X$XU.VXNXpXtXuXiX,X=X=X4X,X5X=XI.$X%X%XU.=X' V.>XqX[.`.`.`.`.G.G.G.G.G.G.G.G.G.F.G.F.F.F.d.F.d.0.7.8.3.8.8.( -XyXyXrXyX,X}.{.|.wXXXrXwXwXrXyXyXrXwX}.:XXX_.n.J./.q.H.XXaXwXL.h.2.-.X.a.k.4.O.=.| [ u.[ ] ..i.H.4.-._ -.....;.-._ | ..| v Q 4.",
"4X4X4X2X2X2XU.2X4X$XI.%XVXNX9X9X9XaX*X=X$X=X4X=X=X@X$X%XP.I.$X' G.;X`.'.`.'.~.~.G.G.G.F.F.G.F.F.F.F.f.f.F.F.d.d.F.d.7.7.8.d.8.@.-XyXrXrXyXeX:X}.|.-X:XrXrXrXyXyXrXrXwX}.:X}./.g.z./.q.H.}.:XrX-Xh.+.=.-.k.2...` *.O.| i.-.] [ 2.4.4.4.| ;...| -.-...*.*.| l Q -.",
"6X3X$XT.%X$X$X$X4X$XP.U.VXNX9X9X,X9X$X=X#X=X=X=X=X$X@X@XP.P.$X] G.<X1X1X[.qXqX[.qXG.qXG.G.G.G.G.D.c.F.d.c.l.d.3.7.3.7.3.<.8.8.@.-XyXrXrXyXrXXX:X}.:XrXyXwXwXrXyXyXrXwX{.XXXXJ.H.H.H.q.H./.:XrX|.h.*.=.X.k...U ' | i.-.y.+.] | 2.g.q.q.....| -.*.-._ -.*.| b M ;.",
"I.2XI.U.2X=X4XU.=X%XP.U.VXVXiX9X9X=X%X=X=X=X=X#X-XP.@XP.P.P.$X{ C.#X`.#X).G.B.V.G.G.G.F.G.G.G.G.D.G.G.F.c.F.S.F.d.7.7.7.7.d.7.E 5XrXrXrXyXrXXX:XXX:XrXyXwXwXwXdXyXwXwX{.XX}./.H.H.J.q.H.(.rX:X|.h.4.-.=.4.` W +.[ y.=.i.*.] | 4.H.q.*.Q ....*.4.| Q 4.;.Q l v *.",
"U.$XA.%X2X=X=XP.$X$XU.%XVXSX0X1XaX1X%X%X#X=X=X$XP.%X$XP.P.%X%X] N.G.G.G.).~.D.b.F.G.G.G.D.F.f.F.f.f.d.d.d.d.d.k.l.d.F.d.d.F.d.%.-XyXrXwXyXyXXX}.|.:XwXyXwXrXwXrXdXwXwX{.XX{.|.n.n./.n.0./.rX:X|.h.4.*.2...U  .[ ..=.O.=.-.] [ i.h.4.-.| ..-.4.-.| Q 4.-.-.l | *.",
"2XA.A.$X=X$X2XP.U.$XP.*XCXhX9X1X,X=X@X%X#X$X$X%XL.P.@XK.C.P.$Xn V.qX'.+X`.'.^.^.G.G.D.G.G.D.G.F.F.c.l.d.7.d.7.d.d.8.7.7.3.8.8.@.,XyXyXyXyXyX}.XX}.XXwXyXwXwXrXwXdXrXXXXXXX}.{.H.n.H.n.n./.rXrX}.h.4.O.=.[  .[ c W O.o.+.=.] ..4.n.*.*...| _ *.;.| b ..-.-.l Q _ ",
"$XP.P.=X$X%X2X%XP.$XP.I.ZXaX,X&X,X1X%X%X%X%X%X%XK.P.%X%XK.P.U.' V.[.`.`.[.^.[.'.[.+XG.D.D.F.F.F.F.d.d.7.3.7.7.d.d.7.7.3.<.3.3.( 5XfXrXrXjXyX:XXXXXXXwXwXwXrXwXwXrXdXwXXX{.XX|.!.D.x.z.n./.,XrX:Xh.+.&.O.[ ` h c ] o.4...4.] ] 2.g.4...-...| *.-._ M ;.-.*.l v *.",
"%X$X%X#X%X%X$X%XC.$XK.I.VXaX,X&X,X&X%X).%X%X@X@XC.P.%X%XC.C.P.{ V.[.[.[.[.+XG.G.G.G.D.G.D.D.F.G.G.F.F.d.d.F.7.7.7.7.6.7.7.6.<.) rXjXrXdXfXrXrX{.|.:XwXwXwXrXyXwXrXwXXXXXXXXX{.!.E.g.n.g.H.wXrX}.h.+.+.' n d d x [ ] 4.o.=.] ] 4.n.4.[ ..-._ q.| M v | -.*.b b | ",
"2X4X4X$X$X=XC.2XU.%XP.=XCXiXaX1X<X1X%X#X%X#X#X$X%X=X$X%XP.C.U.{ %X#X#XqX'.'.'.[.[.G.+X[.G.G.G.G.G.F.D.D.D.F.F.F.F.F.F.F.0.7.7.) 5XkXyXyXkXyXdXXXXXwXwXrXeXyXfXwXwXlXXXXXXXXXXX{./.g.H.k./.rXyX.Xv.y.2.' m h x ` ` [ y.+.4.| ] 4.z.u.| ..| -.n.-.Q _ | -.-.v v | ",
"p.a.Z.p.a.m.p.p.r.p.p.h.$XJ.V.h.B.x.p.a.a.u.p.p.p.p.p.e.e.e.e.m y.p.&.e.&.&.@.&.%.&.&.%.%.@.&.E @.@.( E E ( ( ( E E ~ E ~ ~ ! K L.rXXXXXrXwX{.{.H.|.}.}.XXXXXX{.{.{.{.H.H.{.H.n.n.2.i.5.b.}.|./.p.U ` d = * d d d l T b v l d b *.U l l l l v l d e l l l 0 d 0 ",
"4X4X*X*X4X$X*X3X*X*X$X$X%X%X#X@X_.@X_.L._.L.L.L.J.J.C.J.V.J.J.=.t.t.p.r.w.r.r.r.j.m.h.m.j.j.r.p.e.-.e.r.h.v.v.j.i.h.=.y...o.O.[ ` T L T K T K K K K T C T C C C C i u i u u u u r 7 9 9 9 1 1 7 m n s l l l d 0 s l s s f 0 w s b l w w l 0 e e l 0 l 0 0 0 0 = ",
"GXGXGXAXAXCXCXCXCXZXCXCXNXZXZXZXVXZXBXjXNXBXjXgXgXfXyXpXgXjXNXv.$XrX=X-XU.U.P.1X,XfXtXyX&X1X-X-XK.L.|.&X,XyXhXeX>XyX`._.v.L.J.e.' Y T T L T g T L L E L K C T K T L C C a C a a a C C C C C C 7 M j.O.-.e.u.-.{ O.4...O.*.| [ 4.i.2.*.-.=...| _ =.=.=.*.Q | _ ..",
"nXnXvXcXcXcXcXcXcXpXgXgXpXNXNXpXSXSXNXpXpXpXiXiXtXpXtXrXaXrXyXv.K.#X@X@XM.U.L.%X_.aX,X&X&X_.&XL.K.L._.L.;XeX:X`.`.>X/.~.x.B.K.-.' @.T T Y E E E E E E E E E E L L L K C u a i C p a a u r a a < M j.W | -.y.| ] O.4.[ | ..W ] =.4.*...| *.W W [ *.;.-.U v Q | _ ",
"SXpXiXpXiXiXiX9XiXiX0XiXaXaX,X1X9X1X1X1X1X1X:X&X;X1X&X#X&X`.&X4.K.-X&X@XC.K.K._.#XrX,X:X&X&X@XL.J._.`.-X:X,X<X.X.X<X/.).v.V.J.=.h h f f h h f f g g f f f u u u u u q 7 7 6 > 7 7 > > > > 7 7 @ m h...*.-.=.| [ O.2...[ ..U  .2.4.2.Q ..O.....W *.*...P Q _ | Q ",
"cXcXpXcXcXpXiXiXpX9X<XiXtXpX9X9X,X1X=X1X1X=X1X1X;X;X&X;X1X;X&Xi.K.=X@XP.C.L.L._.}.aXrX:X,X&XL.L._._.`.|.1X<XeX;X;XeX/.~.V.V.v.=.N g f f g f f g g f f f u u u u u u 7 7 7 7 7 1 7 7 1 r r 1 1 @ n h...*.X.+...[ O.=... ...] ..2.4.,./ ..O.| | Q -.W _ b | _ v Q ",
"cXcXcXcXcXpXcXgXgXcX9X9XaXtX9X<XaXaX<X9X<X<X;X;X&X&X:X;X}.&XrXv.K.-X#X@XM.K.L.@X#XeXaX&X:X:X_._.-X}.`.`.1XrXhX.X;X<X_.b.b.L.).y.` Y K T T T L T T g g C T C C T g C p g C C a p a a 9 a r a C < { h.O.O.-.=.| ] ..*.| [ @.[ | X.,.4.X.....W [ T *.Q W v | _ Q Q ",
"AXAXAXCXVXCXVXVXNXNXNXZXCXVXBXNXgXpXgXNXNXNXBXBXjXpXBXjXgXjXZX/.K.&X&X_.K.C.B._.#XeX:X:X,X;X_.)._.`.}.`.&XrXyX;X:X<X'.v.J.~.'.y.' E Y Y L T T L T L T L K K C T K C C g L C K C C C C C C C C 9 M v.O.+.+.+.] [ ..O.[ o...[ ] X.2.2.@.W ..W ] W *.P W v W | | Q ",
"FXFXFXGXGXHXHXHXHXGXHXGXGXGXGXAXAXCXFXDXAXCXCXCXBXBXZXkXZXkXBXJ.K.@X1X@XC.M.L.L.1XeX:X:X,X.XL.).`.L.&X`.&X:XeX:X:XeX`.V.c.J.^.e.} / / E @.E @.( @.%.@.E ( E E E E E L L L L L C K C C a r 9 r % M k.4.O.o.=.[ ../ O.[  ...W W -.4.=...W ..W W ..*.b W v Q W Q _ ",
"JXGXGXFXFXHXHXFXFXFXFXFXZXZXZXBXNXNXBXBXkXBXkXkXkXgXkXgXkXgXkXH.L.@X'.L.B.m.C.#X}.<X1X,X,X}.V.L.#X_.`.`.:X:XrX&X,XeX^.V.J.)./.e.h h h g g g T T T T C K K C T C p u u u a u 9 9 9 7 7 7 7 , 9 % M n.y...| ..[ o...X.o. ...U ..2.2.2.X.W X.[ Q .._ Q W v U ] W W ",
"HXFXDXDXCXFXFXFXCXGXGXFXFXFXCXCXCXZXCXCXCXBXBXkXkXgXjXkXgXgXBXJ._.#XL.).B.M.v._._.:X;X:X:X.XJ.).&X_./.'.&X:X>X(.>XhX).~.V.b._.y.h h f f f f f u f f u u u q u u u u u p u a a C p p r 9 9 7 7 + n j.4.X... .` U [ =...|  .] | +.4.4.X. ... .Q O.[ Q W b Q Q W [ ",
"HXFXHXHXHXHXFXDXCXCXCXCXCXCXZXBXfXhXhXfXfXfXfXhXdXeXdX<XdXwXdXk.K.@X@XK.m.Z.N.`.`.1X;X:X:X;XJ._.&X'.)./.:X,XwX`.>XhXL.H.b.v.'.y.m T T T T T T f g g g f f u g u u u u u q q u 9 9 7 6 7 7 9 r > m y.=.+.X.O.] ` [ O.W W  .W  .*.4.4./ | [ W U X.Q W ..b U Q U [ ",
"DXDXDXDXCXkXBXZXNXjXgXfXfXgXfXfXkXfXfXhXsXsXdXhX<X>X>X<XeXdXsXc.K.`._.B.m.B.N.qX&X;X.X;X1X}.b.).`./.`._.1XeXeX(.>XsX^.b.V.b.L.y.h ` h T T T T T K T K C g u u u u q q 9 9 a u a a p p y a a C , m i.2.+...U ] c [ X.W ] [ U W =.4.i. .[ | Q U +.b W / U U U v ..",
"BXZXjXfXgXgXgXgXfXyXfXfXyXhXyXfXhXhXsXsXsXsX>X<X>X:X>X>X>XOX>Xk.L._.V.B.N.C.m.'.;X;X>X:X`./.V.`.`._.`.^.:XdXeX(.eXhX^.x.v.V.v.y.` E T T C g g g g T T K C g C g i g C p C C p p a i a t i a a < M u.4.+. .[ U c [ O.W ..[ b W X.2.4...W W ] U ( P  . .W z ] b W ",
"rXrXgXfXgXkXkXgXgXgXfXfXyXyXeX<X>XsX<X<X>X>X>X>X>XOX.XqXoX;X;X5.).~.V.V.).C.r.B.qX;X<X<X).).J.`./.~.^./.;X<X<X`.<XsX'.v.V.^.v.u.` E E L T T C g f u q f f g u C C K C C C a u a t t t t r a a < n i.=.+...W c v [ ..W | ] U [ X.2.,./ ../ U W Q Y (  .( z b b _ ",
"jXjXZXkXgXkXkXBXgXtXyXeXhX<X>X<X;XoX>X>X>X;X>X[.OX[.`.`.[.[.oX4.V.).~.V.G.w.e.x.'.&XhX#X~.~.~._./.).^.^.`.>XeX.XeXhX_.b.J.V.).y.T ` E @.E L T T g f f u u u f u i a C C C u a p i C C a a p p , { g.2.X...Y U c T ..| [ Q U W *.*.2.W .. .U W W  .@..._ T b b W ",
"gXjXjXfXfXhXgXjXgXeXeXsXhXhXsX<X>X>X>X<X1XOX.XOX;XOX`.[..X.X;X5.V.'.~.).B.w.r.a.)..X<XJ.V.J.).^.^.^.~.E.`.>XdX].<XsX).v.~.v.^.u.T o.E @.E T T u g g C g g q u u i u i i u p p a r t p p a 9 r > { g.4.+.../ ] T v W W W v U Q =.X.,.W W U T W W @._ _ _ Q z l W ",
"hXeXhXhXfXfXfXgXfXhXsXfXsXeXyXeXdX<X>X>X;X[..X[.`.[.qX;X.X;XoX5.K.'.~.).x.p.e.m.`..X'.v.~.G.D.~.'.^.^.~.{.>XeX^.<XeX~.G.v.V.'.y.T } T T T T C T C T T d 0 * 7 q q 7 0 0 7 r u u a a a i p a 9 < n i.i.X./ ] v U W W [ U z T Y 2.2.2./ / T T U Q @._ / / / f l Q ",
"fXyXhXhXhXhXfXfXgXgXfXfXfXeXyXwX>X<X<X>X>XOX;X[.`.'.^.'.`.[.>X5.V._.V.V.a.p.a.G.^..XG.G.~.~.~.b.^.^.~.~.^.>XeX(.<X>X~.b.c.a.V.i.h T f u u d d d d 7 0 0 q T q T K C g r 9 u r 9 a a r r a a V < n y.4.*...` U ] [ [ [ U b T U ,.2.,./ [ b b P ( _ ../ E ( b l / ",
"CXCXZXkXkXkXfXfXdXeXeXeXsXyXrXrX>X<X>X>X>XoX>XoXoX>X.X.X[.[.].3.B.J.V.B.a.r.a.~.`.(.b.D.E.~.b.b./.^.^.E.E.>XhX(.:X>X~.x.x.v.v.4.h d s u f T T h u u u C T q T C g u u g u u u r r r r 9 9 a C 7 n 4.u.*. .U v Q ../ W Q T U Y X.2.,./ W P z I  .( P _ Q _ T j Y ",
"ZXCXDXDXDXDXDXZXZXZXkXgXkXkXyXrXeXsXeXeX<X<XlX>X>X>X>XlXlXOXlXi.x.).V.v.p.e.x.~.[.'.k.~.~.G.v.G.E.E.~.E.^.>XeX{.}.>X~.k.g.V.V.i.h g g g q T C C T T T C C C T C C C K L L C K K K C C p u a r < n 4.2.*.O.U b U W [ U ] b P Y X.X.,.W  .P z U  .W i / ( ! P z Y ",
"kXZXkXZXkXkXkXjXBXkXkXjXjXjXgXgXBXfXBXhXfXhXdXdXdXdXdXlXoXdXdX4.h.J.V.x.p.e.x.^.].`.c.~.G.~.c.E.E.!.E.E.(.XXeX X>X>Xb.x.x.x.J.i.n T T K L L L L E L T C T C T L C K C i C p a i p C C C C C a , v 4.4._  .v b U U  .W T l T Q X.%.X.Y  .P P P / U i j Q Q Y z P ",
"CXDXDXCXDXDXDXDXCXNXBXZXBXBXNXjXgXfXkXkXgXfXfXkXfXfXfXfXhXhXfXg.y.V.V.x.p.a.c.~.(.`.c.b.b.D.b.~.^.^.l.E.(..XwX(.XXXXv.n.g.i.V.4.T @.E E E E E E E E L T T T L L L K C T K L K S C C a 9 a a V 9 v 4.=./ ..U T T Q ..W v f b Y ) <._ Y  .U Y Q W P j i z Q ! P j ",
"pXyXtXgXgXjXfXjXjXfXtXhXgXfXgXfXfXfXgXfXfXhXkXfXkXkXkXkXkXkXkX9.y.b.x.a.u.a.x.^.[.(.D.b.b.b.b.E.(.(.b.E.W.{.dX^..XXXx.k.g.i.b.i.h T T T T T T T C T T T C T C T K C C K S C C p i C p p p a C 7 ] 4.2.W / U U U W W T b g c Y X.,.( P Y K Q / / j j z j Q I P z ",
"aXrX,X<XeXrXrXwX,XtXhXtXeXyXsXhXsX<X<X>XdX>X>XlX<XdXwXhXdXhXkXn.u.~.i.y.e.x.n.^.].[.x.c.v.k.c.E.^. XE.b.Q.(.>X.X.X}.i.k.i.i.n.i.h h 0 d u q u q C 7 0 d q C 7 C q q u u u u u u a a a a u a a > ] ,.*.W W T Y W Y Y T b z Y P ) %.@.P Y z Q Y I p i j k I R P j ",
"iXtXaXeXhX<XhX1X1X<X<X<X1X;X1X1XqXqX;X>X1X;X>X;XOX;X>X>X>X>XdX7.e.V.x.y.O.x.c.W.(.[.l.k.v.l.b.~.(.].E.z.Q.(..X(.XX}.g.i.y.4.l.g.C T T T T C u T d q C d q q 0 0 7 7 7 6 6 6 6 6 , 7 , , r 7 r % U 4.*./ W z Y Y Y Q P l z P E X.,./ T ! z I Y j r t p k k / P j ",
"=X%X#X=X%X#X=X1X1X1X#X#X#X#X;X#XqX1X1XqX[.`.[.`.[.[.[.c.m.V.[.3.-.E.b.e.+.x.c.(.^.(.l.k.k.n.b.E.(.(.E.z.Q.{..X(..X Xi.i.i.k.c.i.T T T T T T T C T T C C C d T C i a u i u q u 7 7 7 7 , > % 6 @ v ,.*.[ Y l P T Y I P g f T Y ) ;.Q T P j Y L j k t 2 4 k P P k ",
"=X%XP.P.C.%X%XC.%XG.).G.#X).C.%X%X#XqX'.).).'.).'.qXG.f.s.x.V...e.D.k.+.e.d.F.+X^.(.d.k.i.D.D.E.(.W.D.z.!.].XXXXXX^.y.4.5.k.z.2.T T L L T T L L T T L T T C C C C g C C i a i a a r 7 9 r , , @ ] ,.*.( T z P z Y P z f k z Q %.) I P T K Y S j p 2 % 2 t S Q k ",
"%X&X%X).#X%X#XG.C.%XG.C.C.G.).G.G.G.G.#X#X).G.V.G.G.c.G.V.V.G. .=.V.k.O.s.f.c.+XW.D.d.5.7.E.n.^.E.E.W.l.!.W. XoX XQ.4.y.2.4.E.2.} &.%.E E L E E T C L L L T T T K S L C p C u a p C r r r 9 r # v 2._ Q K K P P Y P j z f z / ) ) T P K S L j j r > $ ; 1 t P K ",
"#X#XqX1X#XqX#X#X#XG.).G.#XG.G.G.C.N.N.N.N.G.V.V.G.G.+X'.^.^.^...4.b.d.O.i.d.W.W.^.z.i.i.d.S.l.(.z.n.Q.z.E.W.OXoXoXE.4.i.2.3.D.3.E E E @.@.@.@.@.@.@.E E @.@.@.E ( E ~ R L F C C C C C C y r a > v ,. .Y K K G T P I l i u z / ) ) S P K K L j y % # # # $ 1 K K ",
"#X$X%X%X%X#X#X#X#X#X#XG.G.#X#X%X#XG.qX'.'.'.G.G.N.G.'.'.].`.[.2.2.b.s.&.3.i.G.W.W.c.d.2.k.S.n.W.n.z.S.z.!.Q.OXOXOX/.2.5.X.3.z.<.T T L L C C L C L L L T L C L L C L R L R ~ R L L L R R F F F a ` =.( I P b b P j T z u u g R ( / j P j L F p y & . # % # 2 j j ",
",X1X1X#X#X%X#X#X%X#XqX'.#XqX'.G.#XqXqX1X1X;X[.'.G.V.G.`.`.[.>X3.+.D.4.O.i.i.^.W.D.F.d.5.l.E.z.D.l.n.z.F.!.+XOX].OX!.,.4.2.4.D.7.T T E L T T T C L C C C C C C C p p C C V C C a a V Z C A C D r ] X./ Y P j P P k z p u u j R / Y K L S F L p t % + # % > 1 k A ",
"m.h.N.N.C.B.N.h.N.N.N.Z.p.p.p.p.s.p.a.p.a.a.s.s.a.a.s.y.y.&.i.o.+.i... .%.%.l.F.S.7.3.3.d.l.7.l.5.9.z.0.0.W.+X+XQ.H.X.2.,.2.l.<.C u u C C 7 C C 7 C C 7 7 Z C C 9 9 7 7 9 , 7 > > , < < > ; % # z Q z K j e k t q k u u q j L F A p S t p p t 2 % > % & > r y y ",
"w.w.B B w.m M ' M B B w.w.w.p.p.e.w.e.e.w.} w.} w.N m h m m w.d a.N.f.f.f.f.c.f.f.f.d.f.f.f.s.s.3.3.3.&.3.&.&.&.&.&.&.%.@.+.@.Y &.o.+.o...*.*.*.*.O._ 2.4.4.5.q.,.4.;._ *.*...| W [ U T b W ..Q W I I I I I ! I I ! Y I L F I Y I I I R R I I I I Q I Q Q I I F ",
"t.Z.N w.w.' w.w.{ { } w.w.p.c.V.s.f.f.G.s.w.t.s.w.N w.w.w.e.w.q s.c.f.f.f.f.f.f.f.d.f.f.f.f.3.&.&.&.s.&.&.&.@.@.@.@.E E @.E E C f.c.F.d.9.z.c.k.9.5.1.E.W.!.W.Q.H.H.H.S.z.q.z.q.5.n.3.X._ 5.k.2...! I R ! ! F F F I F F I ! ~ ! ! R ! ! R ! Q J ! J ! ! J J H I ",
"w.&.m m w.w.w.w.{ M { w.} e.x.V.s.s.s.F.s.w.e.o.w.h ' w.w.w.e.q s.a.s.3.f.3.&.@.@.&.&.&.&.&.&.@.@.o.@.o.@.@.@.E E @.@.@.E E ( L 3.d.&.d.5.9.n.k.5.,.1.z.E.E.S.H.9.H.0.0.9.3.q.1.3.4.2...O.4.g._ X.! ! ! ! ! ! / ~ R R R ! ! R R ! Q I R I F I F I I G G G G F I ",
"w.&.` ` w.o.@.e.} m { } o.e.c.b.s.s.f.c.s.} s.+.w.m ' ' } o.e.d f.N.s.f.f.f.f.f.d.f.3.d.3.3.8.3.3.3.3.3.3.&.%.&.<.&.&.@.%.%.%.L s.F.8.3.1.z.z.9.5.,.1.z.S.S.S.z.9.H.9.9.n.q.9.q.5.5.*._ X.5.k._ *.1.~ ^ #.#.) #.:.#.) / _ ^ ) ^ ^ ^ ~ ~ ~ ! ! ~ ! ! ! J I ! ~ ~ ",
"o.e.' N ' e.o.w.} { M } o.y.V.E.&.s.f.F.3.o.&.+.w.` w.' } @.e.f s.f.f.N.f.c.c.c.f.F.f.f.f.d.d.d.f.3.&.3.&.&.%.@.%.@.@.E E E @.L d.l.1.<.3.n.z.k.q.;.q.S.E.S.S.0.9.H.q.9.z.3.9.5.3.5.,. .X.i.q.*.i.8.#.<.1.<.>.1.%.:.#.#.%.,.<.%.:.;.,.) #.^ ) ) _ ^ ^ _ ^ ~ ^ ^ ",
"o.&.' h w.' o.' } { M ' } +.c.b.s.s.a.x.s.w.+.&.w.T ' ' ' o.@.f s.f.f.f.s.f.3.f.3.3.3.&.&.&.&.<.%.@.&.@.@.%.3.%.%.%.%.%.%.%.%.E d.l.1.1.<.z.9.1.9.:.9.S.S.0.S.S.0.0.q.0.0.3.q.1.,.2.,...X.i.5.;...R R L D D F D F D F F G G A D A k y y A A p y a y k p k k k k ",
"o.w.' N w.' m N m w.' } [ y.b.c.s.s.i.f.&.w.&.@.w.h ' ' ' o.@.f f.F.G.G.c.c.c.F.f.7.f.3.&.3.8.7.d.3.&.3.&.d.d.3.<.&.@.%.%.%.@.C k.7.<.5.1.z.9.5.9.:.9.S.S.z.S.S.9.n.q.0.9.,.q.1.,.,.@..._ 3.5.*.( I F F F F F F F S D S A A C y > 2 j S G G G S A S A A j A A A ",
"o.} } ' w.N h h N ' ' } } &.G.c.3.7.d.f.s.w.&.w.w.` n ' ' } @.f s.f.f.&.&.f.f.8.d.f.f.f.f.3.&.3.@.&.@.@.&.@.E E E L E E E @.@.E k.d.3.7.7.0.9.3.q.:.9.0.!.S.S.S.9.0.9.n.9.*.q.3.,.,.@./ / 2.3.*...L S F C D D F C F C G S S C p 1 y p t t r t y y p j S S S S D ",
"o.E ' ' ' N ' m ' ' m ` } &.F.x.y.&.i.d.y.o.&.@.} h ' ` ' ' @.f &.d.f.&.3.s.3.3.3.&.&.7.3.3.&.&.&.&.%.&.%.&.%.%.%.%.%.%.%.%.$.@.q.5.5.9.5.0.3.5.9.,.0.0.S.F.S.S.9.0.q.9.6.;.9.:.%.%.X.Q Q ,.1.*.,.~ I R ! R R R I R L L L D C C p y i t j S P G S S A p C p y y ",
"' ' m T ' } ' m o.' m ` ` 3.F.d.&.3.3.d.&.o.+.o.w.h ` ` T o.@.f f.D.F.d.d.0.f.F.F.d.d.d.3.7.d.3.d.3.3.8.3.%.%.( $.%.%.<.8.$.%.( g.1.3.3.7.k.7.9.1.:.0.0.!.F.S.0.q.0.q.9.q._ q.,.%.%.X./ _ *.1.:.*.I F F C C C C C D C D C V C C A D F F F G A S S S j y C A A D ",
"T n T N m m m ' o.h ` c ' 3.D.x.&.s.d.d.@.} +.@.} h h ' ` @.@.f F.G.D.D.F.F.F.F.f.7.7.3.&.&.&.@.&.&.&.&.<.3.<.8.<.<.3.&.%.@.%.E 9.5.,.<.9.5.7.7.<.:.0.F.S.S.0.S.q.9.1.9.q.;.3.,.X.,.,.Q / *.1.,.%.F F S C H R ~ R H I D C H R R R L D F I R D A j y A G D F L F ",
"n n N T T N T ' [ h ' ` W s.D.d.&.3.3.3.@.} @.o.w.h h ' T o.@.h f.F.F.F.F.f.3.&.&.&.&.&.3.3.3.8.8.8.7.7.7.7.7.%.%.$.6.3.3.7.8.( 5.<.*.<.5.7.9.1.4.,.0.0.S.0.0.0.9.9.9.9.1.:.1.,.,.,._ Y / :.3.) 5.#.~ ~ R R D D C C I R ~ ! R R F R ! ~ F A y y y D L F S D S A ",
"' m T m N h N ' ` h ' ` ' &.F.3.@.d.i.3.@.[  . .` h ` h T  ./ f &.3.3.3.&.&.&.&.&.3.3.d.7.0.0.8.8.8.F.d.8.<.%.@.%.<.<.$.%.@.%.E 5.<.,.,.q.6.q.5.1.:.0.0.S.0.S.0.9.9.9.9.<.,.,.<.%.) _ Y / #.<.X.7.#.J H F F H D R ~ ~ R H R ~ D R ~ F R A y a y S R F k S I G A ",
"T m h m T N T } x x ` T W &.D.d.@.i.%.d.+.} o.E ' h h ' ` @. .s 3.f.3.d.f.3.&.f.3.d.7.d.0.0.d.7.0.d.8.8.<.%.%.$.<.7.8.#.E L E T 3.<.%.<.6.6.1.6.:.:.9.0.S.0.0.0.9.9.9.q.5.:.;.<.) X.) Y / ,.,.) <.#.D D H #.~ H R ~ ~ R F ( ~ R R ~ L F F A y y A H H F G G F F ",
"T T N T ' T T o.d c ` T [ &.d.3.@.s.&.d.o.E o.E ` h h ` Y E Y s &.3.s.s.s.s.3.&.d.7.d.d.0.0.F.F.F.7.3.%.&.$.8.<.<.7.6.%.E K E K %.<.,.<.9.1.1.6.:.:.9.0.S.6.0.0.1.q.0.q.q.:.) ,.) %.) K Q X.) :.1.$.~ ~ ~ ~ ~ J ( R ~ R F R ( #.) ^ ^ ~ ! R I G k k S S G F F G ",
"T h h T T T E T d ` T ` [ 3.d.&./ <.<.d.E [ [ [ ' h h h E [ Y s &.s.&.&.&.@.&.&.&.7.0.0.0.0.F.F.F.F.8.<.%.%.<.8.6.<.%.%.@.Y T C %.<.#.<.9.1.1.q.;.1.6.0.0.0.0.0.1.1.9.1.1.:.%.1._ %./ K ! _ ,._ 7.>.$.>.$.$.#.#.$.#.( R R R R R ^ ^ ) #.:.;.^ ~ F G G j k S G P ",
"T N T h T T T T d T T T ` &.3.&.@.3.<.6./ ' E o.h d h T E E T u F.D.F.7.d.d.3.&.X.&.3.6.7.%.7.0.7.F.0.0.6.<.%.@.$.$.3.<.%.<.#.L %.<.%.<.8.<.8.5.) 1.7.z.9.6.0.9.>.1.q.1.1.) ;.,._ ) / j ! ) :.) <.$.R H J H ~ #.#.#.#.#.) ) ~ ~ ! R F R R ! ~ ^ ^ ~ ^ ! ! ! I G ",
"h h h d T T T T d T f T T &.3.@.E %.%.<.Y / ` Y T d h h [ E ` f F.D.D.F.F.F.F.l.l.d.d.0.7.3.&.%.%.%.%.<.8.3.7.<.<.&.%.%.%.%.<.E #.<.>.<.<.8.#.<.) 1.1.0.q.6.9.6.1.:.:.1.>.^ ) :._ ) ! i Q ,.#._ <.$.~ ~ $.#.! ( ~ ~ ~ R ! ~ ! ~ ^ ) ^ ^ ~ ! ! _ ! ~ ^ ^ ) ^ ;.^ ",
"T h T 0 f T T f d T h T E %.&.@.@.&.%.%.T @.Y Y h d h T E W T q 7.F.D.F.F.D.D.D.W.D.D.S.D.S.F.F.F.F.d.7.<.$.&.$.$.%.$.%.<.>.$.R $.<.>.<.<.<.#.%.) 1.1.0.6.q.6.q.1.1.;.1.:._ ) ;.^ ) / j ! ) ) ) %.~ ~ ! H R ~ ~ ~ ! ~ ~ ~ ~ ! H ! ! ~ ! H I I ! ! ! ! ! J ^ ^ J ",
"d T h d T T T d h T f T E &.%.E / <.%.%.T / Y ` h d s h E E Y q 3.F.F.F.l.l.7.d.d.0.0.7.0.7.0.l.0.0.0.F.F.F.F.7.7.7.<.&.%.&.$.E %.<.8.<.<.<.#.%.) 6.1.0.q.6.0.6.:.;.:.1.1.! ^ ;._ ) / j Q #.) ~ %.~ ! H R R R ~ ! J R R R ~ ~ ! ! ~ ~ ~ ! J ~ ! ! ! I I I F F F ",
"h f T 0 T T h d f g f g E &.%.Y Y %.%.%.T E L T s s d g T @.T 7 F.G.W.S.D.D.F.F.l.l.F.7.7.0.7.7.6.6.7.6.<.<.<.6.3.8.<.8.8.8.6.( %.<.<.8.<.%.( #.:.6.6.0.6.6.0.6.,.:.:.,.:.R ^ ;.~ _ ! b R ) ;./ @.#.~ ( ~ ( ( ~ ~ #.! R R R R R ! F R R ! ! ~ ~ ~ ! ! ! J ! ! J ",
"d u 0 d T u C d f f f K E &.%.Y E #.#.@.T L T L u d 0 g L Y g q F.D.+XS.D.D.+XW.W.W.D.D.S.D.S.S.S.F.F.F.F.l.F.0.d.7.<.<.8.&.( E #.$.8.<.>.$.~ ( :.6.6.0.1.9.0.1.:.^ ;.:.;.P ! ^ ) ~ I j P ;.^ ! @.~ R I R R ~ R R ! R ~ / ! R R ! ! / R ! ~ ! / R I I I I J I F ",
"f T 0 f C 0 f 0 f i u g E %.@.K E #.#.~ L K T T 0 d * T E Y g 7 0.F.0.7.F.0.0.F.F.7.l.0.7.F.F.0.F.0.0.0.7.F.F.F.F.F.F.F.F.d.0.$.%.#.8.8.%.( ) ( :.6.6.0.1.8.0.>.:.:.:.^ ) F R ;.) ) K k F :.) ~ E ( E R I F L D K S C S G G L A A S A S A G L G G F I G G F F G ",
"u 0 0 u f 0 q 0 s q u K E @.( C E %.#.E g K C T 0 d 0 T L T g 0 0.S.F.F.S.S.F.F.l.l.d.7.6.0.7.0.0.7.6.8.7.%.<.%.$.3.8.7.$.<.8.%.( $.8.<.$.~ #.#.>.6.6.6.8.6.6.>.;.) :.;.^ G G ;.) _ G p G ;.) ! Y S S C D K C S p p p C j p p y p y t t y y y t k k p y t y k k ",
"s 0 8 u g 8 8 0 u q q p I ( E K E %.( E C C K C 0 0 0 K P K f 6 5.l.d.l.l.d.d.d.7.d.l.d.d.d.7.<.&.<.7.<.<.3.3.3.<.7.<.%.%.$.%.E ( <.8.$.<.~ ) ~ $.8.6.6.6.6.6.:.^ #.^ #.( H F ) ) ! G y S ) ~ / L p C K C C C C k k j k k k y y y k k t k 4 k k t k k t y j k k ",
"8 8 * e u 8 q * f 9 u C I ( Y C ~ ( $.R g C K T 0 0 0 K L g f 6 ..3.&.&.3.&.%.3.%.%.<.&.%.<.%.@./ %.%.@.%.@.%.%.%.7.%.#.%.%.#.~ #.8.8.<.<.! #.R <.8.6.8.6.0.6.#.^ ) ^ #.#.R S ( ~ ~ P p G _ ! ! Y S C C C S K K F G G S D D D j y k y r 4 k k k k j j k t S A y ",
"7 6 * q e q 8 0 i 7 u p I ~ L K ~ ~ $.~ u g K f * 0 8 K K p u 6 o.i.2.+.2.&.3.3.3.s.3.3.&.$.%.%.%.%.%.%.%.%.%.@.%.( E E E ) ( I >.6.>.$.<.E ( R >.8.6.<.6.0.>.#.~ #.#.#.#.F S ( ) E G t G ) ~ R I E I H L L K C j k k k y y y t t y k k k k k k y t k k k r t k ",
"6 6 6 q 7 9 8 8 u 7 t p R R L p ~ ~ ~ R C C C q 0 * q K K i i * ` @.@.+.o.@./  .@./ @.%.%.@.&.&.%.%.%.@.( E E E E T E Y E ~ E K <.6.8.#.$.~ R ~ 8.8.>.<.0.6.>.#.^ #.#.>.~ R C R #.! p r G ~ ! H K C i p p C S K j k k G S j F D G I G G G G G I F F R ! I ! ~ ~ ",
"7 > 6 9 8 7 > * i > t t I R C p R ~ ~ C p a g q = * q T p f i &  .&.@.@.@.+.X. .W E Y E E Y T E Y Y E Y Y I Y Y Y Y E E Y R I p 8.6.>.$.#.R R #.8.6.>.8.0.8.#.^ #.$.$.>.~ F V R #.R S r S ! ~ F ! ^ J I ! ~ ! ~ J J I J F J ^ J ~ ^ ~ ~ J J J ! ! J J J ! ^ ^ ! ",
"r 9 > 7 8 > % 8 1 * u r R R C p ~ ! ~ C p u g 0 = * 7 C t w u * ..d.3.&.3.3.5.3.&.&.&.%.&.E E @./ @.W W Y Y Y Y L L K K I P L g >.8.$.$.#.F R ~ 8.6.>.6.6.>.~ ! #.#.#.>.#.F V R #.F L a C ~ ~ F ) ;.:.^ ) #.) ) ;.:.^ ^ #.:.:.:.) ^ ^ ! J J _ ^ ^ ^ _ J ^ ^ J ! ",
"1 7 < 7 * > > 8 1 < r t R R C C ~ J E C a i i 6 O 6 u C t e u 6 ..d.3.7.d.7.7.7.7.3.3.%.%.&.y.&.%.%.%.%.%./ @.X.@.@.E E / I L K 8.8.>.$.#.H R ( 6.8.:.6.6.>.~ ^ $.$.#.>.$.J V R $.H C a A ^ ^ F ;.1.:.>.:.:.:.1.:.:.:.:.:.#.:.:.:.;.^ ^ ^ ;.:.:.;.;.:.:.;.^ ;.;.",
"6 % & 6 & * & % 8 * 2 q G P u t L R C p a u u * = 6 r u 9 8 7 * U [ U E Y @./ / / @.%.%.( E E E E E E Y E E Y E E E E E E R P p $.#.~ ~ R D F ~ :.$.J >.:.^ H ~ ~ ~ H H ~ D a A F D a 1 t L A A ! ^ ! _ ) Q ^ ^ ! _ ^ ^ J J _ ^ ! ! I ! J H G Q G I Q G G G j k ",
"=X*XU.L.L.L.L.L.L.L.I.L.}.L.L.|.L.|.I.}._.@X_._._.-X-XL.|.L.|.j.x m x n v U ] U o.O. ..... .W  .W W ......` f d d d d s g T T Y l l b f f b z z U b b v T W b z z f 0 6 q * 0 * 0 0 i w 6 l l 9 = & & & = & O O O O O O & O @ & & & + O o + O o o O O O O O O O ",
"wXdXlXoXXX X XXXoXoXlXoXXXlXoXoXoXoX{.{.]. XoXOX XXXOX XOXoXlX1.u j k P K K / E ( #.( %.) ~ ~ %.( E ! <.%.K w q 8 s 0 i K Y I ) f u j z z K P P / W P P / %.L L L y * 7 8 > 9 7 8 i K t 8 k k e = & # # # & % > % + # + @ + o + + + + O o @ + + + @ @ < @ @ @ O ",
" X.XoXoXlXwXXXwXlXXX XoXXX}.XXXXwXlX.X.XoXOX X X XQ.Q.]. X X X,.i j k K S S Q Y Y %./ ) ( E ~ ~ ~ I E %.#.T q u 0 q 8 f K Y R #.i i S u z p S P W I K K / ,.L L K r 6 7 9 > 7 9 9 k k e e k k 9 = $ $ & # % # & + + # + @ % < @ $ % @ % @ $ @ + O o X X O o O o ",
"wXoXoXXX{.XXlXXXXXXXoX XlXwXwXwXwXoXlXoXoXwXoXoXoXoXoXwXwXlXwXq.i k j K z S / ! R #./ ~ ~ / E ) E I E %.,.z q u q u q i K L / %.w p K i j p p P W Y b G ~ <.L L P t 6 7 7 > 9 9 8 k k q q k k 8 = % % ; ; % % $ % % # @ + & @ @ @ @ + o o + o o + + + + @ @ @ @ ",
"sXdXwXwXwXwXeXlXwXwXwXoXoXoXoXlXoXwXwXwXoXlXoXoXlXoXlXwXlXoXwX9.u k k j P K / / R ,.( ( ( ~ E ) ^ I / ) ,.z q 8 q q 8 q K G / ,.u p j j j z S L Q Q P L _ <.L S P y 8 8 > & 9 2 e k k q e k t 9 8 y r 3 1 2 > > ; ; ; - ; - $ - $ $ $ - $ $ $ $ - - $ - $ @ @ @ ",
"eXdXeXwXwXXXXXlXoXoXlXwXwXdXoXXXOXoXoXoXlXwXdXdXeXoXlXlXwXlXdXH.p z j j P K R / ! #.( ( ( ~ R ~ ( Y ! X.#.K q e 8 0 8 w P P / #.9 z p i j K P Y Y L S L _ $.L S L t 9 7 8 % 9 8 9 k k 9 e t k e q V y y y 4 5 y y y a y a 3 3 1 3 a 3 3 3 : , : 1 1 1 1 1 , 1 1 ",
"(.{.{./.!./.|.!./.W./.!.{.W.^.(.{.(.{.Q.{.{.(.{.(.(. X X X{. X1.k b k p G K ! _ / #.) #.#.~ E #.( I ! #.%.K 8 e r 8 q e P P ) X.q b z r j j K / I P P P _ ) K L L r 7 > > & r 8 r j t e 9 9 k r q a y 5 5 5 5 y 5 5 5 5 4 4 5 3 a 3 3 3 3 3 : : 1 1 3 1 : : 1 : ",
" X X{.{.{..X{.{./.(. X X.X.X X{.{./. X{.~.^.Q.Q.H.!.{.!.].Q.{.*.k j i u S S I ) ! #.#.( ~ ~ R @.! L / ) X.p q u e 8 9 q P L X.) e p u i j k K Y K Y I I ) ( S S j r 7 > & & r > 9 j p 1 9 e k 9 e D 4 y y A y y y y 5 y 3 3 5 5 3 3 Z 3 3 3 3 Z 5 5 5 5 5 3 5 5 ",
" X{.Q. XOXOX{.Q.Q.{. X XOXOX:X>XXX XoX.X{.(.^.^.+X XOXOXOXlXlX4.p j p t S S K ! E ~ #.( ~ ~ ! #.R L I ) _ p e q r q 8 u G K ( / u p p p k j j p p P P I _ ) S S C 9 > 7 1 % 7 7 9 k t 8 e r k e q y y y C A A G G D A A A a y y y 5 5 5 3 3 1 1 1 3 3 3 3 3 5 3 ",
"!.!.S.!.!.!.!.W.{.Q.+X X(.+X X].].+X(.Q.W.Q.Q.W.!.Q.+X+X].+X+X) u j t i G S L ! R ! %.E #.R ! ~ I F L ) _ p q q q q 8 e I S / ! u p p z l j p u k P P P ~ / S p S 3 > , , < 1 > 1 y r 8 e t t r 6 2 2 1 3 3 1 2 1 r 3 3 3 3 y 5 y y k 5 5 k k 4 5 5 4 3 2 3 3 1 ",
"+X X X].Q.+X].Q.].+X+X+X+X].].].].]. X X X X]. X XOX XOX X XOX:.t p u r K K S I #.#.#.#.#.R ! #.L G I ) ( p 8 9 q 8 8 u ! j ^ / u i t i j K t t j K L L _ ) D y C r < , , % > > 3 k r 7 9 t t e 0 a 1 2 9 > 2 2 : ; < ; ; ; - : : : 1 3 : : 3 4 5 4 4 k k k k k ",
"9.9.z.S.S.!.W.W.!.Q.Q.+X X XOXOXoXoXOXOXOX X X XQ.].OXOX X].OX1.t p r t G S j ~ #.$.C #.$.! ! ~ F G F ) / p 8 e 9 > 8 i I j ) / q p p t P K S P j G K L ) ( G y p 3 : , , < > < 9 k 1 8 9 r k r * > 7 > 2 9 2 1 2 2 > > > 2 : - - : : : : : ; ; - - 2 2 2 2 : ; ",
"1.1.1.1.1.0.0.0.q.9.9.l.0.!.!.S.D.!.F.F.S.S.S.0.l.S.S.S.S.S.W.^ t y 9 r S K C R #.L > E >.R H R L F F ) / t 9 9 8 > > e I p ) ! e j p p ! A L P t P L I @.( A y y 1 - , > < < % 1 t 9 1 9 t k r & % & % & # # # # # @ # @ # # % $ $ % ; ; 2 ; $ ; ; ; ; ; $ $ ; ",
"q.q.9.0.0.0.0.z.z.0.0.l.z.0.l.l.l.l.0.0.F.l.7.0.0.S.S.k.0.0.9.! y a t , S C C R ~ a 7 ~ #.F F R D P G ) ~ i > 9 7 > > i P y _ / u j r K Y F I G p j P Y / R S a y 3 - , > < < > 1 r 1 8 1 t k 3 O + O # O # % % % > % % % # + + + X o o + + # # # # $ $ $ ; ; ; ",
":.1.*.,.3.7.5.7.9.5.7.7.5.9.9.l.z.l.k.l.S.k.k.d.5.3.,.2.4.,.4.P i a r r C C D L ( C R #.R D R H D D D _ _ e 7 9 > 6 6 9 I j ) ! r j t A I L p p L p S I L F S a a , - > > # < > 1 a 7 2 9 k t t = O # # # O # O O o o o o o # + o o + o o + O O o o o + + + # # ",
":.;.;._ _ X.@.X.X.,.X.X.X.X....... ...@.W W X.....X.X.X.X.*.,.I y r a t y A D C ~ D ~ #.I F ~ H D j D ~ ~ r 2 2 6 > > q I j _ ! r p y p L S t S K A K S S A S y a r - > ; $ % > 1 4 1 ; 2 k t r O O O # # % % > > ; # + o .     . X o # + # $ # o . . . X o o + ",
"7.5.7.6.8.,.,.,.,.,.<.,.,.3.2.X.@.T Y / X.%.X.X.@._ / @.%.%.<.K p y y 3 t C S S Y F ~ #.J J J H F C A ) ~ r 7 , > > > q F k ;.I r t p r S S S A S S L p S j A y a r < - < % @ > 9 3 , > 2 y y r O + # o X . X o & ; $ # # + o .     X X o o o # $ + o o X   . X ",
">.<.<.1.6.1.,.1.9.6.5.1.3.<.X.Y T b @.@.X./ T L E ( ) %.) / z q S t t , a A S G F F F #.~ ~ J H F y F ( R r > 7 9 > > r F k ) P r t y 9 a L K P G K A p p A p a V r - < - - @ ; , r , > 1 k k 1 O # # $ ; $ + o . . O + + X + o .   . X . + o # $ # # + X X .   ",
",.<.3.<.<.5.7.1.9.7.7.7.9.5.<./ T Y @.X.@.Y I Y ( / %.%.L z 0 9 p t t r r V A G H D D #.J #.J H D y L ~ R r < , > < > r P k _ F q t y t 1 p G S S G p j y S C a C 1 < < - $ # ; , 1 > , 1 k k 9 O O o $ $ $ $ # o . X # X X o X     o + o # @ @ @ @ o X .       ",
"_ X.*._ / W .._ W W W _ *.3.5.7.7.3.,.2.&.X.Y Y E @._ ~ E Y K 9 y 3 r 1 3 V C S D D D J J ~ H H A y A ~ R 1 < , > < % a D y _ G > y r y a r p y S S t C y G y a V 3 $ @ $ $ @ > , , > > 3 t t 1 O + # # + # + o + # + o o o . . . o # # % # @ + X .     . X X X ",
"X./ W  ._ X....._ .._ ..[ W ....X.,.3.4.5.3.X.Q / / @._ / ( %.z t r r 1 5 V V D D H A J ~ ~ H H C y A ~ L , ; , ; ; # t G a ~ K 2 t 1 t y r j y A C y y k G y r V 1 @ @ @ $ @ < : 1 < < 3 t y 2 O O # # # o # # # + + + o + o # $ $ @ + o X X       X o o # + o ",
"9.9.5.5.9.5.5.5.2.<.<.4.5.q.,.@.X./ Q Q _ *.X._ X.X.X.) #.) ,.j r r 3 3 3 y A D D D D A J J H A V y A ( F : < , ; % $ r D y ~ G 9 a r r r 3 y y K y y V y A a 3 Z : @ - @ @ + @ - 3 ; ; 1 t t 2 O & # # # # # + # # # # # o o o X X X X o + @ - - - ; - $ - @ $ ",
"H.z.E.b.H.z.E.E.z.z.z.z.z.z.z.9.k.5.3.2.4.3.*.*.%.,.2.*.,.,.,.S 2 t a 3 3 y V D D F D H J H H H V y S ~ F , - , - % # 3 S t ^ S t 3 r r a 3 p y S a y y y y a 3 a : @ $ @ @ + @ $ , ; % 2 t 4 > & # # # # o + o o O O X + + + + # $ - ; ; $ - # - $ $ @ - @ $ @ ",
"_ _ 3.5.3.5.9.n.n.n.z.z.z.z.z.H.D.E.!.!.W.E.S.z.5.5.<.,.*.X.,.z 2 r 3 , 5 a D D A D A D H D D H A y A ~ F < $ ; - # + y A k ) A t 3 3 1 3 a y y C r y y y y y 3 Z : $ - @ < + @ % , $ ; 1 k 4 ; O + O O o + # $ $ ; ; ; ; ; $ $ - # # # @ @ @ + @ + + + + + + + ",
"*.*.,.,.;.;._ _ _ *.,.*.,.4.*.3.3.4.5.k.k.k.k.k.n.z.z.9.q.9.9.G , r 1 , a 3 V D A D D A A A D H D y A ^ D - $ ; ; $ $ 4 j k J A r a 1 r a t y a y a y y y k 5 3 5 : @ - @ @ @ @ - 2 $ - 1 4 3 ; & & $ ; ; ; ; $ ; $ $ $ $ # # # # # # # + # # # @ @ # $ # # $ - ",
"3.<.2.,.3.,.,.3.,.;.*.q.5.q.q.4.,.3.*._ *.*..._ _ X.*.5.q.9.k.! : r : : 3 3 V V A A A A D A D D D 5 V ! A % - - $ & $ 4 k k ^ k r 4 1 a 3 a y a y 3 a a y A y : Z : @ - @ - @ @ % 2 $ - 2 5 5 : & $ # # # $ $ $ $ $ $ ; ; $ $ ; $ $ $ $ $ $ ; 2 : ; : : : : : : ",
"/ ! / _ ) _ ;.*.1.4.,.*.,.2.2.5.q.q.q.1.3.1.<.3.<.,.2.,.,.:.2.G , 3 : : : 3 V D H A A H A A H H A 5 V J y - ; % ; # % 3 k k ^ A r 4 2 r 1 r y a y 3 r a 5 D V 1 5 : @ $ @ $ @ o $ 2 $ : 3 3 3 : & 2 ; : 1 3 3 3 3 3 2 k 3 3 2 3 3 : : : : 2 2 2 1 : : : : : : : ",
"Q Q / ! / _ ) Q _ _ _ _ _ _ W ! / ;.*.;.*.3.,.5.9.q.<.q.9.q.q.G : 3 , : , 3 V D A k A A Z A A D A 3 V J y - - $ ; # $ 4 5 k ^ k 9 3 2 4 r r t r y 1 , a V A 5 3 3 3 @ @ @ @ o o $ ; # - : 3 3 - k k k k 5 3 3 1 2 2 2 2 2 2 2 ; : $ ; : $ ; $ ; - ; : : : : : ; ",
"^ ;.;.;.,.,.,.1.1.1.1.,.,.;.) ,.;._ :._ / ! / _ ) X.) _ X.) ,.j : 3 : : : 5 A A A A A A 5 Z D A A 5 Z J 4 - ; % $ # $ 4 3 k ~ y 1 1 : 3 3 3 a 3 a 3 3 a y A 5 1 5 : @ + @ $ + X $ - $ - - 3 : ; 2 2 : 2 : : : $ & 2 ; ; ; ; ; ; ; ; : ; ; 2 ; ; ; ; ; 2 ; : ; ; ",
"! _ ) ;.,.:.) ;.) ,.q.1.,.*.<.5.1.,.1.,.;.,.;._ X.) X._ _ ) X.k : 3 : 3 : 5 A A A A A A Z 5 A A A 3 A J 3 - $ $ $ o $ 4 5 4 ~ A 9 2 , 1 3 3 3 a a 1 5 V Z A 5 5 5 : @ + @ $ + + $ $ # - : 3 3 - $ - ; $ $ $ $ ; & ; ; 2 2 ; ; ; : ; ; ; 2 $ # # & ; & ; ; $ $ $ ",
";.) ) _ ;.;.,.;./ _ Q Q ) ;._ _ ,.,.;.,.,.:./ / ) #.) ,.) _ 2.t : 3 : : : 5 A A Z Z Z 5 Z Z A A A 3 Z J 3 - - # # o $ 3 3 5 ~ y 3 : : 2 1 3 3 y a 3 3 5 Z A 5 : 5 : + X @ $ @ X # # @ $ : 3 3 $ * : 2 2 ; 2 : 2 2 ; ; ; ; ; ; ; ; $ $ ; ; ; $ & $ $ $ ; ; 2 ; ; ",
"1.q.,.;.;.4.1.;.1.:.:.;.:.:._ ! _ _ ;.:._ ! / *.:.:.#./ ) ) *.k : : : : : 5 A A 5 Z A A Z Z Z A A 1 A J 3 - - + # + $ 3 2 4 ~ y , : : 1 : 1 5 3 5 : 5 V 5 Z 5 : 5 : @ X @ @ @ X @ @ @ - : 5 : $ > 2 2 3 1 2 3 2 2 ; ; ; ; 2 2 ; ; ; ; $ ; $ ; ; ; ; $ $ ; ; $ $ "
};
